P3
64 64
255
0 0 255 1 3 254 2 6 253 3 9 252 4 12 251 5 15 250 6 18 249 7 21 248 8 24 247 9 27 246 10 30 245 11 33 244 12 36 243 13 39 242 14 42 241 15 45 240 16 48 239 17 51 238 18 54 237 19 57 236 20 60 235 21 63 234 22 66 233 23 69 232 24 72 231 25 75 230 26 78 229 27 81 228 28 84 227 29 87 226 30 90 225 31 93 224 32 96 223 33 99 222 34 102 221 35 105 220 36 108 219 37 111 218 38 114 217 39 117 216 40 120 215 41 123 214 42 126 213 43 129 212 44 132 211 45 135 210 46 138 209 47 141 208 48 144 207 49 147 206 50 150 205 51 153 204 52 156 203 53 159 202 54 162 201 55 165 200 56 168 199 57 171 198 58 174 197 59 177 196 60 180 195 61 183 194 62 186 193 63 189 192
1 3 254 0 0 255 3 9 252 2 6 253 5 15 250 4 12 251 7 21 248 6 18 249 9 27 246 8 24 247 11 33 244 10 30 245 13 39 242 12 36 243 15 45 240 14 42 241 17 51 238 16 48 239 19 57 236 18 54 237 21 63 234 20 60 235 23 69 232 22 66 233 25 75 230 24 72 231 27 81 228 26 78 229 29 87 226 28 84 227 31 93 224 30 90 225 33 99 222 32 96 223 35 105 220 34 102 221 37 111 218 36 108 219 39 117 216 38 114 217 41 123 214 40 120 215 43 129 212 42 126 213 45 135 210 44 132 211 47 141 208 46 138 209 49 147 206 48 144 207 51 153 204 50 150 205 53 159 202 52 156 203 55 165 200 54 162 201 57 171 198 56 168 199 59 177 196 58 174 197 61 183 194 60 180 195 63 189 192 62 186 193
2 6 253 3 9 252 0 0 255 1 3 254 6 18 249 7 21 248 4 12 251 5 15 250 10 30 245 11 33 244 8 24 247 9 27 246 14 42 241 15 45 240 12 36 243 13 39 242 18 54 237 19 57 236 16 48 239 17 51 238 22 66 233 23 69 232 20 60 235 21 63 234 26 78 229 27 81 228 24 72 231 25 75 230 30 90 225 31 93 224 28 84 227 29 87 226 34 102 221 35 105 220 32 96 223 33 99 222 38 114 217 39 117 216 36 108 219 37 111 218 42 126 213 43 129 212 40 120 215 41 123 214 46 138 209 47 141 208 44 132 211 45 135 210 50 150 205 51 153 204 48 144 207 49 147 206 54 162 201 55 165 200 52 156 203 53 159 202 58 174 197 59 177 196 56 168 199 57 171 198 62 186 193 63 189 192 60 180 195 61 183 194
3 9 252 2 6 253 1 3 254 0 0 255 7 21 248 6 18 249 5 15 250 4 12 251 11 33 244 10 30 245 9 27 246 8 24 247 15 45 240 14 42 241 13 39 242 12 36 243 19 57 236 18 54 237 17 51 238 16 48 239 23 69 232 22 66 233 21 63 234 20 60 235 27 81 228 26 78 229 25 75 230 24 72 231 31 93 224 30 90 225 29 87 226 28 84 227 35 105 220 34 102 221 33 99 222 32 96 223 39 117 216 38 114 217 37 111 218 36 108 219 43 129 212 42 126 213 41 123 214 40 120 215 47 141 208 46 138 209 45 135 210 44 132 211 51 153 204 50 150 205 49 147 206 48 144 207 55 165 200 54 162 201 53 159 202 52 156 203 59 177 196 58 174 197 57 171 198 56 168 199 63 189 192 62 186 193 61 183 194 60 180 195
4 12 251 5 15 250 6 18 249 7 21 248 0 0 255 1 3 254 2 6 253 3 9 252 12 36 243 13 39 242 14 42 241 15 45 240 8 24 247 9 27 246 10 30 245 11 33 244 20 60 235 21 63 234 22 66 233 23 69 232 16 48 239 17 51 238 18 54 237 19 57 236 28 84 227 29 87 226 30 90 225 31 93 224 24 72 231 25 75 230 26 78 229 27 81 228 36 108 219 37 111 218 38 114 217 39 117 216 32 96 223 33 99 222 34 102 221 35 105 220 44 132 211 45 135 210 46 138 209 47 141 208 40 120 215 41 123 214 42 126 213 43 129 212 52 156 203 53 159 202 54 162 201 55 165 200 48 144 207 49 147 206 50 150 205 51 153 204 60 180 195 61 183 194 62 186 193 63 189 192 56 168 199 57 171 198 58 174 197 59 177 196
5 15 250 4 12 251 7 21 248 6 18 249 1 3 254 0 0 255 3 9 252 2 6 253 13 39 242 12 36 243 15 45 240 14 42 241 9 27 246 8 24 247 11 33 244 10 30 245 21 63 234 20 60 235 23 69 232 22 66 233 17 51 238 16 48 239 19 57 236 18 54 237 29 87 226 28 84 227 31 93 224 30 90 225 25 75 230 24 72 231 27 81 228 26 78 229 37 111 218 36 108 219 39 117 216 38 114 217 33 99 222 32 96 223 35 105 220 34 102 221 45 135 210 44 132 211 47 141 208 46 138 209 41 123 214 40 120 215 43 129 212 42 126 213 53 159 202 52 156 203 55 165 200 54 162 201 49 147 206 48 144 207 51 153 204 50 150 205 61 183 194 60 180 195 63 189 192 62 186 193 57 171 198 56 168 199 59 177 196 58 174 197
6 18 249 7 21 248 4 12 251 5 15 250 2 6 253 3 9 252 0 0 255 1 3 254 14 42 241 15 45 240 12 36 243 13 39 242 10 30 245 11 33 244 8 24 247 9 27 246 22 66 233 23 69 232 20 60 235 21 63 234 18 54 237 19 57 236 16 48 239 17 51 238 30 90 225 31 93 224 28 84 227 29 87 226 26 78 229 27 81 228 24 72 231 25 75 230 38 114 217 39 117 216 36 108 219 37 111 218 34 102 221 35 105 220 32 96 223 33 99 222 46 138 209 47 141 208 44 132 211 45 135 210 42 126 213 43 129 212 40 120 215 41 123 214 54 162 201 55 165 200 52 156 203 53 159 202 50 150 205 51 153 204 48 144 207 49 147 206 62 186 193 63 189 192 60 180 195 61 183 194 58 174 197 59 177 196 56 168 199 57 171 198
7 21 248 6 18 249 5 15 250 4 12 251 3 9 252 2 6 253 1 3 254 0 0 255 15 45 240 14 42 241 13 39 242 12 36 243 11 33 244 10 30 245 9 27 246 8 24 247 23 69 232 22 66 233 21 63 234 20 60 235 19 57 236 18 54 237 17 51 238 16 48 239 31 93 224 30 90 225 29 87 226 28 84 227 27 81 228 26 78 229 25 75 230 24 72 231 39 117 216 38 114 217 37 111 218 36 108 219 35 105 220 34 102 221 33 99 222 32 96 223 47 141 208 46 138 209 45 135 210 44 132 211 43 129 212 42 126 213 41 123 214 40 120 215 55 165 200 54 162 201 53 159 202 52 156 203 51 153 204 50 150 205 49 147 206 48 144 207 63 189 192 62 186 193 61 183 194 60 180 195 59 177 196 58 174 197 57 171 198 56 168 199
8 24 247 9 27 246 10 30 245 11 33 244 12 36 243 13 39 242 14 42 241 15 45 240 0 0 255 1 3 254 2 6 253 3 9 252 4 12 251 5 15 250 6 18 249 7 21 248 24 72 231 25 75 230 26 78 229 27 81 228 28 84 227 29 87 226 30 90 225 31 93 224 16 48 239 17 51 238 18 54 237 19 57 236 20 60 235 21 63 234 22 66 233 23 69 232 40 120 215 41 123 214 42 126 213 43 129 212 44 132 211 45 135 210 46 138 209 47 141 208 32 96 223 33 99 222 34 102 221 35 105 220 36 108 219 37 111 218 38 114 217 39 117 216 56 168 199 57 171 198 58 174 197 59 177 196 60 180 195 61 183 194 62 186 193 63 189 192 48 144 207 49 147 206 50 150 205 51 153 204 52 156 203 53 159 202 54 162 201 55 165 200
9 27 246 8 24 247 11 33 244 10 30 245 13 39 242 12 36 243 15 45 240 14 42 241 1 3 254 0 0 255 3 9 252 2 6 253 5 15 250 4 12 251 7 21 248 6 18 249 25 75 230 24 72 231 27 81 228 26 78 229 29 87 226 28 84 227 31 93 224 30 90 225 17 51 238 16 48 239 19 57 236 18 54 237 21 63 234 20 60 235 23 69 232 22 66 233 41 123 214 40 120 215 43 129 212 42 126 213 45 135 210 44 132 211 47 141 208 46 138 209 33 99 222 32 96 223 35 105 220 34 102 221 37 111 218 36 108 219 39 117 216 38 114 217 57 171 198 56 168 199 59 177 196 58 174 197 61 183 194 60 180 195 63 189 192 62 186 193 49 147 206 48 144 207 51 153 204 50 150 205 53 159 202 52 156 203 55 165 200 54 162 201
10 30 245 11 33 244 8 24 247 9 27 246 14 42 241 15 45 240 12 36 243 13 39 242 2 6 253 3 9 252 0 0 255 1 3 254 6 18 249 7 21 248 4 12 251 5 15 250 26 78 229 27 81 228 24 72 231 25 75 230 30 90 225 31 93 224 28 84 227 29 87 226 18 54 237 19 57 236 16 48 239 17 51 238 22 66 233 23 69 232 20 60 235 21 63 234 42 126 213 43 129 212 40 120 215 41 123 214 46 138 209 47 141 208 44 132 211 45 135 210 34 102 221 35 105 220 32 96 223 33 99 222 38 114 217 39 117 216 36 108 219 37 111 218 58 174 197 59 177 196 56 168 199 57 171 198 62 186 193 63 189 192 60 180 195 61 183 194 50 150 205 51 153 204 48 144 207 49 147 206 54 162 201 55 165 200 52 156 203 53 159 202
11 33 244 10 30 245 9 27 246 8 24 247 15 45 240 14 42 241 13 39 242 12 36 243 3 9 252 2 6 253 1 3 254 0 0 255 7 21 248 6 18 249 5 15 250 4 12 251 27 81 228 26 78 229 25 75 230 24 72 231 31 93 224 30 90 225 29 87 226 28 84 227 19 57 236 18 54 237 17 51 238 16 48 239 23 69 232 22 66 233 21 63 234 20 60 235 43 129 212 42 126 213 41 123 214 40 120 215 47 141 208 46 138 209 45 135 210 44 132 211 35 105 220 34 102 221 33 99 222 32 96 223 39 117 216 38 114 217 37 111 218 36 108 219 59 177 196 58 174 197 57 171 198 56 168 199 63 189 192 62 186 193 61 183 194 60 180 195 51 153 204 50 150 205 49 147 206 48 144 207 55 165 200 54 162 201 53 159 202 52 156 203
12 36 243 13 39 242 14 42 241 15 45 240 8 24 247 9 27 246 10 30 245 11 33 244 4 12 251 5 15 250 6 18 249 7 21 248 0 0 255 1 3 254 2 6 253 3 9 252 28 84 227 29 87 226 30 90 225 31 93 224 24 72 231 25 75 230 26 78 229 27 81 228 20 60 235 21 63 234 22 66 233 23 69 232 16 48 239 17 51 238 18 54 237 19 57 236 44 132 211 45 135 210 46 138 209 47 141 208 40 120 215 41 123 214 42 126 213 43 129 212 36 108 219 37 111 218 38 114 217 39 117 216 32 96 223 33 99 222 34 102 221 35 105 220 60 180 195 61 183 194 62 186 193 63 189 192 56 168 199 57 171 198 58 174 197 59 177 196 52 156 203 53 159 202 54 162 201 55 165 200 48 144 207 49 147 206 50 150 205 51 153 204
13 39 242 12 36 243 15 45 240 14 42 241 9 27 246 8 24 247 11 33 244 10 30 245 5 15 250 4 12 251 7 21 248 6 18 249 1 3 254 0 0 255 3 9 252 2 6 253 29 87 226 28 84 227 31 93 224 30 90 225 25 75 230 24 72 231 27 81 228 26 78 229 21 63 234 20 60 235 23 69 232 22 66 233 17 51 238 16 48 239 19 57 236 18 54 237 45 135 210 44 132 211 47 141 208 46 138 209 41 123 214 40 120 215 43 129 212 42 126 213 37 111 218 36 108 219 39 117 216 38 114 217 33 99 222 32 96 223 35 105 220 34 102 221 61 183 194 60 180 195 63 189 192 62 186 193 57 171 198 56 168 199 59 177 196 58 174 197 53 159 202 52 156 203 55 165 200 54 162 201 49 147 206 48 144 207 51 153 204 50 150 205
14 42 241 15 45 240 12 36 243 13 39 242 10 30 245 11 33 244 8 24 247 9 27 246 6 18 249 7 21 248 4 12 251 5 15 250 2 6 253 3 9 252 0 0 255 1 3 254 30 90 225 31 93 224 28 84 227 29 87 226 26 78 229 27 81 228 24 72 231 25 75 230 22 66 233 23 69 232 20 60 235 21 63 234 18 54 237 19 57 236 16 48 239 17 51 238 46 138 209 47 141 208 44 132 211 45 135 210 42 126 213 43 129 212 40 120 215 41 123 214 38 114 217 39 117 216 36 108 219 37 111 218 34 102 221 35 105 220 32 96 223 33 99 222 62 186 193 63 189 192 60 180 195 61 183 194 58 174 197 59 177 196 56 168 199 57 171 198 54 162 201 55 165 200 52 156 203 53 159 202 50 150 205 51 153 204 48 144 207 49 147 206
15 45 240 14 42 241 13 39 242 12 36 243 11 33 244 10 30 245 9 27 246 8 24 247 7 21 248 6 18 249 5 15 250 4 12 251 3 9 252 2 6 253 1 3 254 0 0 255 31 93 224 30 90 225 29 87 226 28 84 227 27 81 228 26 78 229 25 75 230 24 72 231 23 69 232 22 66 233 21 63 234 20 60 235 19 57 236 18 54 237 17 51 238 16 48 239 47 141 208 46 138 209 45 135 210 44 132 211 43 129 212 42 126 213 41 123 214 40 120 215 39 117 216 38 114 217 37 111 218 36 108 219 35 105 220 34 102 221 33 99 222 32 96 223 63 189 192 62 186 193 61 183 194 60 180 195 59 177 196 58 174 197 57 171 198 56 168 199 55 165 200 54 162 201 53 159 202 52 156 203 51 153 204 50 150 205 49 147 206 48 144 207
16 48 239 17 51 238 18 54 237 19 57 236 20 60 235 21 63 234 22 66 233 23 69 232 24 72 231 25 75 230 26 78 229 27 81 228 28 84 227 29 87 226 30 90 225 31 93 224 0 0 255 1 3 254 2 6 253 3 9 252 4 12 251 5 15 250 6 18 249 7 21 248 8 24 247 9 27 246 10 30 245 11 33 244 12 36 243 13 39 242 14 42 241 15 45 240 48 144 207 49 147 206 50 150 205 51 153 204 52 156 203 53 159 202 54 162 201 55 165 200 56 168 199 57 171 198 58 174 197 59 177 196 60 180 195 61 183 194 62 186 193 63 189 192 32 96 223 33 99 222 34 102 221 35 105 220 36 108 219 37 111 218 38 114 217 39 117 216 40 120 215 41 123 214 42 126 213 43 129 212 44 132 211 45 135 210 46 138 209 47 141 208
17 51 238 16 48 239 19 57 236 18 54 237 21 63 234 20 60 235 23 69 232 22 66 233 25 75 230 24 72 231 27 81 228 26 78 229 29 87 226 28 84 227 31 93 224 30 90 225 1 3 254 0 0 255 3 9 252 2 6 253 5 15 250 4 12 251 7 21 248 6 18 249 9 27 246 8 24 247 11 33 244 10 30 245 13 39 242 12 36 243 15 45 240 14 42 241 49 147 206 48 144 207 51 153 204 50 150 205 53 159 202 52 156 203 55 165 200 54 162 201 57 171 198 56 168 199 59 177 196 58 174 197 61 183 194 60 180 195 63 189 192 62 186 193 33 99 222 32 96 223 35 105 220 34 102 221 37 111 218 36 108 219 39 117 216 38 114 217 41 123 214 40 120 215 43 129 212 42 126 213 45 135 210 44 132 211 47 141 208 46 138 209
18 54 237 19 57 236 16 48 239 17 51 238 22 66 233 23 69 232 20 60 235 21 63 234 26 78 229 27 81 228 24 72 231 25 75 230 30 90 225 31 93 224 28 84 227 29 87 226 2 6 253 3 9 252 0 0 255 1 3 254 6 18 249 7 21 248 4 12 251 5 15 250 10 30 245 11 33 244 8 24 247 9 27 246 14 42 241 15 45 240 12 36 243 13 39 242 50 150 205 51 153 204 48 144 207 49 147 206 54 162 201 55 165 200 52 156 203 53 159 202 58 174 197 59 177 196 56 168 199 57 171 198 62 186 193 63 189 192 60 180 195 61 183 194 34 102 221 35 105 220 32 96 223 33 99 222 38 114 217 39 117 216 36 108 219 37 111 218 42 126 213 43 129 212 40 120 215 41 123 214 46 138 209 47 141 208 44 132 211 45 135 210
19 57 236 18 54 237 17 51 238 16 48 239 23 69 232 22 66 233 21 63 234 20 60 235 27 81 228 26 78 229 25 75 230 24 72 231 31 93 224 30 90 225 29 87 226 28 84 227 3 9 252 2 6 253 1 3 254 0 0 255 7 21 248 6 18 249 5 15 250 4 12 251 11 33 244 10 30 245 9 27 246 8 24 247 15 45 240 14 42 241 13 39 242 12 36 243 51 153 204 50 150 205 49 147 206 48 144 207 55 165 200 54 162 201 53 159 202 52 156 203 59 177 196 58 174 197 57 171 198 56 168 199 63 189 192 62 186 193 61 183 194 60 180 195 35 105 220 34 102 221 33 99 222 32 96 223 39 117 216 38 114 217 37 111 218 36 108 219 43 129 212 42 126 213 41 123 214 40 120 215 47 141 208 46 138 209 45 135 210 44 132 211
20 60 235 21 63 234 22 66 233 23 69 232 16 48 239 17 51 238 18 54 237 19 57 236 28 84 227 29 87 226 30 90 225 31 93 224 24 72 231 25 75 230 26 78 229 27 81 228 4 12 251 5 15 250 6 18 249 7 21 248 0 0 255 1 3 254 2 6 253 3 9 252 12 36 243 13 39 242 14 42 241 15 45 240 8 24 247 9 27 246 10 30 245 11 33 244 52 156 203 53 159 202 54 162 201 55 165 200 48 144 207 49 147 206 50 150 205 51 153 204 60 180 195 61 183 194 62 186 193 63 189 192 56 168 199 57 171 198 58 174 197 59 177 196 36 108 219 37 111 218 38 114 217 39 117 216 32 96 223 33 99 222 34 102 221 35 105 220 44 132 211 45 135 210 46 138 209 47 141 208 40 120 215 41 123 214 42 126 213 43 129 212
21 63 234 20 60 235 23 69 232 22 66 233 17 51 238 16 48 239 19 57 236 18 54 237 29 87 226 28 84 227 31 93 224 30 90 225 25 75 230 24 72 231 27 81 228 26 78 229 5 15 250 4 12 251 7 21 248 6 18 249 1 3 254 0 0 255 3 9 252 2 6 253 13 39 242 12 36 243 15 45 240 14 42 241 9 27 246 8 24 247 11 33 244 10 30 245 53 159 202 52 156 203 55 165 200 54 162 201 49 147 206 48 144 207 51 153 204 50 150 205 61 183 194 60 180 195 63 189 192 62 186 193 57 171 198 56 168 199 59 177 196 58 174 197 37 111 218 36 108 219 39 117 216 38 114 217 33 99 222 32 96 223 35 105 220 34 102 221 45 135 210 44 132 211 47 141 208 46 138 209 41 123 214 40 120 215 43 129 212 42 126 213
22 66 233 23 69 232 20 60 235 21 63 234 18 54 237 19 57 236 16 48 239 17 51 238 30 90 225 31 93 224 28 84 227 29 87 226 26 78 229 27 81 228 24 72 231 25 75 230 6 18 249 7 21 248 4 12 251 5 15 250 2 6 253 3 9 252 0 0 255 1 3 254 14 42 241 15 45 240 12 36 243 13 39 242 10 30 245 11 33 244 8 24 247 9 27 246 54 162 201 55 165 200 52 156 203 53 159 202 50 150 205 51 153 204 48 144 207 49 147 206 62 186 193 63 189 192 60 180 195 61 183 194 58 174 197 59 177 196 56 168 199 57 171 198 38 114 217 39 117 216 36 108 219 37 111 218 34 102 221 35 105 220 32 96 223 33 99 222 46 138 209 47 141 208 44 132 211 45 135 210 42 126 213 43 129 212 40 120 215 41 123 214
23 69 232 22 66 233 21 63 234 20 60 235 19 57 236 18 54 237 17 51 238 16 48 239 31 93 224 30 90 225 29 87 226 28 84 227 27 81 228 26 78 229 25 75 230 24 72 231 7 21 248 6 18 249 5 15 250 4 12 251 3 9 252 2 6 253 1 3 254 0 0 255 15 45 240 14 42 241 13 39 242 12 36 243 11 33 244 10 30 245 9 27 246 8 24 247 55 165 200 54 162 201 53 159 202 52 156 203 51 153 204 50 150 205 49 147 206 48 144 207 63 189 192 62 186 193 61 183 194 60 180 195 59 177 196 58 174 197 57 171 198 56 168 199 39 117 216 38 114 217 37 111 218 36 108 219 35 105 220 34 102 221 33 99 222 32 96 223 47 141 208 46 138 209 45 135 210 44 132 211 43 129 212 42 126 213 41 123 214 40 120 215
24 72 231 25 75 230 26 78 229 27 81 228 28 84 227 29 87 226 30 90 225 31 93 224 16 48 239 17 51 238 18 54 237 19 57 236 20 60 235 21 63 234 22 66 233 23 69 232 8 24 247 9 27 246 10 30 245 11 33 244 12 36 243 13 39 242 14 42 241 15 45 240 0 0 255 1 3 254 2 6 253 3 9 252 4 12 251 5 15 250 6 18 249 7 21 248 56 168 199 57 171 198 58 174 197 59 177 196 60 180 195 61 183 194 62 186 193 63 189 192 48 144 207 49 147 206 50 150 205 51 153 204 52 156 203 53 159 202 54 162 201 55 165 200 40 120 215 41 123 214 42 126 213 43 129 212 44 132 211 45 135 210 46 138 209 47 141 208 32 96 223 33 99 222 34 102 221 35 105 220 36 108 219 37 111 218 38 114 217 39 117 216
25 75 230 24 72 231 27 81 228 26 78 229 29 87 226 28 84 227 31 93 224 30 90 225 17 51 238 16 48 239 19 57 236 18 54 237 21 63 234 20 60 235 23 69 232 22 66 233 9 27 246 8 24 247 11 33 244 10 30 245 13 39 242 12 36 243 15 45 240 14 42 241 1 3 254 0 0 255 3 9 252 2 6 253 5 15 250 4 12 251 7 21 248 6 18 249 57 171 198 56 168 199 59 177 196 58 174 197 61 183 194 60 180 195 63 189 192 62 186 193 49 147 206 48 144 207 51 153 204 50 150 205 53 159 202 52 156 203 55 165 200 54 162 201 41 123 214 40 120 215 43 129 212 42 126 213 45 135 210 44 132 211 47 141 208 46 138 209 33 99 222 32 96 223 35 105 220 34 102 221 37 111 218 36 108 219 39 117 216 38 114 217
26 78 229 27 81 228 24 72 231 25 75 230 30 90 225 31 93 224 28 84 227 29 87 226 18 54 237 19 57 236 16 48 239 17 51 238 22 66 233 23 69 232 20 60 235 21 63 234 10 30 245 11 33 244 8 24 247 9 27 246 14 42 241 15 45 240 12 36 243 13 39 242 2 6 253 3 9 252 0 0 255 1 3 254 6 18 249 7 21 248 4 12 251 5 15 250 58 174 197 59 177 196 56 168 199 57 171 198 62 186 193 63 189 192 60 180 195 61 183 194 50 150 205 51 153 204 48 144 207 49 147 206 54 162 201 55 165 200 52 156 203 53 159 202 42 126 213 43 129 212 40 120 215 41 123 214 46 138 209 47 141 208 44 132 211 45 135 210 34 102 221 35 105 220 32 96 223 33 99 222 38 114 217 39 117 216 36 108 219 37 111 218
27 81 228 26 78 229 25 75 230 24 72 231 31 93 224 30 90 225 29 87 226 28 84 227 19 57 236 18 54 237 17 51 238 16 48 239 23 69 232 22 66 233 21 63 234 20 60 235 11 33 244 10 30 245 9 27 246 8 24 247 15 45 240 14 42 241 13 39 242 12 36 243 3 9 252 2 6 253 1 3 254 0 0 255 7 21 248 6 18 249 5 15 250 4 12 251 59 177 196 58 174 197 57 171 198 56 168 199 63 189 192 62 186 193 61 183 194 60 180 195 51 153 204 50 150 205 49 147 206 48 144 207 55 165 200 54 162 201 53 159 202 52 156 203 43 129 212 42 126 213 41 123 214 40 120 215 47 141 208 46 138 209 45 135 210 44 132 211 35 105 220 34 102 221 33 99 222 32 96 223 39 117 216 38 114 217 37 111 218 36 108 219
28 84 227 29 87 226 30 90 225 31 93 224 24 72 231 25 75 230 26 78 229 27 81 228 20 60 235 21 63 234 22 66 233 23 69 232 16 48 239 17 51 238 18 54 237 19 57 236 12 36 243 13 39 242 14 42 241 15 45 240 8 24 247 9 27 246 10 30 245 11 33 244 4 12 251 5 15 250 6 18 249 7 21 248 0 0 255 1 3 254 2 6 253 3 9 252 60 180 195 61 183 194 62 186 193 63 189 192 56 168 199 57 171 198 58 174 197 59 177 196 52 156 203 53 159 202 54 162 201 55 165 200 48 144 207 49 147 206 50 150 205 51 153 204 44 132 211 45 135 210 46 138 209 47 141 208 40 120 215 41 123 214 42 126 213 43 129 212 36 108 219 37 111 218 38 114 217 39 117 216 32 96 223 33 99 222 34 102 221 35 105 220
29 87 226 28 84 227 31 93 224 30 90 225 25 75 230 24 72 231 27 81 228 26 78 229 21 63 234 20 60 235 23 69 232 22 66 233 17 51 238 16 48 239 19 57 236 18 54 237 13 39 242 12 36 243 15 45 240 14 42 241 9 27 246 8 24 247 11 33 244 10 30 245 5 15 250 4 12 251 7 21 248 6 18 249 1 3 254 0 0 255 3 9 252 2 6 253 61 183 194 60 180 195 63 189 192 62 186 193 57 171 198 56 168 199 59 177 196 58 174 197 53 159 202 52 156 203 55 165 200 54 162 201 49 147 206 48 144 207 51 153 204 50 150 205 45 135 210 44 132 211 47 141 208 46 138 209 41 123 214 40 120 215 43 129 212 42 126 213 37 111 218 36 108 219 39 117 216 38 114 217 33 99 222 32 96 223 35 105 220 34 102 221
30 90 225 31 93 224 28 84 227 29 87 226 26 78 229 27 81 228 24 72 231 25 75 230 22 66 233 23 69 232 20 60 235 21 63 234 18 54 237 19 57 236 16 48 239 17 51 238 14 42 241 15 45 240 12 36 243 13 39 242 10 30 245 11 33 244 8 24 247 9 27 246 6 18 249 7 21 248 4 12 251 5 15 250 2 6 253 3 9 252 0 0 255 1 3 254 62 186 193 63 189 192 60 180 195 61 183 194 58 174 197 59 177 196 56 168 199 57 171 198 54 162 201 55 165 200 52 156 203 53 159 202 50 150 205 51 153 204 48 144 207 49 147 206 46 138 209 47 141 208 44 132 211 45 135 210 42 126 213 43 129 212 40 120 215 41 123 214 38 114 217 39 117 216 36 108 219 37 111 218 34 102 221 35 105 220 32 96 223 33 99 222
31 93 224 30 90 225 29 87 226 28 84 227 27 81 228 26 78 229 25 75 230 24 72 231 23 69 232 22 66 233 21 63 234 20 60 235 19 57 236 18 54 237 17 51 238 16 48 239 15 45 240 14 42 241 13 39 242 12 36 243 11 33 244 10 30 245 9 27 246 8 24 247 7 21 248 6 18 249 5 15 250 4 12 251 3 9 252 2 6 253 1 3 254 0 0 255 63 189 192 62 186 193 61 183 194 60 180 195 59 177 196 58 174 197 57 171 198 56 168 199 55 165 200 54 162 201 53 159 202 52 156 203 51 153 204 50 150 205 49 147 206 48 144 207 47 141 208 46 138 209 45 135 210 44 132 211 43 129 212 42 126 213 41 123 214 40 120 215 39 117 216 38 114 217 37 111 218 36 108 219 35 105 220 34 102 221 33 99 222 32 96 223
32 96 223 33 99 222 34 102 221 35 105 220 36 108 219 37 111 218 38 114 217 39 117 216 40 120 215 41 123 214 42 126 213 43 129 212 44 132 211 45 135 210 46 138 209 47 141 208 48 144 207 49 147 206 50 150 205 51 153 204 52 156 203 53 159 202 54 162 201 55 165 200 56 168 199 57 171 198 58 174 197 59 177 196 60 180 195 61 183 194 62 186 193 63 189 192 0 0 255 1 3 254 2 6 253 3 9 252 4 12 251 5 15 250 6 18 249 7 21 248 8 24 247 9 27 246 10 30 245 11 33 244 12 36 243 13 39 242 14 42 241 15 45 240 16 48 239 17 51 238 18 54 237 19 57 236 20 60 235 21 63 234 22 66 233 23 69 232 24 72 231 25 75 230 26 78 229 27 81 228 28 84 227 29 87 226 30 90 225 31 93 224
33 99 222 32 96 223 35 105 220 34 102 221 37 111 218 36 108 219 39 117 216 38 114 217 41 123 214 40 120 215 43 129 212 42 126 213 45 135 210 44 132 211 47 141 208 46 138 209 49 147 206 48 144 207 51 153 204 50 150 205 53 159 202 52 156 203 55 165 200 54 162 201 57 171 198 56 168 199 59 177 196 58 174 197 61 183 194 60 180 195 63 189 192 62 186 193 1 3 254 0 0 255 3 9 252 2 6 253 5 15 250 4 12 251 7 21 248 6 18 249 9 27 246 8 24 247 11 33 244 10 30 245 13 39 242 12 36 243 15 45 240 14 42 241 17 51 238 16 48 239 19 57 236 18 54 237 21 63 234 20 60 235 23 69 232 22 66 233 25 75 230 24 72 231 27 81 228 26 78 229 29 87 226 28 84 227 31 93 224 30 90 225
34 102 221 35 105 220 32 96 223 33 99 222 38 114 217 39 117 216 36 108 219 37 111 218 42 126 213 43 129 212 40 120 215 41 123 214 46 138 209 47 141 208 44 132 211 45 135 210 50 150 205 51 153 204 48 144 207 49 147 206 54 162 201 55 165 200 52 156 203 53 159 202 58 174 197 59 177 196 56 168 199 57 171 198 62 186 193 63 189 192 60 180 195 61 183 194 2 6 253 3 9 252 0 0 255 1 3 254 6 18 249 7 21 248 4 12 251 5 15 250 10 30 245 11 33 244 8 24 247 9 27 246 14 42 241 15 45 240 12 36 243 13 39 242 18 54 237 19 57 236 16 48 239 17 51 238 22 66 233 23 69 232 20 60 235 21 63 234 26 78 229 27 81 228 24 72 231 25 75 230 30 90 225 31 93 224 28 84 227 29 87 226
35 105 220 34 102 221 33 99 222 32 96 223 39 117 216 38 114 217 37 111 218 36 108 219 43 129 212 42 126 213 41 123 214 40 120 215 47 141 208 46 138 209 45 135 210 44 132 211 51 153 204 50 150 205 49 147 206 48 144 207 55 165 200 54 162 201 53 159 202 52 156 203 59 177 196 58 174 197 57 171 198 56 168 199 63 189 192 62 186 193 61 183 194 60 180 195 3 9 252 2 6 253 1 3 254 0 0 255 7 21 248 6 18 249 5 15 250 4 12 251 11 33 244 10 30 245 9 27 246 8 24 247 15 45 240 14 42 241 13 39 242 12 36 243 19 57 236 18 54 237 17 51 238 16 48 239 23 69 232 22 66 233 21 63 234 20 60 235 27 81 228 26 78 229 25 75 230 24 72 231 31 93 224 30 90 225 29 87 226 28 84 227
36 108 219 37 111 218 38 114 217 39 117 216 32 96 223 33 99 222 34 102 221 35 105 220 44 132 211 45 135 210 46 138 209 47 141 208 40 120 215 41 123 214 42 126 213 43 129 212 52 156 203 53 159 202 54 162 201 55 165 200 48 144 207 49 147 206 50 150 205 51 153 204 60 180 195 61 183 194 62 186 193 63 189 192 56 168 199 57 171 198 58 174 197 59 177 196 4 12 251 5 15 250 6 18 249 7 21 248 0 0 255 1 3 254 2 6 253 3 9 252 12 36 243 13 39 242 14 42 241 15 45 240 8 24 247 9 27 246 10 30 245 11 33 244 20 60 235 21 63 234 22 66 233 23 69 232 16 48 239 17 51 238 18 54 237 19 57 236 28 84 227 29 87 226 30 90 225 31 93 224 24 72 231 25 75 230 26 78 229 27 81 228
37 111 218 36 108 219 39 117 216 38 114 217 33 99 222 32 96 223 35 105 220 34 102 221 45 135 210 44 132 211 47 141 208 46 138 209 41 123 214 40 120 215 43 129 212 42 126 213 53 159 202 52 156 203 55 165 200 54 162 201 49 147 206 48 144 207 51 153 204 50 150 205 61 183 194 60 180 195 63 189 192 62 186 193 57 171 198 56 168 199 59 177 196 58 174 197 5 15 250 4 12 251 7 21 248 6 18 249 1 3 254 0 0 255 3 9 252 2 6 253 13 39 242 12 36 243 15 45 240 14 42 241 9 27 246 8 24 247 11 33 244 10 30 245 21 63 234 20 60 235 23 69 232 22 66 233 17 51 238 16 48 239 19 57 236 18 54 237 29 87 226 28 84 227 31 93 224 30 90 225 25 75 230 24 72 231 27 81 228 26 78 229
38 114 217 39 117 216 36 108 219 37 111 218 34 102 221 35 105 220 32 96 223 33 99 222 46 138 209 47 141 208 44 132 211 45 135 210 42 126 213 43 129 212 40 120 215 41 123 214 54 162 201 55 165 200 52 156 203 53 159 202 50 150 205 51 153 204 48 144 207 49 147 206 62 186 193 63 189 192 60 180 195 61 183 194 58 174 197 59 177 196 56 168 199 57 171 198 6 18 249 7 21 248 4 12 251 5 15 250 2 6 253 3 9 252 0 0 255 1 3 254 14 42 241 15 45 240 12 36 243 13 39 242 10 30 245 11 33 244 8 24 247 9 27 246 22 66 233 23 69 232 20 60 235 21 63 234 18 54 237 19 57 236 16 48 239 17 51 238 30 90 225 31 93 224 28 84 227 29 87 226 26 78 229 27 81 228 24 72 231 25 75 230
39 117 216 38 114 217 37 111 218 36 108 219 35 105 220 34 102 221 33 99 222 32 96 223 47 141 208 46 138 209 45 135 210 44 132 211 43 129 212 42 126 213 41 123 214 40 120 215 55 165 200 54 162 201 53 159 202 52 156 203 51 153 204 50 150 205 49 147 206 48 144 207 63 189 192 62 186 193 61 183 194 60 180 195 59 177 196 58 174 197 57 171 198 56 168 199 7 21 248 6 18 249 5 15 250 4 12 251 3 9 252 2 6 253 1 3 254 0 0 255 15 45 240 14 42 241 13 39 242 12 36 243 11 33 244 10 30 245 9 27 246 8 24 247 23 69 232 22 66 233 21 63 234 20 60 235 19 57 236 18 54 237 17 51 238 16 48 239 31 93 224 30 90 225 29 87 226 28 84 227 27 81 228 26 78 229 25 75 230 24 72 231
40 120 215 41 123 214 42 126 213 43 129 212 44 132 211 45 135 210 46 138 209 47 141 208 32 96 223 33 99 222 34 102 221 35 105 220 36 108 219 37 111 218 38 114 217 39 117 216 56 168 199 57 171 198 58 174 197 59 177 196 60 180 195 61 183 194 62 186 193 63 189 192 48 144 207 49 147 206 50 150 205 51 153 204 52 156 203 53 159 202 54 162 201 55 165 200 8 24 247 9 27 246 10 30 245 11 33 244 12 36 243 13 39 242 14 42 241 15 45 240 0 0 255 1 3 254 2 6 253 3 9 252 4 12 251 5 15 250 6 18 249 7 21 248 24 72 231 25 75 230 26 78 229 27 81 228 28 84 227 29 87 226 30 90 225 31 93 224 16 48 239 17 51 238 18 54 237 19 57 236 20 60 235 21 63 234 22 66 233 23 69 232
41 123 214 40 120 215 43 129 212 42 126 213 45 135 210 44 132 211 47 141 208 46 138 209 33 99 222 32 96 223 35 105 220 34 102 221 37 111 218 36 108 219 39 117 216 38 114 217 57 171 198 56 168 199 59 177 196 58 174 197 61 183 194 60 180 195 63 189 192 62 186 193 49 147 206 48 144 207 51 153 204 50 150 205 53 159 202 52 156 203 55 165 200 54 162 201 9 27 246 8 24 247 11 33 244 10 30 245 13 39 242 12 36 243 15 45 240 14 42 241 1 3 254 0 0 255 3 9 252 2 6 253 5 15 250 4 12 251 7 21 248 6 18 249 25 75 230 24 72 231 27 81 228 26 78 229 29 87 226 28 84 227 31 93 224 30 90 225 17 51 238 16 48 239 19 57 236 18 54 237 21 63 234 20 60 235 23 69 232 22 66 233
42 126 213 43 129 212 40 120 215 41 123 214 46 138 209 47 141 208 44 132 211 45 135 210 34 102 221 35 105 220 32 96 223 33 99 222 38 114 217 39 117 216 36 108 219 37 111 218 58 174 197 59 177 196 56 168 199 57 171 198 62 186 193 63 189 192 60 180 195 61 183 194 50 150 205 51 153 204 48 144 207 49 147 206 54 162 201 55 165 200 52 156 203 53 159 202 10 30 245 11 33 244 8 24 247 9 27 246 14 42 241 15 45 240 12 36 243 13 39 242 2 6 253 3 9 252 0 0 255 1 3 254 6 18 249 7 21 248 4 12 251 5 15 250 26 78 229 27 81 228 24 72 231 25 75 230 30 90 225 31 93 224 28 84 227 29 87 226 18 54 237 19 57 236 16 48 239 17 51 238 22 66 233 23 69 232 20 60 235 21 63 234
43 129 212 42 126 213 41 123 214 40 120 215 47 141 208 46 138 209 45 135 210 44 132 211 35 105 220 34 102 221 33 99 222 32 96 223 39 117 216 38 114 217 37 111 218 36 108 219 59 177 196 58 174 197 57 171 198 56 168 199 63 189 192 62 186 193 61 183 194 60 180 195 51 153 204 50 150 205 49 147 206 48 144 207 55 165 200 54 162 201 53 159 202 52 156 203 11 33 244 10 30 245 9 27 246 8 24 247 15 45 240 14 42 241 13 39 242 12 36 243 3 9 252 2 6 253 1 3 254 0 0 255 7 21 248 6 18 249 5 15 250 4 12 251 27 81 228 26 78 229 25 75 230 24 72 231 31 93 224 30 90 225 29 87 226 28 84 227 19 57 236 18 54 237 17 51 238 16 48 239 23 69 232 22 66 233 21 63 234 20 60 235
44 132 211 45 135 210 46 138 209 47 141 208 40 120 215 41 123 214 42 126 213 43 129 212 36 108 219 37 111 218 38 114 217 39 117 216 32 96 223 33 99 222 34 102 221 35 105 220 60 180 195 61 183 194 62 186 193 63 189 192 56 168 199 57 171 198 58 174 197 59 177 196 52 156 203 53 159 202 54 162 201 55 165 200 48 144 207 49 147 206 50 150 205 51 153 204 12 36 243 13 39 242 14 42 241 15 45 240 8 24 247 9 27 246 10 30 245 11 33 244 4 12 251 5 15 250 6 18 249 7 21 248 0 0 255 1 3 254 2 6 253 3 9 252 28 84 227 29 87 226 30 90 225 31 93 224 24 72 231 25 75 230 26 78 229 27 81 228 20 60 235 21 63 234 22 66 233 23 69 232 16 48 239 17 51 238 18 54 237 19 57 236
45 135 210 44 132 211 47 141 208 46 138 209 41 123 214 40 120 215 43 129 212 42 126 213 37 111 218 36 108 219 39 117 216 38 114 217 33 99 222 32 96 223 35 105 220 34 102 221 61 183 194 60 180 195 63 189 192 62 186 193 57 171 198 56 168 199 59 177 196 58 174 197 53 159 202 52 156 203 55 165 200 54 162 201 49 147 206 48 144 207 51 153 204 50 150 205 13 39 242 12 36 243 15 45 240 14 42 241 9 27 246 8 24 247 11 33 244 10 30 245 5 15 250 4 12 251 7 21 248 6 18 249 1 3 254 0 0 255 3 9 252 2 6 253 29 87 226 28 84 227 31 93 224 30 90 225 25 75 230 24 72 231 27 81 228 26 78 229 21 63 234 20 60 235 23 69 232 22 66 233 17 51 238 16 48 239 19 57 236 18 54 237
46 138 209 47 141 208 44 132 211 45 135 210 42 126 213 43 129 212 40 120 215 41 123 214 38 114 217 39 117 216 36 108 219 37 111 218 34 102 221 35 105 220 32 96 223 33 99 222 62 186 193 63 189 192 60 180 195 61 183 194 58 174 197 59 177 196 56 168 199 57 171 198 54 162 201 55 165 200 52 156 203 53 159 202 50 150 205 51 153 204 48 144 207 49 147 206 14 42 241 15 45 240 12 36 243 13 39 242 10 30 245 11 33 244 8 24 247 9 27 246 6 18 249 7 21 248 4 12 251 5 15 250 2 6 253 3 9 252 0 0 255 1 3 254 30 90 225 31 93 224 28 84 227 29 87 226 26 78 229 27 81 228 24 72 231 25 75 230 22 66 233 23 69 232 20 60 235 21 63 234 18 54 237 19 57 236 16 48 239 17 51 238
47 141 208 46 138 209 45 135 210 44 132 211 43 129 212 42 126 213 41 123 214 40 120 215 39 117 216 38 114 217 37 111 218 36 108 219 35 105 220 34 102 221 33 99 222 32 96 223 63 189 192 62 186 193 61 183 194 60 180 195 59 177 196 58 174 197 57 171 198 56 168 199 55 165 200 54 162 201 53 159 202 52 156 203 51 153 204 50 150 205 49 147 206 48 144 207 15 45 240 14 42 241 13 39 242 12 36 243 11 33 244 10 30 245 9 27 246 8 24 247 7 21 248 6 18 249 5 15 250 4 12 251 3 9 252 2 6 253 1 3 254 0 0 255 31 93 224 30 90 225 29 87 226 28 84 227 27 81 228 26 78 229 25 75 230 24 72 231 23 69 232 22 66 233 21 63 234 20 60 235 19 57 236 18 54 237 17 51 238 16 48 239
48 144 207 49 147 206 50 150 205 51 153 204 52 156 203 53 159 202 54 162 201 55 165 200 56 168 199 57 171 198 58 174 197 59 177 196 60 180 195 61 183 194 62 186 193 63 189 192 32 96 223 33 99 222 34 102 221 35 105 220 36 108 219 37 111 218 38 114 217 39 117 216 40 120 215 41 123 214 42 126 213 43 129 212 44 132 211 45 135 210 46 138 209 47 141 208 16 48 239 17 51 238 18 54 237 19 57 236 20 60 235 21 63 234 22 66 233 23 69 232 24 72 231 25 75 230 26 78 229 27 81 228 28 84 227 29 87 226 30 90 225 31 93 224 0 0 255 1 3 254 2 6 253 3 9 252 4 12 251 5 15 250 6 18 249 7 21 248 8 24 247 9 27 246 10 30 245 11 33 244 12 36 243 13 39 242 14 42 241 15 45 240
49 147 206 48 144 207 51 153 204 50 150 205 53 159 202 52 156 203 55 165 200 54 162 201 57 171 198 56 168 199 59 177 196 58 174 197 61 183 194 60 180 195 63 189 192 62 186 193 33 99 222 32 96 223 35 105 220 34 102 221 37 111 218 36 108 219 39 117 216 38 114 217 41 123 214 40 120 215 43 129 212 42 126 213 45 135 210 44 132 211 47 141 208 46 138 209 17 51 238 16 48 239 19 57 236 18 54 237 21 63 234 20 60 235 23 69 232 22 66 233 25 75 230 24 72 231 27 81 228 26 78 229 29 87 226 28 84 227 31 93 224 30 90 225 1 3 254 0 0 255 3 9 252 2 6 253 5 15 250 4 12 251 7 21 248 6 18 249 9 27 246 8 24 247 11 33 244 10 30 245 13 39 242 12 36 243 15 45 240 14 42 241
50 150 205 51 153 204 48 144 207 49 147 206 54 162 201 55 165 200 52 156 203 53 159 202 58 174 197 59 177 196 56 168 199 57 171 198 62 186 193 63 189 192 60 180 195 61 183 194 34 102 221 35 105 220 32 96 223 33 99 222 38 114 217 39 117 216 36 108 219 37 111 218 42 126 213 43 129 212 40 120 215 41 123 214 46 138 209 47 141 208 44 132 211 45 135 210 18 54 237 19 57 236 16 48 239 17 51 238 22 66 233 23 69 232 20 60 235 21 63 234 26 78 229 27 81 228 24 72 231 25 75 230 30 90 225 31 93 224 28 84 227 29 87 226 2 6 253 3 9 252 0 0 255 1 3 254 6 18 249 7 21 248 4 12 251 5 15 250 10 30 245 11 33 244 8 24 247 9 27 246 14 42 241 15 45 240 12 36 243 13 39 242
51 153 204 50 150 205 49 147 206 48 144 207 55 165 200 54 162 201 53 159 202 52 156 203 59 177 196 58 174 197 57 171 198 56 168 199 63 189 192 62 186 193 61 183 194 60 180 195 35 105 220 34 102 221 33 99 222 32 96 223 39 117 216 38 114 217 37 111 218 36 108 219 43 129 212 42 126 213 41 123 214 40 120 215 47 141 208 46 138 209 45 135 210 44 132 211 19 57 236 18 54 237 17 51 238 16 48 239 23 69 232 22 66 233 21 63 234 20 60 235 27 81 228 26 78 229 25 75 230 24 72 231 31 93 224 30 90 225 29 87 226 28 84 227 3 9 252 2 6 253 1 3 254 0 0 255 7 21 248 6 18 249 5 15 250 4 12 251 11 33 244 10 30 245 9 27 246 8 24 247 15 45 240 14 42 241 13 39 242 12 36 243
52 156 203 53 159 202 54 162 201 55 165 200 48 144 207 49 147 206 50 150 205 51 153 204 60 180 195 61 183 194 62 186 193 63 189 192 56 168 199 57 171 198 58 174 197 59 177 196 36 108 219 37 111 218 38 114 217 39 117 216 32 96 223 33 99 222 34 102 221 35 105 220 44 132 211 45 135 210 46 138 209 47 141 208 40 120 215 41 123 214 42 126 213 43 129 212 20 60 235 21 63 234 22 66 233 23 69 232 16 48 239 17 51 238 18 54 237 19 57 236 28 84 227 29 87 226 30 90 225 31 93 224 24 72 231 25 75 230 26 78 229 27 81 228 4 12 251 5 15 250 6 18 249 7 21 248 0 0 255 1 3 254 2 6 253 3 9 252 12 36 243 13 39 242 14 42 241 15 45 240 8 24 247 9 27 246 10 30 245 11 33 244
53 159 202 52 156 203 55 165 200 54 162 201 49 147 206 48 144 207 51 153 204 50 150 205 61 183 194 60 180 195 63 189 192 62 186 193 57 171 198 56 168 199 59 177 196 58 174 197 37 111 218 36 108 219 39 117 216 38 114 217 33 99 222 32 96 223 35 105 220 34 102 221 45 135 210 44 132 211 47 141 208 46 138 209 41 123 214 40 120 215 43 129 212 42 126 213 21 63 234 20 60 235 23 69 232 22 66 233 17 51 238 16 48 239 19 57 236 18 54 237 29 87 226 28 84 227 31 93 224 30 90 225 25 75 230 24 72 231 27 81 228 26 78 229 5 15 250 4 12 251 7 21 248 6 18 249 1 3 254 0 0 255 3 9 252 2 6 253 13 39 242 12 36 243 15 45 240 14 42 241 9 27 246 8 24 247 11 33 244 10 30 245
54 162 201 55 165 200 52 156 203 53 159 202 50 150 205 51 153 204 48 144 207 49 147 206 62 186 193 63 189 192 60 180 195 61 183 194 58 174 197 59 177 196 56 168 199 57 171 198 38 114 217 39 117 216 36 108 219 37 111 218 34 102 221 35 105 220 32 96 223 33 99 222 46 138 209 47 141 208 44 132 211 45 135 210 42 126 213 43 129 212 40 120 215 41 123 214 22 66 233 23 69 232 20 60 235 21 63 234 18 54 237 19 57 236 16 48 239 17 51 238 30 90 225 31 93 224 28 84 227 29 87 226 26 78 229 27 81 228 24 72 231 25 75 230 6 18 249 7 21 248 4 12 251 5 15 250 2 6 253 3 9 252 0 0 255 1 3 254 14 42 241 15 45 240 12 36 243 13 39 242 10 30 245 11 33 244 8 24 247 9 27 246
55 165 200 54 162 201 53 159 202 52 156 203 51 153 204 50 150 205 49 147 206 48 144 207 63 189 192 62 186 193 61 183 194 60 180 195 59 177 196 58 174 197 57 171 198 56 168 199 39 117 216 38 114 217 37 111 218 36 108 219 35 105 220 34 102 221 33 99 222 32 96 223 47 141 208 46 138 209 45 135 210 44 132 211 43 129 212 42 126 213 41 123 214 40 120 215 23 69 232 22 66 233 21 63 234 20 60 235 19 57 236 18 54 237 17 51 238 16 48 239 31 93 224 30 90 225 29 87 226 28 84 227 27 81 228 26 78 229 25 75 230 24 72 231 7 21 248 6 18 249 5 15 250 4 12 251 3 9 252 2 6 253 1 3 254 0 0 255 15 45 240 14 42 241 13 39 242 12 36 243 11 33 244 10 30 245 9 27 246 8 24 247
56 168 199 57 171 198 58 174 197 59 177 196 60 180 195 61 183 194 62 186 193 63 189 192 48 144 207 49 147 206 50 150 205 51 153 204 52 156 203 53 159 202 54 162 201 55 165 200 40 120 215 41 123 214 42 126 213 43 129 212 44 132 211 45 135 210 46 138 209 47 141 208 32 96 223 33 99 222 34 102 221 35 105 220 36 108 219 37 111 218 38 114 217 39 117 216 24 72 231 25 75 230 26 78 229 27 81 228 28 84 227 29 87 226 30 90 225 31 93 224 16 48 239 17 51 238 18 54 237 19 57 236 20 60 235 21 63 234 22 66 233 23 69 232 8 24 247 9 27 246 10 30 245 11 33 244 12 36 243 13 39 242 14 42 241 15 45 240 0 0 255 1 3 254 2 6 253 3 9 252 4 12 251 5 15 250 6 18 249 7 21 248
57 171 198 56 168 199 59 177 196 58 174 197 61 183 194 60 180 195 63 189 192 62 186 193 49 147 206 48 144 207 51 153 204 50 150 205 53 159 202 52 156 203 55 165 200 54 162 201 41 123 214 40 120 215 43 129 212 42 126 213 45 135 210 44 132 211 47 141 208 46 138 209 33 99 222 32 96 223 35 105 220 34 102 221 37 111 218 36 108 219 39 117 216 38 114 217 25 75 230 24 72 231 27 81 228 26 78 229 29 87 226 28 84 227 31 93 224 30 90 225 17 51 238 16 48 239 19 57 236 18 54 237 21 63 234 20 60 235 23 69 232 22 66 233 9 27 246 8 24 247 11 33 244 10 30 245 13 39 242 12 36 243 15 45 240 14 42 241 1 3 254 0 0 255 3 9 252 2 6 253 5 15 250 4 12 251 7 21 248 6 18 249
58 174 197 59 177 196 56 168 199 57 171 198 62 186 193 63 189 192 60 180 195 61 183 194 50 150 205 51 153 204 48 144 207 49 147 206 54 162 201 55 165 200 52 156 203 53 159 202 42 126 213 43 129 212 40 120 215 41 123 214 46 138 209 47 141 208 44 132 211 45 135 210 34 102 221 35 105 220 32 96 223 33 99 222 38 114 217 39 117 216 36 108 219 37 111 218 26 78 229 27 81 228 24 72 231 25 75 230 30 90 225 31 93 224 28 84 227 29 87 226 18 54 237 19 57 236 16 48 239 17 51 238 22 66 233 23 69 232 20 60 235 21 63 234 10 30 245 11 33 244 8 24 247 9 27 246 14 42 241 15 45 240 12 36 243 13 39 242 2 6 253 3 9 252 0 0 255 1 3 254 6 18 249 7 21 248 4 12 251 5 15 250
59 177 196 58 174 197 57 171 198 56 168 199 63 189 192 62 186 193 61 183 194 60 180 195 51 153 204 50 150 205 49 147 206 48 144 207 55 165 200 54 162 201 53 159 202 52 156 203 43 129 212 42 126 213 41 123 214 40 120 215 47 141 208 46 138 209 45 135 210 44 132 211 35 105 220 34 102 221 33 99 222 32 96 223 39 117 216 38 114 217 37 111 218 36 108 219 27 81 228 26 78 229 25 75 230 24 72 231 31 93 224 30 90 225 29 87 226 28 84 227 19 57 236 18 54 237 17 51 238 16 48 239 23 69 232 22 66 233 21 63 234 20 60 235 11 33 244 10 30 245 9 27 246 8 24 247 15 45 240 14 42 241 13 39 242 12 36 243 3 9 252 2 6 253 1 3 254 0 0 255 7 21 248 6 18 249 5 15 250 4 12 251
60 180 195 61 183 194 62 186 193 63 189 192 56 168 199 57 171 198 58 174 197 59 177 196 52 156 203 53 159 202 54 162 201 55 165 200 48 144 207 49 147 206 50 150 205 51 153 204 44 132 211 45 135 210 46 138 209 47 141 208 40 120 215 41 123 214 42 126 213 43 129 212 36 108 219 37 111 218 38 114 217 39 117 216 32 96 223 33 99 222 34 102 221 35 105 220 28 84 227 29 87 226 30 90 225 31 93 224 24 72 231 25 75 230 26 78 229 27 81 228 20 60 235 21 63 234 22 66 233 23 69 232 16 48 239 17 51 238 18 54 237 19 57 236 12 36 243 13 39 242 14 42 241 15 45 240 8 24 247 9 27 246 10 30 245 11 33 244 4 12 251 5 15 250 6 18 249 7 21 248 0 0 255 1 3 254 2 6 253 3 9 252
61 183 194 60 180 195 63 189 192 62 186 193 57 171 198 56 168 199 59 177 196 58 174 197 53 159 202 52 156 203 55 165 200 54 162 201 49 147 206 48 144 207 51 153 204 50 150 205 45 135 210 44 132 211 47 141 208 46 138 209 41 123 214 40 120 215 43 129 212 42 126 213 37 111 218 36 108 219 39 117 216 38 114 217 33 99 222 32 96 223 35 105 220 34 102 221 29 87 226 28 84 227 31 93 224 30 90 225 25 75 230 24 72 231 27 81 228 26 78 229 21 63 234 20 60 235 23 69 232 22 66 233 17 51 238 16 48 239 19 57 236 18 54 237 13 39 242 12 36 243 15 45 240 14 42 241 9 27 246 8 24 247 11 33 244 10 30 245 5 15 250 4 12 251 7 21 248 6 18 249 1 3 254 0 0 255 3 9 252 2 6 253
62 186 193 63 189 192 60 180 195 61 183 194 58 174 197 59 177 196 56 168 199 57 171 198 54 162 201 55 165 200 52 156 203 53 159 202 50 150 205 51 153 204 48 144 207 49 147 206 46 138 209 47 141 208 44 132 211 45 135 210 42 126 213 43 129 212 40 120 215 41 123 214 38 114 217 39 117 216 36 108 219 37 111 218 34 102 221 35 105 220 32 96 223 33 99 222 30 90 225 31 93 224 28 84 227 29 87 226 26 78 229 27 81 228 24 72 231 25 75 230 22 66 233 23 69 232 20 60 235 21 63 234 18 54 237 19 57 236 16 48 239 17 51 238 14 42 241 15 45 240 12 36 243 13 39 242 10 30 245 11 33 244 8 24 247 9 27 246 6 18 249 7 21 248 4 12 251 5 15 250 2 6 253 3 9 252 0 0 255 1 3 254
63 189 192 62 186 193 61 183 194 60 180 195 59 177 196 58 174 197 57 171 198 56 168 199 55 165 200 54 162 201 53 159 202 52 156 203 51 153 204 50 150 205 49 147 206 48 144 207 47 141 208 46 138 209 45 135 210 44 132 211 43 129 212 42 126 213 41 123 214 40 120 215 39 117 216 38 114 217 37 111 218 36 108 219 35 105 220 34 102 221 33 99 222 32 96 223 31 93 224 30 90 225 29 87 226 28 84 227 27 81 228 26 78 229 25 75 230 24 72 231 23 69 232 22 66 233 21 63 234 20 60 235 19 57 236 18 54 237 17 51 238 16 48 239 15 45 240 14 42 241 13 39 242 12 36 243 11 33 244 10 30 245 9 27 246 8 24 247 7 21 248 6 18 249 5 15 250 4 12 251 3 9 252 2 6 253 1 3 254 0 0 255
