P3
32 32
255
18 239 134 106 56 93 215 165 24 229 117 194 213 186 119 31 30 120 22 48 80 41 127 227 182 64 68 184 22 28 202 128 31 90 239 221 189 149 8 115 73 220 53 116 9 60 251 149 227 93 73 210 199 213 241 159 53 6 254 141 51 230 95 18 147 98 24 163 159 0 192 174 113 47 186 134 13 60 239 61 177 124 146 118 155 153 197 182 109 63 18 60 243 163 145 210
52 32 158 77 151 57 208 205 78 123 59 74 21 180 112 141 29 180 51 144 190 218 41 133 3 73 181 30 204 132 147 36 58 220 178 234 214 21 125 198 7 219 124 184 209 21 123 69 11 36 197 102 118 110 39 127 158 151 155 40 205 47 198 72 33 61 202 225 81 147 66 34 247 30 227 210 97 177 42 161 126 190 194 184 74 180 232 13 104 27 132 69 203 54 167 191
48 190 6 103 78 94 77 81 184 181 77 26 222 211 8 0 240 228 100 48 249 91 217 130 92 199 115 200 153 124 254 11 17 199 12 183 95 12 179 70 213 174 238 151 37 105 252 180 208 88 78 229 86 109 12 16 87 244 80 149 49 227 222 214 7 55 139 119 168 87 250 0 133 137 34 87 68 217 47 63 171 59 193 240 120 227 171 189 63 215 44 21 156 20 247 80
155 162 78 238 138 158 21 26 120 146 163 211 64 74 56 92 106 22 67 33 146 126 56 69 136 208 162 144 154 247 187 215 161 22 214 221 171 145 55 80 195 21 98 146 99 122 247 201 81 63 62 232 142 187 81 228 50 99 103 241 140 168 14 111 82 100 33 108 176 8 242 232 197 160 151 96 111 234 151 96 55 190 178 239 203 215 205 246 178 250 213 172 164 173 219 22
144 169 179 29 185 126 224 175 214 161 211 10 217 152 106 126 156 135 139 144 160 243 60 99 59 175 31 238 218 103 249 161 216 174 32 216 119 250 47 180 182 91 4 173 137 243 29 1 174 24 157 35 22 112 189 42 212 78 21 65 148 47 138 182 234 128 33 224 12 60 152 170 100 116 204 46 160 227 78 247 23 206 71 71 107 95 211 194 10 130 45 33 16 215 101 243
195 109 21 173 174 177 217 179 24 211 168 241 93 38 77 76 200 22 219 68 20 50 249 26 83 63 180 121 210 155 37 200 210 22 100 162 139 246 230 164 36 5 221 255 41 235 85 12 144 179 212 26 100 68 44 92 245 85 162 127 47 213 240 244 102 59 151 98 27 74 26 128 255 99 166 221 40 86 199 110 98 5 217 121 46 205 43 117 239 5 105 28 145 86 121 53
255 158 105 162 205 151 99 94 226 224 81 197 235 20 172 94 104 211 188 0 123 35 103 13 198 149 228 219 232 79 127 196 12 52 159 47 209 8 160 106 228 106 84 141 140 97 122 210 99 180 113 106 30 104 176 217 129 59 59 184 15 62 69 54 136 114 4 95 72 81 72 168 165 204 168 222 202 117 231 120 53 207 1 187 183 243 81 225 213 135 208 165 224 199 58 55
99 108 214 203 108 42 133 173 86 167 7 193 172 164 149 155 236 70 51 9 161 224 152 75 136 79 13 101 215 70 248 34 7 99 73 238 6 221 209 166 35 119 47 32 17 185 20 189 2 92 178 188 27 244 204 80 69 217 126 249 235 191 19 165 171 227 92 13 148 76 39 101 27 66 164 174 231 185 148 182 53 243 216 119 181 197 255 50 64 212 68 148 99 33 229 227
20 238 216 21 251 172 147 73 234 128 2 11 226 56 39 94 12 198 183 170 56 29 223 14 48 104 196 210 117 16 140 28 53 40 50 200 137 134 15 132 52 218 54 139 43 244 128 68 46 223 144 25 52 8 226 213 73 174 35 176 45 242 194 3 12 110 236 61 164 78 12 97 101 204 59 233 23 71 92 86 1 143 152 214 213 167 242 4 80 31 154 181 99 155 214 31
141 145 231 242 137 124 228 105 162 66 11 8 152 95 44 126 130 161 119 188 110 136 127 103 101 202 138 84 16 136 235 135 11 239 243 231 181 140 90 152 115 211 68 68 23 94 138 2 28 50 144 185 170 240 206 118 152 121 173 224 227 226 167 246 121 5 170 10 187 76 223 132 89 59 204 101 229 104 115 173 64 175 38 195 83 79 214 79 118 144 117 116 155 76 36 198
15 171 106 68 174 46 222 197 208 41 69 56 103 168 115 133 91 46 171 33 185 10 220 249 203 215 108 219 26 15 36 32 245 125 74 147 180 174 86 4 169 246 141 19 186 22 41 197 174 200 240 97 221 190 161 206 232 202 35 94 161 230 197 30 164 117 134 46 133 60 253 67 134 109 125 111 223 79 126 4 223 118 4 85 244 69 22 75 152 114 128 87 32 160 236 197
54 216 48 189 185 15 153 132 6 202 39 57 243 202 28 89 56 239 80 164 125 78 42 95 11 24 22 146 15 182 88 0 207 130 110 145 42 186 191 76 116 217 186 169 227 81 126 165 204 195 98 140 134 206 100 249 227 220 22 225 110 250 216 216 50 209 242 172 200 81 10 6 159 200 5 140 74 17 8 230 7 91 107 212 224 176 127 200 214 107 44 155 216 186 198 199
247 109 136 74 199 53 63 117 44 44 4 53 213 172 227 101 58 244 254 38 131 226 139 77 103 178 66 230 194 96 209 16 156 111 203 181 232 161 109 58 156 8 248 239 97 106 33 63 225 84 113 154 155 121 236 123 204 204 48 121 78 132 88 191 123 148 73 15 214 153 75 121 171 191 240 171 217 228 206 14 3 162 11 149 89 182 49 245 103 84 126 253 136 97 86 241
118 130 57 61 132 46 2 201 55 103 222 135 95 170 199 253 211 35 165 166 177 49 99 139 74 237 3 165 142 252 119 246 31 239 176 143 27 218 90 19 21 193 228 198 232 64 157 93 16 166 121 52 58 150 178 57 89 180 194 185 235 29 34 50 198 236 166 158 105 169 11 36 184 45 101 229 25 128 86 159 24 188 225 216 137 181 4 200 250 121 173 80 44 93 11 148
82 125 183 70 10 89 159 37 204 161 77 251 180 206 165 207 199 217 250 134 103 237 205 162 67 52 11 232 238 211 94 99 94 27 244 41 155 205 147 172 202 199 143 164 234 33 137 66 64 255 82 207 48 132 94 88 174 126 136 242 51 90 224 234 101 236 91 86 215 128 94 74 181 93 152 185 187 38 81 120 56 166 239 137 46 74 224 227 158 96 133 15 232 57 45 181
173 210 163 176 241 140 236 15 25 43 170 176 240 166 181 37 113 63 60 238 4 232 1 2 83 222 79 127 51 23 132 161 104 185 241 58 202 185 154 114 247 136 104 11 53 214 95 34 160 134 103 106 177 43 59 245 165 105 74 77 154 199 151 135 225 174 214 194 14 184 236 61 223 74 177 90 60 142 39 128 121 84 246 242 20 153 251 173 45 246 89 246 196 105 132 19
133 221 243 158 37 253 82 70 61 174 188 237 85 74 149 206 189 89 199 194 209 152 172 117 77 254 254 139 201 122 236 139 45 169 40 46 140 7 205 110 222 172 102 117 221 6 61 11 2 120 149 143 221 147 110 42 5 150 44 221 92 4 15 114 7 170 56 123 171 45 141 53 236 1 206 229 234 108 203 12 107 34 162 172 160 108 249 215 208 94 18 35 239 110 47 251
74 25 183 254 76 105 11 203 49 184 248 134 10 166 145 218 94 211 80 100 155 54 242 61 235 173 187 168 69 166 235 245 168 110 224 27 15 185 105 50 67 50 244 162 98 231 144 243 251 100 140 127 47 122 172 254 183 202 27 104 63 119 51 182 186 30 249 243 89 60 44 251 189 41 197 133 248 91 205 145 75 21 24 56 138 84 113 66 100 161 126 117 88 246 222 111
17 249 92 235 18 156 243 151 214 151 20 45 54 121 181 18 101 227 197 54 117 227 81 159 209 231 85 3 153 120 46 251 133 245 161 3 3 229 170 48 107 2 83 212 114 131 231 202 28 99 108 187 58 14 108 232 124 248 227 90 97 109 150 241 16 133 196 178 106 114 203 245 42 55 44 101 244 96 126 133 79 11 241 243 193 217 48 250 161 195 144 247 246 20 223 193
7 34 142 100 140 76 99 41 105 73 174 218 7 32 22 122 221 41 233 197 95 141 228 183 227 39 92 79 238 177 81 63 93 246 102 59 64 91 255 163 170 221 78 117 38 84 166 170 80 122 6 200 186 176 166 41 83 142 205 245 87 110 169 144 241 234 121 195 85 87 137 197 92 216 238 218 85 160 183 127 43 108 98 154 136 48 25 3 164 73 221 213 73 88 80 2
35 206 207 200 100 70 102 91 219 31 130 96 255 13 27 237 155 60 79 141 169 143 138 58 254 76 4 206 170 168 101 162 212 95 202 11 215 246 217 56 169 72 222 206 251 246 88 82 103 19 138 45 65 73 25 217 54 78 194 131 199 169 150 186 175 35 235 206 90 22 108 24 21 107 250 64 100 106 191 109 154 60 237 62 120 171 119 7 92 145 27 103 194 157 27 123
107 79 7 229 140 70 149 169 172 4 29 0 9 48 86 30 227 10 193 230 8 93 244 73 181 229 95 39 247 158 216 101 246 76 118 253 154 98 102 235 33 218 112 244 242 245 69 254 128 8 163 126 159 78 127 11 88 162 65 131 92 106 209 194 70 209 70 123 240 78 41 95 66 111 172 162 211 35 120 100 147 137 57 23 116 130 23 193 93 166 89 8 162 254 29 235
98 158 197 14 112 14 112 243 102 237 193 113 90 78 190 147 89 79 138 70 205 74 108 91 16 252 61 159 17 209 156 201 172 178 16 254 115 160 65 64 92 19 230 98 211 39 103 144 180 66 231 146 90 204 203 91 81 4 101 106 67 249 24 168 192 203 230 216 113 200 138 61 0 247 248 230 57 60 12 49 153 96 154 224 108 183 17 235 147 117 112 249 115 206 15 26
86 127 11 7 9 117 134 129 58 49 254 214 202 206 137 56 40 36 116 192 104 80 247 9 132 183 139 58 121 135 56 9 192 100 209 244 144 85 219 44 21 253 238 37 97 169 228 221 247 251 246 173 236 134 80 72 168 103 146 57 220 74 81 243 67 246 110 110 196 50 229 148 255 220 26 184 138 242 197 111 55 11 54 144 178 179 128 148 148 194 112 109 98 88 70 132
75 234 138 83 25 41 63 194 114 239 243 214 146 169 81 72 108 4 209 36 187 130 97 90 198 56 27 110 46 93 227 228 246 167 92 231 70 249 74 242 153 152 137 216 39 178 126 228 132 30 164 102 148 241 96 107 205 17 91 195 131 8 198 199 22 171 186 210 105 35 241 121 83 32 142 227 142 197 94 127 241 186 100 139 115 234 101 52 108 140 87 52 220 80 84 151
135 239 91 65 40 154 166 47 111 165 178 75 146 108 225 84 111 112 3 152 102 66 227 218 45 54 102 8 155 235 2 53 237 173 211 162 248 109 55 18 218 81 70 93 67 123 170 17 121 247 148 75 14 65 215 240 226 175 38 225 164 137 197 129 128 183 194 117 194 58 207 104 110 101 85 24 23 189 149 207 26 173 165 211 39 176 248 213 190 55 50 12 188 120 10 85
163 60 12 186 225 243 144 177 220 183 30 198 23 78 104 197 23 42 68 90 233 47 151 167 3 76 37 211 66 239 206 38 33 65 2 132 184 223 57 224 176 105 154 118 214 25 2 138 180 140 159 11 247 28 80 72 115 90 63 74 22 193 219 108 108 171 86 238 68 66 158 9 94 147 78 100 253 224 187 32 180 144 244 139 61 223 250 195 168 146 50 136 56 195 0 0
252 125 38 151 248 14 164 106 187 98 179 15 53 58 195 133 69 149 183 92 100 133 252 13 56 239 30 185 137 166 27 249 167 234 87 51 134 89 227 57 102 182 29 52 165 247 223 77 84 76 149 2 60 45 207 77 211 208 254 111 2 150 252 58 127 225 250 225 178 150 96 0 85 97 73 13 46 87 182 186 195 39 237 48 219 47 131 247 75 179 97 79 37 76 107 57
242 79 82 187 254 117 189 169 163 177 0 164 238 234 236 189 168 76 123 106 196 103 50 217 140 87 82 194 86 109 49 108 57 199 16 156 49 225 140 77 29 238 98 229 189 138 70 83 100 51 106 209 24 90 110 182 111 100 184 64 154 117 24 209 178 255 124 69 205 64 126 46 184 92 23 32 125 253 245 94 239 81 67 86 122 141 229 230 46 28 226 255 117 119 131 206
227 78 223 103 38 174 31 252 15 238 113 56 247 105 22 193 21 20 50 195 212 112 168 100 53 97 223 138 148 10 52 151 199 71 76 38 240 58 56 169 15 225 116 97 58 174 21 20 246 175 26 106 30 39 100 139 169 251 250 192 201 12 150 181 31 184 74 5 186 145 213 42 161 120 222 68 254 122 215 199 253 48 129 132 8 34 114 149 208 35 211 68 138 206 196 243
223 13 225 160 9 48 220 10 213 170 91 123 248 105 236 67 16 11 153 92 67 111 255 153 47 86 255 242 179 89 235 75 110 52 213 161 152 128 228 182 122 214 67 33 148 43 78 194 100 43 98 143 101 124 62 26 240 10 222 199 64 247 139 131 190 148 95 181 216 166 70 130 50 10 14 44 35 47 137 94 80 132 240 248 232 41 212 238 126 115 229 114 87 116 215 211
193 220 181 40 103 80 124 178 14 79 33 46 95 28 222 182 166 237 37 25 122 7 51 118 197 92 179 205 0 76 198 235 238 99 61 31 150 1 209 177 121 53 8 32 166 128 158 186 252 129 184 217 125 198 151 220 56 249 55 88 80 142 41 70 161 77 230 7 250 50 156 206 168 2 73 13 220 73 251 49 72 72 101 36 140 84 104 88 69 242 160 54 5 145 234 85
