P3
64 64
255
0 255 0 1 254 2 2 253 4 3 252 6 4 251 8 5 250 10 6 249 12 7 248 14 8 247 16 9 246 18 10 245 20 11 244 22 12 243 24 13 242 26 14 241 28 15 240 30 16 239 32 17 238 34 18 237 36 19 236 38 20 235 40 21 234 42 22 233 44 23 232 46 24 231 48 25 230 50 26 229 52 27 228 54 28 227 56 29 226 58 30 225 60 31 224 62 32 223 64 33 222 66 34 221 68 35 220 70 36 219 72 37 218 74 38 217 76 39 216 78 40 215 80 41 214 82 42 213 84 43 212 86 44 211 88 45 210 90 46 209 92 47 208 94 48 207 96 49 206 98 50 205 100 51 204 102 52 203 104 53 202 106 54 201 108 55 200 110 56 199 112 57 198 114 58 197 116 59 196 118 60 195 120 61 194 122 62 193 124 63 192 126
1 254 2 2 253 4 3 252 6 4 251 8 5 250 10 6 249 12 7 248 14 8 247 16 9 246 18 10 245 20 11 244 22 12 243 24 13 242 26 14 241 28 15 240 30 16 239 32 17 238 34 18 237 36 19 236 38 20 235 40 21 234 42 22 233 44 23 232 46 24 231 48 25 230 50 26 229 52 27 228 54 28 227 56 29 226 58 30 225 60 31 224 62 32 223 64 33 222 66 34 221 68 35 220 70 36 219 72 37 218 74 38 217 76 39 216 78 40 215 80 41 214 82 42 213 84 43 212 86 44 211 88 45 210 90 46 209 92 47 208 94 48 207 96 49 206 98 50 205 100 51 204 102 52 203 104 53 202 106 54 201 108 55 200 110 56 199 112 57 198 114 58 197 116 59 196 118 60 195 120 61 194 122 62 193 124 63 192 126 64 191 128
2 253 4 3 252 6 4 251 8 5 250 10 6 249 12 7 248 14 8 247 16 9 246 18 10 245 20 11 244 22 12 243 24 13 242 26 14 241 28 15 240 30 16 239 32 17 238 34 18 237 36 19 236 38 20 235 40 21 234 42 22 233 44 23 232 46 24 231 48 25 230 50 26 229 52 27 228 54 28 227 56 29 226 58 30 225 60 31 224 62 32 223 64 33 222 66 34 221 68 35 220 70 36 219 72 37 218 74 38 217 76 39 216 78 40 215 80 41 214 82 42 213 84 43 212 86 44 211 88 45 210 90 46 209 92 47 208 94 48 207 96 49 206 98 50 205 100 51 204 102 52 203 104 53 202 106 54 201 108 55 200 110 56 199 112 57 198 114 58 197 116 59 196 118 60 195 120 61 194 122 62 193 124 63 192 126 64 191 128 65 190 130
3 252 6 4 251 8 5 250 10 6 249 12 7 248 14 8 247 16 9 246 18 10 245 20 11 244 22 12 243 24 13 242 26 14 241 28 15 240 30 16 239 32 17 238 34 18 237 36 19 236 38 20 235 40 21 234 42 22 233 44 23 232 46 24 231 48 25 230 50 26 229 52 27 228 54 28 227 56 29 226 58 30 225 60 31 224 62 32 223 64 33 222 66 34 221 68 35 220 70 36 219 72 37 218 74 38 217 76 39 216 78 40 215 80 41 214 82 42 213 84 43 212 86 44 211 88 45 210 90 46 209 92 47 208 94 48 207 96 49 206 98 50 205 100 51 204 102 52 203 104 53 202 106 54 201 108 55 200 110 56 199 112 57 198 114 58 197 116 59 196 118 60 195 120 61 194 122 62 193 124 63 192 126 64 191 128 65 190 130 66 189 132
4 251 8 5 250 10 6 249 12 7 248 14 8 247 16 9 246 18 10 245 20 11 244 22 12 243 24 13 242 26 14 241 28 15 240 30 16 239 32 17 238 34 18 237 36 19 236 38 20 235 40 21 234 42 22 233 44 23 232 46 24 231 48 25 230 50 26 229 52 27 228 54 28 227 56 29 226 58 30 225 60 31 224 62 32 223 64 33 222 66 34 221 68 35 220 70 36 219 72 37 218 74 38 217 76 39 216 78 40 215 80 41 214 82 42 213 84 43 212 86 44 211 88 45 210 90 46 209 92 47 208 94 48 207 96 49 206 98 50 205 100 51 204 102 52 203 104 53 202 106 54 201 108 55 200 110 56 199 112 57 198 114 58 197 116 59 196 118 60 195 120 61 194 122 62 193 124 63 192 126 64 191 128 65 190 130 66 189 132 67 188 134
5 250 10 6 249 12 7 248 14 8 247 16 9 246 18 10 245 20 11 244 22 12 243 24 13 242 26 14 241 28 15 240 30 16 239 32 17 238 34 18 237 36 19 236 38 20 235 40 21 234 42 22 233 44 23 232 46 24 231 48 25 230 50 26 229 52 27 228 54 28 227 56 29 226 58 30 225 60 31 224 62 32 223 64 33 222 66 34 221 68 35 220 70 36 219 72 37 218 74 38 217 76 39 216 78 40 215 80 41 214 82 42 213 84 43 212 86 44 211 88 45 210 90 46 209 92 47 208 94 48 207 96 49 206 98 50 205 100 51 204 102 52 203 104 53 202 106 54 201 108 55 200 110 56 199 112 57 198 114 58 197 116 59 196 118 60 195 120 61 194 122 62 193 124 63 192 126 64 191 128 65 190 130 66 189 132 67 188 134 68 187 136
6 249 12 7 248 14 8 247 16 9 246 18 10 245 20 11 244 22 12 243 24 13 242 26 14 241 28 15 240 30 16 239 32 17 238 34 18 237 36 19 236 38 20 235 40 21 234 42 22 233 44 23 232 46 24 231 48 25 230 50 26 229 52 27 228 54 28 227 56 29 226 58 30 225 60 31 224 62 32 223 64 33 222 66 34 221 68 35 220 70 36 219 72 37 218 74 38 217 76 39 216 78 40 215 80 41 214 82 42 213 84 43 212 86 44 211 88 45 210 90 46 209 92 47 208 94 48 207 96 49 206 98 50 205 100 51 204 102 52 203 104 53 202 106 54 201 108 55 200 110 56 199 112 57 198 114 58 197 116 59 196 118 60 195 120 61 194 122 62 193 124 63 192 126 64 191 128 65 190 130 66 189 132 67 188 134 68 187 136 69 186 138
7 248 14 8 247 16 9 246 18 10 245 20 11 244 22 12 243 24 13 242 26 14 241 28 15 240 30 16 239 32 17 238 34 18 237 36 19 236 38 20 235 40 21 234 42 22 233 44 23 232 46 24 231 48 25 230 50 26 229 52 27 228 54 28 227 56 29 226 58 30 225 60 31 224 62 32 223 64 33 222 66 34 221 68 35 220 70 36 219 72 37 218 74 38 217 76 39 216 78 40 215 80 41 214 82 42 213 84 43 212 86 44 211 88 45 210 90 46 209 92 47 208 94 48 207 96 49 206 98 50 205 100 51 204 102 52 203 104 53 202 106 54 201 108 55 200 110 56 199 112 57 198 114 58 197 116 59 196 118 60 195 120 61 194 122 62 193 124 63 192 126 64 191 128 65 190 130 66 189 132 67 188 134 68 187 136 69 186 138 70 185 140
8 247 16 9 246 18 10 245 20 11 244 22 12 243 24 13 242 26 14 241 28 15 240 30 16 239 32 17 238 34 18 237 36 19 236 38 20 235 40 21 234 42 22 233 44 23 232 46 24 231 48 25 230 50 26 229 52 27 228 54 28 227 56 29 226 58 30 225 60 31 224 62 32 223 64 33 222 66 34 221 68 35 220 70 36 219 72 37 218 74 38 217 76 39 216 78 40 215 80 41 214 82 42 213 84 43 212 86 44 211 88 45 210 90 46 209 92 47 208 94 48 207 96 49 206 98 50 205 100 51 204 102 52 203 104 53 202 106 54 201 108 55 200 110 56 199 112 57 198 114 58 197 116 59 196 118 60 195 120 61 194 122 62 193 124 63 192 126 64 191 128 65 190 130 66 189 132 67 188 134 68 187 136 69 186 138 70 185 140 71 184 142
9 246 18 10 245 20 11 244 22 12 243 24 13 242 26 14 241 28 15 240 30 16 239 32 17 238 34 18 237 36 19 236 38 20 235 40 21 234 42 22 233 44 23 232 46 24 231 48 25 230 50 26 229 52 27 228 54 28 227 56 29 226 58 30 225 60 31 224 62 32 223 64 33 222 66 34 221 68 35 220 70 36 219 72 37 218 74 38 217 76 39 216 78 40 215 80 41 214 82 42 213 84 43 212 86 44 211 88 45 210 90 46 209 92 47 208 94 48 207 96 49 206 98 50 205 100 51 204 102 52 203 104 53 202 106 54 201 108 55 200 110 56 199 112 57 198 114 58 197 116 59 196 118 60 195 120 61 194 122 62 193 124 63 192 126 64 191 128 65 190 130 66 189 132 67 188 134 68 187 136 69 186 138 70 185 140 71 184 142 72 183 144
10 245 20 11 244 22 12 243 24 13 242 26 14 241 28 15 240 30 16 239 32 17 238 34 18 237 36 19 236 38 20 235 40 21 234 42 22 233 44 23 232 46 24 231 48 25 230 50 26 229 52 27 228 54 28 227 56 29 226 58 30 225 60 31 224 62 32 223 64 33 222 66 34 221 68 35 220 70 36 219 72 37 218 74 38 217 76 39 216 78 40 215 80 41 214 82 42 213 84 43 212 86 44 211 88 45 210 90 46 209 92 47 208 94 48 207 96 49 206 98 50 205 100 51 204 102 52 203 104 53 202 106 54 201 108 55 200 110 56 199 112 57 198 114 58 197 116 59 196 118 60 195 120 61 194 122 62 193 124 63 192 126 64 191 128 65 190 130 66 189 132 67 188 134 68 187 136 69 186 138 70 185 140 71 184 142 72 183 144 73 182 146
11 244 22 12 243 24 13 242 26 14 241 28 15 240 30 16 239 32 17 238 34 18 237 36 19 236 38 20 235 40 21 234 42 22 233 44 23 232 46 24 231 48 25 230 50 26 229 52 27 228 54 28 227 56 29 226 58 30 225 60 31 224 62 32 223 64 33 222 66 34 221 68 35 220 70 36 219 72 37 218 74 38 217 76 39 216 78 40 215 80 41 214 82 42 213 84 43 212 86 44 211 88 45 210 90 46 209 92 47 208 94 48 207 96 49 206 98 50 205 100 51 204 102 52 203 104 53 202 106 54 201 108 55 200 110 56 199 112 57 198 114 58 197 116 59 196 118 60 195 120 61 194 122 62 193 124 63 192 126 64 191 128 65 190 130 66 189 132 67 188 134 68 187 136 69 186 138 70 185 140 71 184 142 72 183 144 73 182 146 74 181 148
12 243 24 13 242 26 14 241 28 15 240 30 16 239 32 17 238 34 18 237 36 19 236 38 20 235 40 21 234 42 22 233 44 23 232 46 24 231 48 25 230 50 26 229 52 27 228 54 28 227 56 29 226 58 30 225 60 31 224 62 32 223 64 33 222 66 34 221 68 35 220 70 36 219 72 37 218 74 38 217 76 39 216 78 40 215 80 41 214 82 42 213 84 43 212 86 44 211 88 45 210 90 46 209 92 47 208 94 48 207 96 49 206 98 50 205 100 51 204 102 52 203 104 53 202 106 54 201 108 55 200 110 56 199 112 57 198 114 58 197 116 59 196 118 60 195 120 61 194 122 62 193 124 63 192 126 64 191 128 65 190 130 66 189 132 67 188 134 68 187 136 69 186 138 70 185 140 71 184 142 72 183 144 73 182 146 74 181 148 75 180 150
13 242 26 14 241 28 15 240 30 16 239 32 17 238 34 18 237 36 19 236 38 20 235 40 21 234 42 22 233 44 23 232 46 24 231 48 25 230 50 26 229 52 27 228 54 28 227 56 29 226 58 30 225 60 31 224 62 32 223 64 33 222 66 34 221 68 35 220 70 36 219 72 37 218 74 38 217 76 39 216 78 40 215 80 41 214 82 42 213 84 43 212 86 44 211 88 45 210 90 46 209 92 47 208 94 48 207 96 49 206 98 50 205 100 51 204 102 52 203 104 53 202 106 54 201 108 55 200 110 56 199 112 57 198 114 58 197 116 59 196 118 60 195 120 61 194 122 62 193 124 63 192 126 64 191 128 65 190 130 66 189 132 67 188 134 68 187 136 69 186 138 70 185 140 71 184 142 72 183 144 73 182 146 74 181 148 75 180 150 76 179 152
14 241 28 15 240 30 16 239 32 17 238 34 18 237 36 19 236 38 20 235 40 21 234 42 22 233 44 23 232 46 24 231 48 25 230 50 26 229 52 27 228 54 28 227 56 29 226 58 30 225 60 31 224 62 32 223 64 33 222 66 34 221 68 35 220 70 36 219 72 37 218 74 38 217 76 39 216 78 40 215 80 41 214 82 42 213 84 43 212 86 44 211 88 45 210 90 46 209 92 47 208 94 48 207 96 49 206 98 50 205 100 51 204 102 52 203 104 53 202 106 54 201 108 55 200 110 56 199 112 57 198 114 58 197 116 59 196 118 60 195 120 61 194 122 62 193 124 63 192 126 64 191 128 65 190 130 66 189 132 67 188 134 68 187 136 69 186 138 70 185 140 71 184 142 72 183 144 73 182 146 74 181 148 75 180 150 76 179 152 77 178 154
15 240 30 16 239 32 17 238 34 18 237 36 19 236 38 20 235 40 21 234 42 22 233 44 23 232 46 24 231 48 25 230 50 26 229 52 27 228 54 28 227 56 29 226 58 30 225 60 31 224 62 32 223 64 33 222 66 34 221 68 35 220 70 36 219 72 37 218 74 38 217 76 39 216 78 40 215 80 41 214 82 42 213 84 43 212 86 44 211 88 45 210 90 46 209 92 47 208 94 48 207 96 49 206 98 50 205 100 51 204 102 52 203 104 53 202 106 54 201 108 55 200 110 56 199 112 57 198 114 58 197 116 59 196 118 60 195 120 61 194 122 62 193 124 63 192 126 64 191 128 65 190 130 66 189 132 67 188 134 68 187 136 69 186 138 70 185 140 71 184 142 72 183 144 73 182 146 74 181 148 75 180 150 76 179 152 77 178 154 78 177 156
16 239 32 17 238 34 18 237 36 19 236 38 20 235 40 21 234 42 22 233 44 23 232 46 24 231 48 25 230 50 26 229 52 27 228 54 28 227 56 29 226 58 30 225 60 31 224 62 32 223 64 33 222 66 34 221 68 35 220 70 36 219 72 37 218 74 38 217 76 39 216 78 40 215 80 41 214 82 42 213 84 43 212 86 44 211 88 45 210 90 46 209 92 47 208 94 48 207 96 49 206 98 50 205 100 51 204 102 52 203 104 53 202 106 54 201 108 55 200 110 56 199 112 57 198 114 58 197 116 59 196 118 60 195 120 61 194 122 62 193 124 63 192 126 64 191 128 65 190 130 66 189 132 67 188 134 68 187 136 69 186 138 70 185 140 71 184 142 72 183 144 73 182 146 74 181 148 75 180 150 76 179 152 77 178 154 78 177 156 79 176 158
17 238 34 18 237 36 19 236 38 20 235 40 21 234 42 22 233 44 23 232 46 24 231 48 25 230 50 26 229 52 27 228 54 28 227 56 29 226 58 30 225 60 31 224 62 32 223 64 33 222 66 34 221 68 35 220 70 36 219 72 37 218 74 38 217 76 39 216 78 40 215 80 41 214 82 42 213 84 43 212 86 44 211 88 45 210 90 46 209 92 47 208 94 48 207 96 49 206 98 50 205 100 51 204 102 52 203 104 53 202 106 54 201 108 55 200 110 56 199 112 57 198 114 58 197 116 59 196 118 60 195 120 61 194 122 62 193 124 63 192 126 64 191 128 65 190 130 66 189 132 67 188 134 68 187 136 69 186 138 70 185 140 71 184 142 72 183 144 73 182 146 74 181 148 75 180 150 76 179 152 77 178 154 78 177 156 79 176 158 80 175 160
18 237 36 19 236 38 20 235 40 21 234 42 22 233 44 23 232 46 24 231 48 25 230 50 26 229 52 27 228 54 28 227 56 29 226 58 30 225 60 31 224 62 32 223 64 33 222 66 34 221 68 35 220 70 36 219 72 37 218 74 38 217 76 39 216 78 40 215 80 41 214 82 42 213 84 43 212 86 44 211 88 45 210 90 46 209 92 47 208 94 48 207 96 49 206 98 50 205 100 51 204 102 52 203 104 53 202 106 54 201 108 55 200 110 56 199 112 57 198 114 58 197 116 59 196 118 60 195 120 61 194 122 62 193 124 63 192 126 64 191 128 65 190 130 66 189 132 67 188 134 68 187 136 69 186 138 70 185 140 71 184 142 72 183 144 73 182 146 74 181 148 75 180 150 76 179 152 77 178 154 78 177 156 79 176 158 80 175 160 81 174 162
19 236 38 20 235 40 21 234 42 22 233 44 23 232 46 24 231 48 25 230 50 26 229 52 27 228 54 28 227 56 29 226 58 30 225 60 31 224 62 32 223 64 33 222 66 34 221 68 35 220 70 36 219 72 37 218 74 38 217 76 39 216 78 40 215 80 41 214 82 42 213 84 43 212 86 44 211 88 45 210 90 46 209 92 47 208 94 48 207 96 49 206 98 50 205 100 51 204 102 52 203 104 53 202 106 54 201 108 55 200 110 56 199 112 57 198 114 58 197 116 59 196 118 60 195 120 61 194 122 62 193 124 63 192 126 64 191 128 65 190 130 66 189 132 67 188 134 68 187 136 69 186 138 70 185 140 71 184 142 72 183 144 73 182 146 74 181 148 75 180 150 76 179 152 77 178 154 78 177 156 79 176 158 80 175 160 81 174 162 82 173 164
20 235 40 21 234 42 22 233 44 23 232 46 24 231 48 25 230 50 26 229 52 27 228 54 28 227 56 29 226 58 30 225 60 31 224 62 32 223 64 33 222 66 34 221 68 35 220 70 36 219 72 37 218 74 38 217 76 39 216 78 40 215 80 41 214 82 42 213 84 43 212 86 44 211 88 45 210 90 46 209 92 47 208 94 48 207 96 49 206 98 50 205 100 51 204 102 52 203 104 53 202 106 54 201 108 55 200 110 56 199 112 57 198 114 58 197 116 59 196 118 60 195 120 61 194 122 62 193 124 63 192 126 64 191 128 65 190 130 66 189 132 67 188 134 68 187 136 69 186 138 70 185 140 71 184 142 72 183 144 73 182 146 74 181 148 75 180 150 76 179 152 77 178 154 78 177 156 79 176 158 80 175 160 81 174 162 82 173 164 83 172 166
21 234 42 22 233 44 23 232 46 24 231 48 25 230 50 26 229 52 27 228 54 28 227 56 29 226 58 30 225 60 31 224 62 32 223 64 33 222 66 34 221 68 35 220 70 36 219 72 37 218 74 38 217 76 39 216 78 40 215 80 41 214 82 42 213 84 43 212 86 44 211 88 45 210 90 46 209 92 47 208 94 48 207 96 49 206 98 50 205 100 51 204 102 52 203 104 53 202 106 54 201 108 55 200 110 56 199 112 57 198 114 58 197 116 59 196 118 60 195 120 61 194 122 62 193 124 63 192 126 64 191 128 65 190 130 66 189 132 67 188 134 68 187 136 69 186 138 70 185 140 71 184 142 72 183 144 73 182 146 74 181 148 75 180 150 76 179 152 77 178 154 78 177 156 79 176 158 80 175 160 81 174 162 82 173 164 83 172 166 84 171 168
22 233 44 23 232 46 24 231 48 25 230 50 26 229 52 27 228 54 28 227 56 29 226 58 30 225 60 31 224 62 32 223 64 33 222 66 34 221 68 35 220 70 36 219 72 37 218 74 38 217 76 39 216 78 40 215 80 41 214 82 42 213 84 43 212 86 44 211 88 45 210 90 46 209 92 47 208 94 48 207 96 49 206 98 50 205 100 51 204 102 52 203 104 53 202 106 54 201 108 55 200 110 56 199 112 57 198 114 58 197 116 59 196 118 60 195 120 61 194 122 62 193 124 63 192 126 64 191 128 65 190 130 66 189 132 67 188 134 68 187 136 69 186 138 70 185 140 71 184 142 72 183 144 73 182 146 74 181 148 75 180 150 76 179 152 77 178 154 78 177 156 79 176 158 80 175 160 81 174 162 82 173 164 83 172 166 84 171 168 85 170 170
23 232 46 24 231 48 25 230 50 26 229 52 27 228 54 28 227 56 29 226 58 30 225 60 31 224 62 32 223 64 33 222 66 34 221 68 35 220 70 36 219 72 37 218 74 38 217 76 39 216 78 40 215 80 41 214 82 42 213 84 43 212 86 44 211 88 45 210 90 46 209 92 47 208 94 48 207 96 49 206 98 50 205 100 51 204 102 52 203 104 53 202 106 54 201 108 55 200 110 56 199 112 57 198 114 58 197 116 59 196 118 60 195 120 61 194 122 62 193 124 63 192 126 64 191 128 65 190 130 66 189 132 67 188 134 68 187 136 69 186 138 70 185 140 71 184 142 72 183 144 73 182 146 74 181 148 75 180 150 76 179 152 77 178 154 78 177 156 79 176 158 80 175 160 81 174 162 82 173 164 83 172 166 84 171 168 85 170 170 86 169 172
24 231 48 25 230 50 26 229 52 27 228 54 28 227 56 29 226 58 30 225 60 31 224 62 32 223 64 33 222 66 34 221 68 35 220 70 36 219 72 37 218 74 38 217 76 39 216 78 40 215 80 41 214 82 42 213 84 43 212 86 44 211 88 45 210 90 46 209 92 47 208 94 48 207 96 49 206 98 50 205 100 51 204 102 52 203 104 53 202 106 54 201 108 55 200 110 56 199 112 57 198 114 58 197 116 59 196 118 60 195 120 61 194 122 62 193 124 63 192 126 64 191 128 65 190 130 66 189 132 67 188 134 68 187 136 69 186 138 70 185 140 71 184 142 72 183 144 73 182 146 74 181 148 75 180 150 76 179 152 77 178 154 78 177 156 79 176 158 80 175 160 81 174 162 82 173 164 83 172 166 84 171 168 85 170 170 86 169 172 87 168 174
25 230 50 26 229 52 27 228 54 28 227 56 29 226 58 30 225 60 31 224 62 32 223 64 33 222 66 34 221 68 35 220 70 36 219 72 37 218 74 38 217 76 39 216 78 40 215 80 41 214 82 42 213 84 43 212 86 44 211 88 45 210 90 46 209 92 47 208 94 48 207 96 49 206 98 50 205 100 51 204 102 52 203 104 53 202 106 54 201 108 55 200 110 56 199 112 57 198 114 58 197 116 59 196 118 60 195 120 61 194 122 62 193 124 63 192 126 64 191 128 65 190 130 66 189 132 67 188 134 68 187 136 69 186 138 70 185 140 71 184 142 72 183 144 73 182 146 74 181 148 75 180 150 76 179 152 77 178 154 78 177 156 79 176 158 80 175 160 81 174 162 82 173 164 83 172 166 84 171 168 85 170 170 86 169 172 87 168 174 88 167 176
26 229 52 27 228 54 28 227 56 29 226 58 30 225 60 31 224 62 32 223 64 33 222 66 34 221 68 35 220 70 36 219 72 37 218 74 38 217 76 39 216 78 40 215 80 41 214 82 42 213 84 43 212 86 44 211 88 45 210 90 46 209 92 47 208 94 48 207 96 49 206 98 50 205 100 51 204 102 52 203 104 53 202 106 54 201 108 55 200 110 56 199 112 57 198 114 58 197 116 59 196 118 60 195 120 61 194 122 62 193 124 63 192 126 64 191 128 65 190 130 66 189 132 67 188 134 68 187 136 69 186 138 70 185 140 71 184 142 72 183 144 73 182 146 74 181 148 75 180 150 76 179 152 77 178 154 78 177 156 79 176 158 80 175 160 81 174 162 82 173 164 83 172 166 84 171 168 85 170 170 86 169 172 87 168 174 88 167 176 89 166 178
27 228 54 28 227 56 29 226 58 30 225 60 31 224 62 32 223 64 33 222 66 34 221 68 35 220 70 36 219 72 37 218 74 38 217 76 39 216 78 40 215 80 41 214 82 42 213 84 43 212 86 44 211 88 45 210 90 46 209 92 47 208 94 48 207 96 49 206 98 50 205 100 51 204 102 52 203 104 53 202 106 54 201 108 55 200 110 56 199 112 57 198 114 58 197 116 59 196 118 60 195 120 61 194 122 62 193 124 63 192 126 64 191 128 65 190 130 66 189 132 67 188 134 68 187 136 69 186 138 70 185 140 71 184 142 72 183 144 73 182 146 74 181 148 75 180 150 76 179 152 77 178 154 78 177 156 79 176 158 80 175 160 81 174 162 82 173 164 83 172 166 84 171 168 85 170 170 86 169 172 87 168 174 88 167 176 89 166 178 90 165 180
28 227 56 29 226 58 30 225 60 31 224 62 32 223 64 33 222 66 34 221 68 35 220 70 36 219 72 37 218 74 38 217 76 39 216 78 40 215 80 41 214 82 42 213 84 43 212 86 44 211 88 45 210 90 46 209 92 47 208 94 48 207 96 49 206 98 50 205 100 51 204 102 52 203 104 53 202 106 54 201 108 55 200 110 56 199 112 57 198 114 58 197 116 59 196 118 60 195 120 61 194 122 62 193 124 63 192 126 64 191 128 65 190 130 66 189 132 67 188 134 68 187 136 69 186 138 70 185 140 71 184 142 72 183 144 73 182 146 74 181 148 75 180 150 76 179 152 77 178 154 78 177 156 79 176 158 80 175 160 81 174 162 82 173 164 83 172 166 84 171 168 85 170 170 86 169 172 87 168 174 88 167 176 89 166 178 90 165 180 91 164 182
29 226 58 30 225 60 31 224 62 32 223 64 33 222 66 34 221 68 35 220 70 36 219 72 37 218 74 38 217 76 39 216 78 40 215 80 41 214 82 42 213 84 43 212 86 44 211 88 45 210 90 46 209 92 47 208 94 48 207 96 49 206 98 50 205 100 51 204 102 52 203 104 53 202 106 54 201 108 55 200 110 56 199 112 57 198 114 58 197 116 59 196 118 60 195 120 61 194 122 62 193 124 63 192 126 64 191 128 65 190 130 66 189 132 67 188 134 68 187 136 69 186 138 70 185 140 71 184 142 72 183 144 73 182 146 74 181 148 75 180 150 76 179 152 77 178 154 78 177 156 79 176 158 80 175 160 81 174 162 82 173 164 83 172 166 84 171 168 85 170 170 86 169 172 87 168 174 88 167 176 89 166 178 90 165 180 91 164 182 92 163 184
30 225 60 31 224 62 32 223 64 33 222 66 34 221 68 35 220 70 36 219 72 37 218 74 38 217 76 39 216 78 40 215 80 41 214 82 42 213 84 43 212 86 44 211 88 45 210 90 46 209 92 47 208 94 48 207 96 49 206 98 50 205 100 51 204 102 52 203 104 53 202 106 54 201 108 55 200 110 56 199 112 57 198 114 58 197 116 59 196 118 60 195 120 61 194 122 62 193 124 63 192 126 64 191 128 65 190 130 66 189 132 67 188 134 68 187 136 69 186 138 70 185 140 71 184 142 72 183 144 73 182 146 74 181 148 75 180 150 76 179 152 77 178 154 78 177 156 79 176 158 80 175 160 81 174 162 82 173 164 83 172 166 84 171 168 85 170 170 86 169 172 87 168 174 88 167 176 89 166 178 90 165 180 91 164 182 92 163 184 93 162 186
31 224 62 32 223 64 33 222 66 34 221 68 35 220 70 36 219 72 37 218 74 38 217 76 39 216 78 40 215 80 41 214 82 42 213 84 43 212 86 44 211 88 45 210 90 46 209 92 47 208 94 48 207 96 49 206 98 50 205 100 51 204 102 52 203 104 53 202 106 54 201 108 55 200 110 56 199 112 57 198 114 58 197 116 59 196 118 60 195 120 61 194 122 62 193 124 63 192 126 64 191 128 65 190 130 66 189 132 67 188 134 68 187 136 69 186 138 70 185 140 71 184 142 72 183 144 73 182 146 74 181 148 75 180 150 76 179 152 77 178 154 78 177 156 79 176 158 80 175 160 81 174 162 82 173 164 83 172 166 84 171 168 85 170 170 86 169 172 87 168 174 88 167 176 89 166 178 90 165 180 91 164 182 92 163 184 93 162 186 94 161 188
32 223 64 33 222 66 34 221 68 35 220 70 36 219 72 37 218 74 38 217 76 39 216 78 40 215 80 41 214 82 42 213 84 43 212 86 44 211 88 45 210 90 46 209 92 47 208 94 48 207 96 49 206 98 50 205 100 51 204 102 52 203 104 53 202 106 54 201 108 55 200 110 56 199 112 57 198 114 58 197 116 59 196 118 60 195 120 61 194 122 62 193 124 63 192 126 64 191 128 65 190 130 66 189 132 67 188 134 68 187 136 69 186 138 70 185 140 71 184 142 72 183 144 73 182 146 74 181 148 75 180 150 76 179 152 77 178 154 78 177 156 79 176 158 80 175 160 81 174 162 82 173 164 83 172 166 84 171 168 85 170 170 86 169 172 87 168 174 88 167 176 89 166 178 90 165 180 91 164 182 92 163 184 93 162 186 94 161 188 95 160 190
33 222 66 34 221 68 35 220 70 36 219 72 37 218 74 38 217 76 39 216 78 40 215 80 41 214 82 42 213 84 43 212 86 44 211 88 45 210 90 46 209 92 47 208 94 48 207 96 49 206 98 50 205 100 51 204 102 52 203 104 53 202 106 54 201 108 55 200 110 56 199 112 57 198 114 58 197 116 59 196 118 60 195 120 61 194 122 62 193 124 63 192 126 64 191 128 65 190 130 66 189 132 67 188 134 68 187 136 69 186 138 70 185 140 71 184 142 72 183 144 73 182 146 74 181 148 75 180 150 76 179 152 77 178 154 78 177 156 79 176 158 80 175 160 81 174 162 82 173 164 83 172 166 84 171 168 85 170 170 86 169 172 87 168 174 88 167 176 89 166 178 90 165 180 91 164 182 92 163 184 93 162 186 94 161 188 95 160 190 96 159 192
34 221 68 35 220 70 36 219 72 37 218 74 38 217 76 39 216 78 40 215 80 41 214 82 42 213 84 43 212 86 44 211 88 45 210 90 46 209 92 47 208 94 48 207 96 49 206 98 50 205 100 51 204 102 52 203 104 53 202 106 54 201 108 55 200 110 56 199 112 57 198 114 58 197 116 59 196 118 60 195 120 61 194 122 62 193 124 63 192 126 64 191 128 65 190 130 66 189 132 67 188 134 68 187 136 69 186 138 70 185 140 71 184 142 72 183 144 73 182 146 74 181 148 75 180 150 76 179 152 77 178 154 78 177 156 79 176 158 80 175 160 81 174 162 82 173 164 83 172 166 84 171 168 85 170 170 86 169 172 87 168 174 88 167 176 89 166 178 90 165 180 91 164 182 92 163 184 93 162 186 94 161 188 95 160 190 96 159 192 97 158 194
35 220 70 36 219 72 37 218 74 38 217 76 39 216 78 40 215 80 41 214 82 42 213 84 43 212 86 44 211 88 45 210 90 46 209 92 47 208 94 48 207 96 49 206 98 50 205 100 51 204 102 52 203 104 53 202 106 54 201 108 55 200 110 56 199 112 57 198 114 58 197 116 59 196 118 60 195 120 61 194 122 62 193 124 63 192 126 64 191 128 65 190 130 66 189 132 67 188 134 68 187 136 69 186 138 70 185 140 71 184 142 72 183 144 73 182 146 74 181 148 75 180 150 76 179 152 77 178 154 78 177 156 79 176 158 80 175 160 81 174 162 82 173 164 83 172 166 84 171 168 85 170 170 86 169 172 87 168 174 88 167 176 89 166 178 90 165 180 91 164 182 92 163 184 93 162 186 94 161 188 95 160 190 96 159 192 97 158 194 98 157 196
36 219 72 37 218 74 38 217 76 39 216 78 40 215 80 41 214 82 42 213 84 43 212 86 44 211 88 45 210 90 46 209 92 47 208 94 48 207 96 49 206 98 50 205 100 51 204 102 52 203 104 53 202 106 54 201 108 55 200 110 56 199 112 57 198 114 58 197 116 59 196 118 60 195 120 61 194 122 62 193 124 63 192 126 64 191 128 65 190 130 66 189 132 67 188 134 68 187 136 69 186 138 70 185 140 71 184 142 72 183 144 73 182 146 74 181 148 75 180 150 76 179 152 77 178 154 78 177 156 79 176 158 80 175 160 81 174 162 82 173 164 83 172 166 84 171 168 85 170 170 86 169 172 87 168 174 88 167 176 89 166 178 90 165 180 91 164 182 92 163 184 93 162 186 94 161 188 95 160 190 96 159 192 97 158 194 98 157 196 99 156 198
37 218 74 38 217 76 39 216 78 40 215 80 41 214 82 42 213 84 43 212 86 44 211 88 45 210 90 46 209 92 47 208 94 48 207 96 49 206 98 50 205 100 51 204 102 52 203 104 53 202 106 54 201 108 55 200 110 56 199 112 57 198 114 58 197 116 59 196 118 60 195 120 61 194 122 62 193 124 63 192 126 64 191 128 65 190 130 66 189 132 67 188 134 68 187 136 69 186 138 70 185 140 71 184 142 72 183 144 73 182 146 74 181 148 75 180 150 76 179 152 77 178 154 78 177 156 79 176 158 80 175 160 81 174 162 82 173 164 83 172 166 84 171 168 85 170 170 86 169 172 87 168 174 88 167 176 89 166 178 90 165 180 91 164 182 92 163 184 93 162 186 94 161 188 95 160 190 96 159 192 97 158 194 98 157 196 99 156 198 100 155 200
38 217 76 39 216 78 40 215 80 41 214 82 42 213 84 43 212 86 44 211 88 45 210 90 46 209 92 47 208 94 48 207 96 49 206 98 50 205 100 51 204 102 52 203 104 53 202 106 54 201 108 55 200 110 56 199 112 57 198 114 58 197 116 59 196 118 60 195 120 61 194 122 62 193 124 63 192 126 64 191 128 65 190 130 66 189 132 67 188 134 68 187 136 69 186 138 70 185 140 71 184 142 72 183 144 73 182 146 74 181 148 75 180 150 76 179 152 77 178 154 78 177 156 79 176 158 80 175 160 81 174 162 82 173 164 83 172 166 84 171 168 85 170 170 86 169 172 87 168 174 88 167 176 89 166 178 90 165 180 91 164 182 92 163 184 93 162 186 94 161 188 95 160 190 96 159 192 97 158 194 98 157 196 99 156 198 100 155 200 101 154 202
39 216 78 40 215 80 41 214 82 42 213 84 43 212 86 44 211 88 45 210 90 46 209 92 47 208 94 48 207 96 49 206 98 50 205 100 51 204 102 52 203 104 53 202 106 54 201 108 55 200 110 56 199 112 57 198 114 58 197 116 59 196 118 60 195 120 61 194 122 62 193 124 63 192 126 64 191 128 65 190 130 66 189 132 67 188 134 68 187 136 69 186 138 70 185 140 71 184 142 72 183 144 73 182 146 74 181 148 75 180 150 76 179 152 77 178 154 78 177 156 79 176 158 80 175 160 81 174 162 82 173 164 83 172 166 84 171 168 85 170 170 86 169 172 87 168 174 88 167 176 89 166 178 90 165 180 91 164 182 92 163 184 93 162 186 94 161 188 95 160 190 96 159 192 97 158 194 98 157 196 99 156 198 100 155 200 101 154 202 102 153 204
40 215 80 41 214 82 42 213 84 43 212 86 44 211 88 45 210 90 46 209 92 47 208 94 48 207 96 49 206 98 50 205 100 51 204 102 52 203 104 53 202 106 54 201 108 55 200 110 56 199 112 57 198 114 58 197 116 59 196 118 60 195 120 61 194 122 62 193 124 63 192 126 64 191 128 65 190 130 66 189 132 67 188 134 68 187 136 69 186 138 70 185 140 71 184 142 72 183 144 73 182 146 74 181 148 75 180 150 76 179 152 77 178 154 78 177 156 79 176 158 80 175 160 81 174 162 82 173 164 83 172 166 84 171 168 85 170 170 86 169 172 87 168 174 88 167 176 89 166 178 90 165 180 91 164 182 92 163 184 93 162 186 94 161 188 95 160 190 96 159 192 97 158 194 98 157 196 99 156 198 100 155 200 101 154 202 102 153 204 103 152 206
41 214 82 42 213 84 43 212 86 44 211 88 45 210 90 46 209 92 47 208 94 48 207 96 49 206 98 50 205 100 51 204 102 52 203 104 53 202 106 54 201 108 55 200 110 56 199 112 57 198 114 58 197 116 59 196 118 60 195 120 61 194 122 62 193 124 63 192 126 64 191 128 65 190 130 66 189 132 67 188 134 68 187 136 69 186 138 70 185 140 71 184 142 72 183 144 73 182 146 74 181 148 75 180 150 76 179 152 77 178 154 78 177 156 79 176 158 80 175 160 81 174 162 82 173 164 83 172 166 84 171 168 85 170 170 86 169 172 87 168 174 88 167 176 89 166 178 90 165 180 91 164 182 92 163 184 93 162 186 94 161 188 95 160 190 96 159 192 97 158 194 98 157 196 99 156 198 100 155 200 101 154 202 102 153 204 103 152 206 104 151 208
42 213 84 43 212 86 44 211 88 45 210 90 46 209 92 47 208 94 48 207 96 49 206 98 50 205 100 51 204 102 52 203 104 53 202 106 54 201 108 55 200 110 56 199 112 57 198 114 58 197 116 59 196 118 60 195 120 61 194 122 62 193 124 63 192 126 64 191 128 65 190 130 66 189 132 67 188 134 68 187 136 69 186 138 70 185 140 71 184 142 72 183 144 73 182 146 74 181 148 75 180 150 76 179 152 77 178 154 78 177 156 79 176 158 80 175 160 81 174 162 82 173 164 83 172 166 84 171 168 85 170 170 86 169 172 87 168 174 88 167 176 89 166 178 90 165 180 91 164 182 92 163 184 93 162 186 94 161 188 95 160 190 96 159 192 97 158 194 98 157 196 99 156 198 100 155 200 101 154 202 102 153 204 103 152 206 104 151 208 105 150 210
43 212 86 44 211 88 45 210 90 46 209 92 47 208 94 48 207 96 49 206 98 50 205 100 51 204 102 52 203 104 53 202 106 54 201 108 55 200 110 56 199 112 57 198 114 58 197 116 59 196 118 60 195 120 61 194 122 62 193 124 63 192 126 64 191 128 65 190 130 66 189 132 67 188 134 68 187 136 69 186 138 70 185 140 71 184 142 72 183 144 73 182 146 74 181 148 75 180 150 76 179 152 77 178 154 78 177 156 79 176 158 80 175 160 81 174 162 82 173 164 83 172 166 84 171 168 85 170 170 86 169 172 87 168 174 88 167 176 89 166 178 90 165 180 91 164 182 92 163 184 93 162 186 94 161 188 95 160 190 96 159 192 97 158 194 98 157 196 99 156 198 100 155 200 101 154 202 102 153 204 103 152 206 104 151 208 105 150 210 106 149 212
44 211 88 45 210 90 46 209 92 47 208 94 48 207 96 49 206 98 50 205 100 51 204 102 52 203 104 53 202 106 54 201 108 55 200 110 56 199 112 57 198 114 58 197 116 59 196 118 60 195 120 61 194 122 62 193 124 63 192 126 64 191 128 65 190 130 66 189 132 67 188 134 68 187 136 69 186 138 70 185 140 71 184 142 72 183 144 73 182 146 74 181 148 75 180 150 76 179 152 77 178 154 78 177 156 79 176 158 80 175 160 81 174 162 82 173 164 83 172 166 84 171 168 85 170 170 86 169 172 87 168 174 88 167 176 89 166 178 90 165 180 91 164 182 92 163 184 93 162 186 94 161 188 95 160 190 96 159 192 97 158 194 98 157 196 99 156 198 100 155 200 101 154 202 102 153 204 103 152 206 104 151 208 105 150 210 106 149 212 107 148 214
45 210 90 46 209 92 47 208 94 48 207 96 49 206 98 50 205 100 51 204 102 52 203 104 53 202 106 54 201 108 55 200 110 56 199 112 57 198 114 58 197 116 59 196 118 60 195 120 61 194 122 62 193 124 63 192 126 64 191 128 65 190 130 66 189 132 67 188 134 68 187 136 69 186 138 70 185 140 71 184 142 72 183 144 73 182 146 74 181 148 75 180 150 76 179 152 77 178 154 78 177 156 79 176 158 80 175 160 81 174 162 82 173 164 83 172 166 84 171 168 85 170 170 86 169 172 87 168 174 88 167 176 89 166 178 90 165 180 91 164 182 92 163 184 93 162 186 94 161 188 95 160 190 96 159 192 97 158 194 98 157 196 99 156 198 100 155 200 101 154 202 102 153 204 103 152 206 104 151 208 105 150 210 106 149 212 107 148 214 108 147 216
46 209 92 47 208 94 48 207 96 49 206 98 50 205 100 51 204 102 52 203 104 53 202 106 54 201 108 55 200 110 56 199 112 57 198 114 58 197 116 59 196 118 60 195 120 61 194 122 62 193 124 63 192 126 64 191 128 65 190 130 66 189 132 67 188 134 68 187 136 69 186 138 70 185 140 71 184 142 72 183 144 73 182 146 74 181 148 75 180 150 76 179 152 77 178 154 78 177 156 79 176 158 80 175 160 81 174 162 82 173 164 83 172 166 84 171 168 85 170 170 86 169 172 87 168 174 88 167 176 89 166 178 90 165 180 91 164 182 92 163 184 93 162 186 94 161 188 95 160 190 96 159 192 97 158 194 98 157 196 99 156 198 100 155 200 101 154 202 102 153 204 103 152 206 104 151 208 105 150 210 106 149 212 107 148 214 108 147 216 109 146 218
47 208 94 48 207 96 49 206 98 50 205 100 51 204 102 52 203 104 53 202 106 54 201 108 55 200 110 56 199 112 57 198 114 58 197 116 59 196 118 60 195 120 61 194 122 62 193 124 63 192 126 64 191 128 65 190 130 66 189 132 67 188 134 68 187 136 69 186 138 70 185 140 71 184 142 72 183 144 73 182 146 74 181 148 75 180 150 76 179 152 77 178 154 78 177 156 79 176 158 80 175 160 81 174 162 82 173 164 83 172 166 84 171 168 85 170 170 86 169 172 87 168 174 88 167 176 89 166 178 90 165 180 91 164 182 92 163 184 93 162 186 94 161 188 95 160 190 96 159 192 97 158 194 98 157 196 99 156 198 100 155 200 101 154 202 102 153 204 103 152 206 104 151 208 105 150 210 106 149 212 107 148 214 108 147 216 109 146 218 110 145 220
48 207 96 49 206 98 50 205 100 51 204 102 52 203 104 53 202 106 54 201 108 55 200 110 56 199 112 57 198 114 58 197 116 59 196 118 60 195 120 61 194 122 62 193 124 63 192 126 64 191 128 65 190 130 66 189 132 67 188 134 68 187 136 69 186 138 70 185 140 71 184 142 72 183 144 73 182 146 74 181 148 75 180 150 76 179 152 77 178 154 78 177 156 79 176 158 80 175 160 81 174 162 82 173 164 83 172 166 84 171 168 85 170 170 86 169 172 87 168 174 88 167 176 89 166 178 90 165 180 91 164 182 92 163 184 93 162 186 94 161 188 95 160 190 96 159 192 97 158 194 98 157 196 99 156 198 100 155 200 101 154 202 102 153 204 103 152 206 104 151 208 105 150 210 106 149 212 107 148 214 108 147 216 109 146 218 110 145 220 111 144 222
49 206 98 50 205 100 51 204 102 52 203 104 53 202 106 54 201 108 55 200 110 56 199 112 57 198 114 58 197 116 59 196 118 60 195 120 61 194 122 62 193 124 63 192 126 64 191 128 65 190 130 66 189 132 67 188 134 68 187 136 69 186 138 70 185 140 71 184 142 72 183 144 73 182 146 74 181 148 75 180 150 76 179 152 77 178 154 78 177 156 79 176 158 80 175 160 81 174 162 82 173 164 83 172 166 84 171 168 85 170 170 86 169 172 87 168 174 88 167 176 89 166 178 90 165 180 91 164 182 92 163 184 93 162 186 94 161 188 95 160 190 96 159 192 97 158 194 98 157 196 99 156 198 100 155 200 101 154 202 102 153 204 103 152 206 104 151 208 105 150 210 106 149 212 107 148 214 108 147 216 109 146 218 110 145 220 111 144 222 112 143 224
50 205 100 51 204 102 52 203 104 53 202 106 54 201 108 55 200 110 56 199 112 57 198 114 58 197 116 59 196 118 60 195 120 61 194 122 62 193 124 63 192 126 64 191 128 65 190 130 66 189 132 67 188 134 68 187 136 69 186 138 70 185 140 71 184 142 72 183 144 73 182 146 74 181 148 75 180 150 76 179 152 77 178 154 78 177 156 79 176 158 80 175 160 81 174 162 82 173 164 83 172 166 84 171 168 85 170 170 86 169 172 87 168 174 88 167 176 89 166 178 90 165 180 91 164 182 92 163 184 93 162 186 94 161 188 95 160 190 96 159 192 97 158 194 98 157 196 99 156 198 100 155 200 101 154 202 102 153 204 103 152 206 104 151 208 105 150 210 106 149 212 107 148 214 108 147 216 109 146 218 110 145 220 111 144 222 112 143 224 113 142 226
51 204 102 52 203 104 53 202 106 54 201 108 55 200 110 56 199 112 57 198 114 58 197 116 59 196 118 60 195 120 61 194 122 62 193 124 63 192 126 64 191 128 65 190 130 66 189 132 67 188 134 68 187 136 69 186 138 70 185 140 71 184 142 72 183 144 73 182 146 74 181 148 75 180 150 76 179 152 77 178 154 78 177 156 79 176 158 80 175 160 81 174 162 82 173 164 83 172 166 84 171 168 85 170 170 86 169 172 87 168 174 88 167 176 89 166 178 90 165 180 91 164 182 92 163 184 93 162 186 94 161 188 95 160 190 96 159 192 97 158 194 98 157 196 99 156 198 100 155 200 101 154 202 102 153 204 103 152 206 104 151 208 105 150 210 106 149 212 107 148 214 108 147 216 109 146 218 110 145 220 111 144 222 112 143 224 113 142 226 114 141 228
52 203 104 53 202 106 54 201 108 55 200 110 56 199 112 57 198 114 58 197 116 59 196 118 60 195 120 61 194 122 62 193 124 63 192 126 64 191 128 65 190 130 66 189 132 67 188 134 68 187 136 69 186 138 70 185 140 71 184 142 72 183 144 73 182 146 74 181 148 75 180 150 76 179 152 77 178 154 78 177 156 79 176 158 80 175 160 81 174 162 82 173 164 83 172 166 84 171 168 85 170 170 86 169 172 87 168 174 88 167 176 89 166 178 90 165 180 91 164 182 92 163 184 93 162 186 94 161 188 95 160 190 96 159 192 97 158 194 98 157 196 99 156 198 100 155 200 101 154 202 102 153 204 103 152 206 104 151 208 105 150 210 106 149 212 107 148 214 108 147 216 109 146 218 110 145 220 111 144 222 112 143 224 113 142 226 114 141 228 115 140 230
53 202 106 54 201 108 55 200 110 56 199 112 57 198 114 58 197 116 59 196 118 60 195 120 61 194 122 62 193 124 63 192 126 64 191 128 65 190 130 66 189 132 67 188 134 68 187 136 69 186 138 70 185 140 71 184 142 72 183 144 73 182 146 74 181 148 75 180 150 76 179 152 77 178 154 78 177 156 79 176 158 80 175 160 81 174 162 82 173 164 83 172 166 84 171 168 85 170 170 86 169 172 87 168 174 88 167 176 89 166 178 90 165 180 91 164 182 92 163 184 93 162 186 94 161 188 95 160 190 96 159 192 97 158 194 98 157 196 99 156 198 100 155 200 101 154 202 102 153 204 103 152 206 104 151 208 105 150 210 106 149 212 107 148 214 108 147 216 109 146 218 110 145 220 111 144 222 112 143 224 113 142 226 114 141 228 115 140 230 116 139 232
54 201 108 55 200 110 56 199 112 57 198 114 58 197 116 59 196 118 60 195 120 61 194 122 62 193 124 63 192 126 64 191 128 65 190 130 66 189 132 67 188 134 68 187 136 69 186 138 70 185 140 71 184 142 72 183 144 73 182 146 74 181 148 75 180 150 76 179 152 77 178 154 78 177 156 79 176 158 80 175 160 81 174 162 82 173 164 83 172 166 84 171 168 85 170 170 86 169 172 87 168 174 88 167 176 89 166 178 90 165 180 91 164 182 92 163 184 93 162 186 94 161 188 95 160 190 96 159 192 97 158 194 98 157 196 99 156 198 100 155 200 101 154 202 102 153 204 103 152 206 104 151 208 105 150 210 106 149 212 107 148 214 108 147 216 109 146 218 110 145 220 111 144 222 112 143 224 113 142 226 114 141 228 115 140 230 116 139 232 117 138 234
55 200 110 56 199 112 57 198 114 58 197 116 59 196 118 60 195 120 61 194 122 62 193 124 63 192 126 64 191 128 65 190 130 66 189 132 67 188 134 68 187 136 69 186 138 70 185 140 71 184 142 72 183 144 73 182 146 74 181 148 75 180 150 76 179 152 77 178 154 78 177 156 79 176 158 80 175 160 81 174 162 82 173 164 83 172 166 84 171 168 85 170 170 86 169 172 87 168 174 88 167 176 89 166 178 90 165 180 91 164 182 92 163 184 93 162 186 94 161 188 95 160 190 96 159 192 97 158 194 98 157 196 99 156 198 100 155 200 101 154 202 102 153 204 103 152 206 104 151 208 105 150 210 106 149 212 107 148 214 108 147 216 109 146 218 110 145 220 111 144 222 112 143 224 113 142 226 114 141 228 115 140 230 116 139 232 117 138 234 118 137 236
56 199 112 57 198 114 58 197 116 59 196 118 60 195 120 61 194 122 62 193 124 63 192 126 64 191 128 65 190 130 66 189 132 67 188 134 68 187 136 69 186 138 70 185 140 71 184 142 72 183 144 73 182 146 74 181 148 75 180 150 76 179 152 77 178 154 78 177 156 79 176 158 80 175 160 81 174 162 82 173 164 83 172 166 84 171 168 85 170 170 86 169 172 87 168 174 88 167 176 89 166 178 90 165 180 91 164 182 92 163 184 93 162 186 94 161 188 95 160 190 96 159 192 97 158 194 98 157 196 99 156 198 100 155 200 101 154 202 102 153 204 103 152 206 104 151 208 105 150 210 106 149 212 107 148 214 108 147 216 109 146 218 110 145 220 111 144 222 112 143 224 113 142 226 114 141 228 115 140 230 116 139 232 117 138 234 118 137 236 119 136 238
57 198 114 58 197 116 59 196 118 60 195 120 61 194 122 62 193 124 63 192 126 64 191 128 65 190 130 66 189 132 67 188 134 68 187 136 69 186 138 70 185 140 71 184 142 72 183 144 73 182 146 74 181 148 75 180 150 76 179 152 77 178 154 78 177 156 79 176 158 80 175 160 81 174 162 82 173 164 83 172 166 84 171 168 85 170 170 86 169 172 87 168 174 88 167 176 89 166 178 90 165 180 91 164 182 92 163 184 93 162 186 94 161 188 95 160 190 96 159 192 97 158 194 98 157 196 99 156 198 100 155 200 101 154 202 102 153 204 103 152 206 104 151 208 105 150 210 106 149 212 107 148 214 108 147 216 109 146 218 110 145 220 111 144 222 112 143 224 113 142 226 114 141 228 115 140 230 116 139 232 117 138 234 118 137 236 119 136 238 120 135 240
58 197 116 59 196 118 60 195 120 61 194 122 62 193 124 63 192 126 64 191 128 65 190 130 66 189 132 67 188 134 68 187 136 69 186 138 70 185 140 71 184 142 72 183 144 73 182 146 74 181 148 75 180 150 76 179 152 77 178 154 78 177 156 79 176 158 80 175 160 81 174 162 82 173 164 83 172 166 84 171 168 85 170 170 86 169 172 87 168 174 88 167 176 89 166 178 90 165 180 91 164 182 92 163 184 93 162 186 94 161 188 95 160 190 96 159 192 97 158 194 98 157 196 99 156 198 100 155 200 101 154 202 102 153 204 103 152 206 104 151 208 105 150 210 106 149 212 107 148 214 108 147 216 109 146 218 110 145 220 111 144 222 112 143 224 113 142 226 114 141 228 115 140 230 116 139 232 117 138 234 118 137 236 119 136 238 120 135 240 121 134 242
59 196 118 60 195 120 61 194 122 62 193 124 63 192 126 64 191 128 65 190 130 66 189 132 67 188 134 68 187 136 69 186 138 70 185 140 71 184 142 72 183 144 73 182 146 74 181 148 75 180 150 76 179 152 77 178 154 78 177 156 79 176 158 80 175 160 81 174 162 82 173 164 83 172 166 84 171 168 85 170 170 86 169 172 87 168 174 88 167 176 89 166 178 90 165 180 91 164 182 92 163 184 93 162 186 94 161 188 95 160 190 96 159 192 97 158 194 98 157 196 99 156 198 100 155 200 101 154 202 102 153 204 103 152 206 104 151 208 105 150 210 106 149 212 107 148 214 108 147 216 109 146 218 110 145 220 111 144 222 112 143 224 113 142 226 114 141 228 115 140 230 116 139 232 117 138 234 118 137 236 119 136 238 120 135 240 121 134 242 122 133 244
60 195 120 61 194 122 62 193 124 63 192 126 64 191 128 65 190 130 66 189 132 67 188 134 68 187 136 69 186 138 70 185 140 71 184 142 72 183 144 73 182 146 74 181 148 75 180 150 76 179 152 77 178 154 78 177 156 79 176 158 80 175 160 81 174 162 82 173 164 83 172 166 84 171 168 85 170 170 86 169 172 87 168 174 88 167 176 89 166 178 90 165 180 91 164 182 92 163 184 93 162 186 94 161 188 95 160 190 96 159 192 97 158 194 98 157 196 99 156 198 100 155 200 101 154 202 102 153 204 103 152 206 104 151 208 105 150 210 106 149 212 107 148 214 108 147 216 109 146 218 110 145 220 111 144 222 112 143 224 113 142 226 114 141 228 115 140 230 116 139 232 117 138 234 118 137 236 119 136 238 120 135 240 121 134 242 122 133 244 123 132 246
61 194 122 62 193 124 63 192 126 64 191 128 65 190 130 66 189 132 67 188 134 68 187 136 69 186 138 70 185 140 71 184 142 72 183 144 73 182 146 74 181 148 75 180 150 76 179 152 77 178 154 78 177 156 79 176 158 80 175 160 81 174 162 82 173 164 83 172 166 84 171 168 85 170 170 86 169 172 87 168 174 88 167 176 89 166 178 90 165 180 91 164 182 92 163 184 93 162 186 94 161 188 95 160 190 96 159 192 97 158 194 98 157 196 99 156 198 100 155 200 101 154 202 102 153 204 103 152 206 104 151 208 105 150 210 106 149 212 107 148 214 108 147 216 109 146 218 110 145 220 111 144 222 112 143 224 113 142 226 114 141 228 115 140 230 116 139 232 117 138 234 118 137 236 119 136 238 120 135 240 121 134 242 122 133 244 123 132 246 124 131 248
62 193 124 63 192 126 64 191 128 65 190 130 66 189 132 67 188 134 68 187 136 69 186 138 70 185 140 71 184 142 72 183 144 73 182 146 74 181 148 75 180 150 76 179 152 77 178 154 78 177 156 79 176 158 80 175 160 81 174 162 82 173 164 83 172 166 84 171 168 85 170 170 86 169 172 87 168 174 88 167 176 89 166 178 90 165 180 91 164 182 92 163 184 93 162 186 94 161 188 95 160 190 96 159 192 97 158 194 98 157 196 99 156 198 100 155 200 101 154 202 102 153 204 103 152 206 104 151 208 105 150 210 106 149 212 107 148 214 108 147 216 109 146 218 110 145 220 111 144 222 112 143 224 113 142 226 114 141 228 115 140 230 116 139 232 117 138 234 118 137 236 119 136 238 120 135 240 121 134 242 122 133 244 123 132 246 124 131 248 125 130 250
63 192 126 64 191 128 65 190 130 66 189 132 67 188 134 68 187 136 69 186 138 70 185 140 71 184 142 72 183 144 73 182 146 74 181 148 75 180 150 76 179 152 77 178 154 78 177 156 79 176 158 80 175 160 81 174 162 82 173 164 83 172 166 84 171 168 85 170 170 86 169 172 87 168 174 88 167 176 89 166 178 90 165 180 91 164 182 92 163 184 93 162 186 94 161 188 95 160 190 96 159 192 97 158 194 98 157 196 99 156 198 100 155 200 101 154 202 102 153 204 103 152 206 104 151 208 105 150 210 106 149 212 107 148 214 108 147 216 109 146 218 110 145 220 111 144 222 112 143 224 113 142 226 114 141 228 115 140 230 116 139 232 117 138 234 118 137 236 119 136 238 120 135 240 121 134 242 122 133 244 123 132 246 124 131 248 125 130 250 126 129 252
