P3
48 48
255
0 128 255 0 128 255 0 128 255 0 128 255 0 128 255 0 128 255 0 128 255 0 128 255 0 128 255 0 128 255 0 128 255 0 128 255 0 128 255 0 128 255 0 128 255 0 128 255 0 128 255 0 128 255 0 128 255 0 128 255 0 128 255 0 128 255 0 128 255 0 128 255 0 128 255 0 128 255 0 128 255 0 128 255 0 128 255 0 128 255 0 128 255 0 128 255 0 128 255 0 128 255 0 128 255 0 128 255 0 128 255 0 128 255 0 128 255 0 128 255 0 128 255 0 128 255 0 128 255 0 128 255 0 128 255 0 128 255 0 128 255 0 128 255
5 128 250 5 128 250 5 128 250 5 128 250 5 128 250 5 128 250 5 128 250 5 128 250 5 128 250 5 128 250 5 128 250 5 128 250 5 128 250 5 128 250 5 128 250 5 128 250 5 128 250 5 128 250 5 128 250 5 128 250 5 128 250 5 128 250 5 128 250 5 128 250 5 128 250 5 128 250 5 128 250 5 128 250 5 128 250 5 128 250 5 128 250 5 128 250 5 128 250 5 128 250 5 128 250 5 128 250 5 128 250 5 128 250 5 128 250 5 128 250 5 128 250 5 128 250 5 128 250 5 128 250 5 128 250 5 128 250 5 128 250 5 128 250
10 128 245 10 128 245 10 128 245 10 128 245 10 128 245 10 128 245 10 128 245 10 128 245 10 128 245 10 128 245 10 128 245 10 128 245 10 128 245 10 128 245 10 128 245 10 128 245 10 128 245 10 128 245 10 128 245 10 128 245 10 128 245 10 128 245 10 128 245 10 128 245 10 128 245 10 128 245 10 128 245 10 128 245 10 128 245 10 128 245 10 128 245 10 128 245 10 128 245 10 128 245 10 128 245 10 128 245 10 128 245 10 128 245 10 128 245 10 128 245 10 128 245 10 128 245 10 128 245 10 128 245 10 128 245 10 128 245 10 128 245 10 128 245
16 128 239 16 128 239 16 128 239 16 128 239 16 128 239 16 128 239 16 128 239 16 128 239 16 128 239 16 128 239 16 128 239 16 128 239 16 128 239 16 128 239 16 128 239 16 128 239 16 128 239 16 128 239 16 128 239 16 128 239 16 128 239 16 128 239 16 128 239 16 128 239 16 128 239 16 128 239 16 128 239 16 128 239 16 128 239 16 128 239 16 128 239 16 128 239 16 128 239 16 128 239 16 128 239 16 128 239 16 128 239 16 128 239 16 128 239 16 128 239 16 128 239 16 128 239 16 128 239 16 128 239 16 128 239 16 128 239 16 128 239 16 128 239
21 128 234 21 128 234 21 128 234 21 128 234 21 128 234 21 128 234 21 128 234 21 128 234 21 128 234 21 128 234 21 128 234 21 128 234 21 128 234 21 128 234 21 128 234 21 128 234 21 128 234 21 128 234 21 128 234 21 128 234 21 128 234 21 128 234 21 128 234 21 128 234 21 128 234 21 128 234 21 128 234 21 128 234 21 128 234 21 128 234 21 128 234 21 128 234 21 128 234 21 128 234 21 128 234 21 128 234 21 128 234 21 128 234 21 128 234 21 128 234 21 128 234 21 128 234 21 128 234 21 128 234 21 128 234 21 128 234 21 128 234 21 128 234
27 128 228 27 128 228 27 128 228 27 128 228 27 128 228 27 128 228 27 128 228 27 128 228 27 128 228 27 128 228 27 128 228 27 128 228 27 128 228 27 128 228 27 128 228 27 128 228 27 128 228 27 128 228 27 128 228 27 128 228 27 128 228 27 128 228 27 128 228 27 128 228 27 128 228 27 128 228 27 128 228 27 128 228 27 128 228 27 128 228 27 128 228 27 128 228 27 128 228 27 128 228 27 128 228 27 128 228 27 128 228 27 128 228 27 128 228 27 128 228 27 128 228 27 128 228 27 128 228 27 128 228 27 128 228 27 128 228 27 128 228 27 128 228
32 128 223 32 128 223 32 128 223 32 128 223 32 128 223 32 128 223 32 128 223 32 128 223 32 128 223 32 128 223 32 128 223 32 128 223 32 128 223 32 128 223 32 128 223 32 128 223 32 128 223 32 128 223 32 128 223 32 128 223 32 128 223 32 128 223 32 128 223 32 128 223 32 128 223 32 128 223 32 128 223 32 128 223 32 128 223 32 128 223 32 128 223 32 128 223 32 128 223 32 128 223 32 128 223 32 128 223 32 128 223 32 128 223 32 128 223 32 128 223 32 128 223 32 128 223 32 128 223 32 128 223 32 128 223 32 128 223 32 128 223 32 128 223
37 128 218 37 128 218 37 128 218 37 128 218 37 128 218 37 128 218 37 128 218 37 128 218 37 128 218 37 128 218 37 128 218 37 128 218 37 128 218 37 128 218 37 128 218 37 128 218 37 128 218 37 128 218 37 128 218 37 128 218 37 128 218 37 128 218 37 128 218 37 128 218 37 128 218 37 128 218 37 128 218 37 128 218 37 128 218 37 128 218 37 128 218 37 128 218 37 128 218 37 128 218 37 128 218 37 128 218 37 128 218 37 128 218 37 128 218 37 128 218 37 128 218 37 128 218 37 128 218 37 128 218 37 128 218 37 128 218 37 128 218 37 128 218
43 128 212 43 128 212 43 128 212 43 128 212 43 128 212 43 128 212 43 128 212 43 128 212 43 128 212 43 128 212 43 128 212 43 128 212 43 128 212 43 128 212 43 128 212 43 128 212 43 128 212 43 128 212 43 128 212 43 128 212 43 128 212 43 128 212 43 128 212 43 128 212 43 128 212 43 128 212 43 128 212 43 128 212 43 128 212 43 128 212 43 128 212 43 128 212 43 128 212 43 128 212 43 128 212 43 128 212 43 128 212 43 128 212 43 128 212 43 128 212 43 128 212 43 128 212 43 128 212 43 128 212 43 128 212 43 128 212 43 128 212 43 128 212
48 128 207 48 128 207 48 128 207 48 128 207 48 128 207 48 128 207 48 128 207 48 128 207 48 128 207 48 128 207 48 128 207 48 128 207 48 128 207 48 128 207 48 128 207 48 128 207 48 128 207 48 128 207 48 128 207 48 128 207 48 128 207 48 128 207 48 128 207 48 128 207 48 128 207 48 128 207 48 128 207 48 128 207 48 128 207 48 128 207 48 128 207 48 128 207 48 128 207 48 128 207 48 128 207 48 128 207 48 128 207 48 128 207 48 128 207 48 128 207 48 128 207 48 128 207 48 128 207 48 128 207 48 128 207 48 128 207 48 128 207 48 128 207
54 128 201 54 128 201 54 128 201 54 128 201 54 128 201 54 128 201 54 128 201 54 128 201 54 128 201 54 128 201 54 128 201 54 128 201 54 128 201 54 128 201 54 128 201 54 128 201 54 128 201 54 128 201 54 128 201 54 128 201 54 128 201 54 128 201 54 128 201 54 128 201 54 128 201 54 128 201 54 128 201 54 128 201 54 128 201 54 128 201 54 128 201 54 128 201 54 128 201 54 128 201 54 128 201 54 128 201 54 128 201 54 128 201 54 128 201 54 128 201 54 128 201 54 128 201 54 128 201 54 128 201 54 128 201 54 128 201 54 128 201 54 128 201
59 128 196 59 128 196 59 128 196 59 128 196 59 128 196 59 128 196 59 128 196 59 128 196 59 128 196 59 128 196 59 128 196 59 128 196 59 128 196 59 128 196 59 128 196 59 128 196 59 128 196 59 128 196 59 128 196 59 128 196 59 128 196 59 128 196 59 128 196 59 128 196 59 128 196 59 128 196 59 128 196 59 128 196 59 128 196 59 128 196 59 128 196 59 128 196 59 128 196 59 128 196 59 128 196 59 128 196 59 128 196 59 128 196 59 128 196 59 128 196 59 128 196 59 128 196 59 128 196 59 128 196 59 128 196 59 128 196 59 128 196 59 128 196
65 128 190 65 128 190 65 128 190 65 128 190 65 128 190 65 128 190 65 128 190 65 128 190 65 128 190 65 128 190 65 128 190 65 128 190 65 128 190 65 128 190 65 128 190 65 128 190 65 128 190 65 128 190 65 128 190 65 128 190 65 128 190 65 128 190 65 128 190 65 128 190 65 128 190 65 128 190 65 128 190 65 128 190 65 128 190 65 128 190 65 128 190 65 128 190 65 128 190 65 128 190 65 128 190 65 128 190 65 128 190 65 128 190 65 128 190 65 128 190 65 128 190 65 128 190 65 128 190 65 128 190 65 128 190 65 128 190 65 128 190 65 128 190
70 128 185 70 128 185 70 128 185 70 128 185 70 128 185 70 128 185 70 128 185 70 128 185 70 128 185 70 128 185 70 128 185 70 128 185 70 128 185 70 128 185 70 128 185 70 128 185 70 128 185 70 128 185 70 128 185 70 128 185 70 128 185 70 128 185 70 128 185 70 128 185 70 128 185 70 128 185 70 128 185 70 128 185 70 128 185 70 128 185 70 128 185 70 128 185 70 128 185 70 128 185 70 128 185 70 128 185 70 128 185 70 128 185 70 128 185 70 128 185 70 128 185 70 128 185 70 128 185 70 128 185 70 128 185 70 128 185 70 128 185 70 128 185
75 128 180 75 128 180 75 128 180 75 128 180 75 128 180 75 128 180 75 128 180 75 128 180 75 128 180 75 128 180 75 128 180 75 128 180 75 128 180 75 128 180 75 128 180 75 128 180 75 128 180 75 128 180 75 128 180 75 128 180 75 128 180 75 128 180 75 128 180 75 128 180 75 128 180 75 128 180 75 128 180 75 128 180 75 128 180 75 128 180 75 128 180 75 128 180 75 128 180 75 128 180 75 128 180 75 128 180 75 128 180 75 128 180 75 128 180 75 128 180 75 128 180 75 128 180 75 128 180 75 128 180 75 128 180 75 128 180 75 128 180 75 128 180
81 128 174 81 128 174 81 128 174 81 128 174 81 128 174 81 128 174 81 128 174 81 128 174 81 128 174 81 128 174 81 128 174 81 128 174 81 128 174 81 128 174 81 128 174 81 128 174 81 128 174 81 128 174 81 128 174 81 128 174 81 128 174 81 128 174 81 128 174 81 128 174 81 128 174 81 128 174 81 128 174 81 128 174 81 128 174 81 128 174 81 128 174 81 128 174 81 128 174 81 128 174 81 128 174 81 128 174 81 128 174 81 128 174 81 128 174 81 128 174 81 128 174 81 128 174 81 128 174 81 128 174 81 128 174 81 128 174 81 128 174 81 128 174
86 128 169 86 128 169 86 128 169 86 128 169 86 128 169 86 128 169 86 128 169 86 128 169 86 128 169 86 128 169 86 128 169 86 128 169 86 128 169 86 128 169 86 128 169 86 128 169 86 128 169 86 128 169 86 128 169 86 128 169 86 128 169 86 128 169 86 128 169 86 128 169 86 128 169 86 128 169 86 128 169 86 128 169 86 128 169 86 128 169 86 128 169 86 128 169 86 128 169 86 128 169 86 128 169 86 128 169 86 128 169 86 128 169 86 128 169 86 128 169 86 128 169 86 128 169 86 128 169 86 128 169 86 128 169 86 128 169 86 128 169 86 128 169
92 128 163 92 128 163 92 128 163 92 128 163 92 128 163 92 128 163 92 128 163 92 128 163 92 128 163 92 128 163 92 128 163 92 128 163 92 128 163 92 128 163 92 128 163 92 128 163 92 128 163 92 128 163 92 128 163 92 128 163 92 128 163 92 128 163 92 128 163 92 128 163 92 128 163 92 128 163 92 128 163 92 128 163 92 128 163 92 128 163 92 128 163 92 128 163 92 128 163 92 128 163 92 128 163 92 128 163 92 128 163 92 128 163 92 128 163 92 128 163 92 128 163 92 128 163 92 128 163 92 128 163 92 128 163 92 128 163 92 128 163 92 128 163
97 128 158 97 128 158 97 128 158 97 128 158 97 128 158 97 128 158 97 128 158 97 128 158 97 128 158 97 128 158 97 128 158 97 128 158 97 128 158 97 128 158 97 128 158 97 128 158 97 128 158 97 128 158 97 128 158 97 128 158 97 128 158 97 128 158 97 128 158 97 128 158 97 128 158 97 128 158 97 128 158 97 128 158 97 128 158 97 128 158 97 128 158 97 128 158 97 128 158 97 128 158 97 128 158 97 128 158 97 128 158 97 128 158 97 128 158 97 128 158 97 128 158 97 128 158 97 128 158 97 128 158 97 128 158 97 128 158 97 128 158 97 128 158
103 128 152 103 128 152 103 128 152 103 128 152 103 128 152 103 128 152 103 128 152 103 128 152 103 128 152 103 128 152 103 128 152 103 128 152 103 128 152 103 128 152 103 128 152 103 128 152 103 128 152 103 128 152 103 128 152 103 128 152 103 128 152 103 128 152 103 128 152 103 128 152 103 128 152 103 128 152 103 128 152 103 128 152 103 128 152 103 128 152 103 128 152 103 128 152 103 128 152 103 128 152 103 128 152 103 128 152 103 128 152 103 128 152 103 128 152 103 128 152 103 128 152 103 128 152 103 128 152 103 128 152 103 128 152 103 128 152 103 128 152 103 128 152
108 128 147 108 128 147 108 128 147 108 128 147 108 128 147 108 128 147 108 128 147 108 128 147 108 128 147 108 128 147 108 128 147 108 128 147 108 128 147 108 128 147 108 128 147 108 128 147 108 128 147 108 128 147 108 128 147 108 128 147 108 128 147 108 128 147 108 128 147 108 128 147 108 128 147 108 128 147 108 128 147 108 128 147 108 128 147 108 128 147 108 128 147 108 128 147 108 128 147 108 128 147 108 128 147 108 128 147 108 128 147 108 128 147 108 128 147 108 128 147 108 128 147 108 128 147 108 128 147 108 128 147 108 128 147 108 128 147 108 128 147 108 128 147
113 128 142 113 128 142 113 128 142 113 128 142 113 128 142 113 128 142 113 128 142 113 128 142 113 128 142 113 128 142 113 128 142 113 128 142 113 128 142 113 128 142 113 128 142 113 128 142 113 128 142 113 128 142 113 128 142 113 128 142 113 128 142 113 128 142 113 128 142 113 128 142 113 128 142 113 128 142 113 128 142 113 128 142 113 128 142 113 128 142 113 128 142 113 128 142 113 128 142 113 128 142 113 128 142 113 128 142 113 128 142 113 128 142 113 128 142 113 128 142 113 128 142 113 128 142 113 128 142 113 128 142 113 128 142 113 128 142 113 128 142 113 128 142
119 128 136 119 128 136 119 128 136 119 128 136 119 128 136 119 128 136 119 128 136 119 128 136 119 128 136 119 128 136 119 128 136 119 128 136 119 128 136 119 128 136 119 128 136 119 128 136 119 128 136 119 128 136 119 128 136 119 128 136 119 128 136 119 128 136 119 128 136 119 128 136 119 128 136 119 128 136 119 128 136 119 128 136 119 128 136 119 128 136 119 128 136 119 128 136 119 128 136 119 128 136 119 128 136 119 128 136 119 128 136 119 128 136 119 128 136 119 128 136 119 128 136 119 128 136 119 128 136 119 128 136 119 128 136 119 128 136 119 128 136 119 128 136
124 128 131 124 128 131 124 128 131 124 128 131 124 128 131 124 128 131 124 128 131 124 128 131 124 128 131 124 128 131 124 128 131 124 128 131 124 128 131 124 128 131 124 128 131 124 128 131 124 128 131 124 128 131 124 128 131 124 128 131 124 128 131 124 128 131 124 128 131 124 128 131 124 128 131 124 128 131 124 128 131 124 128 131 124 128 131 124 128 131 124 128 131 124 128 131 124 128 131 124 128 131 124 128 131 124 128 131 124 128 131 124 128 131 124 128 131 124 128 131 124 128 131 124 128 131 124 128 131 124 128 131 124 128 131 124 128 131 124 128 131 124 128 131
130 128 125 130 128 125 130 128 125 130 128 125 130 128 125 130 128 125 130 128 125 130 128 125 130 128 125 130 128 125 130 128 125 130 128 125 130 128 125 130 128 125 130 128 125 130 128 125 130 128 125 130 128 125 130 128 125 130 128 125 130 128 125 130 128 125 130 128 125 130 128 125 130 128 125 130 128 125 130 128 125 130 128 125 130 128 125 130 128 125 130 128 125 130 128 125 130 128 125 130 128 125 130 128 125 130 128 125 130 128 125 130 128 125 130 128 125 130 128 125 130 128 125 130 128 125 130 128 125 130 128 125 130 128 125 130 128 125 130 128 125 130 128 125
135 128 120 135 128 120 135 128 120 135 128 120 135 128 120 135 128 120 135 128 120 135 128 120 135 128 120 135 128 120 135 128 120 135 128 120 135 128 120 135 128 120 135 128 120 135 128 120 135 128 120 135 128 120 135 128 120 135 128 120 135 128 120 135 128 120 135 128 120 135 128 120 135 128 120 135 128 120 135 128 120 135 128 120 135 128 120 135 128 120 135 128 120 135 128 120 135 128 120 135 128 120 135 128 120 135 128 120 135 128 120 135 128 120 135 128 120 135 128 120 135 128 120 135 128 120 135 128 120 135 128 120 135 128 120 135 128 120 135 128 120 135 128 120
141 128 114 141 128 114 141 128 114 141 128 114 141 128 114 141 128 114 141 128 114 141 128 114 141 128 114 141 128 114 141 128 114 141 128 114 141 128 114 141 128 114 141 128 114 141 128 114 141 128 114 141 128 114 141 128 114 141 128 114 141 128 114 141 128 114 141 128 114 141 128 114 141 128 114 141 128 114 141 128 114 141 128 114 141 128 114 141 128 114 141 128 114 141 128 114 141 128 114 141 128 114 141 128 114 141 128 114 141 128 114 141 128 114 141 128 114 141 128 114 141 128 114 141 128 114 141 128 114 141 128 114 141 128 114 141 128 114 141 128 114 141 128 114
146 128 109 146 128 109 146 128 109 146 128 109 146 128 109 146 128 109 146 128 109 146 128 109 146 128 109 146 128 109 146 128 109 146 128 109 146 128 109 146 128 109 146 128 109 146 128 109 146 128 109 146 128 109 146 128 109 146 128 109 146 128 109 146 128 109 146 128 109 146 128 109 146 128 109 146 128 109 146 128 109 146 128 109 146 128 109 146 128 109 146 128 109 146 128 109 146 128 109 146 128 109 146 128 109 146 128 109 146 128 109 146 128 109 146 128 109 146 128 109 146 128 109 146 128 109 146 128 109 146 128 109 146 128 109 146 128 109 146 128 109 146 128 109
151 128 104 151 128 104 151 128 104 151 128 104 151 128 104 151 128 104 151 128 104 151 128 104 151 128 104 151 128 104 151 128 104 151 128 104 151 128 104 151 128 104 151 128 104 151 128 104 151 128 104 151 128 104 151 128 104 151 128 104 151 128 104 151 128 104 151 128 104 151 128 104 151 128 104 151 128 104 151 128 104 151 128 104 151 128 104 151 128 104 151 128 104 151 128 104 151 128 104 151 128 104 151 128 104 151 128 104 151 128 104 151 128 104 151 128 104 151 128 104 151 128 104 151 128 104 151 128 104 151 128 104 151 128 104 151 128 104 151 128 104 151 128 104
157 128 98 157 128 98 157 128 98 157 128 98 157 128 98 157 128 98 157 128 98 157 128 98 157 128 98 157 128 98 157 128 98 157 128 98 157 128 98 157 128 98 157 128 98 157 128 98 157 128 98 157 128 98 157 128 98 157 128 98 157 128 98 157 128 98 157 128 98 157 128 98 157 128 98 157 128 98 157 128 98 157 128 98 157 128 98 157 128 98 157 128 98 157 128 98 157 128 98 157 128 98 157 128 98 157 128 98 157 128 98 157 128 98 157 128 98 157 128 98 157 128 98 157 128 98 157 128 98 157 128 98 157 128 98 157 128 98 157 128 98 157 128 98
162 128 93 162 128 93 162 128 93 162 128 93 162 128 93 162 128 93 162 128 93 162 128 93 162 128 93 162 128 93 162 128 93 162 128 93 162 128 93 162 128 93 162 128 93 162 128 93 162 128 93 162 128 93 162 128 93 162 128 93 162 128 93 162 128 93 162 128 93 162 128 93 162 128 93 162 128 93 162 128 93 162 128 93 162 128 93 162 128 93 162 128 93 162 128 93 162 128 93 162 128 93 162 128 93 162 128 93 162 128 93 162 128 93 162 128 93 162 128 93 162 128 93 162 128 93 162 128 93 162 128 93 162 128 93 162 128 93 162 128 93 162 128 93
168 128 87 168 128 87 168 128 87 168 128 87 168 128 87 168 128 87 168 128 87 168 128 87 168 128 87 168 128 87 168 128 87 168 128 87 168 128 87 168 128 87 168 128 87 168 128 87 168 128 87 168 128 87 168 128 87 168 128 87 168 128 87 168 128 87 168 128 87 168 128 87 168 128 87 168 128 87 168 128 87 168 128 87 168 128 87 168 128 87 168 128 87 168 128 87 168 128 87 168 128 87 168 128 87 168 128 87 168 128 87 168 128 87 168 128 87 168 128 87 168 128 87 168 128 87 168 128 87 168 128 87 168 128 87 168 128 87 168 128 87 168 128 87
173 128 82 173 128 82 173 128 82 173 128 82 173 128 82 173 128 82 173 128 82 173 128 82 173 128 82 173 128 82 173 128 82 173 128 82 173 128 82 173 128 82 173 128 82 173 128 82 173 128 82 173 128 82 173 128 82 173 128 82 173 128 82 173 128 82 173 128 82 173 128 82 173 128 82 173 128 82 173 128 82 173 128 82 173 128 82 173 128 82 173 128 82 173 128 82 173 128 82 173 128 82 173 128 82 173 128 82 173 128 82 173 128 82 173 128 82 173 128 82 173 128 82 173 128 82 173 128 82 173 128 82 173 128 82 173 128 82 173 128 82 173 128 82
179 128 76 179 128 76 179 128 76 179 128 76 179 128 76 179 128 76 179 128 76 179 128 76 179 128 76 179 128 76 179 128 76 179 128 76 179 128 76 179 128 76 179 128 76 179 128 76 179 128 76 179 128 76 179 128 76 179 128 76 179 128 76 179 128 76 179 128 76 179 128 76 179 128 76 179 128 76 179 128 76 179 128 76 179 128 76 179 128 76 179 128 76 179 128 76 179 128 76 179 128 76 179 128 76 179 128 76 179 128 76 179 128 76 179 128 76 179 128 76 179 128 76 179 128 76 179 128 76 179 128 76 179 128 76 179 128 76 179 128 76 179 128 76
184 128 71 184 128 71 184 128 71 184 128 71 184 128 71 184 128 71 184 128 71 184 128 71 184 128 71 184 128 71 184 128 71 184 128 71 184 128 71 184 128 71 184 128 71 184 128 71 184 128 71 184 128 71 184 128 71 184 128 71 184 128 71 184 128 71 184 128 71 184 128 71 184 128 71 184 128 71 184 128 71 184 128 71 184 128 71 184 128 71 184 128 71 184 128 71 184 128 71 184 128 71 184 128 71 184 128 71 184 128 71 184 128 71 184 128 71 184 128 71 184 128 71 184 128 71 184 128 71 184 128 71 184 128 71 184 128 71 184 128 71 184 128 71
189 128 66 189 128 66 189 128 66 189 128 66 189 128 66 189 128 66 189 128 66 189 128 66 189 128 66 189 128 66 189 128 66 189 128 66 189 128 66 189 128 66 189 128 66 189 128 66 189 128 66 189 128 66 189 128 66 189 128 66 189 128 66 189 128 66 189 128 66 189 128 66 189 128 66 189 128 66 189 128 66 189 128 66 189 128 66 189 128 66 189 128 66 189 128 66 189 128 66 189 128 66 189 128 66 189 128 66 189 128 66 189 128 66 189 128 66 189 128 66 189 128 66 189 128 66 189 128 66 189 128 66 189 128 66 189 128 66 189 128 66 189 128 66
195 128 60 195 128 60 195 128 60 195 128 60 195 128 60 195 128 60 195 128 60 195 128 60 195 128 60 195 128 60 195 128 60 195 128 60 195 128 60 195 128 60 195 128 60 195 128 60 195 128 60 195 128 60 195 128 60 195 128 60 195 128 60 195 128 60 195 128 60 195 128 60 195 128 60 195 128 60 195 128 60 195 128 60 195 128 60 195 128 60 195 128 60 195 128 60 195 128 60 195 128 60 195 128 60 195 128 60 195 128 60 195 128 60 195 128 60 195 128 60 195 128 60 195 128 60 195 128 60 195 128 60 195 128 60 195 128 60 195 128 60 195 128 60
200 128 55 200 128 55 200 128 55 200 128 55 200 128 55 200 128 55 200 128 55 200 128 55 200 128 55 200 128 55 200 128 55 200 128 55 200 128 55 200 128 55 200 128 55 200 128 55 200 128 55 200 128 55 200 128 55 200 128 55 200 128 55 200 128 55 200 128 55 200 128 55 200 128 55 200 128 55 200 128 55 200 128 55 200 128 55 200 128 55 200 128 55 200 128 55 200 128 55 200 128 55 200 128 55 200 128 55 200 128 55 200 128 55 200 128 55 200 128 55 200 128 55 200 128 55 200 128 55 200 128 55 200 128 55 200 128 55 200 128 55 200 128 55
206 128 49 206 128 49 206 128 49 206 128 49 206 128 49 206 128 49 206 128 49 206 128 49 206 128 49 206 128 49 206 128 49 206 128 49 206 128 49 206 128 49 206 128 49 206 128 49 206 128 49 206 128 49 206 128 49 206 128 49 206 128 49 206 128 49 206 128 49 206 128 49 206 128 49 206 128 49 206 128 49 206 128 49 206 128 49 206 128 49 206 128 49 206 128 49 206 128 49 206 128 49 206 128 49 206 128 49 206 128 49 206 128 49 206 128 49 206 128 49 206 128 49 206 128 49 206 128 49 206 128 49 206 128 49 206 128 49 206 128 49 206 128 49
211 128 44 211 128 44 211 128 44 211 128 44 211 128 44 211 128 44 211 128 44 211 128 44 211 128 44 211 128 44 211 128 44 211 128 44 211 128 44 211 128 44 211 128 44 211 128 44 211 128 44 211 128 44 211 128 44 211 128 44 211 128 44 211 128 44 211 128 44 211 128 44 211 128 44 211 128 44 211 128 44 211 128 44 211 128 44 211 128 44 211 128 44 211 128 44 211 128 44 211 128 44 211 128 44 211 128 44 211 128 44 211 128 44 211 128 44 211 128 44 211 128 44 211 128 44 211 128 44 211 128 44 211 128 44 211 128 44 211 128 44 211 128 44
217 128 38 217 128 38 217 128 38 217 128 38 217 128 38 217 128 38 217 128 38 217 128 38 217 128 38 217 128 38 217 128 38 217 128 38 217 128 38 217 128 38 217 128 38 217 128 38 217 128 38 217 128 38 217 128 38 217 128 38 217 128 38 217 128 38 217 128 38 217 128 38 217 128 38 217 128 38 217 128 38 217 128 38 217 128 38 217 128 38 217 128 38 217 128 38 217 128 38 217 128 38 217 128 38 217 128 38 217 128 38 217 128 38 217 128 38 217 128 38 217 128 38 217 128 38 217 128 38 217 128 38 217 128 38 217 128 38 217 128 38 217 128 38
222 128 33 222 128 33 222 128 33 222 128 33 222 128 33 222 128 33 222 128 33 222 128 33 222 128 33 222 128 33 222 128 33 222 128 33 222 128 33 222 128 33 222 128 33 222 128 33 222 128 33 222 128 33 222 128 33 222 128 33 222 128 33 222 128 33 222 128 33 222 128 33 222 128 33 222 128 33 222 128 33 222 128 33 222 128 33 222 128 33 222 128 33 222 128 33 222 128 33 222 128 33 222 128 33 222 128 33 222 128 33 222 128 33 222 128 33 222 128 33 222 128 33 222 128 33 222 128 33 222 128 33 222 128 33 222 128 33 222 128 33 222 128 33
227 128 28 227 128 28 227 128 28 227 128 28 227 128 28 227 128 28 227 128 28 227 128 28 227 128 28 227 128 28 227 128 28 227 128 28 227 128 28 227 128 28 227 128 28 227 128 28 227 128 28 227 128 28 227 128 28 227 128 28 227 128 28 227 128 28 227 128 28 227 128 28 227 128 28 227 128 28 227 128 28 227 128 28 227 128 28 227 128 28 227 128 28 227 128 28 227 128 28 227 128 28 227 128 28 227 128 28 227 128 28 227 128 28 227 128 28 227 128 28 227 128 28 227 128 28 227 128 28 227 128 28 227 128 28 227 128 28 227 128 28 227 128 28
233 128 22 233 128 22 233 128 22 233 128 22 233 128 22 233 128 22 233 128 22 233 128 22 233 128 22 233 128 22 233 128 22 233 128 22 233 128 22 233 128 22 233 128 22 233 128 22 233 128 22 233 128 22 233 128 22 233 128 22 233 128 22 233 128 22 233 128 22 233 128 22 233 128 22 233 128 22 233 128 22 233 128 22 233 128 22 233 128 22 233 128 22 233 128 22 233 128 22 233 128 22 233 128 22 233 128 22 233 128 22 233 128 22 233 128 22 233 128 22 233 128 22 233 128 22 233 128 22 233 128 22 233 128 22 233 128 22 233 128 22 233 128 22
238 128 17 238 128 17 238 128 17 238 128 17 238 128 17 238 128 17 238 128 17 238 128 17 238 128 17 238 128 17 238 128 17 238 128 17 238 128 17 238 128 17 238 128 17 238 128 17 238 128 17 238 128 17 238 128 17 238 128 17 238 128 17 238 128 17 238 128 17 238 128 17 238 128 17 238 128 17 238 128 17 238 128 17 238 128 17 238 128 17 238 128 17 238 128 17 238 128 17 238 128 17 238 128 17 238 128 17 238 128 17 238 128 17 238 128 17 238 128 17 238 128 17 238 128 17 238 128 17 238 128 17 238 128 17 238 128 17 238 128 17 238 128 17
244 128 11 244 128 11 244 128 11 244 128 11 244 128 11 244 128 11 244 128 11 244 128 11 244 128 11 244 128 11 244 128 11 244 128 11 244 128 11 244 128 11 244 128 11 244 128 11 244 128 11 244 128 11 244 128 11 244 128 11 244 128 11 244 128 11 244 128 11 244 128 11 244 128 11 244 128 11 244 128 11 244 128 11 244 128 11 244 128 11 244 128 11 244 128 11 244 128 11 244 128 11 244 128 11 244 128 11 244 128 11 244 128 11 244 128 11 244 128 11 244 128 11 244 128 11 244 128 11 244 128 11 244 128 11 244 128 11 244 128 11 244 128 11
249 128 6 249 128 6 249 128 6 249 128 6 249 128 6 249 128 6 249 128 6 249 128 6 249 128 6 249 128 6 249 128 6 249 128 6 249 128 6 249 128 6 249 128 6 249 128 6 249 128 6 249 128 6 249 128 6 249 128 6 249 128 6 249 128 6 249 128 6 249 128 6 249 128 6 249 128 6 249 128 6 249 128 6 249 128 6 249 128 6 249 128 6 249 128 6 249 128 6 249 128 6 249 128 6 249 128 6 249 128 6 249 128 6 249 128 6 249 128 6 249 128 6 249 128 6 249 128 6 249 128 6 249 128 6 249 128 6 249 128 6 249 128 6
255 128 0 255 128 0 255 128 0 255 128 0 255 128 0 255 128 0 255 128 0 255 128 0 255 128 0 255 128 0 255 128 0 255 128 0 255 128 0 255 128 0 255 128 0 255 128 0 255 128 0 255 128 0 255 128 0 255 128 0 255 128 0 255 128 0 255 128 0 255 128 0 255 128 0 255 128 0 255 128 0 255 128 0 255 128 0 255 128 0 255 128 0 255 128 0 255 128 0 255 128 0 255 128 0 255 128 0 255 128 0 255 128 0 255 128 0 255 128 0 255 128 0 255 128 0 255 128 0 255 128 0 255 128 0 255 128 0 255 128 0 255 128 0
