P3
16 32
255
184 155 177 166 22 73 125 111 175 44 245 158 127 163 198 147 149 62 53 90 16 25 242 188 68 27 105 215 107 218 98 206 138 70 166 120 93 43 255 215 14 159 166 250 90 127 4 65
162 35 87 162 32 49 247 7 211 226 82 32 124 107 66 189 15 249 25 173 161 87 57 27 65 4 58 83 226 145 158 80 167 35 179 175 247 40 250 0 155 0 212 17 46 228 129 174
166 7 197 44 197 41 201 42 200 152 17 219 147 150 192 167 123 112 40 58 0 216 226 253 199 83 72 214 246 142 154 18 86 163 126 71 127 98 187 19 190 232 147 164 66 38 35 87
3 218 179 177 185 129 203 221 152 87 61 131 46 247 44 55 37 215 40 78 142 184 65 92 190 220 111 54 20 146 137 17 226 24 127 8 56 37 94 195 116 110 207 77 180 195 134 104
45 173 53 167 243 31 94 194 141 190 52 240 227 215 82 231 203 65 7 223 144 93 150 59 38 210 28 196 136 129 177 206 98 175 215 201 251 198 32 15 76 115 60 170 206 220 26 230
209 40 162 66 114 196 152 166 224 238 61 232 133 82 205 223 250 28 181 171 218 88 12 0 150 9 121 143 186 229 72 43 90 206 105 28 97 69 199 99 119 59 114 114 45 26 39 97
37 10 218 117 141 0 11 58 99 10 84 221 244 81 177 97 71 35 241 139 189 58 252 32 34 238 97 97 146 182 170 105 29 150 15 250 254 23 103 205 77 47 88 28 250 85 164 122
83 34 44 108 112 167 155 4 24 33 194 10 167 193 227 107 87 91 106 189 13 241 244 6 153 16 7 235 101 186 91 247 214 134 176 71 149 210 160 32 175 71 188 219 248 15 43 181
82 208 206 74 109 222 7 249 178 59 40 233 130 75 119 211 169 165 3 193 18 85 6 179 200 94 14 206 27 233 230 214 211 19 156 4 172 40 87 251 70 189 122 246 205 110 16 159
62 28 7 186 72 188 38 143 250 42 4 78 123 54 212 160 118 53 83 212 120 114 93 136 251 197 17 72 18 51 149 162 174 203 108 223 243 219 40 115 141 17 210 28 119 228 235 55
165 195 36 180 180 133 200 30 60 55 107 138 163 202 126 17 167 123 182 24 208 169 104 67 29 193 236 61 8 193 206 11 63 233 44 3 160 26 50 145 119 45 1 120 51 251 168 72
88 184 31 77 141 182 20 211 202 244 45 153 52 115 1 19 226 198 23 76 232 43 242 57 186 127 199 76 77 105 241 186 221 232 65 190 40 128 75 153 195 22 83 12 250 127 130 16
67 32 36 231 219 195 146 224 7 247 45 218 1 58 148 224 104 63 245 170 124 158 149 84 109 94 221 151 85 214 36 87 168 239 109 228 119 246 48 253 126 204 113 47 254 20 77 160
182 82 55 20 15 92 4 136 220 137 80 61 61 36 145 214 112 123 105 203 175 201 8 73 157 38 224 8 11 233 222 109 34 212 50 149 10 3 141 68 63 254 212 254 237 113 6 202
49 230 14 219 212 5 199 146 254 118 125 133 148 194 168 168 68 197 74 16 47 53 151 64 19 229 212 212 100 175 96 56 194 167 86 153 171 30 6 125 160 63 108 29 244 27 209 188
252 7 7 24 200 28 118 134 188 77 221 232 136 119 91 8 67 181 80 171 34 100 89 222 208 35 76 212 225 81 143 16 215 194 4 225 223 233 176 244 64 172 95 146 7 180 111 6
44 93 119 132 86 129 199 177 174 125 48 110 167 133 11 21 75 105 35 81 181 25 34 233 75 174 65 111 173 24 229 118 46 250 28 198 14 194 52 35 104 167 23 154 146 178 63 87
25 104 124 228 51 243 49 42 92 90 129 113 149 65 171 43 231 56 106 155 20 58 183 242 50 95 157 161 37 166 251 113 19 119 121 151 248 241 238 201 156 206 223 179 178 48 189 163
131 112 200 60 54 71 42 173 198 69 42 131 91 169 182 33 27 122 174 26 3 131 243 59 149 85 111 98 75 120 104 201 172 191 215 124 66 34 132 248 85 43 248 166 235 181 62 67
193 0 86 243 215 135 133 69 161 68 196 153 90 201 15 121 182 43 92 190 104 245 220 251 0 167 154 129 71 126 218 68 86 164 84 162 165 79 47 104 5 157 40 18 213 8 56 228
152 206 31 65 209 110 191 0 144 103 162 92 60 26 46 10 11 83 245 120 5 113 164 154 217 162 175 11 26 17 74 232 135 158 216 35 210 181 37 61 123 77 221 70 105 113 58 120
192 93 182 248 184 177 81 115 92 40 211 84 108 166 20 121 240 10 103 123 98 115 93 159 167 117 51 50 141 32 65 120 34 21 92 156 175 69 141 114 236 218 218 71 83 247 106 121
55 119 253 52 176 22 67 151 140 26 62 132 188 82 121 137 229 211 104 1 48 168 168 218 45 69 246 1 112 211 171 12 189 228 20 56 135 68 84 213 42 146 102 9 147 113 11 216
123 147 167 27 96 187 239 72 89 146 191 86 38 119 125 118 84 65 118 205 244 14 68 112 176 199 113 146 191 66 240 55 61 49 62 131 105 122 148 101 106 21 34 75 53 255 92 11
125 105 135 238 232 88 31 71 8 199 162 101 87 21 18 209 36 182 75 22 48 19 217 72 40 18 248 157 16 254 117 209 87 131 36 29 20 231 22 136 50 139 96 88 58 174 62 225
166 191 229 129 182 192 36 147 40 12 205 223 38 86 152 7 140 17 89 126 191 86 232 172 10 59 199 179 237 133 123 11 146 62 41 254 138 83 90 115 76 69 169 33 126 232 238 237
45 206 84 70 44 206 74 42 0 240 2 101 167 172 206 99 107 238 252 107 18 32 216 186 75 173 56 105 71 178 219 225 199 49 89 232 188 235 194 171 244 215 202 182 108 164 23 66
11 173 159 155 188 25 179 172 239 12 51 79 160 87 246 75 44 237 227 210 89 250 234 183 102 216 126 244 219 131 59 244 249 12 58 210 196 61 173 184 7 146 102 0 152 188 229 220
90 51 235 162 173 224 137 0 86 53 23 13 157 206 178 183 236 139 242 65 174 217 95 212 214 2 61 15 176 14 98 10 174 86 146 154 83 7 33 223 81 91 196 175 145 182 182 65
193 15 79 29 67 149 80 170 221 67 67 98 160 14 228 204 126 234 203 116 163 97 164 169 81 66 122 94 228 249 159 23 146 126 251 30 238 134 168 152 155 41 64 107 167 131 177 140
83 52 77 192 112 116 123 230 224 142 45 18 75 65 124 103 121 173 134 20 242 94 50 82 142 74 210 90 40 56 246 191 166 239 20 241 1 23 165 105 190 147 39 171 28 143 102 165
104 80 189 173 201 192 125 165 193 201 166 92 50 135 86 227 74 39 250 151 204 231 67 153 9 245 151 2 141 35 141 128 209 48 215 162 50 18 141 35 117 44 205 233 200 250 160 29
