P3
64 32
255
0 0 0 4 0 2 8 0 5 12 0 8 16 0 10 20 0 13 24 0 16 28 0 18 32 0 21 36 0 24 40 0 27 44 0 29 48 0 32 52 0 35 56 0 37 60 0 40 64 0 43 68 0 46 72 0 48 76 0 51 80 0 54 85 0 56 89 0 59 93 0 62 97 0 65 101 0 67 105 0 70 109 0 73 113 0 75 117 0 78 121 0 81 125 0 84 129 0 86 133 0 89 137 0 92 141 0 94 145 0 97 149 0 100 153 0 103 157 0 105 161 0 108 165 0 111 170 0 113 174 0 116 178 0 119 182 0 122 186 0 124 190 0 127 194 0 130 198 0 132 202 0 135 206 0 138 210 0 141 214 0 143 218 0 146 222 0 149 226 0 151 230 0 154 234 0 157 238 0 160 242 0 162 246 0 165 250 0 168 255 0 170
0 8 2 4 8 5 8 8 8 12 8 10 16 8 13 20 8 16 24 8 18 28 8 21 32 8 24 36 8 27 40 8 29 44 8 32 48 8 35 52 8 37 56 8 40 60 8 43 64 8 46 68 8 48 72 8 51 76 8 54 80 8 56 85 8 59 89 8 62 93 8 65 97 8 67 101 8 70 105 8 73 109 8 75 113 8 78 117 8 81 121 8 84 125 8 86 129 8 89 133 8 92 137 8 94 141 8 97 145 8 100 149 8 103 153 8 105 157 8 108 161 8 111 165 8 113 170 8 116 174 8 119 178 8 122 182 8 124 186 8 127 190 8 130 194 8 132 198 8 135 202 8 138 206 8 141 210 8 143 214 8 146 218 8 149 222 8 151 226 8 154 230 8 157 234 8 160 238 8 162 242 8 165 246 8 168 250 8 170 255 8 173
0 16 5 4 16 8 8 16 10 12 16 13 16 16 16 20 16 18 24 16 21 28 16 24 32 16 27 36 16 29 40 16 32 44 16 35 48 16 37 52 16 40 56 16 43 60 16 46 64 16 48 68 16 51 72 16 54 76 16 56 80 16 59 85 16 62 89 16 65 93 16 67 97 16 70 101 16 73 105 16 75 109 16 78 113 16 81 117 16 84 121 16 86 125 16 89 129 16 92 133 16 94 137 16 97 141 16 100 145 16 103 149 16 105 153 16 108 157 16 111 161 16 113 165 16 116 170 16 119 174 16 122 178 16 124 182 16 127 186 16 130 190 16 132 194 16 135 198 16 138 202 16 141 206 16 143 210 16 146 214 16 149 218 16 151 222 16 154 226 16 157 230 16 160 234 16 162 238 16 165 242 16 168 246 16 170 250 16 173 255 16 176
0 24 8 4 24 10 8 24 13 12 24 16 16 24 18 20 24 21 24 24 24 28 24 27 32 24 29 36 24 32 40 24 35 44 24 37 48 24 40 52 24 43 56 24 46 60 24 48 64 24 51 68 24 54 72 24 56 76 24 59 80 24 62 85 24 65 89 24 67 93 24 70 97 24 73 101 24 75 105 24 78 109 24 81 113 24 84 117 24 86 121 24 89 125 24 92 129 24 94 133 24 97 137 24 100 141 24 103 145 24 105 149 24 108 153 24 111 157 24 113 161 24 116 165 24 119 170 24 122 174 24 124 178 24 127 182 24 130 186 24 132 190 24 135 194 24 138 198 24 141 202 24 143 206 24 146 210 24 149 214 24 151 218 24 154 222 24 157 226 24 160 230 24 162 234 24 165 238 24 168 242 24 170 246 24 173 250 24 176 255 24 179
0 32 10 4 32 13 8 32 16 12 32 18 16 32 21 20 32 24 24 32 27 28 32 29 32 32 32 36 32 35 40 32 37 44 32 40 48 32 43 52 32 46 56 32 48 60 32 51 64 32 54 68 32 56 72 32 59 76 32 62 80 32 65 85 32 67 89 32 70 93 32 73 97 32 75 101 32 78 105 32 81 109 32 84 113 32 86 117 32 89 121 32 92 125 32 94 129 32 97 133 32 100 137 32 103 141 32 105 145 32 108 149 32 111 153 32 113 157 32 116 161 32 119 165 32 122 170 32 124 174 32 127 178 32 130 182 32 132 186 32 135 190 32 138 194 32 141 198 32 143 202 32 146 206 32 149 210 32 151 214 32 154 218 32 157 222 32 160 226 32 162 230 32 165 234 32 168 238 32 170 242 32 173 246 32 176 250 32 179 255 32 181
0 41 13 4 41 16 8 41 18 12 41 21 16 41 24 20 41 27 24 41 29 28 41 32 32 41 35 36 41 37 40 41 40 44 41 43 48 41 46 52 41 48 56 41 51 60 41 54 64 41 56 68 41 59 72 41 62 76 41 65 80 41 67 85 41 70 89 41 73 93 41 75 97 41 78 101 41 81 105 41 84 109 41 86 113 41 89 117 41 92 121 41 94 125 41 97 129 41 100 133 41 103 137 41 105 141 41 108 145 41 111 149 41 113 153 41 116 157 41 119 161 41 122 165 41 124 170 41 127 174 41 130 178 41 132 182 41 135 186 41 138 190 41 141 194 41 143 198 41 146 202 41 149 206 41 151 210 41 154 214 41 157 218 41 160 222 41 162 226 41 165 230 41 168 234 41 170 238 41 173 242 41 176 246 41 179 250 41 181 255 41 184
0 49 16 4 49 18 8 49 21 12 49 24 16 49 27 20 49 29 24 49 32 28 49 35 32 49 37 36 49 40 40 49 43 44 49 46 48 49 48 52 49 51 56 49 54 60 49 56 64 49 59 68 49 62 72 49 65 76 49 67 80 49 70 85 49 73 89 49 75 93 49 78 97 49 81 101 49 84 105 49 86 109 49 89 113 49 92 117 49 94 121 49 97 125 49 100 129 49 103 133 49 105 137 49 108 141 49 111 145 49 113 149 49 116 153 49 119 157 49 122 161 49 124 165 49 127 170 49 130 174 49 132 178 49 135 182 49 138 186 49 141 190 49 143 194 49 146 198 49 149 202 49 151 206 49 154 210 49 157 214 49 160 218 49 162 222 49 165 226 49 168 230 49 170 234 49 173 238 49 176 242 49 179 246 49 181 250 49 184 255 49 187
0 57 18 4 57 21 8 57 24 12 57 27 16 57 29 20 57 32 24 57 35 28 57 37 32 57 40 36 57 43 40 57 46 44 57 48 48 57 51 52 57 54 56 57 56 60 57 59 64 57 62 68 57 65 72 57 67 76 57 70 80 57 73 85 57 75 89 57 78 93 57 81 97 57 84 101 57 86 105 57 89 109 57 92 113 57 94 117 57 97 121 57 100 125 57 103 129 57 105 133 57 108 137 57 111 141 57 113 145 57 116 149 57 119 153 57 122 157 57 124 161 57 127 165 57 130 170 57 132 174 57 135 178 57 138 182 57 141 186 57 143 190 57 146 194 57 149 198 57 151 202 57 154 206 57 157 210 57 160 214 57 162 218 57 165 222 57 168 226 57 170 230 57 173 234 57 176 238 57 179 242 57 181 246 57 184 250 57 187 255 57 189
0 65 21 4 65 24 8 65 27 12 65 29 16 65 32 20 65 35 24 65 37 28 65 40 32 65 43 36 65 46 40 65 48 44 65 51 48 65 54 52 65 56 56 65 59 60 65 62 64 65 65 68 65 67 72 65 70 76 65 73 80 65 75 85 65 78 89 65 81 93 65 84 97 65 86 101 65 89 105 65 92 109 65 94 113 65 97 117 65 100 121 65 103 125 65 105 129 65 108 133 65 111 137 65 113 141 65 116 145 65 119 149 65 122 153 65 124 157 65 127 161 65 130 165 65 132 170 65 135 174 65 138 178 65 141 182 65 143 186 65 146 190 65 149 194 65 151 198 65 154 202 65 157 206 65 160 210 65 162 214 65 165 218 65 168 222 65 170 226 65 173 230 65 176 234 65 179 238 65 181 242 65 184 246 65 187 250 65 189 255 65 192
0 74 24 4 74 27 8 74 29 12 74 32 16 74 35 20 74 37 24 74 40 28 74 43 32 74 46 36 74 48 40 74 51 44 74 54 48 74 56 52 74 59 56 74 62 60 74 65 64 74 67 68 74 70 72 74 73 76 74 75 80 74 78 85 74 81 89 74 84 93 74 86 97 74 89 101 74 92 105 74 94 109 74 97 113 74 100 117 74 103 121 74 105 125 74 108 129 74 111 133 74 113 137 74 116 141 74 119 145 74 122 149 74 124 153 74 127 157 74 130 161 74 132 165 74 135 170 74 138 174 74 141 178 74 143 182 74 146 186 74 149 190 74 151 194 74 154 198 74 157 202 74 160 206 74 162 210 74 165 214 74 168 218 74 170 222 74 173 226 74 176 230 74 179 234 74 181 238 74 184 242 74 187 246 74 189 250 74 192 255 74 195
0 82 27 4 82 29 8 82 32 12 82 35 16 82 37 20 82 40 24 82 43 28 82 46 32 82 48 36 82 51 40 82 54 44 82 56 48 82 59 52 82 62 56 82 65 60 82 67 64 82 70 68 82 73 72 82 75 76 82 78 80 82 81 85 82 84 89 82 86 93 82 89 97 82 92 101 82 94 105 82 97 109 82 100 113 82 103 117 82 105 121 82 108 125 82 111 129 82 113 133 82 116 137 82 119 141 82 122 145 82 124 149 82 127 153 82 130 157 82 132 161 82 135 165 82 138 170 82 141 174 82 143 178 82 146 182 82 149 186 82 151 190 82 154 194 82 157 198 82 160 202 82 162 206 82 165 210 82 168 214 82 170 218 82 173 222 82 176 226 82 179 230 82 181 234 82 184 238 82 187 242 82 189 246 82 192 250 82 195 255 82 198
0 90 29 4 90 32 8 90 35 12 90 37 16 90 40 20 90 43 24 90 46 28 90 48 32 90 51 36 90 54 40 90 56 44 90 59 48 90 62 52 90 65 56 90 67 60 90 70 64 90 73 68 90 75 72 90 78 76 90 81 80 90 84 85 90 86 89 90 89 93 90 92 97 90 94 101 90 97 105 90 100 109 90 103 113 90 105 117 90 108 121 90 111 125 90 113 129 90 116 133 90 119 137 90 122 141 90 124 145 90 127 149 90 130 153 90 132 157 90 135 161 90 138 165 90 141 170 90 143 174 90 146 178 90 149 182 90 151 186 90 154 190 90 157 194 90 160 198 90 162 202 90 165 206 90 168 210 90 170 214 90 173 218 90 176 222 90 179 226 90 181 230 90 184 234 90 187 238 90 189 242 90 192 246 90 195 250 90 198 255 90 200
0 98 32 4 98 35 8 98 37 12 98 40 16 98 43 20 98 46 24 98 48 28 98 51 32 98 54 36 98 56 40 98 59 44 98 62 48 98 65 52 98 67 56 98 70 60 98 73 64 98 75 68 98 78 72 98 81 76 98 84 80 98 86 85 98 89 89 98 92 93 98 94 97 98 97 101 98 100 105 98 103 109 98 105 113 98 108 117 98 111 121 98 113 125 98 116 129 98 119 133 98 122 137 98 124 141 98 127 145 98 130 149 98 132 153 98 135 157 98 138 161 98 141 165 98 143 170 98 146 174 98 149 178 98 151 182 98 154 186 98 157 190 98 160 194 98 162 198 98 165 202 98 168 206 98 170 210 98 173 214 98 176 218 98 179 222 98 181 226 98 184 230 98 187 234 98 189 238 98 192 242 98 195 246 98 198 250 98 200 255 98 203
0 106 35 4 106 37 8 106 40 12 106 43 16 106 46 20 106 48 24 106 51 28 106 54 32 106 56 36 106 59 40 106 62 44 106 65 48 106 67 52 106 70 56 106 73 60 106 75 64 106 78 68 106 81 72 106 84 76 106 86 80 106 89 85 106 92 89 106 94 93 106 97 97 106 100 101 106 103 105 106 105 109 106 108 113 106 111 117 106 113 121 106 116 125 106 119 129 106 122 133 106 124 137 106 127 141 106 130 145 106 132 149 106 135 153 106 138 157 106 141 161 106 143 165 106 146 170 106 149 174 106 151 178 106 154 182 106 157 186 106 160 190 106 162 194 106 165 198 106 168 202 106 170 206 106 173 210 106 176 214 106 179 218 106 181 222 106 184 226 106 187 230 106 189 234 106 192 238 106 195 242 106 198 246 106 200 250 106 203 255 106 206
0 115 37 4 115 40 8 115 43 12 115 46 16 115 48 20 115 51 24 115 54 28 115 56 32 115 59 36 115 62 40 115 65 44 115 67 48 115 70 52 115 73 56 115 75 60 115 78 64 115 81 68 115 84 72 115 86 76 115 89 80 115 92 85 115 94 89 115 97 93 115 100 97 115 103 101 115 105 105 115 108 109 115 111 113 115 113 117 115 116 121 115 119 125 115 122 129 115 124 133 115 127 137 115 130 141 115 132 145 115 135 149 115 138 153 115 141 157 115 143 161 115 146 165 115 149 170 115 151 174 115 154 178 115 157 182 115 160 186 115 162 190 115 165 194 115 168 198 115 170 202 115 173 206 115 176 210 115 179 214 115 181 218 115 184 222 115 187 226 115 189 230 115 192 234 115 195 238 115 198 242 115 200 246 115 203 250 115 206 255 115 208
0 123 40 4 123 43 8 123 46 12 123 48 16 123 51 20 123 54 24 123 56 28 123 59 32 123 62 36 123 65 40 123 67 44 123 70 48 123 73 52 123 75 56 123 78 60 123 81 64 123 84 68 123 86 72 123 89 76 123 92 80 123 94 85 123 97 89 123 100 93 123 103 97 123 105 101 123 108 105 123 111 109 123 113 113 123 116 117 123 119 121 123 122 125 123 124 129 123 127 133 123 130 137 123 132 141 123 135 145 123 138 149 123 141 153 123 143 157 123 146 161 123 149 165 123 151 170 123 154 174 123 157 178 123 160 182 123 162 186 123 165 190 123 168 194 123 170 198 123 173 202 123 176 206 123 179 210 123 181 214 123 184 218 123 187 222 123 189 226 123 192 230 123 195 234 123 198 238 123 200 242 123 203 246 123 206 250 123 208 255 123 211
0 131 43 4 131 46 8 131 48 12 131 51 16 131 54 20 131 56 24 131 59 28 131 62 32 131 65 36 131 67 40 131 70 44 131 73 48 131 75 52 131 78 56 131 81 60 131 84 64 131 86 68 131 89 72 131 92 76 131 94 80 131 97 85 131 100 89 131 103 93 131 105 97 131 108 101 131 111 105 131 113 109 131 116 113 131 119 117 131 122 121 131 124 125 131 127 129 131 130 133 131 132 137 131 135 141 131 138 145 131 141 149 131 143 153 131 146 157 131 149 161 131 151 165 131 154 170 131 157 174 131 160 178 131 162 182 131 165 186 131 168 190 131 170 194 131 173 198 131 176 202 131 179 206 131 181 210 131 184 214 131 187 218 131 189 222 131 192 226 131 195 230 131 198 234 131 200 238 131 203 242 131 206 246 131 208 250 131 211 255 131 214
0 139 46 4 139 48 8 139 51 12 139 54 16 139 56 20 139 59 24 139 62 28 139 65 32 139 67 36 139 70 40 139 73 44 139 75 48 139 78 52 139 81 56 139 84 60 139 86 64 139 89 68 139 92 72 139 94 76 139 97 80 139 100 85 139 103 89 139 105 93 139 108 97 139 111 101 139 113 105 139 116 109 139 119 113 139 122 117 139 124 121 139 127 125 139 130 129 139 132 133 139 135 137 139 138 141 139 141 145 139 143 149 139 146 153 139 149 157 139 151 161 139 154 165 139 157 170 139 160 174 139 162 178 139 165 182 139 168 186 139 170 190 139 173 194 139 176 198 139 179 202 139 181 206 139 184 210 139 187 214 139 189 218 139 192 222 139 195 226 139 198 230 139 200 234 139 203 238 139 206 242 139 208 246 139 211 250 139 214 255 139 217
0 148 48 4 148 51 8 148 54 12 148 56 16 148 59 20 148 62 24 148 65 28 148 67 32 148 70 36 148 73 40 148 75 44 148 78 48 148 81 52 148 84 56 148 86 60 148 89 64 148 92 68 148 94 72 148 97 76 148 100 80 148 103 85 148 105 89 148 108 93 148 111 97 148 113 101 148 116 105 148 119 109 148 122 113 148 124 117 148 127 121 148 130 125 148 132 129 148 135 133 148 138 137 148 141 141 148 143 145 148 146 149 148 149 153 148 151 157 148 154 161 148 157 165 148 160 170 148 162 174 148 165 178 148 168 182 148 170 186 148 173 190 148 176 194 148 179 198 148 181 202 148 184 206 148 187 210 148 189 214 148 192 218 148 195 222 148 198 226 148 200 230 148 203 234 148 206 238 148 208 242 148 211 246 148 214 250 148 217 255 148 219
0 156 51 4 156 54 8 156 56 12 156 59 16 156 62 20 156 65 24 156 67 28 156 70 32 156 73 36 156 75 40 156 78 44 156 81 48 156 84 52 156 86 56 156 89 60 156 92 64 156 94 68 156 97 72 156 100 76 156 103 80 156 105 85 156 108 89 156 111 93 156 113 97 156 116 101 156 119 105 156 122 109 156 124 113 156 127 117 156 130 121 156 132 125 156 135 129 156 138 133 156 141 137 156 143 141 156 146 145 156 149 149 156 151 153 156 154 157 156 157 161 156 160 165 156 162 170 156 165 174 156 168 178 156 170 182 156 173 186 156 176 190 156 179 194 156 181 198 156 184 202 156 187 206 156 189 210 156 192 214 156 195 218 156 198 222 156 200 226 156 203 230 156 206 234 156 208 238 156 211 242 156 214 246 156 217 250 156 219 255 156 222
0 164 54 4 164 56 8 164 59 12 164 62 16 164 65 20 164 67 24 164 70 28 164 73 32 164 75 36 164 78 40 164 81 44 164 84 48 164 86 52 164 89 56 164 92 60 164 94 64 164 97 68 164 100 72 164 103 76 164 105 80 164 108 85 164 111 89 164 113 93 164 116 97 164 119 101 164 122 105 164 124 109 164 127 113 164 130 117 164 132 121 164 135 125 164 138 129 164 141 133 164 143 137 164 146 141 164 149 145 164 151 149 164 154 153 164 157 157 164 160 161 164 162 165 164 165 170 164 168 174 164 170 178 164 173 182 164 176 186 164 179 190 164 181 194 164 184 198 164 187 202 164 189 206 164 192 210 164 195 214 164 198 218 164 200 222 164 203 226 164 206 230 164 208 234 164 211 238 164 214 242 164 217 246 164 219 250 164 222 255 164 225
0 172 56 4 172 59 8 172 62 12 172 65 16 172 67 20 172 70 24 172 73 28 172 75 32 172 78 36 172 81 40 172 84 44 172 86 48 172 89 52 172 92 56 172 94 60 172 97 64 172 100 68 172 103 72 172 105 76 172 108 80 172 111 85 172 113 89 172 116 93 172 119 97 172 122 101 172 124 105 172 127 109 172 130 113 172 132 117 172 135 121 172 138 125 172 141 129 172 143 133 172 146 137 172 149 141 172 151 145 172 154 149 172 157 153 172 160 157 172 162 161 172 165 165 172 168 170 172 170 174 172 173 178 172 176 182 172 179 186 172 181 190 172 184 194 172 187 198 172 189 202 172 192 206 172 195 210 172 198 214 172 200 218 172 203 222 172 206 226 172 208 230 172 211 234 172 214 238 172 217 242 172 219 246 172 222 250 172 225 255 172 227
0 180 59 4 180 62 8 180 65 12 180 67 16 180 70 20 180 73 24 180 75 28 180 78 32 180 81 36 180 84 40 180 86 44 180 89 48 180 92 52 180 94 56 180 97 60 180 100 64 180 103 68 180 105 72 180 108 76 180 111 80 180 113 85 180 116 89 180 119 93 180 122 97 180 124 101 180 127 105 180 130 109 180 132 113 180 135 117 180 138 121 180 141 125 180 143 129 180 146 133 180 149 137 180 151 141 180 154 145 180 157 149 180 160 153 180 162 157 180 165 161 180 168 165 180 170 170 180 173 174 180 176 178 180 179 182 180 181 186 180 184 190 180 187 194 180 189 198 180 192 202 180 195 206 180 198 210 180 200 214 180 203 218 180 206 222 180 208 226 180 211 230 180 214 234 180 217 238 180 219 242 180 222 246 180 225 250 180 227 255 180 230
0 189 62 4 189 65 8 189 67 12 189 70 16 189 73 20 189 75 24 189 78 28 189 81 32 189 84 36 189 86 40 189 89 44 189 92 48 189 94 52 189 97 56 189 100 60 189 103 64 189 105 68 189 108 72 189 111 76 189 113 80 189 116 85 189 119 89 189 122 93 189 124 97 189 127 101 189 130 105 189 132 109 189 135 113 189 138 117 189 141 121 189 143 125 189 146 129 189 149 133 189 151 137 189 154 141 189 157 145 189 160 149 189 162 153 189 165 157 189 168 161 189 170 165 189 173 170 189 176 174 189 179 178 189 181 182 189 184 186 189 187 190 189 189 194 189 192 198 189 195 202 189 198 206 189 200 210 189 203 214 189 206 218 189 208 222 189 211 226 189 214 230 189 217 234 189 219 238 189 222 242 189 225 246 189 227 250 189 230 255 189 233
0 197 65 4 197 67 8 197 70 12 197 73 16 197 75 20 197 78 24 197 81 28 197 84 32 197 86 36 197 89 40 197 92 44 197 94 48 197 97 52 197 100 56 197 103 60 197 105 64 197 108 68 197 111 72 197 113 76 197 116 80 197 119 85 197 122 89 197 124 93 197 127 97 197 130 101 197 132 105 197 135 109 197 138 113 197 141 117 197 143 121 197 146 125 197 149 129 197 151 133 197 154 137 197 157 141 197 160 145 197 162 149 197 165 153 197 168 157 197 170 161 197 173 165 197 176 170 197 179 174 197 181 178 197 184 182 197 187 186 197 189 190 197 192 194 197 195 198 197 198 202 197 200 206 197 203 210 197 206 214 197 208 218 197 211 222 197 214 226 197 217 230 197 219 234 197 222 238 197 225 242 197 227 246 197 230 250 197 233 255 197 236
0 205 67 4 205 70 8 205 73 12 205 75 16 205 78 20 205 81 24 205 84 28 205 86 32 205 89 36 205 92 40 205 94 44 205 97 48 205 100 52 205 103 56 205 105 60 205 108 64 205 111 68 205 113 72 205 116 76 205 119 80 205 122 85 205 124 89 205 127 93 205 130 97 205 132 101 205 135 105 205 138 109 205 141 113 205 143 117 205 146 121 205 149 125 205 151 129 205 154 133 205 157 137 205 160 141 205 162 145 205 165 149 205 168 153 205 170 157 205 173 161 205 176 165 205 179 170 205 181 174 205 184 178 205 187 182 205 189 186 205 192 190 205 195 194 205 198 198 205 200 202 205 203 206 205 206 210 205 208 214 205 211 218 205 214 222 205 217 226 205 219 230 205 222 234 205 225 238 205 227 242 205 230 246 205 233 250 205 236 255 205 238
0 213 70 4 213 73 8 213 75 12 213 78 16 213 81 20 213 84 24 213 86 28 213 89 32 213 92 36 213 94 40 213 97 44 213 100 48 213 103 52 213 105 56 213 108 60 213 111 64 213 113 68 213 116 72 213 119 76 213 122 80 213 124 85 213 127 89 213 130 93 213 132 97 213 135 101 213 138 105 213 141 109 213 143 113 213 146 117 213 149 121 213 151 125 213 154 129 213 157 133 213 160 137 213 162 141 213 165 145 213 168 149 213 170 153 213 173 157 213 176 161 213 179 165 213 181 170 213 184 174 213 187 178 213 189 182 213 192 186 213 195 190 213 198 194 213 200 198 213 203 202 213 206 206 213 208 210 213 211 214 213 214 218 213 217 222 213 219 226 213 222 230 213 225 234 213 227 238 213 230 242 213 233 246 213 236 250 213 238 255 213 241
0 222 73 4 222 75 8 222 78 12 222 81 16 222 84 20 222 86 24 222 89 28 222 92 32 222 94 36 222 97 40 222 100 44 222 103 48 222 105 52 222 108 56 222 111 60 222 113 64 222 116 68 222 119 72 222 122 76 222 124 80 222 127 85 222 130 89 222 132 93 222 135 97 222 138 101 222 141 105 222 143 109 222 146 113 222 149 117 222 151 121 222 154 125 222 157 129 222 160 133 222 162 137 222 165 141 222 168 145 222 170 149 222 173 153 222 176 157 222 179 161 222 181 165 222 184 170 222 187 174 222 189 178 222 192 182 222 195 186 222 198 190 222 200 194 222 203 198 222 206 202 222 208 206 222 211 210 222 214 214 222 217 218 222 219 222 222 222 226 222 225 230 222 227 234 222 230 238 222 233 242 222 236 246 222 238 250 222 241 255 222 244
0 230 75 4 230 78 8 230 81 12 230 84 16 230 86 20 230 89 24 230 92 28 230 94 32 230 97 36 230 100 40 230 103 44 230 105 48 230 108 52 230 111 56 230 113 60 230 116 64 230 119 68 230 122 72 230 124 76 230 127 80 230 130 85 230 132 89 230 135 93 230 138 97 230 141 101 230 143 105 230 146 109 230 149 113 230 151 117 230 154 121 230 157 125 230 160 129 230 162 133 230 165 137 230 168 141 230 170 145 230 173 149 230 176 153 230 179 157 230 181 161 230 184 165 230 187 170 230 189 174 230 192 178 230 195 182 230 198 186 230 200 190 230 203 194 230 206 198 230 208 202 230 211 206 230 214 210 230 217 214 230 219 218 230 222 222 230 225 226 230 227 230 230 230 234 230 233 238 230 236 242 230 238 246 230 241 250 230 244 255 230 246
0 238 78 4 238 81 8 238 84 12 238 86 16 238 89 20 238 92 24 238 94 28 238 97 32 238 100 36 238 103 40 238 105 44 238 108 48 238 111 52 238 113 56 238 116 60 238 119 64 238 122 68 238 124 72 238 127 76 238 130 80 238 132 85 238 135 89 238 138 93 238 141 97 238 143 101 238 146 105 238 149 109 238 151 113 238 154 117 238 157 121 238 160 125 238 162 129 238 165 133 238 168 137 238 170 141 238 173 145 238 176 149 238 179 153 238 181 157 238 184 161 238 187 165 238 189 170 238 192 174 238 195 178 238 198 182 238 200 186 238 203 190 238 206 194 238 208 198 238 211 202 238 214 206 238 217 210 238 219 214 238 222 218 238 225 222 238 227 226 238 230 230 238 233 234 238 236 238 238 238 242 238 241 246 238 244 250 238 246 255 238 249
0 246 81 4 246 84 8 246 86 12 246 89 16 246 92 20 246 94 24 246 97 28 246 100 32 246 103 36 246 105 40 246 108 44 246 111 48 246 113 52 246 116 56 246 119 60 246 122 64 246 124 68 246 127 72 246 130 76 246 132 80 246 135 85 246 138 89 246 141 93 246 143 97 246 146 101 246 149 105 246 151 109 246 154 113 246 157 117 246 160 121 246 162 125 246 165 129 246 168 133 246 170 137 246 173 141 246 176 145 246 179 149 246 181 153 246 184 157 246 187 161 246 189 165 246 192 170 246 195 174 246 198 178 246 200 182 246 203 186 246 206 190 246 208 194 246 211 198 246 214 202 246 217 206 246 219 210 246 222 214 246 225 218 246 227 222 246 230 226 246 233 230 246 236 234 246 238 238 246 241 242 246 244 246 246 246 250 246 249 255 246 252
0 255 84 4 255 86 8 255 89 12 255 92 16 255 94 20 255 97 24 255 100 28 255 103 32 255 105 36 255 108 40 255 111 44 255 113 48 255 116 52 255 119 56 255 122 60 255 124 64 255 127 68 255 130 72 255 132 76 255 135 80 255 138 85 255 141 89 255 143 93 255 146 97 255 149 101 255 151 105 255 154 109 255 157 113 255 160 117 255 162 121 255 165 125 255 168 129 255 170 133 255 173 137 255 176 141 255 179 145 255 181 149 255 184 153 255 187 157 255 189 161 255 192 165 255 195 170 255 198 174 255 200 178 255 203 182 255 206 186 255 208 190 255 211 194 255 214 198 255 217 202 255 219 206 255 222 210 255 225 214 255 227 218 255 230 222 255 233 226 255 236 230 255 238 234 255 241 238 255 244 242 255 246 246 255 249 250 255 252 255 255 255
