P3
24 24
255
189 0 193 116 189 251 49 23 174 74 1 201 189 139 78 158 50 210 29 51 107 7 233 97 54 222 164 131 243 4 181 251 63 123 168 151 248 197 125 119 130 44 228 11 228 13 37 220 50 15 136 155 134 162 40 174 20 120 167 43 72 235 83 115 166 56 167 16 17 85 101 3
131 41 234 242 88 34 52 241 59 169 51 247 13 168 51 144 241 32 243 206 249 167 170 98 8 43 251 77 89 93 22 4 52 10 1 25 129 219 27 59 83 229 41 175 91 216 179 61 110 213 173 112 187 91 234 174 198 229 61 31 171 189 40 156 252 233 195 126 7 67 76 213
174 175 205 8 34 160 97 44 205 56 201 232 80 140 28 100 163 103 63 66 49 6 167 46 103 15 155 169 131 93 95 193 1 76 204 79 253 3 215 108 133 45 35 133 53 170 59 53 105 52 245 139 3 207 84 145 53 159 82 47 220 37 4 8 190 178 54 248 145 249 159 215
217 26 111 198 43 22 35 115 161 0 131 240 201 144 40 101 189 103 19 229 227 131 57 237 13 249 15 153 94 127 46 186 47 243 255 235 14 45 152 83 199 113 167 22 205 157 8 146 214 238 43 50 251 100 85 133 248 3 148 11 189 94 15 246 39 217 72 83 212 94 51 216
207 90 128 99 236 94 80 191 81 33 119 69 110 67 41 138 52 36 40 212 23 83 53 150 153 47 84 91 216 248 26 247 251 82 235 71 187 152 102 155 123 33 238 138 236 225 167 70 40 156 19 36 156 148 216 75 14 200 92 205 44 239 78 42 64 192 21 19 88 191 0 4
70 159 164 252 8 10 100 108 87 213 177 197 128 244 22 101 235 7 223 50 135 10 34 75 215 229 105 1 62 188 154 3 138 20 194 208 242 85 231 50 80 154 244 180 135 129 26 182 162 54 160 186 162 241 72 202 32 249 113 197 122 49 32 155 4 151 244 18 233 13 34 237
230 104 196 91 249 251 172 166 40 152 169 29 27 204 58 234 134 88 244 220 200 32 156 217 71 119 144 159 11 51 15 115 161 187 181 84 32 204 108 24 47 92 69 16 246 241 237 94 150 137 156 79 61 46 57 171 215 54 63 83 36 227 121 170 98 120 199 186 171 74 95 151
103 247 54 163 213 42 84 70 218 95 32 227 34 166 173 143 192 19 227 120 226 126 7 98 100 186 157 30 174 31 194 248 205 53 151 182 130 106 82 217 0 207 194 194 4 68 195 184 217 220 175 143 246 129 105 60 254 26 94 197 141 177 141 65 102 99 105 126 26 219 89 10
136 209 209 133 206 0 238 181 14 84 115 109 89 87 99 28 41 222 129 6 123 91 120 112 204 197 158 27 178 222 163 51 62 190 11 8 95 195 80 229 230 202 235 162 240 220 177 121 51 162 121 80 252 211 50 144 95 176 49 130 131 87 13 178 221 70 86 232 228 57 171 35
150 157 209 63 230 24 187 154 236 218 14 105 142 6 51 138 170 204 107 193 28 210 251 51 35 132 146 58 12 218 94 241 159 244 180 19 70 63 79 153 186 38 45 74 242 108 221 177 85 204 69 41 27 87 102 225 65 170 0 238 169 170 213 159 44 250 224 206 61 166 174 75
184 191 38 162 244 171 1 27 133 10 24 223 27 115 223 116 27 116 189 205 107 182 235 55 43 14 195 47 83 101 160 106 29 191 126 228 189 167 30 226 74 85 18 138 127 70 8 83 249 101 180 206 246 39 65 31 91 61 102 229 216 85 54 91 230 172 104 81 189 232 37 232
224 92 44 28 128 117 170 69 120 245 89 58 26 5 207 165 189 239 86 109 120 26 34 0 115 106 105 209 204 243 65 90 232 214 88 220 2 37 6 78 102 157 199 1 197 226 38 42 199 85 192 130 154 21 186 136 136 114 219 106 61 209 29 124 164 14 220 56 224 124 67 177
50 127 175 30 233 52 248 68 171 242 109 86 151 2 127 62 206 135 98 241 58 31 21 43 117 109 189 82 159 238 0 56 95 118 207 132 215 197 223 142 232 12 249 179 179 206 97 103 112 212 22 93 61 199 156 16 240 181 198 248 185 153 0 65 51 242 98 246 11 69 51 63
253 205 116 64 38 255 64 178 129 173 75 127 130 93 87 182 112 92 6 77 100 6 233 37 112 78 235 72 183 235 107 255 80 108 113 9 186 194 75 68 112 104 12 156 1 112 3 250 129 146 175 128 219 184 57 105 53 182 45 13 86 3 118 8 228 95 85 71 223 150 86 88
224 28 132 232 128 217 100 162 146 237 83 61 125 182 66 174 129 212 23 37 52 84 235 135 171 198 76 125 217 234 161 114 159 150 83 252 197 102 138 141 159 85 247 61 246 248 186 151 67 19 17 172 182 205 178 20 202 128 249 194 183 172 161 94 122 208 213 60 144 49 254 61
254 98 108 186 37 145 154 205 23 9 39 94 68 159 101 120 115 203 222 161 97 158 193 251 197 0 47 162 213 91 25 102 138 135 40 137 254 173 1 209 239 58 29 23 143 88 96 204 96 98 214 213 200 108 149 38 123 164 30 82 186 80 25 130 69 173 191 47 207 201 32 178
92 61 112 10 2 103 189 219 147 194 68 151 251 10 114 83 186 219 116 173 163 183 97 56 146 25 63 4 89 229 13 182 194 135 24 131 254 117 59 207 146 160 251 57 147 44 66 89 95 11 42 165 198 6 159 24 51 71 163 44 232 33 198 240 160 75 225 176 167 71 199 101
127 22 1 99 38 90 139 132 81 137 205 239 103 43 116 214 128 146 52 35 10 7 250 172 219 31 80 87 184 31 55 188 216 153 12 29 177 183 133 53 150 184 184 236 158 85 156 138 221 79 153 224 41 237 30 178 98 118 8 66 6 65 130 58 251 182 244 168 143 216 201 44
89 121 53 209 111 98 111 251 248 163 33 142 243 63 66 132 59 46 151 135 112 179 197 66 1 8 234 61 128 123 10 255 47 149 213 23 253 184 37 247 139 238 175 229 196 81 236 142 36 204 129 230 159 116 244 225 250 239 18 162 246 27 79 48 8 168 202 86 232 28 100 71
98 204 101 89 146 166 74 179 47 59 216 185 207 200 190 216 130 4 169 229 147 17 56 219 151 24 24 227 53 216 141 103 119 236 165 199 160 230 68 227 151 47 92 164 115 114 214 217 74 50 138 21 112 198 133 239 199 127 96 41 163 21 12 201 165 165 7 230 103 208 66 171
83 239 62 155 253 224 167 148 226 188 90 2 111 236 77 95 253 9 250 25 216 149 172 240 98 64 219 169 152 8 66 249 92 183 75 1 145 11 175 72 127 183 42 41 109 83 44 78 81 209 121 140 193 46 81 124 53 11 32 177 162 236 203 114 207 238 230 166 188 195 148 254
168 182 105 57 227 111 9 45 160 96 81 182 67 150 160 4 32 91 188 60 141 209 111 126 20 101 77 83 47 83 199 45 147 15 26 191 247 229 208 93 127 87 78 166 135 245 129 190 134 180 102 217 194 132 143 184 144 81 89 168 127 18 221 78 32 172 124 145 175 234 227 138
203 17 251 23 186 163 65 130 114 159 34 94 213 177 230 162 118 77 228 67 21 68 30 64 237 26 118 62 157 198 1 151 37 56 23 249 229 184 152 250 108 13 162 100 50 34 155 124 181 41 93 228 7 23 246 231 26 77 146 161 26 120 52 111 225 192 120 203 20 189 158 89
29 211 172 128 96 126 37 165 27 249 175 147 110 155 62 171 191 163 21 126 224 21 58 221 196 113 251 49 251 107 237 58 60 159 242 184 47 35 203 127 146 178 224 71 3 222 110 146 34 146 57 6 191 244 191 196 48 172 61 165 255 157 41 11 16 32 87 45 171 220 154 254
