P3
96 64
255
83 5 71 170 51 165 128 250 244 136 70 40 2 6 70 219 80 141 110 30 62 222 127 179 48 162 196 195 75 100 32 186 111 71 202 171 174 0 228 143 108 104 113 111 182 136 116 242 191 144 159 140 64 208 10 127 80 47 222 79 194 155 105 97 217 37 133 123 14 175 188 41 99 76 181 129 31 198 68 201 95 251 33 99 127 132 4 188 195 29 21 232 145 23 101 98 112 161 28 4 82 19 115 6 42 96 60 200 115 135 200 214 162 141 215 31 231 73 236 2 77 16 44 204 57 171 37 180 32 103 172 157 13 197 98 248 161 18 225 215 188 146 10 112 246 178 246 24 131 55 39 60 215 90 25 143 58 109 114 180 156 75 71 128 82 79 47 209 133 19 201 180 120 219 226 139 224 67 199 136 176 159 143 247 167 148 109 138 82 41 58 13 244 255 249 109 192 72 58 129 196 197 15 79 26 153 236 183 79 173 117 123 133 1 214 220 231 131 85 30 12 178 227 45 239 188 37 246 63 7 205 204 189 159 227 182 226 53 126 141 146 226 212 243 203 138 132 101 79 206 10 58 122 19 184 33 42 126 28 225 201 5 132 221 88 220 12 207 147 14 67 40 94 220 89 173 195 65 78 79 171 233 1 160 150 108 64 74
1 102 9 81 119 253 20 223 21 76 0 209 114 67 54 172 56 81 99 128 228 79 243 203 71 243 37 18 6 170 30 64 205 204 23 80 183 191 247 159 118 161 111 239 194 241 93 146 113 46 198 217 15 95 52 213 246 43 94 251 82 82 245 231 178 44 196 160 209 180 28 3 243 209 92 63 207 145 140 172 71 63 174 41 123 28 69 13 224 159 217 47 112 0 130 140 11 84 17 5 125 76 162 73 52 190 3 100 74 233 136 78 132 103 1 49 26 125 91 90 139 64 98 105 144 5 13 159 133 203 91 239 96 76 132 85 4 226 55 110 56 42 146 187 155 151 195 224 77 27 143 103 68 92 2 155 117 152 127 17 119 3 68 63 58 124 164 200 32 76 25 91 61 117 39 73 49 192 123 21 111 207 201 110 232 205 93 85 18 64 121 175 213 82 115 173 196 216 27 85 122 223 117 18 193 101 124 14 221 47 149 52 46 74 185 95 166 30 166 97 195 97 199 241 32 153 103 251 140 180 72 164 83 180 236 200 181 14 230 171 134 201 197 187 78 62 221 161 214 176 190 29 13 38 241 50 214 88 239 199 146 237 23 107 127 96 7 201 53 151 61 192 220 221 225 153 247 146 243 25 147 89 136 253 28 92 33 71
23 215 67 83 81 217 188 70 62 59 247 240 201 202 152 110 104 209 43 234 56 114 249 250 135 101 240 2 217 216 71 17 61 214 58 115 156 150 201 132 201 128 35 250 16 216 234 45 65 41 102 26 5 66 126 248 57 158 59 140 68 117 1 29 155 245 156 250 61 101 82 103 168 242 52 142 196 7 230 188 81 188 151 48 217 173 93 180 211 245 9 149 168 241 55 108 176 55 86 52 218 206 181 88 176 86 11 133 203 236 201 101 70 110 244 18 250 155 167 67 130 233 0 155 9 179 144 52 97 88 76 132 88 125 168 123 34 55 123 189 207 160 190 68 1 150 117 161 123 22 151 73 23 255 178 140 73 42 33 168 165 88 149 176 21 16 242 247 153 96 217 36 170 247 135 154 182 125 105 152 38 237 180 19 218 112 15 44 156 114 89 19 238 5 239 236 229 120 144 243 19 88 126 17 218 63 27 76 40 10 45 110 181 179 145 23 147 200 31 178 107 252 90 153 146 241 64 117 83 114 167 159 226 141 147 23 110 105 4 166 65 63 170 141 157 117 116 68 52 253 65 164 33 75 222 3 149 187 43 180 66 63 11 247 133 244 141 95 206 134 58 64 26 5 76 144 9 15 16 173 72 48 96 115 224 177 229 180
95 221 11 172 47 114 41 156 69 253 99 149 232 178 26 80 186 245 151 134 99 144 102 69 58 212 224 63 251 201 0 153 1 73 132 0 156 113 184 221 195 157 144 44 64 36 93 242 82 10 248 29 153 164 28 27 216 55 247 114 9 217 162 39 52 243 188 156 78 60 218 241 58 189 140 54 149 146 141 188 178 11 102 240 47 226 11 226 148 235 181 1 122 187 223 51 247 132 181 197 21 7 108 150 99 107 13 160 97 226 125 179 157 73 161 95 24 208 27 174 236 215 236 12 27 161 124 104 192 245 162 160 112 235 240 3 44 145 183 98 67 164 58 149 6 52 175 239 48 67 203 64 136 220 191 138 163 220 67 115 82 0 141 240 128 7 36 245 137 158 113 56 163 45 39 102 72 44 201 185 236 60 253 214 45 8 4 158 105 50 68 48 159 219 73 189 31 95 38 172 5 121 244 54 175 32 29 250 165 20 61 170 144 170 21 26 73 147 127 127 113 65 33 2 26 199 41 190 53 72 255 110 177 50 185 83 162 77 182 23 243 198 218 227 250 29 150 191 84 197 148 21 126 220 31 234 152 245 163 206 155 255 27 111 110 113 127 220 14 237 58 66 131 114 55 209 92 14 53 111 122 9 66 131 72 224 51 185
154 255 57 112 153 95 81 2 146 11 11 255 247 116 230 150 91 3 171 58 16 175 0 157 42 16 0 140 120 137 63 163 40 100 177 171 169 40 245 61 177 15 108 179 211 40 204 182 236 245 58 52 167 110 101 23 38 40 108 167 112 97 3 51 244 170 128 209 150 224 161 224 110 4 206 12 223 245 28 189 179 117 89 233 46 212 132 3 255 147 141 7 62 150 149 63 224 234 32 91 248 87 227 54 109 85 12 4 68 144 83 69 42 201 191 19 175 19 96 63 33 83 66 233 39 185 1 16 202 40 216 90 60 32 125 117 177 211 189 108 194 107 148 187 61 207 32 55 57 197 82 155 160 68 219 152 74 81 65 172 15 6 69 152 81 49 198 20 93 134 72 95 47 229 148 243 246 197 65 85 137 102 167 214 81 5 141 226 37 102 26 206 126 234 30 98 18 17 175 210 163 20 86 126 186 29 198 238 62 169 134 72 76 58 84 139 247 185 105 201 173 174 69 51 130 41 191 101 201 135 229 157 101 3 124 131 64 123 45 190 246 3 220 64 119 39 232 188 90 66 215 252 237 174 125 133 7 119 159 74 178 130 134 17 237 97 79 197 233 65 1 95 208 90 112 109 72 92 183 235 252 169 202 52 133 113 158 149
106 94 186 204 88 31 208 137 38 65 103 85 112 149 211 68 187 79 125 221 27 171 82 94 96 75 78 234 181 102 53 229 36 106 29 220 136 82 157 170 81 71 246 8 55 50 146 201 186 76 145 201 84 251 79 116 1 139 77 105 188 225 87 161 57 78 172 223 106 17 150 63 122 248 80 163 187 20 153 180 229 162 105 213 249 71 119 109 167 194 218 127 163 169 74 113 113 110 247 136 251 252 57 166 106 150 246 36 36 22 176 239 78 101 179 200 91 184 98 16 17 30 93 107 97 95 34 211 62 64 5 128 149 158 217 74 255 41 252 200 138 180 164 113 185 238 77 153 184 28 156 5 204 52 123 51 3 91 17 77 213 124 25 151 255 112 172 128 134 160 90 104 60 142 97 14 106 211 50 120 53 115 184 125 87 104 63 7 67 31 87 237 219 123 196 53 206 12 251 26 128 28 242 71 54 99 178 195 2 140 132 182 205 51 224 104 165 43 241 2 241 118 185 167 120 160 165 104 128 221 158 66 101 6 141 236 37 124 212 40 84 53 164 28 239 19 20 41 156 99 52 132 132 194 11 18 240 135 89 201 201 138 134 47 91 187 73 241 20 72 10 170 241 192 44 191 198 121 182 225 194 251 118 184 108 138 106 208
46 185 148 211 83 246 100 175 82 62 58 114 34 67 69 28 195 211 75 206 68 48 8 74 128 244 9 2 195 128 79 79 139 8 176 236 187 45 253 63 26 137 124 113 55 105 215 131 233 82 170 141 22 14 26 137 152 246 63 65 20 225 92 91 60 128 22 190 62 237 145 90 121 103 158 19 51 56 28 212 87 15 101 223 152 24 15 202 236 118 255 211 54 181 203 78 45 183 79 55 31 10 238 233 54 226 47 207 95 175 235 243 132 189 78 201 35 102 165 83 109 242 216 161 233 151 187 90 176 4 159 95 105 61 113 129 57 241 128 69 38 75 237 240 79 43 86 59 96 120 86 224 112 91 144 81 212 228 65 26 60 155 79 231 136 0 138 100 5 68 224 19 242 187 169 141 108 232 48 212 34 74 205 128 38 220 80 89 149 2 161 49 168 137 135 133 117 106 219 219 4 105 99 203 169 253 75 173 86 128 102 226 208 41 129 214 75 152 67 88 214 249 215 219 207 95 59 118 194 63 148 191 157 185 29 106 56 27 112 112 126 107 100 3 213 202 76 156 200 233 194 75 28 181 13 41 238 108 141 117 164 6 116 172 86 110 61 105 140 138 227 45 159 90 208 184 45 174 166 177 115 125 130 98 238 241 198 58
111 198 71 125 150 215 23 30 44 212 250 109 144 21 80 42 246 172 153 189 103 142 130 0 84 194 235 220 193 81 255 183 228 225 41 136 133 162 126 187 107 58 24 202 17 172 210 131 93 54 250 75 149 18 79 41 245 50 151 138 32 209 99 21 157 253 96 88 208 162 229 4 125 18 9 106 234 120 110 42 159 121 127 187 169 27 15 228 242 161 180 225 205 91 213 61 121 82 26 31 137 134 177 90 238 183 119 162 251 235 247 26 114 96 7 149 163 171 236 56 161 114 80 30 200 230 235 132 233 180 62 54 27 174 149 155 10 220 157 79 205 104 207 62 166 254 187 42 246 136 199 14 46 14 101 62 245 186 26 100 126 124 129 68 146 192 244 59 117 184 238 85 142 175 52 56 125 13 216 191 155 145 185 245 151 214 104 146 71 222 197 157 106 169 122 252 252 149 143 142 136 32 44 106 174 60 112 106 32 77 253 192 189 75 207 109 224 141 24 223 18 192 120 138 194 136 209 173 73 57 73 178 167 247 111 105 174 216 191 179 233 147 235 192 192 33 244 43 156 135 35 52 177 99 7 128 97 117 218 83 242 21 118 105 140 144 243 139 245 218 218 222 128 7 78 147 161 171 164 161 92 16 171 5 175 47 82 136
238 0 243 241 204 128 138 29 47 42 86 178 176 21 11 155 244 112 230 126 63 19 1 30 60 109 225 238 156 43 83 86 38 145 104 112 127 74 145 36 87 211 253 250 25 189 43 177 16 24 37 131 70 240 204 52 12 213 65 29 68 229 80 100 25 255 201 195 48 241 74 229 194 61 204 173 6 20 78 52 57 117 226 197 48 131 255 129 102 180 145 243 52 99 85 107 192 0 200 198 240 198 163 4 61 142 128 156 16 50 242 202 170 152 120 219 24 254 172 17 250 224 89 172 252 198 104 121 130 125 122 104 206 156 136 143 28 250 183 226 116 142 224 160 234 119 206 56 159 41 74 176 25 187 242 182 123 117 214 64 143 36 174 225 24 248 141 2 53 143 55 187 155 154 51 185 72 164 128 178 119 202 32 137 55 231 172 192 64 207 11 214 92 220 13 119 248 129 70 210 85 166 201 223 79 57 228 215 168 105 20 52 242 41 47 124 107 101 156 32 178 171 104 85 117 26 23 73 232 142 163 202 198 116 21 136 205 2 136 115 156 45 180 130 82 17 246 46 146 194 18 210 193 147 223 218 168 207 145 103 172 113 239 225 14 255 253 123 130 19 96 119 138 16 108 3 180 14 97 19 173 171 228 104 29 146 72 99
56 136 212 165 231 164 180 205 145 90 248 3 178 169 218 230 127 225 231 71 47 202 22 52 193 160 60 53 223 46 37 17 135 142 191 10 21 10 154 224 5 202 176 122 203 10 176 99 238 106 133 46 184 216 176 138 103 151 58 190 35 41 211 247 78 205 17 217 219 98 10 17 115 120 171 139 56 43 248 165 48 44 81 251 172 146 248 18 81 144 82 115 65 187 30 96 76 25 108 131 44 202 198 205 245 95 61 253 78 9 248 110 19 194 70 59 191 87 71 255 220 176 74 241 122 130 30 143 233 102 247 10 220 174 55 82 66 105 70 114 82 55 89 56 2 192 235 17 181 182 187 89 205 32 175 186 63 87 94 95 39 176 192 155 58 56 151 17 182 251 229 180 61 106 156 94 131 242 221 95 250 85 216 118 59 94 150 94 115 87 5 185 74 11 154 11 121 108 31 168 222 253 149 89 106 170 113 181 95 216 229 237 90 31 36 2 157 253 20 97 234 12 185 55 129 131 212 212 61 36 100 169 255 164 162 215 48 186 230 123 136 187 140 95 91 57 92 1 158 2 202 161 123 92 243 205 225 69 106 24 60 217 214 197 247 173 138 26 206 50 101 140 47 212 116 12 152 189 3 17 163 103 189 148 135 84 58 196
200 252 18 109 249 64 110 149 57 217 75 140 100 135 46 200 111 13 101 133 172 125 114 192 61 231 166 89 38 139 145 205 223 229 110 173 57 45 156 132 243 45 45 194 208 78 236 35 98 173 190 3 228 249 208 171 210 212 13 53 191 94 215 158 43 160 150 182 28 78 4 190 58 138 249 98 70 82 125 43 91 140 152 169 8 229 233 49 126 139 210 88 219 224 241 227 133 135 8 100 156 139 254 191 185 45 159 40 144 169 129 232 143 109 27 66 214 42 59 194 222 67 252 154 130 43 223 152 20 199 227 110 63 62 117 167 89 179 56 198 35 227 157 227 233 1 67 218 228 173 44 148 244 86 169 138 213 101 228 161 61 206 29 194 169 219 14 40 75 75 145 78 169 230 82 121 188 141 59 106 12 205 101 183 10 153 120 182 53 128 92 69 15 202 222 98 7 238 198 51 103 66 168 150 58 244 86 80 56 151 116 47 39 252 210 61 236 156 138 153 186 131 4 55 129 41 140 220 93 6 195 108 221 42 95 222 203 26 104 232 137 162 110 185 43 169 206 129 138 177 233 190 206 140 27 48 79 85 212 142 80 106 180 19 217 206 172 149 1 74 55 178 177 236 54 34 139 25 255 97 114 193 160 113 89 131 99 210
22 19 102 115 145 178 213 168 61 29 96 245 223 122 214 203 112 181 91 110 127 65 158 69 61 184 161 140 37 111 62 177 248 41 131 136 238 144 153 67 194 208 2 163 165 202 102 240 194 47 140 191 221 108 233 162 60 88 156 57 128 52 19 83 221 123 90 135 172 186 254 68 223 87 111 211 155 144 224 48 148 175 142 118 121 253 211 177 109 254 72 71 12 191 253 55 154 3 155 167 99 203 101 152 134 107 226 210 21 31 191 67 73 246 41 16 230 203 118 169 180 189 219 198 206 227 159 208 206 132 87 210 131 169 44 199 223 93 38 118 22 39 199 194 118 235 185 251 69 147 14 48 215 183 101 201 83 101 160 22 249 191 14 198 100 79 238 178 83 89 114 191 203 0 76 94 160 64 142 38 27 62 174 110 135 113 156 55 0 99 249 7 164 14 200 118 62 154 115 66 21 202 149 67 69 4 159 8 124 59 77 106 148 81 18 225 95 98 114 227 162 62 79 62 78 22 7 211 4 166 173 142 59 75 74 161 119 140 250 9 45 199 173 219 177 130 182 170 175 78 165 200 133 235 177 82 216 244 209 109 55 8 222 229 109 1 121 51 186 182 91 227 247 173 162 131 231 62 70 83 254 126 121 188 156 95 165 230
198 49 185 111 103 48 4 255 76 144 177 170 229 112 78 211 145 215 37 24 1 125 73 216 7 61 125 191 74 9 191 63 224 255 13 208 181 196 162 147 124 83 243 180 255 174 55 17 37 150 158 247 175 138 76 24 26 120 159 211 19 109 183 255 139 38 49 231 42 161 158 83 188 131 254 238 30 251 136 191 90 36 37 205 223 153 129 206 60 58 156 172 201 105 167 219 194 197 118 1 108 145 100 255 90 91 64 119 162 182 210 61 94 177 55 146 142 110 84 10 143 237 212 77 252 216 67 105 12 75 111 81 112 247 76 33 34 139 14 246 243 179 189 5 202 41 71 228 186 238 68 92 148 203 99 217 242 17 163 200 181 99 240 103 202 55 241 144 157 191 129 3 254 55 18 80 251 113 137 20 47 245 130 167 244 25 236 79 34 139 101 59 85 186 7 4 165 128 174 3 158 237 99 4 205 169 172 195 151 131 166 234 113 160 173 159 176 205 198 180 223 67 38 195 99 189 23 79 159 215 247 9 182 254 244 33 206 120 77 214 255 142 250 130 234 68 153 158 185 93 94 1 98 173 58 144 2 226 59 240 207 180 230 159 196 82 49 106 84 127 75 221 124 108 255 102 137 120 65 150 82 241 253 99 24 42 185 148
67 128 191 17 60 38 157 253 28 22 105 163 126 17 185 193 18 32 166 187 170 42 58 113 193 141 22 173 73 248 23 181 60 130 112 35 170 155 164 99 152 222 46 148 19 149 151 58 47 188 201 145 210 72 203 152 86 43 80 222 151 87 157 237 138 130 14 97 109 22 220 237 225 179 25 95 182 26 135 87 27 202 87 158 196 222 21 135 190 12 17 162 58 197 45 54 132 19 35 120 50 174 225 254 148 86 108 113 11 139 42 251 49 118 128 126 131 55 70 166 245 118 109 220 112 20 238 205 169 8 15 118 211 205 16 183 165 94 159 240 152 55 217 151 13 100 6 129 202 54 168 13 31 209 254 242 138 111 107 116 188 120 52 213 145 203 190 172 154 76 200 92 54 182 114 173 181 154 23 221 209 246 132 95 119 27 45 28 214 185 18 241 74 228 207 236 20 233 215 42 171 99 179 161 132 142 23 128 86 141 236 13 168 197 221 176 58 2 238 164 254 125 119 178 88 75 104 249 232 51 13 166 181 116 222 17 201 73 121 70 149 3 0 142 82 39 253 39 64 115 111 191 63 252 204 162 70 27 109 207 3 221 107 153 192 152 240 105 142 70 234 45 103 66 68 52 203 255 131 180 149 241 214 10 213 38 134 116
241 238 104 148 174 91 242 170 208 250 241 115 92 176 93 214 173 233 224 242 141 82 115 43 177 205 131 15 147 173 230 4 177 17 118 175 111 68 115 199 160 47 100 6 118 33 21 156 58 28 227 43 42 148 27 179 206 192 29 116 11 83 145 214 39 133 114 116 117 4 133 205 19 18 138 175 221 220 254 245 165 184 3 233 130 10 51 137 155 156 151 163 183 12 14 125 89 224 26 244 93 20 226 102 12 144 177 225 204 75 88 39 65 199 161 149 36 99 150 146 176 99 115 213 229 74 234 70 65 247 127 164 35 207 218 235 181 93 28 20 25 254 75 149 74 166 149 189 199 95 196 151 107 235 75 24 167 87 220 90 42 207 21 152 149 44 79 13 147 58 224 179 7 92 32 8 28 244 7 17 39 177 95 108 217 91 21 59 157 19 166 21 208 126 105 234 127 82 90 155 83 201 198 157 115 114 135 225 182 153 12 63 143 180 6 226 173 99 208 176 61 51 183 168 234 86 198 152 6 74 19 54 207 67 103 128 44 92 237 220 186 99 231 249 238 4 215 226 183 211 246 174 175 227 87 50 154 232 28 96 180 244 199 188 214 156 209 204 87 88 89 73 255 12 116 226 254 213 121 205 72 116 14 32 162 251 74 255
178 112 87 51 211 200 175 7 36 167 90 55 233 196 185 229 208 65 243 176 238 182 100 159 222 204 96 154 118 154 47 249 56 59 118 158 7 221 10 119 206 132 214 240 94 106 238 216 116 35 162 198 221 14 249 15 109 121 192 32 19 217 212 85 123 57 246 88 230 254 39 17 52 245 117 111 118 22 176 249 11 189 93 101 176 51 37 209 16 207 87 171 63 140 64 218 41 27 83 228 93 125 30 240 156 99 89 78 146 87 201 21 237 209 71 141 10 134 182 98 97 188 22 202 177 87 47 18 70 68 141 106 107 137 246 53 57 202 9 43 33 183 183 58 250 98 150 121 19 105 23 120 49 16 35 14 101 125 192 68 215 10 64 241 137 179 217 25 159 123 39 19 51 178 224 42 14 179 62 112 228 217 179 37 83 76 166 135 130 143 27 249 36 223 60 252 125 254 96 194 248 103 128 42 39 55 191 247 71 98 75 29 39 213 146 112 235 144 58 2 55 40 67 71 150 135 211 39 103 241 92 204 138 215 15 53 109 96 133 83 191 192 109 161 135 99 164 76 92 180 62 56 93 131 133 59 55 218 64 5 59 164 50 33 137 66 157 211 38 144 167 65 27 174 151 93 48 60 246 90 163 221 139 90 124 226 138 172
12 68 111 77 223 63 4 16 35 16 178 249 100 200 227 53 25 175 140 43 85 44 28 207 3 238 242 229 222 172 156 37 81 149 220 198 191 151 183 87 165 48 148 19 126 73 90 221 87 71 154 252 126 47 169 39 119 61 120 69 214 61 46 21 21 187 60 25 129 174 10 124 30 240 77 212 118 93 107 77 10 176 232 180 219 135 59 144 45 13 2 158 95 40 198 205 189 92 238 39 196 41 28 35 191 184 126 122 229 177 168 148 9 133 210 199 167 5 105 129 127 76 186 77 237 88 226 36 151 231 202 79 98 93 190 159 171 215 205 0 111 76 13 70 59 55 155 44 189 181 226 124 86 149 26 224 144 204 15 21 64 76 22 113 246 76 167 117 222 202 246 251 222 99 116 78 233 29 77 101 56 147 135 210 182 117 22 183 105 40 150 14 180 216 43 72 183 216 41 107 225 160 34 93 8 195 91 117 21 107 211 48 140 255 153 185 88 20 217 88 175 130 4 147 17 194 23 140 114 109 206 170 203 211 228 253 167 179 236 198 144 31 9 170 142 85 185 220 105 200 1 51 14 37 90 80 206 151 130 11 62 219 187 137 246 229 88 32 166 82 17 215 12 158 3 144 80 171 76 253 31 140 225 195 136 137 183 227
39 80 191 240 147 122 24 95 217 252 12 4 218 110 246 49 212 155 211 133 81 212 72 125 76 195 138 120 207 54 220 189 200 56 243 167 190 1 25 126 75 143 64 143 171 189 177 123 37 204 225 175 210 68 150 214 187 25 120 168 70 245 132 92 248 122 244 29 226 128 27 220 47 80 186 204 17 92 36 104 143 43 140 31 182 21 7 84 38 231 210 178 195 174 56 116 186 128 136 106 88 185 47 195 223 184 139 131 61 171 65 32 231 137 62 231 140 135 72 50 108 107 207 227 80 227 145 243 240 7 95 209 228 4 237 44 133 21 153 130 210 147 86 145 76 54 122 188 248 243 77 148 187 56 77 131 89 7 88 125 13 129 158 222 94 6 14 165 53 81 28 103 131 236 213 58 251 87 97 248 38 70 123 141 71 180 172 238 24 191 70 95 76 171 217 189 159 6 99 169 186 204 135 71 229 57 39 36 190 12 180 33 165 5 37 146 119 216 205 218 219 224 109 47 52 64 81 42 221 38 85 71 194 213 176 218 155 93 253 55 130 198 162 125 236 116 206 46 245 26 20 104 225 202 97 211 207 130 55 231 149 33 36 73 95 250 149 154 252 251 87 237 165 249 156 147 199 26 77 248 246 72 11 143 71 32 62 146
61 247 4 95 184 184 155 36 5 232 31 201 205 100 226 95 31 102 183 64 98 46 56 204 137 107 91 240 130 81 13 94 255 54 220 228 186 194 70 22 75 28 101 86 176 116 137 142 58 35 190 186 30 215 89 216 92 193 190 146 254 212 193 203 68 47 112 86 189 222 212 44 51 193 15 253 88 77 58 172 126 244 117 6 168 247 114 56 30 105 173 64 253 114 220 55 212 146 35 133 249 42 195 223 83 182 158 133 230 77 234 63 126 81 196 150 149 45 100 67 131 217 109 192 12 210 42 0 44 62 156 159 126 42 228 222 169 11 172 153 113 126 231 202 176 31 179 13 19 161 152 160 243 73 100 96 204 106 17 192 80 1 104 59 181 167 236 38 163 75 239 67 224 177 84 117 128 15 233 141 142 131 233 89 204 199 18 51 16 189 1 24 151 63 64 75 57 12 115 124 71 149 177 60 241 151 181 235 218 22 209 242 108 80 65 10 22 157 213 241 173 46 157 74 71 33 37 156 7 103 33 53 58 129 173 236 217 45 247 60 110 4 43 201 186 42 143 232 12 211 6 151 166 95 211 119 228 188 165 1 240 101 95 119 155 160 195 197 216 21 181 194 188 70 214 179 15 205 140 39 118 67 129 157 1 108 189 124
245 42 171 194 209 130 19 110 254 221 78 131 144 35 207 152 29 205 62 180 102 3 227 255 12 112 103 239 95 154 250 196 241 193 52 96 220 134 218 101 237 120 71 181 93 132 218 211 81 173 198 121 12 139 179 43 170 116 165 172 212 119 204 7 93 250 76 195 148 186 86 52 111 198 162 11 54 54 37 87 80 155 135 165 167 107 181 130 210 181 11 58 115 26 121 157 142 64 135 171 200 116 29 233 179 124 228 119 201 202 133 130 107 141 7 198 222 153 83 128 52 50 151 31 214 185 220 12 127 169 86 160 179 246 239 8 157 219 73 71 160 209 24 141 56 7 93 218 51 121 44 112 136 138 170 237 181 134 212 214 110 245 19 255 0 76 34 41 43 36 199 203 226 138 100 6 74 183 244 192 97 52 244 114 207 14 43 55 8 101 203 60 31 143 4 86 14 135 179 12 139 248 54 119 224 69 127 185 236 76 252 197 205 91 145 28 248 51 59 234 184 211 186 155 135 107 107 48 71 224 242 71 154 70 32 236 189 60 106 44 11 117 20 178 64 101 55 97 106 120 91 156 231 140 43 205 41 204 40 51 189 62 96 100 114 227 54 14 138 112 50 192 102 234 134 145 170 222 31 32 94 187 201 166 16 89 212 197
224 197 245 53 159 169 167 60 249 233 115 142 220 162 105 173 212 38 67 219 84 15 215 144 167 225 198 213 150 109 220 237 55 38 103 237 133 145 39 99 85 177 170 93 177 51 240 16 101 178 107 81 164 95 231 4 236 97 218 191 191 0 173 211 242 97 93 110 53 19 85 134 199 150 105 22 232 100 118 198 176 167 101 72 226 80 3 60 114 53 40 107 138 104 87 88 87 91 226 74 48 227 180 7 148 108 11 85 114 92 36 246 193 229 52 75 62 100 249 170 103 176 159 10 82 135 230 238 102 163 24 163 155 146 247 67 250 39 232 152 16 225 136 156 5 36 68 167 146 44 178 173 183 56 59 49 229 239 74 81 27 4 176 75 193 175 29 217 37 38 159 158 118 44 121 242 36 49 129 153 114 221 133 226 243 220 158 129 67 126 51 189 213 174 180 89 217 236 7 71 176 216 181 233 42 253 23 72 163 46 251 86 57 200 158 246 12 117 163 116 51 1 162 2 57 222 152 173 31 13 79 183 208 115 3 139 104 140 204 180 227 132 205 88 246 148 104 159 187 106 134 111 237 197 119 253 82 24 99 203 185 84 215 79 251 120 51 71 98 101 8 87 237 214 106 36 103 95 53 20 183 118 43 80 250 55 91 113
27 19 123 217 128 19 212 66 169 7 200 22 209 48 232 87 47 203 223 253 39 127 166 213 96 42 127 138 190 233 123 239 203 217 30 252 199 51 140 47 215 17 98 240 207 190 92 95 113 153 235 115 131 187 186 237 165 79 208 50 235 173 210 15 154 227 53 42 136 240 164 23 110 241 111 61 143 171 172 41 183 64 203 181 75 222 95 152 30 13 224 69 215 89 133 38 118 165 103 87 141 218 211 247 236 42 227 114 24 226 91 114 254 157 201 233 33 123 99 128 66 22 124 48 249 4 37 63 151 107 73 1 253 217 144 120 117 122 98 15 233 43 115 169 72 196 158 231 25 37 77 192 147 163 195 165 191 127 253 192 103 253 229 69 9 172 240 147 210 124 92 45 66 31 132 231 151 16 85 75 4 164 65 209 194 84 99 29 185 231 205 193 26 77 8 241 207 41 60 14 112 188 193 200 14 193 194 1 162 68 95 118 203 241 98 54 104 48 110 221 180 174 220 169 43 126 220 63 25 61 68 105 174 54 149 183 161 24 4 103 214 127 43 219 94 73 116 226 177 49 85 91 83 155 67 229 139 48 233 193 214 181 191 232 131 220 137 75 86 80 90 80 175 230 129 76 182 8 233 176 111 25 104 27 128 192 137 69
245 164 167 112 88 206 203 48 65 102 206 186 157 18 68 47 130 79 178 240 121 93 148 87 148 112 146 154 216 179 17 110 83 115 246 220 176 21 185 212 115 2 143 210 213 46 177 30 212 53 96 44 189 25 36 188 252 135 94 124 224 109 13 136 115 179 238 29 37 201 182 73 252 150 161 174 142 108 41 126 249 159 44 243 249 0 201 76 109 75 24 35 179 211 152 152 206 195 223 187 45 101 16 111 24 92 218 161 20 123 22 42 215 35 103 149 120 99 216 29 121 235 222 99 132 63 244 139 69 232 233 90 112 138 4 231 106 115 149 11 111 156 13 88 107 221 200 55 46 229 165 187 214 161 226 3 195 7 158 168 90 192 215 148 17 98 122 238 148 50 25 27 219 207 43 210 226 50 126 223 213 10 13 145 103 179 236 133 150 38 51 168 191 224 30 179 194 167 252 229 39 238 45 105 241 220 70 102 137 40 130 143 88 209 168 83 179 28 82 241 240 131 196 2 199 14 46 21 246 217 152 211 202 16 2 65 60 18 13 205 191 80 173 199 4 136 189 26 121 215 70 25 236 236 172 147 180 134 94 19 54 129 199 118 36 250 141 92 55 184 99 30 186 81 152 23 236 132 6 251 101 179 199 149 92 79 246 54
196 44 237 57 72 66 54 17 58 118 76 229 239 234 71 152 1 118 147 200 192 93 38 189 103 225 31 179 187 54 78 8 50 11 240 157 29 184 161 168 10 23 12 221 219 71 68 136 107 152 26 57 75 147 111 26 166 15 132 223 89 134 42 44 204 42 28 202 122 195 102 145 199 119 135 191 190 23 222 75 191 115 174 143 188 117 53 240 124 219 9 63 181 245 152 209 219 162 109 108 121 15 203 251 93 114 39 203 200 201 121 66 102 162 34 8 222 206 63 248 185 122 52 200 212 87 101 110 183 70 117 61 238 253 246 88 161 114 241 36 246 180 227 12 30 154 158 29 51 6 130 13 88 219 249 6 75 166 39 177 128 195 9 134 182 213 58 117 21 225 223 55 39 82 253 57 100 102 75 253 110 40 45 157 128 73 14 147 64 79 187 64 248 114 76 35 190 172 223 147 233 189 82 176 181 26 245 91 169 133 210 229 148 81 212 210 78 21 196 190 208 36 25 210 21 144 145 19 165 162 51 122 98 170 88 229 236 71 207 89 207 244 62 203 7 184 208 92 189 154 134 40 174 78 67 206 16 215 65 13 16 146 3 84 245 231 171 142 89 234 132 53 140 246 241 39 144 34 174 21 165 192 167 213 80 51 121 119
239 209 187 91 77 2 109 123 172 81 179 233 5 203 69 215 162 240 208 144 109 25 163 56 13 158 195 46 238 164 136 97 71 192 188 35 188 173 243 206 142 178 147 147 53 255 216 210 252 205 10 195 26 223 117 98 12 193 16 200 240 38 137 117 158 9 152 70 244 36 164 77 247 131 73 52 162 234 187 238 59 36 74 4 5 112 95 30 196 254 223 173 213 51 10 239 57 250 153 19 48 223 17 175 150 1 183 107 216 28 21 136 161 215 7 154 25 88 92 8 46 95 230 239 4 172 192 121 217 67 210 79 19 46 98 104 133 17 241 63 197 162 69 41 58 10 119 167 191 117 10 168 241 114 134 158 145 88 157 248 131 37 5 85 16 155 235 143 248 20 152 237 13 18 250 182 205 229 72 216 12 248 133 17 134 235 86 57 127 57 236 106 43 114 56 61 118 171 201 29 142 29 38 131 18 48 224 156 62 210 8 198 234 93 64 240 238 58 70 11 235 67 106 169 162 105 126 177 80 93 169 19 162 201 242 165 146 103 203 90 147 71 66 59 99 70 248 140 162 38 109 174 159 159 56 103 121 216 175 240 175 177 105 213 43 40 250 11 103 71 142 208 151 183 212 81 60 245 160 156 124 89 44 112 144 240 154 95
70 237 53 230 106 185 93 65 49 196 86 246 64 148 26 27 98 137 177 113 31 147 218 90 163 220 1 192 140 172 197 105 197 239 26 136 57 187 2 173 127 36 172 137 141 41 125 168 164 135 49 71 111 155 242 17 206 113 138 55 238 182 47 101 253 183 186 73 67 15 137 46 39 131 107 142 186 224 36 40 207 182 118 7 219 18 202 211 143 119 65 232 189 244 186 10 131 53 2 40 172 145 79 107 89 187 87 56 27 101 15 43 95 191 173 132 236 200 27 225 193 20 202 181 30 53 154 142 2 179 129 24 245 194 59 59 135 112 84 81 23 19 159 128 14 15 251 247 170 176 66 187 158 232 40 67 200 56 71 245 230 13 36 80 44 38 111 56 193 195 36 214 7 207 220 226 70 218 218 12 247 141 46 239 107 227 240 118 114 137 154 234 102 144 46 97 233 131 170 162 124 212 11 81 56 237 59 161 207 155 35 73 226 207 56 103 29 75 100 23 201 37 157 192 229 108 152 80 145 226 2 136 113 123 5 11 196 148 108 173 116 63 237 199 220 106 175 109 166 65 242 101 59 90 67 187 97 174 163 113 170 144 16 211 125 157 194 228 172 216 124 37 150 74 118 168 196 225 58 213 93 41 16 2 133 223 80 138
183 231 115 241 121 6 60 216 252 127 181 60 237 201 105 110 107 154 140 27 3 204 8 97 92 12 164 196 150 107 65 234 5 72 31 128 31 161 76 64 105 150 11 111 145 76 30 216 14 111 223 63 167 197 232 123 121 23 39 140 95 194 155 131 200 17 62 70 228 198 247 78 201 36 206 230 211 228 178 146 5 164 23 55 111 10 65 83 119 25 101 226 122 143 13 10 190 49 53 143 66 179 161 69 105 204 23 212 138 14 162 1 42 19 125 182 144 117 117 250 95 156 90 178 131 53 59 247 190 83 8 83 195 229 40 101 80 171 224 59 40 131 118 186 210 163 252 53 132 191 134 88 159 233 112 219 213 194 204 171 247 125 7 210 197 169 48 206 34 109 201 112 21 158 94 242 192 68 229 33 211 79 116 102 149 72 219 97 111 55 134 200 246 74 141 158 10 227 19 68 204 195 83 116 250 106 134 253 233 123 186 199 2 214 152 6 136 53 100 255 59 221 128 154 75 8 238 48 86 98 213 168 13 173 171 117 224 192 35 176 17 246 84 110 112 184 209 30 250 56 243 77 232 124 67 240 72 99 182 50 22 7 98 46 201 50 209 16 82 196 108 159 124 64 26 227 174 76 1 57 68 52 123 107 46 188 165 78
115 139 52 127 255 180 228 139 214 182 188 234 29 48 205 106 24 249 186 198 155 139 4 41 225 135 104 33 236 124 194 43 247 92 191 144 111 137 11 107 238 113 55 113 24 76 221 193 73 6 22 204 205 2 225 229 233 77 103 185 248 99 137 21 237 109 190 176 57 117 162 100 93 242 45 87 118 177 169 25 126 26 18 206 168 103 63 4 24 132 105 13 77 101 102 169 98 45 221 40 115 32 58 154 47 104 235 85 225 158 187 41 9 167 169 19 98 40 219 59 202 149 40 60 10 182 17 6 84 198 132 212 148 25 191 213 213 156 192 242 172 82 133 249 134 107 250 77 246 121 173 34 208 78 183 67 191 245 65 59 125 11 167 71 63 22 80 222 1 153 24 71 75 187 44 237 120 184 50 9 41 179 108 107 209 99 74 237 53 152 245 12 250 235 180 54 74 149 21 10 15 99 133 107 240 96 238 146 242 214 122 2 17 198 148 100 226 241 162 219 244 195 85 7 186 32 45 187 89 7 80 149 143 154 94 242 5 185 228 2 184 243 23 200 107 53 145 201 234 17 79 80 174 97 114 78 238 160 116 63 47 89 78 10 41 137 157 178 75 64 158 150 187 126 54 93 76 165 206 101 131 119 243 144 230 251 74 249
245 22 154 1 129 154 80 139 217 189 215 15 58 19 118 70 154 223 13 137 26 201 157 181 78 18 234 144 254 127 128 69 71 56 95 192 6 125 124 231 190 122 200 33 110 199 237 95 118 247 95 131 173 47 196 140 62 82 199 49 231 91 242 12 123 179 219 23 11 72 22 109 140 64 22 105 253 198 21 213 42 110 208 41 16 0 63 206 62 180 198 56 252 240 108 57 208 65 75 81 119 81 224 57 35 71 103 66 212 235 58 209 7 98 108 22 68 151 46 238 89 192 4 23 207 146 105 24 35 203 120 49 27 11 55 115 117 114 241 12 92 103 99 86 174 124 95 160 75 112 229 222 100 62 142 73 157 227 97 21 150 110 157 71 143 89 12 54 13 215 253 84 201 195 161 192 70 4 173 169 236 151 33 13 179 220 225 222 123 204 22 126 124 133 83 194 36 237 45 113 28 91 63 186 194 80 155 85 142 15 1 124 227 176 2 101 174 61 157 177 173 47 170 135 179 213 129 141 18 95 79 41 204 49 92 55 105 82 110 146 20 12 102 53 63 208 48 206 164 88 224 75 26 232 153 194 54 93 42 233 243 251 101 39 28 97 35 140 147 54 53 38 24 57 225 187 69 19 167 68 62 19 184 88 163 100 111 92
129 15 96 104 149 139 144 104 223 16 37 32 15 163 0 174 145 252 217 43 196 155 130 14 181 163 205 211 99 79 224 8 29 252 183 149 44 64 84 100 18 135 104 86 214 81 121 178 33 168 135 205 140 250 132 49 170 237 27 63 61 163 57 164 117 71 221 249 220 24 132 66 99 247 69 88 21 138 214 226 179 2 90 86 179 239 75 229 110 117 217 79 163 3 27 76 72 179 66 31 230 222 224 58 242 123 115 28 146 55 75 105 37 54 234 165 69 122 147 61 115 188 7 224 238 88 33 172 78 141 95 202 184 249 120 211 147 160 31 36 8 196 79 172 31 69 171 139 131 161 8 211 49 12 8 27 81 71 161 101 4 110 152 11 147 99 4 40 86 231 8 168 125 90 234 188 74 190 255 136 164 14 72 92 21 129 255 20 185 103 216 171 67 199 241 8 220 235 72 69 43 173 96 253 33 119 203 20 76 122 175 7 41 215 25 254 136 154 204 113 105 210 252 39 94 182 46 129 134 40 9 253 67 18 6 30 146 4 47 250 233 161 71 43 221 169 55 203 158 228 15 90 127 241 207 168 162 48 253 194 184 41 235 147 84 39 208 129 188 212 184 221 158 137 77 163 82 181 24 74 94 102 52 252 180 244 185 119
31 1 156 196 65 87 144 158 186 80 50 111 115 199 67 105 137 4 74 114 129 192 111 109 193 216 103 158 59 137 141 84 215 95 85 170 16 127 113 144 95 151 46 128 143 64 191 217 15 160 21 165 45 93 151 51 166 57 6 6 244 0 55 239 158 195 251 109 106 12 104 176 87 124 104 71 128 8 194 210 138 147 17 33 118 131 98 142 84 225 123 25 3 104 142 199 70 205 106 154 153 181 37 4 110 175 10 134 49 97 129 209 139 227 234 64 94 138 70 10 208 46 144 120 224 92 209 227 202 239 2 126 91 69 241 253 223 27 236 49 64 1 72 75 46 146 239 166 219 111 215 53 180 84 234 199 105 218 238 195 198 90 157 202 129 85 198 64 105 118 59 154 23 127 149 221 3 191 250 130 107 228 83 26 18 42 158 15 153 153 62 32 202 79 175 73 39 173 169 250 49 163 224 23 170 180 128 172 74 29 189 246 236 153 205 216 194 156 148 34 11 64 7 83 194 192 218 38 233 9 46 173 26 75 187 227 112 59 32 152 181 72 165 241 193 11 104 154 48 95 13 196 143 114 186 174 129 55 98 1 59 189 74 147 181 58 88 0 29 8 215 109 83 54 203 96 165 222 162 70 27 143 181 36 24 191 193 196
95 244 180 4 124 253 236 57 9 19 205 118 187 33 62 177 41 129 108 241 39 179 187 59 224 214 229 82 76 163 21 160 247 131 64 169 104 133 64 191 117 229 248 166 41 162 253 55 46 201 70 64 164 113 88 15 245 68 130 166 207 126 135 33 236 132 91 54 21 158 34 155 184 224 59 31 211 81 117 217 241 218 141 179 106 233 132 11 26 117 10 29 40 86 241 187 79 113 53 255 161 168 96 87 159 188 246 46 217 213 128 122 88 174 25 152 65 189 201 237 11 216 79 105 167 21 252 84 72 220 90 32 75 82 32 119 89 199 32 7 200 176 128 3 9 98 107 159 95 167 227 20 248 169 135 206 225 14 51 66 175 86 142 215 19 83 33 7 38 28 147 123 59 208 161 161 65 82 7 199 64 113 40 109 178 181 63 172 123 62 83 140 163 190 104 185 151 173 181 44 245 247 26 126 154 51 194 75 129 69 39 162 158 102 240 169 56 242 54 206 77 20 30 247 193 188 219 101 28 29 232 12 14 162 84 206 11 58 240 227 100 106 142 151 155 124 174 147 83 125 120 42 124 8 93 144 102 179 81 6 23 65 18 128 148 107 221 92 137 207 195 17 109 74 244 139 77 43 2 23 100 119 254 214 145 94 213 153
215 230 162 32 141 15 73 87 161 82 218 204 127 20 210 234 57 41 238 220 75 81 22 104 149 116 147 38 247 23 174 36 197 21 2 218 35 208 247 182 172 230 207 253 163 53 25 75 21 28 18 186 205 56 133 134 126 170 230 200 79 43 165 178 188 255 145 254 99 181 119 230 183 209 0 155 216 10 205 202 95 164 209 78 160 255 37 173 172 107 104 214 163 112 252 173 147 240 78 157 17 30 40 242 37 57 201 148 194 32 187 75 150 66 238 64 223 225 72 0 108 31 159 193 122 208 158 69 143 37 232 20 186 186 199 55 196 19 158 236 195 253 109 169 148 42 105 83 103 236 58 162 242 214 181 32 205 21 237 151 230 238 62 113 222 135 40 4 205 78 223 10 197 50 145 186 139 169 67 175 143 227 210 82 80 181 23 231 236 27 65 170 86 222 86 214 141 236 123 142 60 73 155 32 198 54 189 87 45 78 83 32 31 151 115 34 14 62 61 208 43 214 43 24 144 237 155 236 168 98 222 212 53 117 238 117 238 25 28 235 43 146 188 127 97 130 88 166 4 159 121 81 108 168 122 26 26 143 238 228 115 65 235 102 86 91 24 165 103 194 155 186 255 218 202 73 122 87 162 199 205 8 125 76 78 147 67 30
42 176 37 228 96 3 2 0 244 132 125 3 30 157 78 182 98 53 158 82 16 227 73 91 219 81 234 141 82 176 37 65 109 148 241 37 181 63 77 3 189 200 147 23 214 15 81 138 31 243 181 208 167 3 229 217 140 175 247 228 250 88 39 245 211 222 215 210 34 169 212 144 132 246 22 230 200 188 179 131 28 191 152 141 69 65 198 21 254 37 240 207 152 237 130 140 94 158 80 98 21 79 70 97 193 135 144 170 172 55 109 155 68 83 36 253 251 145 131 99 218 74 201 57 88 62 132 61 71 120 208 99 246 164 79 24 128 98 228 122 211 126 158 80 171 251 84 35 86 183 189 24 95 242 190 20 74 30 73 45 166 183 104 212 238 15 194 252 53 50 15 250 87 197 176 113 202 15 156 103 156 191 40 136 53 56 112 22 217 118 165 223 15 10 217 16 98 154 221 254 19 110 45 228 45 198 44 149 194 135 188 118 192 72 254 207 126 79 237 81 57 104 178 83 180 93 249 121 110 60 69 78 128 96 124 81 80 151 23 103 193 114 49 125 156 111 41 172 83 227 11 220 69 29 164 174 7 16 161 151 28 136 179 80 111 212 212 177 178 11 26 34 160 14 91 93 130 184 228 161 187 184 14 189 162 246 217 32
196 106 167 170 218 21 24 148 107 157 155 30 203 28 132 177 211 184 152 146 108 70 91 179 19 241 185 65 72 140 227 192 166 54 217 205 3 183 115 223 242 64 10 109 245 79 253 127 18 159 163 254 101 156 241 186 218 27 174 23 172 26 130 158 170 224 196 199 140 162 199 47 140 183 119 172 187 152 147 6 184 205 122 196 85 180 215 72 219 69 186 78 51 168 106 113 110 72 247 125 180 167 250 157 108 251 231 203 85 239 150 217 42 212 135 59 210 40 61 50 199 79 221 57 243 7 36 32 199 172 17 141 41 159 166 246 89 67 8 134 239 206 168 27 114 90 66 72 25 100 126 122 150 175 78 76 42 129 231 149 76 220 32 71 155 131 151 138 136 208 129 197 19 52 6 22 183 249 226 166 210 80 153 14 239 74 25 213 38 246 0 27 178 153 184 249 11 19 233 149 206 212 98 121 222 47 90 139 182 217 18 17 205 111 214 59 10 199 79 12 153 42 69 163 41 180 176 75 154 241 239 209 10 62 187 238 37 235 164 10 97 74 241 133 170 113 133 127 18 205 147 69 191 165 118 176 133 203 47 102 173 131 151 64 115 135 61 153 229 18 202 78 112 181 39 167 169 95 23 157 219 68 103 39 64 22 223 229
98 191 30 250 231 52 87 207 71 49 118 139 186 5 72 149 51 120 188 34 117 207 239 186 174 71 197 228 119 1 101 93 6 129 27 19 10 81 22 164 102 89 97 232 60 173 87 119 67 237 30 255 152 167 159 48 139 127 79 179 153 30 165 179 101 7 60 197 109 119 116 142 139 122 89 86 170 159 206 91 50 46 11 241 116 134 77 233 164 85 155 135 45 240 91 5 52 207 125 187 87 130 214 80 207 82 146 236 120 199 143 14 12 101 165 249 88 34 59 196 124 225 76 213 117 80 189 179 53 142 146 77 184 127 211 84 115 168 111 247 117 62 248 172 3 113 204 160 74 36 92 101 223 149 62 238 48 217 153 193 6 56 21 173 109 97 69 116 121 54 167 78 10 42 139 105 91 237 185 94 181 117 74 239 232 183 235 140 214 156 57 64 172 105 62 202 22 163 213 30 241 77 103 81 27 158 164 149 234 66 105 148 110 121 37 248 56 225 122 88 25 18 186 96 152 67 214 208 53 164 225 15 28 126 123 119 210 181 220 86 96 27 164 19 163 188 132 129 13 107 130 42 77 201 115 41 34 142 164 15 29 99 121 168 91 81 210 127 16 129 108 255 194 235 56 27 207 50 165 115 237 70 56 29 157 125 207 90
243 137 232 240 92 140 148 102 172 82 102 223 78 56 122 29 109 242 187 115 247 55 30 226 216 188 93 252 178 3 50 106 101 57 12 0 105 106 36 99 250 193 45 157 46 118 225 168 180 60 206 157 63 26 41 113 245 252 26 117 243 160 242 165 249 97 158 101 165 241 186 15 63 253 147 116 86 44 80 208 216 216 58 106 233 221 196 240 6 142 1 187 21 125 21 166 80 167 166 34 209 110 94 244 240 123 152 50 168 68 196 38 73 113 54 46 137 242 55 122 184 69 49 67 134 1 16 154 239 85 119 134 124 177 236 148 49 45 120 28 229 50 198 102 218 87 64 222 51 179 140 86 160 226 31 76 0 138 119 32 235 22 156 41 180 59 73 100 187 132 245 172 161 35 164 41 3 6 192 9 144 99 255 187 131 66 182 158 170 241 117 53 245 33 189 178 217 34 254 14 3 197 4 55 0 222 103 141 70 40 190 10 221 249 96 152 177 220 23 93 200 177 53 223 188 120 61 25 34 17 181 147 7 126 209 29 252 110 113 88 151 67 23 65 210 47 146 205 35 201 163 75 177 183 79 138 243 34 172 135 122 182 75 20 42 23 171 173 26 149 219 144 31 214 191 151 77 231 115 232 120 241 250 37 145 190 116 101
155 212 13 44 251 1 220 75 156 5 247 224 15 106 186 36 98 45 240 142 46 34 197 38 250 62 180 222 186 28 202 110 30 172 29 95 3 121 126 152 164 81 73 157 16 54 163 20 38 206 14 134 47 145 135 240 173 19 178 81 217 111 80 193 175 95 76 120 38 252 44 150 232 61 163 128 131 142 20 212 29 186 101 51 157 30 135 20 21 133 164 80 202 28 18 122 65 212 153 202 107 200 77 161 11 25 113 234 221 152 34 212 35 119 27 92 17 118 145 200 89 188 149 78 180 2 238 70 254 112 248 49 198 133 221 240 252 152 177 173 0 33 213 31 126 169 182 82 185 193 8 224 89 39 221 252 86 138 143 248 89 20 96 83 236 238 89 45 133 25 230 100 69 82 217 184 43 28 116 154 199 38 80 10 151 46 59 205 85 202 201 103 18 96 50 120 100 36 43 132 145 47 51 108 94 42 165 148 253 30 226 254 100 149 153 239 29 182 175 2 248 158 24 172 169 255 34 229 32 8 53 123 201 23 46 38 228 220 70 207 11 102 50 201 117 30 86 243 93 195 48 158 154 32 166 5 166 77 131 87 136 131 134 251 245 68 182 223 148 193 12 22 75 227 77 3 246 166 123 208 28 102 8 58 160 4 196 71
234 226 31 145 189 134 214 33 116 172 254 89 14 97 154 112 1 179 65 156 179 86 218 164 230 21 44 6 116 15 134 97 171 64 208 29 181 255 247 13 17 97 137 32 2 73 118 153 134 228 116 48 170 230 3 231 209 190 150 117 235 102 26 98 165 129 139 192 164 149 97 55 185 100 209 231 160 191 76 113 107 249 218 213 186 127 97 12 94 62 103 50 121 121 11 210 10 62 239 112 67 18 139 211 122 163 12 51 209 50 135 150 195 108 180 67 112 243 100 90 97 116 232 128 92 154 190 204 215 151 111 17 21 248 255 141 193 69 218 55 171 76 112 211 126 241 116 239 133 72 167 161 169 101 83 119 24 204 206 200 246 217 4 114 184 108 59 153 84 172 186 3 54 38 5 106 250 150 85 63 143 240 59 245 94 87 197 221 141 111 134 138 166 22 37 42 155 37 231 154 223 160 69 106 219 224 113 56 178 48 171 3 118 166 42 160 176 49 116 122 8 225 84 146 185 163 97 5 172 145 81 47 149 238 209 209 159 25 65 15 196 157 41 211 214 74 183 154 196 120 169 201 41 86 129 195 52 140 138 72 223 161 253 133 186 45 85 214 73 197 13 58 250 236 1 139 38 47 161 170 121 227 177 95 14 207 129 20
198 159 21 160 156 3 28 113 122 200 40 3 110 103 210 41 130 21 153 36 82 181 56 47 9 243 6 190 91 137 201 51 28 96 129 62 206 59 255 98 34 32 23 153 5 46 24 13 139 21 150 98 110 202 213 101 37 141 212 218 76 66 255 130 92 125 209 243 146 44 185 123 66 76 49 226 135 35 254 97 7 90 71 69 246 79 210 214 121 168 180 49 83 33 52 37 174 144 116 121 131 87 117 129 178 166 224 1 84 242 225 15 194 113 155 6 44 66 55 18 135 116 164 141 86 223 232 146 15 44 60 133 76 149 230 144 194 236 156 254 239 205 198 224 8 232 171 51 59 207 208 142 77 25 19 66 76 221 180 245 244 255 16 29 248 67 119 12 70 25 228 234 14 8 23 25 70 163 30 199 101 230 71 11 225 208 132 210 168 77 110 47 21 135 27 231 151 173 144 138 112 216 95 134 228 55 68 165 171 101 129 115 0 120 171 11 9 137 148 84 234 37 43 242 207 196 214 150 109 38 152 215 199 150 75 116 183 203 238 75 112 205 153 115 216 143 194 19 49 129 218 239 11 184 125 43 88 125 233 251 208 109 127 32 187 102 230 203 153 134 143 31 237 229 186 193 111 117 192 132 77 15 57 174 168 219 239 62
163 225 131 42 120 11 175 91 22 143 33 15 170 56 80 253 133 112 211 176 238 55 47 175 196 187 145 186 170 101 240 242 24 108 6 12 17 150 126 36 189 204 148 237 140 228 211 97 42 254 84 23 77 231 2 142 27 199 48 73 145 106 166 19 58 189 33 172 187 109 18 1 62 197 124 43 184 149 161 171 91 188 47 14 178 72 78 164 55 4 198 84 154 116 41 105 159 182 22 196 110 80 89 125 136 216 230 105 231 120 90 106 223 59 41 167 211 49 37 6 219 234 97 148 224 233 218 85 67 28 176 5 45 67 85 45 248 244 16 253 225 83 50 25 239 7 155 10 66 161 235 244 153 235 193 247 135 163 111 153 5 230 195 140 207 55 137 186 23 151 145 246 175 173 187 80 230 125 96 29 93 74 165 100 172 105 139 125 12 13 167 60 196 158 100 43 24 190 210 24 147 176 12 13 117 4 213 45 81 99 22 158 110 225 41 204 81 75 49 53 65 164 115 173 201 79 115 150 246 135 3 140 44 235 195 28 113 125 159 121 174 16 253 84 62 167 36 236 75 18 25 200 238 193 158 18 204 155 226 111 113 116 213 71 110 236 179 160 248 134 149 89 182 205 191 165 202 14 77 200 146 84 0 216 34 112 21 254
230 35 46 83 52 149 156 61 25 154 242 175 237 154 210 223 13 116 44 246 117 177 163 212 44 58 241 186 171 37 131 57 215 38 104 125 232 168 58 102 192 178 118 161 50 82 224 104 170 219 91 189 118 171 108 250 213 26 190 156 150 238 78 46 183 221 68 4 245 157 149 204 18 173 220 49 81 167 141 85 75 216 122 207 182 81 26 187 219 110 204 69 91 215 133 107 187 167 71 187 186 98 15 148 32 69 67 95 146 11 38 213 27 54 154 133 122 203 221 205 179 178 102 17 252 232 205 221 125 204 100 46 176 20 67 15 36 220 10 245 153 57 42 177 98 22 224 227 97 54 214 35 126 128 251 166 226 21 115 106 167 68 171 117 79 74 112 140 37 177 254 172 76 239 25 103 125 62 93 158 86 69 5 133 251 163 140 145 53 89 28 255 149 58 38 15 15 154 157 34 27 90 255 161 239 175 234 172 162 241 215 196 187 81 96 101 172 34 124 254 45 238 12 34 71 11 214 2 235 248 162 40 182 165 236 186 246 143 3 243 213 200 96 146 84 144 45 225 25 11 30 111 231 230 51 232 84 112 168 32 152 23 213 253 232 205 185 104 64 40 84 53 133 118 184 90 150 18 254 90 114 66 134 77 63 240 81 171
86 237 26 187 170 123 218 123 106 191 98 179 150 147 27 107 95 5 202 150 157 132 153 91 76 86 76 240 234 1 2 152 145 14 144 89 86 23 90 147 206 205 105 62 224 76 85 41 148 71 233 167 56 241 195 120 102 122 229 50 150 83 176 141 90 135 164 80 44 83 254 145 171 139 127 57 209 149 201 53 87 12 180 17 114 127 5 190 46 245 214 211 167 114 115 6 178 145 41 65 169 66 214 90 134 84 24 121 49 4 188 199 175 181 22 11 83 73 91 144 90 233 7 179 133 138 219 66 90 165 159 84 136 114 232 177 244 16 167 190 108 136 64 145 56 63 147 105 30 159 214 203 20 10 29 50 89 156 42 188 39 113 95 131 111 8 48 156 44 191 104 33 76 54 249 124 176 44 199 112 86 57 24 34 147 238 58 81 100 184 230 66 245 46 118 233 116 26 74 107 91 6 153 15 144 173 107 153 27 32 171 177 168 91 130 131 193 199 200 46 24 118 198 73 57 240 172 81 241 165 167 1 40 33 95 106 133 136 9 127 74 173 115 232 248 200 30 73 252 155 25 62 37 74 15 188 133 3 96 23 172 87 33 6 74 164 149 81 141 70 183 149 65 11 204 26 167 116 4 241 2 179 235 32 246 21 166 44
116 223 231 146 98 5 190 120 224 68 151 15 151 110 103 23 18 22 235 7 145 176 44 160 191 215 227 182 240 164 239 140 115 231 148 92 124 27 73 104 87 153 24 32 236 246 120 133 34 196 236 64 189 234 133 229 0 200 95 164 227 87 64 50 152 144 137 70 172 201 198 5 176 239 152 126 251 17 150 220 125 108 39 31 234 241 189 147 225 77 141 150 88 49 2 228 143 119 234 80 225 102 209 152 220 0 129 160 146 183 102 207 150 247 242 206 210 18 255 109 24 220 148 156 15 210 246 191 181 28 182 75 242 21 189 233 72 107 120 65 128 166 118 146 41 220 209 83 146 239 71 46 224 145 36 42 161 235 207 68 79 71 97 46 235 94 218 50 103 187 106 202 182 5 50 63 145 213 125 98 33 62 113 78 88 97 157 111 124 63 29 142 44 160 19 152 133 158 134 150 20 136 243 150 121 22 47 109 69 156 63 17 95 55 140 157 104 219 223 212 47 24 226 20 234 69 101 45 38 74 121 22 30 57 27 185 233 3 253 43 9 196 205 197 29 186 160 132 248 167 3 183 243 90 200 54 17 225 55 148 187 83 133 72 87 106 189 3 243 230 122 102 124 145 65 92 72 117 214 207 222 193 214 154 14 120 140 3
3 2 48 99 190 176 61 166 167 4 13 221 8 126 59 171 108 170 13 79 136 180 116 204 153 24 37 75 131 229 200 238 208 108 24 68 15 193 39 5 142 32 49 85 98 94 94 39 120 23 178 142 51 31 220 226 68 244 254 180 246 120 97 117 4 13 158 169 19 3 137 144 78 152 198 206 145 38 188 169 110 66 203 226 1 79 215 173 92 142 234 208 12 138 134 238 3 155 217 4 169 19 56 255 108 30 101 188 73 61 92 184 188 172 89 53 94 84 135 73 104 146 7 34 7 116 55 225 66 0 116 163 239 189 153 12 190 176 218 81 109 29 40 59 255 58 159 14 8 18 187 229 221 179 59 35 116 196 149 65 10 233 60 0 98 150 124 56 228 169 57 231 252 45 92 35 41 93 77 6 140 191 238 219 163 228 158 53 119 209 3 128 140 50 144 106 11 205 197 172 36 66 72 91 73 116 51 61 251 221 102 233 247 239 14 194 72 96 80 10 51 185 143 194 198 128 32 131 129 108 6 80 245 230 51 174 55 127 34 105 59 194 131 238 22 67 174 53 102 166 208 158 39 231 255 249 63 231 194 205 230 53 70 165 84 255 110 21 150 68 62 239 156 238 204 98 205 172 170 77 217 255 186 95 178 0 42 200
196 200 227 226 246 79 15 196 222 66 192 38 88 88 16 177 30 3 226 38 177 29 52 247 19 99 28 84 235 10 192 100 182 124 241 13 208 176 118 33 236 145 181 46 129 28 245 171 152 250 23 247 12 12 180 186 121 118 157 109 102 43 55 147 219 2 204 161 105 4 242 52 118 109 226 185 69 6 36 129 194 46 241 93 185 170 235 79 98 172 176 37 81 114 110 109 74 126 226 52 117 11 45 165 83 59 50 80 191 100 198 190 68 97 213 162 210 19 115 59 213 182 245 101 58 103 195 103 187 155 190 1 210 197 231 68 125 3 254 133 110 133 217 50 61 77 232 235 143 16 140 200 127 81 228 207 215 200 196 232 104 13 65 211 67 137 199 94 14 236 136 203 216 208 83 192 235 5 224 82 182 123 161 229 34 190 227 195 182 152 155 216 13 57 166 36 176 219 204 46 210 21 96 168 101 139 207 244 99 214 61 164 6 222 109 96 29 190 139 6 210 121 216 86 48 105 184 201 216 127 251 15 143 68 59 231 110 224 117 124 245 83 117 68 231 80 232 27 178 214 248 207 71 78 160 63 209 142 24 21 219 38 35 81 79 126 151 153 243 61 15 207 82 90 83 124 41 6 32 224 16 165 193 139 190 110 110 77
172 200 27 237 204 163 211 219 6 132 14 223 154 124 115 219 9 62 251 200 33 42 192 195 35 26 17 70 152 207 141 37 5 242 108 233 151 255 184 176 145 67 246 24 214 24 237 241 133 200 115 218 28 249 186 174 125 76 2 84 152 215 228 84 182 5 196 13 80 247 37 128 173 250 90 171 151 60 78 165 74 41 53 59 25 190 180 130 126 173 90 62 114 60 181 30 125 27 89 78 225 109 227 79 27 165 77 16 130 211 105 205 74 52 88 45 165 228 133 220 188 212 80 1 77 24 38 35 178 91 6 114 89 158 207 243 175 194 145 21 20 184 45 84 53 82 194 174 183 100 141 169 102 199 81 60 221 156 119 192 58 19 142 241 71 181 219 207 178 88 10 223 19 167 28 242 111 204 24 74 223 126 27 80 213 206 128 200 58 20 199 219 70 117 161 205 136 59 182 33 108 102 143 252 128 143 125 180 156 10 12 153 190 64 242 189 199 180 251 20 55 69 127 173 245 31 151 165 195 178 151 64 34 172 254 159 122 193 127 223 130 241 106 163 245 78 58 43 236 24 161 78 103 2 187 13 6 246 19 220 26 201 171 183 0 248 159 245 218 198 184 121 207 1 188 55 229 124 94 217 198 35 145 22 171 80 38 98
86 12 205 49 40 78 20 43 122 180 15 210 74 19 33 214 41 149 56 173 116 87 133 140 160 255 211 162 177 34 111 48 62 234 219 102 227 21 107 184 164 136 236 147 232 87 216 130 186 214 208 78 126 65 180 154 208 200 41 122 226 110 253 117 175 45 6 203 132 69 38 212 47 166 50 251 223 56 94 212 2 152 183 238 115 129 154 181 174 214 17 239 189 149 251 26 98 34 248 102 115 32 191 214 13 157 2 120 190 129 199 171 111 133 164 180 252 44 112 178 60 197 20 236 158 113 236 92 94 188 89 36 16 119 24 225 123 203 226 77 23 244 177 185 115 174 165 35 150 186 210 28 81 151 172 156 49 36 100 104 245 189 105 78 205 210 233 226 241 205 123 83 78 21 21 12 78 140 39 18 69 102 31 246 26 60 140 89 14 153 221 173 49 146 204 220 35 219 161 161 246 168 170 59 7 95 67 69 78 206 247 177 130 209 176 63 189 82 47 161 46 186 42 241 204 83 13 221 104 149 91 76 97 159 221 33 215 131 135 198 231 85 67 250 95 161 163 100 188 38 39 149 159 39 166 35 255 100 215 254 221 60 190 2 115 7 89 233 240 114 84 139 12 91 181 56 0 164 204 249 33 162 96 14 189 181 127 94
78 144 113 65 235 244 112 91 77 105 14 135 120 99 22 88 92 189 237 43 97 92 66 133 81 164 222 42 245 105 207 112 198 135 108 118 220 21 66 225 246 63 132 8 158 207 105 129 191 14 52 31 252 106 252 129 152 227 117 106 37 82 108 35 13 72 41 16 135 209 148 251 90 189 145 101 53 57 254 63 129 121 88 121 208 252 199 18 100 53 134 115 205 243 195 169 88 62 130 222 55 238 105 152 93 44 178 135 92 252 70 106 83 145 205 119 84 202 20 108 188 61 36 105 244 242 249 200 21 196 79 209 34 57 26 50 228 109 34 229 15 31 252 209 49 25 110 218 121 74 20 166 127 140 109 172 112 154 65 107 170 35 42 35 16 93 65 117 79 243 224 70 185 161 179 65 246 201 202 11 129 144 138 192 131 124 74 238 84 194 75 131 166 23 42 169 225 133 35 82 93 163 17 191 133 189 150 152 80 42 195 79 230 115 232 254 216 191 124 216 68 89 109 111 68 92 117 66 147 110 178 235 191 185 107 0 15 6 83 88 50 187 92 96 104 246 2 14 164 108 29 146 231 53 73 52 200 102 140 122 196 154 47 107 169 5 177 220 184 254 57 56 65 215 251 26 8 225 14 0 106 95 199 141 99 138 61 234
85 157 82 131 63 123 8 216 213 94 9 72 21 221 6 190 161 138 125 210 182 229 245 42 156 176 186 192 165 37 208 30 250 168 156 187 109 139 78 17 96 38 78 224 17 250 89 185 70 105 8 185 192 91 198 237 126 243 89 59 96 152 55 110 0 194 159 180 215 0 128 30 131 156 197 78 3 45 44 131 124 40 255 61 81 12 77 89 26 93 176 18 170 134 244 95 58 168 120 190 31 134 15 159 160 40 4 182 27 233 253 183 105 40 8 60 104 132 80 28 182 77 215 191 227 112 28 9 187 158 247 234 69 110 140 254 61 201 167 27 207 21 148 59 33 19 142 59 86 214 199 13 113 23 17 192 105 171 155 48 215 17 70 70 55 36 249 9 112 250 233 159 12 184 77 100 183 45 199 20 17 52 106 205 181 138 195 115 204 203 91 87 112 24 53 189 228 0 182 113 170 96 191 175 38 65 243 172 188 144 168 208 169 225 70 130 208 179 160 224 78 180 135 220 145 90 239 197 150 131 180 221 181 44 237 171 242 129 137 2 29 247 30 8 249 10 46 199 97 147 243 136 57 163 242 117 195 142 166 9 66 167 36 253 70 136 221 206 247 24 181 123 145 0 27 82 105 54 165 252 6 95 251 143 39 117 43 193
69 186 137 71 213 145 164 63 249 237 81 200 192 64 212 137 67 212 241 226 237 153 252 253 48 111 13 102 51 32 135 219 113 123 232 220 106 9 237 24 28 7 95 68 148 203 212 180 217 137 223 136 77 231 119 88 8 202 215 219 250 150 201 1 174 245 108 83 75 135 74 103 41 29 60 244 178 221 24 60 183 126 51 31 178 106 161 209 197 172 173 4 127 76 91 86 19 106 117 231 215 151 216 211 154 245 146 17 165 47 39 0 71 115 236 253 64 60 205 78 181 190 142 243 240 0 189 61 112 205 19 35 23 18 203 59 127 37 159 137 174 173 116 17 198 239 86 47 82 96 231 47 213 147 155 109 62 127 56 142 184 142 185 15 182 163 150 74 59 31 83 57 98 98 218 106 61 114 255 92 29 89 122 96 220 51 75 112 21 78 59 224 202 49 61 250 211 172 193 231 125 72 208 206 156 109 50 126 242 229 198 188 168 25 133 84 41 138 123 137 97 74 87 27 192 23 10 215 30 54 18 244 157 220 221 86 111 8 107 15 145 105 122 181 246 206 50 76 121 160 104 254 16 17 78 76 37 133 139 80 141 209 5 82 214 105 140 172 216 179 14 42 206 4 37 216 109 68 125 200 183 93 114 234 21 5 92 31
194 111 202 183 55 62 137 162 118 135 154 72 146 95 180 31 56 58 135 83 171 159 14 18 225 101 80 5 34 95 208 232 113 108 201 194 124 71 172 48 128 251 240 10 51 115 61 210 84 219 89 221 220 237 108 139 197 138 96 30 164 103 238 19 64 25 0 44 178 64 152 244 128 163 253 121 218 216 56 63 20 187 229 188 180 183 17 220 15 166 149 35 235 33 55 43 122 127 168 112 60 0 156 218 53 36 156 123 167 246 98 3 25 90 88 54 79 11 4 131 219 59 149 29 64 48 250 196 99 174 31 214 73 194 78 239 191 150 161 128 170 120 193 232 16 125 174 3 120 239 210 209 186 46 144 205 22 130 96 227 134 77 21 251 171 15 0 51 180 250 29 155 70 77 192 72 107 8 243 128 78 215 249 73 161 220 223 224 45 155 134 96 236 35 216 243 195 169 176 100 205 84 41 193 77 250 103 139 15 52 9 114 70 225 237 40 95 210 155 151 146 138 245 176 1 128 112 179 9 164 229 42 177 233 187 49 124 96 112 79 80 196 123 114 228 57 219 128 139 42 111 212 69 135 227 203 149 20 156 167 31 219 77 189 104 171 68 105 83 189 65 165 128 32 210 169 181 193 224 39 238 210 67 30 244 41 11 140
57 140 200 102 197 228 98 22 210 120 10 203 145 223 154 96 133 67 115 56 44 56 220 105 96 44 155 47 22 21 49 10 22 218 104 243 153 21 36 70 204 217 187 53 134 113 165 244 78 143 203 66 43 68 33 244 26 192 56 248 25 27 50 90 96 220 21 188 206 155 8 11 35 194 24 179 108 42 217 45 54 98 89 218 191 98 104 100 218 148 166 29 184 176 161 242 68 140 185 180 60 159 37 36 129 188 241 128 54 198 117 195 121 55 67 212 96 158 210 27 79 147 21 130 86 178 51 251 37 35 200 158 118 158 177 97 207 78 77 122 77 197 117 198 156 159 104 122 153 12 180 87 34 174 153 196 78 232 174 160 66 186 233 160 86 247 39 49 156 137 29 162 33 162 97 37 96 182 69 115 168 248 36 240 168 202 246 135 150 238 234 234 70 90 231 190 2 42 49 227 57 221 112 211 31 104 28 160 30 217 81 178 81 170 234 206 42 12 144 236 134 103 172 17 104 194 0 210 0 188 180 85 60 78 214 143 13 217 78 80 179 68 225 171 223 166 185 162 5 138 34 237 102 12 32 91 9 204 129 158 70 138 4 38 89 140 38 211 225 16 178 152 157 226 85 176 227 118 123 208 148 179 75 141 125 216 210 97
187 27 233 61 208 92 220 33 96 44 14 109 73 40 90 50 114 254 189 247 190 180 203 60 238 79 99 168 169 22 198 76 50 55 124 144 191 55 142 164 203 62 214 238 55 144 215 153 207 162 37 150 40 74 50 178 31 88 173 134 14 238 204 92 61 50 98 194 154 130 241 210 27 65 113 182 208 22 63 52 63 239 114 49 237 13 19 120 186 168 167 120 241 81 10 205 185 197 246 120 129 224 30 46 126 82 211 96 35 253 31 28 113 88 109 132 198 28 57 226 12 104 193 105 14 61 202 87 88 78 8 51 214 28 18 175 187 217 144 105 21 63 125 6 255 189 128 18 190 233 166 176 217 179 102 147 224 3 236 80 202 26 137 218 73 8 69 14 24 106 172 185 100 176 28 156 175 200 66 92 170 81 165 61 116 76 74 22 165 204 5 99 40 16 192 51 172 241 160 20 87 65 165 139 167 125 172 37 109 177 1 53 119 60 72 76 96 210 65 139 144 122 250 22 215 18 74 59 228 232 43 233 56 19 83 217 129 76 140 1 95 149 179 101 120 67 222 123 251 103 220 62 61 37 141 31 215 155 244 207 136 14 196 78 67 75 196 87 80 61 18 237 16 117 138 28 116 208 100 41 49 91 6 146 111 201 64 247
93 100 225 148 167 240 174 52 185 75 246 182 202 70 215 189 84 5 127 61 148 10 243 139 145 255 154 113 182 50 109 226 156 67 73 72 151 128 210 141 73 98 185 20 108 223 216 136 144 195 105 224 17 137 9 50 41 54 151 186 239 1 142 42 211 174 44 77 100 8 159 234 44 130 112 153 81 52 237 83 16 6 134 51 72 200 64 95 13 140 230 227 176 205 131 194 156 128 106 29 222 34 189 86 131 120 251 0 81 93 186 243 250 155 131 128 147 213 232 188 119 221 71 149 119 31 241 152 46 18 55 148 106 88 130 225 107 126 244 13 8 249 178 12 204 44 101 80 78 220 206 65 154 128 203 127 14 159 12 119 219 187 113 55 228 67 27 58 246 104 100 223 18 146 112 190 89 203 76 22 179 55 81 235 25 58 197 124 216 50 124 108 153 164 0 177 153 0 150 87 173 30 2 67 91 48 40 246 176 61 206 159 81 217 225 113 223 149 82 212 180 70 50 125 130 236 185 48 193 185 5 90 224 247 206 234 41 43 216 232 18 3 182 141 16 17 167 145 235 119 154 76 160 223 29 195 75 186 76 110 176 144 210 207 183 206 235 79 62 107 131 87 130 226 160 185 106 151 6 111 48 92 218 203 54 114 53 217
153 98 59 213 98 77 254 92 199 78 91 252 51 85 63 203 99 155 145 202 116 223 228 240 117 78 244 153 6 183 138 159 45 36 215 86 45 73 219 189 99 155 106 139 143 219 26 206 151 113 131 10 188 132 84 216 53 219 172 190 61 55 34 101 128 36 42 114 48 154 31 13 24 62 32 5 9 93 225 102 117 116 0 16 207 73 123 172 143 0 49 99 185 41 74 115 199 28 91 149 156 12 188 191 230 17 214 118 91 51 99 91 133 44 132 158 143 151 126 162 147 144 244 122 79 53 185 47 70 108 101 169 232 172 214 191 77 165 24 56 42 187 178 139 153 74 227 28 89 144 61 52 77 229 175 152 198 176 186 74 160 156 20 124 25 210 164 191 120 204 224 6 44 193 139 123 211 66 103 97 62 214 77 55 194 11 43 27 179 21 159 247 67 0 7 136 252 110 18 183 153 175 81 101 202 201 6 245 1 134 247 156 141 193 86 109 107 242 59 206 29 45 160 121 48 22 183 76 139 100 224 229 217 82 76 246 43 162 105 134 160 87 31 137 12 59 16 181 77 78 72 158 215 102 142 64 125 139 64 174 97 170 92 114 235 234 174 170 25 105 154 31 148 250 206 130 155 27 187 52 47 127 195 109 227 211 61 0
167 167 196 13 65 70 13 10 233 106 167 5 200 69 47 250 86 88 163 91 78 228 10 62 204 204 106 85 22 187 206 169 80 253 63 99 253 60 207 214 47 25 108 35 123 21 248 140 129 152 248 188 83 122 52 39 19 5 98 219 186 214 101 186 45 154 79 240 130 19 170 153 182 116 11 126 11 61 51 187 39 239 107 179 65 29 14 197 255 101 5 219 99 126 180 249 77 32 21 107 15 11 213 146 82 173 53 79 161 202 117 87 43 46 205 239 252 197 1 166 237 96 3 132 133 84 133 17 204 7 76 127 191 212 187 229 99 173 172 45 21 193 143 30 17 12 176 27 11 130 237 83 179 80 148 215 122 176 212 208 245 212 55 157 221 118 233 152 116 61 105 83 50 76 197 100 231 159 21 49 70 20 51 121 223 17 53 142 47 158 195 218 18 188 123 149 5 135 10 87 83 136 253 52 154 92 161 222 52 186 245 217 106 250 143 22 100 89 146 21 47 67 220 198 134 234 40 91 186 225 248 216 68 172 45 174 10 154 139 46 142 192 44 70 191 48 43 110 130 133 226 211 121 49 94 42 68 250 103 189 22 2 228 180 180 102 253 201 36 141 12 137 8 196 125 30 14 141 164 162 130 229 250 35 92 248 76 50
197 87 86 73 16 250 52 54 153 180 160 132 148 145 159 10 71 251 125 191 148 4 115 82 120 227 38 214 10 109 75 143 165 81 79 180 71 159 161 219 105 134 184 237 215 193 187 170 124 75 30 189 34 34 118 111 118 146 103 78 13 174 255 243 246 93 220 67 13 116 32 184 9 171 57 178 139 78 31 238 37 247 95 49 107 1 16 135 118 40 188 23 237 140 71 66 33 194 63 136 168 12 134 13 9 26 87 210 121 178 224 185 144 7 244 25 144 182 13 31 194 99 185 202 189 171 130 77 222 46 195 207 114 3 80 136 0 79 118 123 11 155 125 144 102 227 171 14 3 210 191 153 169 235 177 44 140 181 143 42 97 227 25 181 105 120 54 97 84 20 55 182 213 112 0 158 120 156 250 229 131 12 70 248 81 235 42 149 196 8 70 186 18 128 197 31 129 194 47 236 11 12 21 31 80 84 32 195 73 33 156 184 97 195 122 151 5 131 12 47 135 113 40 49 124 18 17 84 50 233 171 170 10 237 185 124 190 205 149 159 184 253 86 6 126 107 59 154 139 154 178 63 72 155 98 125 1 116 107 104 7 10 86 135 249 62 150 71 138 6 158 85 123 42 233 34 52 173 241 132 227 2 95 186 9 6 147 50
212 113 42 208 211 232 31 206 111 36 234 65 7 20 143 47 35 91 64 198 220 89 192 21 105 163 179 98 203 209 173 111 252 40 182 129 13 214 134 168 239 226 34 219 181 53 14 112 241 246 252 191 212 91 217 70 85 35 28 206 148 78 228 142 235 72 8 35 49 37 213 88 221 33 217 17 166 106 208 238 19 44 182 228 215 120 50 236 86 27 73 99 134 112 155 128 136 123 178 73 128 52 240 83 153 177 133 185 165 181 180 188 37 85 31 214 245 4 102 9 188 30 204 220 43 118 138 121 85 48 229 80 43 74 25 86 73 151 42 218 118 61 168 235 189 165 122 10 121 161 18 3 133 157 182 12 144 70 133 141 50 244 158 159 241 32 156 189 37 189 39 16 151 35 42 124 50 150 25 83 9 249 220 21 119 188 57 172 199 58 243 248 148 31 87 86 247 84 156 132 69 64 250 45 84 79 59 157 56 152 6 72 125 117 146 60 38 168 35 117 215 135 198 123 32 227 178 121 186 189 220 109 17 180 114 200 183 95 44 19 219 10 10 192 56 83 45 27 243 2 242 116 95 153 100 214 203 167 125 216 47 215 100 61 41 165 62 29 26 201 232 49 73 214 94 65 109 224 65 129 248 67 246 211 179 156 204 196
169 55 196 96 31 186 219 15 233 182 46 251 25 175 169 147 24 96 92 119 74 147 132 30 22 75 188 202 225 130 85 9 56 152 253 102 179 160 128 13 231 192 201 108 125 199 139 213 86 161 4 98 220 113 51 30 30 87 21 184 63 10 143 11 198 33 42 140 231 52 26 112 32 113 155 241 212 244 15 216 1 89 58 64 17 50 45 67 174 122 190 25 160 91 245 107 228 200 172 100 225 92 56 10 83 226 224 157 34 207 246 114 178 81 93 220 113 115 222 147 252 91 160 88 245 246 38 146 145 145 94 167 109 234 25 85 253 158 166 89 87 200 198 80 71 26 2 158 124 175 75 27 29 198 130 226 171 126 230 93 52 65 58 59 137 123 120 25 86 97 124 103 179 161 63 196 176 160 70 254 138 192 93 247 193 192 89 222 185 204 86 248 217 60 140 144 163 76 117 221 160 180 65 132 174 131 205 153 12 146 219 72 39 239 107 179 88 214 103 132 67 63 3 73 41 108 34 217 146 43 122 161 209 152 103 175 228 114 165 116 93 83 64 74 18 125 101 123 185 35 147 51 22 165 253 193 250 180 228 67 53 205 43 72 207 86 117 43 64 11 107 81 139 232 123 24 23 83 181 236 33 130 76 107 52 183 100 14
248 51 1 29 135 135 82 124 17 118 2 44 56 80 173 233 111 120 29 140 4 192 64 156 153 45 35 42 157 85 225 139 181 108 90 16 12 60 239 63 82 101 64 81 28 231 224 87 2 213 102 56 89 216 31 218 103 10 235 131 122 235 40 143 185 186 52 26 249 36 198 131 254 12 116 192 75 14 126 25 129 235 254 231 202 107 26 4 107 196 81 190 155 18 180 246 81 90 103 136 76 42 130 96 228 185 84 220 213 43 108 154 203 43 230 177 1 53 104 20 126 122 179 2 228 147 224 174 134 23 227 100 25 177 188 238 217 251 215 217 87 204 94 147 203 52 138 88 15 24 73 32 150 220 3 9 167 179 235 148 253 160 5 191 187 84 47 196 72 97 82 205 31 234 10 104 14 171 28 41 228 11 61 225 140 37 143 137 4 22 16 166 202 253 35 49 73 45 53 230 51 191 31 184 76 11 158 159 168 84 132 69 180 22 156 33 109 121 243 80 177 244 71 79 142 2 80 216 105 213 168 51 247 66 240 121 126 218 168 232 6 7 117 171 39 148 169 194 155 235 1 103 159 113 40 173 98 45 74 76 254 32 12 77 142 84 31 160 239 142 29 47 227 190 164 39 84 199 166 193 197 234 124 95 64 106 98 121
131 115 131 53 10 88 205 57 107 158 31 178 25 240 218 157 188 171 183 241 164 81 83 10 150 206 217 254 220 228 127 83 84 87 69 115 239 89 243 119 236 212 165 64 236 152 224 37 240 67 93 113 218 80 18 252 230 165 230 216 167 103 135 53 204 201 188 52 150 210 94 33 122 138 188 243 143 220 26 52 221 131 132 87 188 48 225 196 254 160 93 252 67 240 237 108 103 18 175 214 79 25 191 144 158 122 254 206 52 219 96 5 105 51 98 81 152 125 208 8 43 57 63 2 139 159 33 114 89 118 211 97 100 81 16 209 255 96 67 77 239 3 159 226 96 217 146 9 219 102 50 22 8 158 95 129 11 42 210 137 68 15 45 103 181 107 201 233 243 74 114 162 181 46 82 99 27 17 6 159 55 109 94 212 98 64 233 30 196 224 57 34 225 105 26 250 109 3 118 239 225 188 218 47 76 71 93 192 102 122 253 113 105 74 251 240 108 69 245 124 111 201 54 173 57 226 36 208 77 10 8 93 74 28 103 25 41 164 44 240 165 161 187 109 67 139 139 70 180 132 229 160 32 66 9 85 70 112 20 55 55 46 104 179 104 188 161 160 199 196 235 195 100 76 117 236 255 98 237 237 50 89 93 255 73 238 109 52
170 182 78 8 120 153 73 204 142 130 79 60 165 90 17 189 142 73 112 79 4 215 84 16 220 32 45 102 82 14 33 99 181 144 4 62 50 81 99 72 9 202 23 52 139 21 243 77 245 163 93 244 3 104 162 251 94 59 36 235 145 15 141 164 79 179 7 12 231 159 185 183 35 115 188 86 24 157 3 250 214 208 183 103 203 75 144 96 97 14 48 61 163 101 69 205 100 208 253 160 194 107 61 111 8 254 239 163 60 194 153 222 52 165 186 217 145 146 63 46 170 155 169 189 162 143 155 242 253 21 230 138 62 108 1 56 120 118 81 167 246 47 131 83 225 32 36 70 104 208 149 193 205 135 210 151 3 35 205 100 92 255 61 125 168 189 179 155 254 220 34 34 172 145 207 113 177 97 23 62 206 244 11 190 27 108 172 74 169 234 115 58 79 141 159 236 75 26 247 14 115 158 250 58 68 44 200 76 97 227 11 74 233 74 108 121 0 254 141 94 166 92 3 43 95 11 235 169 217 254 211 90 16 223 68 30 111 73 101 102 250 192 53 244 90 59 177 14 87 19 150 221 162 159 83 149 173 110 196 147 169 84 100 226 245 190 141 172 166 159 216 38 89 220 67 4 48 242 9 153 189 21 197 86 37 89 44 170
150 99 176 203 149 132 89 107 131 236 213 19 176 33 123 179 58 184 69 72 200 179 37 105 67 3 214 149 198 232 47 129 214 72 164 65 129 227 225 1 48 46 25 239 215 145 20 177 231 14 141 33 246 192 77 169 125 9 34 204 222 163 212 9 238 236 8 130 158 163 69 94 110 173 21 192 167 212 161 250 47 10 139 79 50 100 181 107 42 151 181 131 97 126 127 128 182 143 89 219 215 46 241 232 176 82 133 119 123 121 158 183 217 153 22 92 79 140 2 149 184 122 65 137 110 237 60 204 204 21 165 183 142 27 71 221 26 94 141 113 195 157 246 116 207 61 90 240 191 179 160 121 221 145 129 75 235 59 212 98 157 251 183 121 163 13 122 247 194 2 198 193 213 124 121 178 112 61 106 176 85 27 78 21 113 148 23 221 248 235 234 220 241 226 46 255 246 249 5 123 123 150 70 109 48 219 153 17 75 98 116 28 54 69 186 140 212 85 201 7 55 71 203 106 195 154 20 186 94 47 180 224 43 92 191 223 158 253 56 52 185 158 128 56 86 47 147 211 245 12 144 40 180 175 196 142 83 172 236 15 206 240 250 13 150 168 156 210 155 218 202 248 15 186 182 79 164 192 58 131 148 155 213 102 206 231 118 74
