P3
192 108
255
0 0 0 1 0 0 2 0 1 4 0 2 5 0 3 6 0 4 8 0 5 9 0 5 10 0 6 12 0 7 13 0 8 14 0 9 16 0 10 17 0 11 18 0 11 20 0 12 21 0 13 22 0 14 24 0 15 25 0 16 26 0 17 28 0 17 29 0 18 30 0 19 32 0 20 33 0 21 34 0 22 36 0 23 37 0 23 38 0 24 40 0 25 41 0 26 42 0 27 44 0 28 45 0 29 46 0 29 48 0 30 49 0 31 50 0 32 52 0 33 53 0 34 54 0 35 56 0 35 57 0 36 58 0 37 60 0 38 61 0 39 62 0 40 64 0 41 65 0 41 66 0 42 68 0 43 69 0 44 70 0 45 72 0 46 73 0 47 74 0 47 76 0 48 77 0 49 78 0 50 80 0 51 81 0 52 82 0 53 84 0 53 85 0 54 86 0 55 88 0 56 89 0 57 90 0 58 92 0 59 93 0 59 94 0 60 96 0 61 97 0 62 98 0 63 100 0 64 101 0 65 102 0 65 104 0 66 105 0 67 106 0 68 108 0 69 109 0 70 110 0 71 112 0 71 113 0 72 114 0 73 116 0 74 117 0 75 118 0 76 120 0 77 121 0 77 122 0 78 124 0 79 125 0 80 126 0 81 128 0 82 129 0 83 130 0 83 132 0 84 133 0 85 134 0 86 136 0 87 137 0 88 138 0 88 140 0 89 141 0 90 142 0 91 144 0 92 145 0 93 146 0 94 148 0 94 149 0 95 150 0 96 152 0 97 153 0 98 154 0 99 156 0 100 157 0 100 158 0 101 160 0 102 161 0 103 162 0 104 164 0 105 165 0 106 166 0 106 168 0 107 169 0 108 170 0 109 172 0 110 173 0 111 174 0 112 176 0 112 177 0 113 178 0 114 180 0 115 181 0 116 182 0 117 184 0 118 185 0 118 186 0 119 188 0 120 189 0 121 190 0 122 192 0 123 193 0 124 194 0 124 196 0 125 197 0 126 198 0 127 200 0 128 201 0 129 202 0 130 204 0 130 205 0 131 206 0 132 208 0 133 209 0 134 210 0 135 212 0 136 213 0 136 214 0 137 216 0 138 217 0 139 218 0 140 220 0 141 221 0 142 222 0 142 224 0 143 225 0 144 226 0 145 228 0 146 229 0 147 230 0 148 232 0 148 233 0 149 234 0 150 236 0 151 237 0 152 238 0 153 240 0 154 241 0 154 242 0 155 244 0 156 245 0 157 246 0 158 248 0 159 249 0 160 250 0 160 252 0 161 253 0 162 255 0 163
0 2 0 1 2 1 2 2 2 4 2 3 5 2 4 6 2 5 8 2 5 9 2 6 10 2 7 12 2 8 13 2 9 14 2 10 16 2 11 17 2 11 18 2 12 20 2 13 21 2 14 22 2 15 24 2 16 25 2 17 26 2 17 28 2 18 29 2 19 30 2 20 32 2 21 33 2 22 34 2 23 36 2 23 37 2 24 38 2 25 40 2 26 41 2 27 42 2 28 44 2 29 45 2 29 46 2 30 48 2 31 49 2 32 50 2 33 52 2 34 53 2 35 54 2 35 56 2 36 57 2 37 58 2 38 60 2 39 61 2 40 62 2 41 64 2 41 65 2 42 66 2 43 68 2 44 69 2 45 70 2 46 72 2 47 73 2 47 74 2 48 76 2 49 77 2 50 78 2 51 80 2 52 81 2 53 82 2 53 84 2 54 85 2 55 86 2 56 88 2 57 89 2 58 90 2 59 92 2 59 93 2 60 94 2 61 96 2 62 97 2 63 98 2 64 100 2 65 101 2 65 102 2 66 104 2 67 105 2 68 106 2 69 108 2 70 109 2 71 110 2 71 112 2 72 113 2 73 114 2 74 116 2 75 117 2 76 118 2 77 120 2 77 121 2 78 122 2 79 124 2 80 125 2 81 126 2 82 128 2 83 129 2 83 130 2 84 132 2 85 133 2 86 134 2 87 136 2 88 137 2 88 138 2 89 140 2 90 141 2 91 142 2 92 144 2 93 145 2 94 146 2 94 148 2 95 149 2 96 150 2 97 152 2 98 153 2 99 154 2 100 156 2 100 157 2 101 158 2 102 160 2 103 161 2 104 162 2 105 164 2 106 165 2 106 166 2 107 168 2 108 169 2 109 170 2 110 172 2 111 173 2 112 174 2 112 176 2 113 177 2 114 178 2 115 180 2 116 181 2 117 182 2 118 184 2 118 185 2 119 186 2 120 188 2 121 189 2 122 190 2 123 192 2 124 193 2 124 194 2 125 196 2 126 197 2 127 198 2 128 200 2 129 201 2 130 202 2 130 204 2 131 205 2 132 206 2 133 208 2 134 209 2 135 210 2 136 212 2 136 213 2 137 214 2 138 216 2 139 217 2 140 218 2 141 220 2 142 221 2 142 222 2 143 224 2 144 225 2 145 226 2 146 228 2 147 229 2 148 230 2 148 232 2 149 233 2 150 234 2 151 236 2 152 237 2 153 238 2 154 240 2 154 241 2 155 242 2 156 244 2 157 245 2 158 246 2 159 248 2 160 249 2 160 250 2 161 252 2 162 253 2 163 255 2 164
0 4 1 1 4 2 2 4 3 4 4 4 5 4 5 6 4 5 8 4 6 9 4 7 10 4 8 12 4 9 13 4 10 14 4 11 16 4 11 17 4 12 18 4 13 20 4 14 21 4 15 22 4 16 24 4 17 25 4 17 26 4 18 28 4 19 29 4 20 30 4 21 32 4 22 33 4 23 34 4 23 36 4 24 37 4 25 38 4 26 40 4 27 41 4 28 42 4 29 44 4 29 45 4 30 46 4 31 48 4 32 49 4 33 50 4 34 52 4 35 53 4 35 54 4 36 56 4 37 57 4 38 58 4 39 60 4 40 61 4 41 62 4 41 64 4 42 65 4 43 66 4 44 68 4 45 69 4 46 70 4 47 72 4 47 73 4 48 74 4 49 76 4 50 77 4 51 78 4 52 80 4 53 81 4 53 82 4 54 84 4 55 85 4 56 86 4 57 88 4 58 89 4 59 90 4 59 92 4 60 93 4 61 94 4 62 96 4 63 97 4 64 98 4 65 100 4 65 101 4 66 102 4 67 104 4 68 105 4 69 106 4 70 108 4 71 109 4 71 110 4 72 112 4 73 113 4 74 114 4 75 116 4 76 117 4 77 118 4 77 120 4 78 121 4 79 122 4 80 124 4 81 125 4 82 126 4 83 128 4 83 129 4 84 130 4 85 132 4 86 133 4 87 134 4 88 136 4 88 137 4 89 138 4 90 140 4 91 141 4 92 142 4 93 144 4 94 145 4 94 146 4 95 148 4 96 149 4 97 150 4 98 152 4 99 153 4 100 154 4 100 156 4 101 157 4 102 158 4 103 160 4 104 161 4 105 162 4 106 164 4 106 165 4 107 166 4 108 168 4 109 169 4 110 170 4 111 172 4 112 173 4 112 174 4 113 176 4 114 177 4 115 178 4 116 180 4 117 181 4 118 182 4 118 184 4 119 185 4 120 186 4 121 188 4 122 189 4 123 190 4 124 192 4 124 193 4 125 194 4 126 196 4 127 197 4 128 198 4 129 200 4 130 201 4 130 202 4 131 204 4 132 205 4 133 206 4 134 208 4 135 209 4 136 210 4 136 212 4 137 213 4 138 214 4 139 216 4 140 217 4 141 218 4 142 220 4 142 221 4 143 222 4 144 224 4 145 225 4 146 226 4 147 228 4 148 229 4 148 230 4 149 232 4 150 233 4 151 234 4 152 236 4 153 237 4 154 238 4 154 240 4 155 241 4 156 242 4 157 244 4 158 245 4 159 246 4 160 248 4 160 249 4 161 250 4 162 252 4 163 253 4 164 255 4 165
0 7 2 1 7 3 2 7 4 4 7 5 5 7 5 6 7 6 8 7 7 9 7 8 10 7 9 12 7 10 13 7 11 14 7 11 16 7 12 17 7 13 18 7 14 20 7 15 21 7 16 22 7 17 24 7 17 25 7 18 26 7 19 28 7 20 29 7 21 30 7 22 32 7 23 33 7 23 34 7 24 36 7 25 37 7 26 38 7 27 40 7 28 41 7 29 42 7 29 44 7 30 45 7 31 46 7 32 48 7 33 49 7 34 50 7 35 52 7 35 53 7 36 54 7 37 56 7 38 57 7 39 58 7 40 60 7 41 61 7 41 62 7 42 64 7 43 65 7 44 66 7 45 68 7 46 69 7 47 70 7 47 72 7 48 73 7 49 74 7 50 76 7 51 77 7 52 78 7 53 80 7 53 81 7 54 82 7 55 84 7 56 85 7 57 86 7 58 88 7 59 89 7 59 90 7 60 92 7 61 93 7 62 94 7 63 96 7 64 97 7 65 98 7 65 100 7 66 101 7 67 102 7 68 104 7 69 105 7 70 106 7 71 108 7 71 109 7 72 110 7 73 112 7 74 113 7 75 114 7 76 116 7 77 117 7 77 118 7 78 120 7 79 121 7 80 122 7 81 124 7 82 125 7 83 126 7 83 128 7 84 129 7 85 130 7 86 132 7 87 133 7 88 134 7 88 136 7 89 137 7 90 138 7 91 140 7 92 141 7 93 142 7 94 144 7 94 145 7 95 146 7 96 148 7 97 149 7 98 150 7 99 152 7 100 153 7 100 154 7 101 156 7 102 157 7 103 158 7 104 160 7 105 161 7 106 162 7 106 164 7 107 165 7 108 166 7 109 168 7 110 169 7 111 170 7 112 172 7 112 173 7 113 174 7 114 176 7 115 177 7 116 178 7 117 180 7 118 181 7 118 182 7 119 184 7 120 185 7 121 186 7 122 188 7 123 189 7 124 190 7 124 192 7 125 193 7 126 194 7 127 196 7 128 197 7 129 198 7 130 200 7 130 201 7 131 202 7 132 204 7 133 205 7 134 206 7 135 208 7 136 209 7 136 210 7 137 212 7 138 213 7 139 214 7 140 216 7 141 217 7 142 218 7 142 220 7 143 221 7 144 222 7 145 224 7 146 225 7 147 226 7 148 228 7 148 229 7 149 230 7 150 232 7 151 233 7 152 234 7 153 236 7 154 237 7 154 238 7 155 240 7 156 241 7 157 242 7 158 244 7 159 245 7 160 246 7 160 248 7 161 249 7 162 250 7 163 252 7 164 253 7 165 255 7 166
0 9 3 1 9 4 2 9 5 4 9 5 5 9 6 6 9 7 8 9 8 9 9 9 10 9 10 12 9 11 13 9 11 14 9 12 16 9 13 17 9 14 18 9 15 20 9 16 21 9 17 22 9 17 24 9 18 25 9 19 26 9 20 28 9 21 29 9 22 30 9 23 32 9 23 33 9 24 34 9 25 36 9 26 37 9 27 38 9 28 40 9 29 41 9 29 42 9 30 44 9 31 45 9 32 46 9 33 48 9 34 49 9 35 50 9 35 52 9 36 53 9 37 54 9 38 56 9 39 57 9 40 58 9 41 60 9 41 61 9 42 62 9 43 64 9 44 65 9 45 66 9 46 68 9 47 69 9 47 70 9 48 72 9 49 73 9 50 74 9 51 76 9 52 77 9 53 78 9 53 80 9 54 81 9 55 82 9 56 84 9 57 85 9 58 86 9 59 88 9 59 89 9 60 90 9 61 92 9 62 93 9 63 94 9 64 96 9 65 97 9 65 98 9 66 100 9 67 101 9 68 102 9 69 104 9 70 105 9 71 106 9 71 108 9 72 109 9 73 110 9 74 112 9 75 113 9 76 114 9 77 116 9 77 117 9 78 118 9 79 120 9 80 121 9 81 122 9 82 124 9 83 125 9 83 126 9 84 128 9 85 129 9 86 130 9 87 132 9 88 133 9 88 134 9 89 136 9 90 137 9 91 138 9 92 140 9 93 141 9 94 142 9 94 144 9 95 145 9 96 146 9 97 148 9 98 149 9 99 150 9 100 152 9 100 153 9 101 154 9 102 156 9 103 157 9 104 158 9 105 160 9 106 161 9 106 162 9 107 164 9 108 165 9 109 166 9 110 168 9 111 169 9 112 170 9 112 172 9 113 173 9 114 174 9 115 176 9 116 177 9 117 178 9 118 180 9 118 181 9 119 182 9 120 184 9 121 185 9 122 186 9 123 188 9 124 189 9 124 190 9 125 192 9 126 193 9 127 194 9 128 196 9 129 197 9 130 198 9 130 200 9 131 201 9 132 202 9 133 204 9 134 205 9 135 206 9 136 208 9 136 209 9 137 210 9 138 212 9 139 213 9 140 214 9 141 216 9 142 217 9 142 218 9 143 220 9 144 221 9 145 222 9 146 224 9 147 225 9 148 226 9 148 228 9 149 229 9 150 230 9 151 232 9 152 233 9 153 234 9 154 236 9 154 237 9 155 238 9 156 240 9 157 241 9 158 242 9 159 244 9 160 245 9 160 246 9 161 248 9 162 249 9 163 250 9 164 252 9 165 253 9 166 255 9 166
0 11 4 1 11 5 2 11 5 4 11 6 5 11 7 6 11 8 8 11 9 9 11 10 10 11 11 12 11 11 13 11 12 14 11 13 16 11 14 17 11 15 18 11 16 20 11 17 21 11 17 22 11 18 24 11 19 25 11 20 26 11 21 28 11 22 29 11 23 30 11 23 32 11 24 33 11 25 34 11 26 36 11 27 37 11 28 38 11 29 40 11 29 41 11 30 42 11 31 44 11 32 45 11 33 46 11 34 48 11 35 49 11 35 50 11 36 52 11 37 53 11 38 54 11 39 56 11 40 57 11 41 58 11 41 60 11 42 61 11 43 62 11 44 64 11 45 65 11 46 66 11 47 68 11 47 69 11 48 70 11 49 72 11 50 73 11 51 74 11 52 76 11 53 77 11 53 78 11 54 80 11 55 81 11 56 82 11 57 84 11 58 85 11 59 86 11 59 88 11 60 89 11 61 90 11 62 92 11 63 93 11 64 94 11 65 96 11 65 97 11 66 98 11 67 100 11 68 101 11 69 102 11 70 104 11 71 105 11 71 106 11 72 108 11 73 109 11 74 110 11 75 112 11 76 113 11 77 114 11 77 116 11 78 117 11 79 118 11 80 120 11 81 121 11 82 122 11 83 124 11 83 125 11 84 126 11 85 128 11 86 129 11 87 130 11 88 132 11 88 133 11 89 134 11 90 136 11 91 137 11 92 138 11 93 140 11 94 141 11 94 142 11 95 144 11 96 145 11 97 146 11 98 148 11 99 149 11 100 150 11 100 152 11 101 153 11 102 154 11 103 156 11 104 157 11 105 158 11 106 160 11 106 161 11 107 162 11 108 164 11 109 165 11 110 166 11 111 168 11 112 169 11 112 170 11 113 172 11 114 173 11 115 174 11 116 176 11 117 177 11 118 178 11 118 180 11 119 181 11 120 182 11 121 184 11 122 185 11 123 186 11 124 188 11 124 189 11 125 190 11 126 192 11 127 193 11 128 194 11 129 196 11 130 197 11 130 198 11 131 200 11 132 201 11 133 202 11 134 204 11 135 205 11 136 206 11 136 208 11 137 209 11 138 210 11 139 212 11 140 213 11 141 214 11 142 216 11 142 217 11 143 218 11 144 220 11 145 221 11 146 222 11 147 224 11 148 225 11 148 226 11 149 228 11 150 229 11 151 230 11 152 232 11 153 233 11 154 234 11 154 236 11 155 237 11 156 238 11 157 240 11 158 241 11 159 242 11 160 244 11 160 245 11 161 246 11 162 248 11 163 249 11 164 250 11 165 252 11 166 253 11 166 255 11 167
0 14 5 1 14 5 2 14 6 4 14 7 5 14 8 6 14 9 8 14 10 9 14 11 10 14 11 12 14 12 13 14 13 14 14 14 16 14 15 17 14 16 18 14 17 20 14 17 21 14 18 22 14 19 24 14 20 25 14 21 26 14 22 28 14 23 29 14 23 30 14 24 32 14 25 33 14 26 34 14 27 36 14 28 37 14 29 38 14 29 40 14 30 41 14 31 42 14 32 44 14 33 45 14 34 46 14 35 48 14 35 49 14 36 50 14 37 52 14 38 53 14 39 54 14 40 56 14 41 57 14 41 58 14 42 60 14 43 61 14 44 62 14 45 64 14 46 65 14 47 66 14 47 68 14 48 69 14 49 70 14 50 72 14 51 73 14 52 74 14 53 76 14 53 77 14 54 78 14 55 80 14 56 81 14 57 82 14 58 84 14 59 85 14 59 86 14 60 88 14 61 89 14 62 90 14 63 92 14 64 93 14 65 94 14 65 96 14 66 97 14 67 98 14 68 100 14 69 101 14 70 102 14 71 104 14 71 105 14 72 106 14 73 108 14 74 109 14 75 110 14 76 112 14 77 113 14 77 114 14 78 116 14 79 117 14 80 118 14 81 120 14 82 121 14 83 122 14 83 124 14 84 125 14 85 126 14 86 128 14 87 129 14 88 130 14 88 132 14 89 133 14 90 134 14 91 136 14 92 137 14 93 138 14 94 140 14 94 141 14 95 142 14 96 144 14 97 145 14 98 146 14 99 148 14 100 149 14 100 150 14 101 152 14 102 153 14 103 154 14 104 156 14 105 157 14 106 158 14 106 160 14 107 161 14 108 162 14 109 164 14 110 165 14 111 166 14 112 168 14 112 169 14 113 170 14 114 172 14 115 173 14 116 174 14 117 176 14 118 177 14 118 178 14 119 180 14 120 181 14 121 182 14 122 184 14 123 185 14 124 186 14 124 188 14 125 189 14 126 190 14 127 192 14 128 193 14 129 194 14 130 196 14 130 197 14 131 198 14 132 200 14 133 201 14 134 202 14 135 204 14 136 205 14 136 206 14 137 208 14 138 209 14 139 210 14 140 212 14 141 213 14 142 214 14 142 216 14 143 217 14 144 218 14 145 220 14 146 221 14 147 222 14 148 224 14 148 225 14 149 226 14 150 228 14 151 229 14 152 230 14 153 232 14 154 233 14 154 234 14 155 236 14 156 237 14 157 238 14 158 240 14 159 241 14 160 242 14 160 244 14 161 245 14 162 246 14 163 248 14 164 249 14 165 250 14 166 252 14 166 253 14 167 255 14 168
0 16 5 1 16 6 2 16 7 4 16 8 5 16 9 6 16 10 8 16 11 9 16 11 10 16 12 12 16 13 13 16 14 14 16 15 16 16 16 17 16 17 18 16 17 20 16 18 21 16 19 22 16 20 24 16 21 25 16 22 26 16 23 28 16 23 29 16 24 30 16 25 32 16 26 33 16 27 34 16 28 36 16 29 37 16 29 38 16 30 40 16 31 41 16 32 42 16 33 44 16 34 45 16 35 46 16 35 48 16 36 49 16 37 50 16 38 52 16 39 53 16 40 54 16 41 56 16 41 57 16 42 58 16 43 60 16 44 61 16 45 62 16 46 64 16 47 65 16 47 66 16 48 68 16 49 69 16 50 70 16 51 72 16 52 73 16 53 74 16 53 76 16 54 77 16 55 78 16 56 80 16 57 81 16 58 82 16 59 84 16 59 85 16 60 86 16 61 88 16 62 89 16 63 90 16 64 92 16 65 93 16 65 94 16 66 96 16 67 97 16 68 98 16 69 100 16 70 101 16 71 102 16 71 104 16 72 105 16 73 106 16 74 108 16 75 109 16 76 110 16 77 112 16 77 113 16 78 114 16 79 116 16 80 117 16 81 118 16 82 120 16 83 121 16 83 122 16 84 124 16 85 125 16 86 126 16 87 128 16 88 129 16 88 130 16 89 132 16 90 133 16 91 134 16 92 136 16 93 137 16 94 138 16 94 140 16 95 141 16 96 142 16 97 144 16 98 145 16 99 146 16 100 148 16 100 149 16 101 150 16 102 152 16 103 153 16 104 154 16 105 156 16 106 157 16 106 158 16 107 160 16 108 161 16 109 162 16 110 164 16 111 165 16 112 166 16 112 168 16 113 169 16 114 170 16 115 172 16 116 173 16 117 174 16 118 176 16 118 177 16 119 178 16 120 180 16 121 181 16 122 182 16 123 184 16 124 185 16 124 186 16 125 188 16 126 189 16 127 190 16 128 192 16 129 193 16 130 194 16 130 196 16 131 197 16 132 198 16 133 200 16 134 201 16 135 202 16 136 204 16 136 205 16 137 206 16 138 208 16 139 209 16 140 210 16 141 212 16 142 213 16 142 214 16 143 216 16 144 217 16 145 218 16 146 220 16 147 221 16 148 222 16 148 224 16 149 225 16 150 226 16 151 228 16 152 229 16 153 230 16 154 232 16 154 233 16 155 234 16 156 236 16 157 237 16 158 238 16 159 240 16 160 241 16 160 242 16 161 244 16 162 245 16 163 246 16 164 248 16 165 249 16 166 250 16 166 252 16 167 253 16 168 255 16 169
0 19 6 1 19 7 2 19 8 4 19 9 5 19 10 6 19 11 8 19 11 9 19 12 10 19 13 12 19 14 13 19 15 14 19 16 16 19 17 17 19 17 18 19 18 20 19 19 21 19 20 22 19 21 24 19 22 25 19 23 26 19 23 28 19 24 29 19 25 30 19 26 32 19 27 33 19 28 34 19 29 36 19 29 37 19 30 38 19 31 40 19 32 41 19 33 42 19 34 44 19 35 45 19 35 46 19 36 48 19 37 49 19 38 50 19 39 52 19 40 53 19 41 54 19 41 56 19 42 57 19 43 58 19 44 60 19 45 61 19 46 62 19 47 64 19 47 65 19 48 66 19 49 68 19 50 69 19 51 70 19 52 72 19 53 73 19 53 74 19 54 76 19 55 77 19 56 78 19 57 80 19 58 81 19 59 82 19 59 84 19 60 85 19 61 86 19 62 88 19 63 89 19 64 90 19 65 92 19 65 93 19 66 94 19 67 96 19 68 97 19 69 98 19 70 100 19 71 101 19 71 102 19 72 104 19 73 105 19 74 106 19 75 108 19 76 109 19 77 110 19 77 112 19 78 113 19 79 114 19 80 116 19 81 117 19 82 118 19 83 120 19 83 121 19 84 122 19 85 124 19 86 125 19 87 126 19 88 128 19 88 129 19 89 130 19 90 132 19 91 133 19 92 134 19 93 136 19 94 137 19 94 138 19 95 140 19 96 141 19 97 142 19 98 144 19 99 145 19 100 146 19 100 148 19 101 149 19 102 150 19 103 152 19 104 153 19 105 154 19 106 156 19 106 157 19 107 158 19 108 160 19 109 161 19 110 162 19 111 164 19 112 165 19 112 166 19 113 168 19 114 169 19 115 170 19 116 172 19 117 173 19 118 174 19 118 176 19 119 177 19 120 178 19 121 180 19 122 181 19 123 182 19 124 184 19 124 185 19 125 186 19 126 188 19 127 189 19 128 190 19 129 192 19 130 193 19 130 194 19 131 196 19 132 197 19 133 198 19 134 200 19 135 201 19 136 202 19 136 204 19 137 205 19 138 206 19 139 208 19 140 209 19 141 210 19 142 212 19 142 213 19 143 214 19 144 216 19 145 217 19 146 218 19 147 220 19 148 221 19 148 222 19 149 224 19 150 225 19 151 226 19 152 228 19 153 229 19 154 230 19 154 232 19 155 233 19 156 234 19 157 236 19 158 237 19 159 238 19 160 240 19 160 241 19 161 242 19 162 244 19 163 245 19 164 246 19 165 248 19 166 249 19 166 250 19 167 252 19 168 253 19 169 255 19 170
0 21 7 1 21 8 2 21 9 4 21 10 5 21 11 6 21 11 8 21 12 9 21 13 10 21 14 12 21 15 13 21 16 14 21 17 16 21 17 17 21 18 18 21 19 20 21 20 21 21 21 22 21 22 24 21 23 25 21 23 26 21 24 28 21 25 29 21 26 30 21 27 32 21 28 33 21 29 34 21 29 36 21 30 37 21 31 38 21 32 40 21 33 41 21 34 42 21 35 44 21 35 45 21 36 46 21 37 48 21 38 49 21 39 50 21 40 52 21 41 53 21 41 54 21 42 56 21 43 57 21 44 58 21 45 60 21 46 61 21 47 62 21 47 64 21 48 65 21 49 66 21 50 68 21 51 69 21 52 70 21 53 72 21 53 73 21 54 74 21 55 76 21 56 77 21 57 78 21 58 80 21 59 81 21 59 82 21 60 84 21 61 85 21 62 86 21 63 88 21 64 89 21 65 90 21 65 92 21 66 93 21 67 94 21 68 96 21 69 97 21 70 98 21 71 100 21 71 101 21 72 102 21 73 104 21 74 105 21 75 106 21 76 108 21 77 109 21 77 110 21 78 112 21 79 113 21 80 114 21 81 116 21 82 117 21 83 118 21 83 120 21 84 121 21 85 122 21 86 124 21 87 125 21 88 126 21 88 128 21 89 129 21 90 130 21 91 132 21 92 133 21 93 134 21 94 136 21 94 137 21 95 138 21 96 140 21 97 141 21 98 142 21 99 144 21 100 145 21 100 146 21 101 148 21 102 149 21 103 150 21 104 152 21 105 153 21 106 154 21 106 156 21 107 157 21 108 158 21 109 160 21 110 161 21 111 162 21 112 164 21 112 165 21 113 166 21 114 168 21 115 169 21 116 170 21 117 172 21 118 173 21 118 174 21 119 176 21 120 177 21 121 178 21 122 180 21 123 181 21 124 182 21 124 184 21 125 185 21 126 186 21 127 188 21 128 189 21 129 190 21 130 192 21 130 193 21 131 194 21 132 196 21 133 197 21 134 198 21 135 200 21 136 201 21 136 202 21 137 204 21 138 205 21 139 206 21 140 208 21 141 209 21 142 210 21 142 212 21 143 213 21 144 214 21 145 216 21 146 217 21 147 218 21 148 220 21 148 221 21 149 222 21 150 224 21 151 225 21 152 226 21 153 228 21 154 229 21 154 230 21 155 232 21 156 233 21 157 234 21 158 236 21 159 237 21 160 238 21 160 240 21 161 241 21 162 242 21 163 244 21 164 245 21 165 246 21 166 248 21 166 249 21 167 250 21 168 252 21 169 253 21 170 255 21 171
0 23 8 1 23 9 2 23 10 4 23 11 5 23 11 6 23 12 8 23 13 9 23 14 10 23 15 12 23 16 13 23 17 14 23 17 16 23 18 17 23 19 18 23 20 20 23 21 21 23 22 22 23 23 24 23 23 25 23 24 26 23 25 28 23 26 29 23 27 30 23 28 32 23 29 33 23 29 34 23 30 36 23 31 37 23 32 38 23 33 40 23 34 41 23 35 42 23 35 44 23 36 45 23 37 46 23 38 48 23 39 49 23 40 50 23 41 52 23 41 53 23 42 54 23 43 56 23 44 57 23 45 58 23 46 60 23 47 61 23 47 62 23 48 64 23 49 65 23 50 66 23 51 68 23 52 69 23 53 70 23 53 72 23 54 73 23 55 74 23 56 76 23 57 77 23 58 78 23 59 80 23 59 81 23 60 82 23 61 84 23 62 85 23 63 86 23 64 88 23 65 89 23 65 90 23 66 92 23 67 93 23 68 94 23 69 96 23 70 97 23 71 98 23 71 100 23 72 101 23 73 102 23 74 104 23 75 105 23 76 106 23 77 108 23 77 109 23 78 110 23 79 112 23 80 113 23 81 114 23 82 116 23 83 117 23 83 118 23 84 120 23 85 121 23 86 122 23 87 124 23 88 125 23 88 126 23 89 128 23 90 129 23 91 130 23 92 132 23 93 133 23 94 134 23 94 136 23 95 137 23 96 138 23 97 140 23 98 141 23 99 142 23 100 144 23 100 145 23 101 146 23 102 148 23 103 149 23 104 150 23 105 152 23 106 153 23 106 154 23 107 156 23 108 157 23 109 158 23 110 160 23 111 161 23 112 162 23 112 164 23 113 165 23 114 166 23 115 168 23 116 169 23 117 170 23 118 172 23 118 173 23 119 174 23 120 176 23 121 177 23 122 178 23 123 180 23 124 181 23 124 182 23 125 184 23 126 185 23 127 186 23 128 188 23 129 189 23 130 190 23 130 192 23 131 193 23 132 194 23 133 196 23 134 197 23 135 198 23 136 200 23 136 201 23 137 202 23 138 204 23 139 205 23 140 206 23 141 208 23 142 209 23 142 210 23 143 212 23 144 213 23 145 214 23 146 216 23 147 217 23 148 218 23 148 220 23 149 221 23 150 222 23 151 224 23 152 225 23 153 226 23 154 228 23 154 229 23 155 230 23 156 232 23 157 233 23 158 234 23 159 236 23 160 237 23 160 238 23 161 240 23 162 241 23 163 242 23 164 244 23 165 245 23 166 246 23 166 248 23 167 249 23 168 250 23 169 252 23 170 253 23 171 255 23 171
0 26 9 1 26 10 2 26 11 4 26 11 5 26 12 6 26 13 8 26 14 9 26 15 10 26 16 12 26 17 13 26 17 14 26 18 16 26 19 17 26 20 18 26 21 20 26 22 21 26 23 22 26 23 24 26 24 25 26 25 26 26 26 28 26 27 29 26 28 30 26 29 32 26 29 33 26 30 34 26 31 36 26 32 37 26 33 38 26 34 40 26 35 41 26 35 42 26 36 44 26 37 45 26 38 46 26 39 48 26 40 49 26 41 50 26 41 52 26 42 53 26 43 54 26 44 56 26 45 57 26 46 58 26 47 60 26 47 61 26 48 62 26 49 64 26 50 65 26 51 66 26 52 68 26 53 69 26 53 70 26 54 72 26 55 73 26 56 74 26 57 76 26 58 77 26 59 78 26 59 80 26 60 81 26 61 82 26 62 84 26 63 85 26 64 86 26 65 88 26 65 89 26 66 90 26 67 92 26 68 93 26 69 94 26 70 96 26 71 97 26 71 98 26 72 100 26 73 101 26 74 102 26 75 104 26 76 105 26 77 106 26 77 108 26 78 109 26 79 110 26 80 112 26 81 113 26 82 114 26 83 116 26 83 117 26 84 118 26 85 120 26 86 121 26 87 122 26 88 124 26 88 125 26 89 126 26 90 128 26 91 129 26 92 130 26 93 132 26 94 133 26 94 134 26 95 136 26 96 137 26 97 138 26 98 140 26 99 141 26 100 142 26 100 144 26 101 145 26 102 146 26 103 148 26 104 149 26 105 150 26 106 152 26 106 153 26 107 154 26 108 156 26 109 157 26 110 158 26 111 160 26 112 161 26 112 162 26 113 164 26 114 165 26 115 166 26 116 168 26 117 169 26 118 170 26 118 172 26 119 173 26 120 174 26 121 176 26 122 177 26 123 178 26 124 180 26 124 181 26 125 182 26 126 184 26 127 185 26 128 186 26 129 188 26 130 189 26 130 190 26 131 192 26 132 193 26 133 194 26 134 196 26 135 197 26 136 198 26 136 200 26 137 201 26 138 202 26 139 204 26 140 205 26 141 206 26 142 208 26 142 209 26 143 210 26 144 212 26 145 213 26 146 214 26 147 216 26 148 217 26 148 218 26 149 220 26 150 221 26 151 222 26 152 224 26 153 225 26 154 226 26 154 228 26 155 229 26 156 230 26 157 232 26 158 233 26 159 234 26 160 236 26 160 237 26 161 238 26 162 240 26 163 241 26 164 242 26 165 244 26 166 245 26 166 246 26 167 248 26 168 249 26 169 250 26 170 252 26 171 253 26 171 255 26 172
0 28 10 1 28 11 2 28 11 4 28 12 5 28 13 6 28 14 8 28 15 9 28 16 10 28 17 12 28 17 13 28 18 14 28 19 16 28 20 17 28 21 18 28 22 20 28 23 21 28 23 22 28 24 24 28 25 25 28 26 26 28 27 28 28 28 29 28 29 30 28 29 32 28 30 33 28 31 34 28 32 36 28 33 37 28 34 38 28 35 40 28 35 41 28 36 42 28 37 44 28 38 45 28 39 46 28 40 48 28 41 49 28 41 50 28 42 52 28 43 53 28 44 54 28 45 56 28 46 57 28 47 58 28 47 60 28 48 61 28 49 62 28 50 64 28 51 65 28 52 66 28 53 68 28 53 69 28 54 70 28 55 72 28 56 73 28 57 74 28 58 76 28 59 77 28 59 78 28 60 80 28 61 81 28 62 82 28 63 84 28 64 85 28 65 86 28 65 88 28 66 89 28 67 90 28 68 92 28 69 93 28 70 94 28 71 96 28 71 97 28 72 98 28 73 100 28 74 101 28 75 102 28 76 104 28 77 105 28 77 106 28 78 108 28 79 109 28 80 110 28 81 112 28 82 113 28 83 114 28 83 116 28 84 117 28 85 118 28 86 120 28 87 121 28 88 122 28 88 124 28 89 125 28 90 126 28 91 128 28 92 129 28 93 130 28 94 132 28 94 133 28 95 134 28 96 136 28 97 137 28 98 138 28 99 140 28 100 141 28 100 142 28 101 144 28 102 145 28 103 146 28 104 148 28 105 149 28 106 150 28 106 152 28 107 153 28 108 154 28 109 156 28 110 157 28 111 158 28 112 160 28 112 161 28 113 162 28 114 164 28 115 165 28 116 166 28 117 168 28 118 169 28 118 170 28 119 172 28 120 173 28 121 174 28 122 176 28 123 177 28 124 178 28 124 180 28 125 181 28 126 182 28 127 184 28 128 185 28 129 186 28 130 188 28 130 189 28 131 190 28 132 192 28 133 193 28 134 194 28 135 196 28 136 197 28 136 198 28 137 200 28 138 201 28 139 202 28 140 204 28 141 205 28 142 206 28 142 208 28 143 209 28 144 210 28 145 212 28 146 213 28 147 214 28 148 216 28 148 217 28 149 218 28 150 220 28 151 221 28 152 222 28 153 224 28 154 225 28 154 226 28 155 228 28 156 229 28 157 230 28 158 232 28 159 233 28 160 234 28 160 236 28 161 237 28 162 238 28 163 240 28 164 241 28 165 242 28 166 244 28 166 245 28 167 246 28 168 248 28 169 249 28 170 250 28 171 252 28 171 253 28 172 255 28 173
0 30 11 1 30 11 2 30 12 4 30 13 5 30 14 6 30 15 8 30 16 9 30 17 10 30 17 12 30 18 13 30 19 14 30 20 16 30 21 17 30 22 18 30 23 20 30 23 21 30 24 22 30 25 24 30 26 25 30 27 26 30 28 28 30 29 29 30 29 30 30 30 32 30 31 33 30 32 34 30 33 36 30 34 37 30 35 38 30 35 40 30 36 41 30 37 42 30 38 44 30 39 45 30 40 46 30 41 48 30 41 49 30 42 50 30 43 52 30 44 53 30 45 54 30 46 56 30 47 57 30 47 58 30 48 60 30 49 61 30 50 62 30 51 64 30 52 65 30 53 66 30 53 68 30 54 69 30 55 70 30 56 72 30 57 73 30 58 74 30 59 76 30 59 77 30 60 78 30 61 80 30 62 81 30 63 82 30 64 84 30 65 85 30 65 86 30 66 88 30 67 89 30 68 90 30 69 92 30 70 93 30 71 94 30 71 96 30 72 97 30 73 98 30 74 100 30 75 101 30 76 102 30 77 104 30 77 105 30 78 106 30 79 108 30 80 109 30 81 110 30 82 112 30 83 113 30 83 114 30 84 116 30 85 117 30 86 118 30 87 120 30 88 121 30 88 122 30 89 124 30 90 125 30 91 126 30 92 128 30 93 129 30 94 130 30 94 132 30 95 133 30 96 134 30 97 136 30 98 137 30 99 138 30 100 140 30 100 141 30 101 142 30 102 144 30 103 145 30 104 146 30 105 148 30 106 149 30 106 150 30 107 152 30 108 153 30 109 154 30 110 156 30 111 157 30 112 158 30 112 160 30 113 161 30 114 162 30 115 164 30 116 165 30 117 166 30 118 168 30 118 169 30 119 170 30 120 172 30 121 173 30 122 174 30 123 176 30 124 177 30 124 178 30 125 180 30 126 181 30 127 182 30 128 184 30 129 185 30 130 186 30 130 188 30 131 189 30 132 190 30 133 192 30 134 193 30 135 194 30 136 196 30 136 197 30 137 198 30 138 200 30 139 201 30 140 202 30 141 204 30 142 205 30 142 206 30 143 208 30 144 209 30 145 210 30 146 212 30 147 213 30 148 214 30 148 216 30 149 217 30 150 218 30 151 220 30 152 221 30 153 222 30 154 224 30 154 225 30 155 226 30 156 228 30 157 229 30 158 230 30 159 232 30 160 233 30 160 234 30 161 236 30 162 237 30 163 238 30 164 240 30 165 241 30 166 242 30 166 244 30 167 245 30 168 246 30 169 248 30 170 249 30 171 250 30 171 252 30 172 253 30 173 255 30 174
0 33 11 1 33 12 2 33 13 4 33 14 5 33 15 6 33 16 8 33 17 9 33 17 10 33 18 12 33 19 13 33 20 14 33 21 16 33 22 17 33 23 18 33 23 20 33 24 21 33 25 22 33 26 24 33 27 25 33 28 26 33 29 28 33 29 29 33 30 30 33 31 32 33 32 33 33 33 34 33 34 36 33 35 37 33 35 38 33 36 40 33 37 41 33 38 42 33 39 44 33 40 45 33 41 46 33 41 48 33 42 49 33 43 50 33 44 52 33 45 53 33 46 54 33 47 56 33 47 57 33 48 58 33 49 60 33 50 61 33 51 62 33 52 64 33 53 65 33 53 66 33 54 68 33 55 69 33 56 70 33 57 72 33 58 73 33 59 74 33 59 76 33 60 77 33 61 78 33 62 80 33 63 81 33 64 82 33 65 84 33 65 85 33 66 86 33 67 88 33 68 89 33 69 90 33 70 92 33 71 93 33 71 94 33 72 96 33 73 97 33 74 98 33 75 100 33 76 101 33 77 102 33 77 104 33 78 105 33 79 106 33 80 108 33 81 109 33 82 110 33 83 112 33 83 113 33 84 114 33 85 116 33 86 117 33 87 118 33 88 120 33 88 121 33 89 122 33 90 124 33 91 125 33 92 126 33 93 128 33 94 129 33 94 130 33 95 132 33 96 133 33 97 134 33 98 136 33 99 137 33 100 138 33 100 140 33 101 141 33 102 142 33 103 144 33 104 145 33 105 146 33 106 148 33 106 149 33 107 150 33 108 152 33 109 153 33 110 154 33 111 156 33 112 157 33 112 158 33 113 160 33 114 161 33 115 162 33 116 164 33 117 165 33 118 166 33 118 168 33 119 169 33 120 170 33 121 172 33 122 173 33 123 174 33 124 176 33 124 177 33 125 178 33 126 180 33 127 181 33 128 182 33 129 184 33 130 185 33 130 186 33 131 188 33 132 189 33 133 190 33 134 192 33 135 193 33 136 194 33 136 196 33 137 197 33 138 198 33 139 200 33 140 201 33 141 202 33 142 204 33 142 205 33 143 206 33 144 208 33 145 209 33 146 210 33 147 212 33 148 213 33 148 214 33 149 216 33 150 217 33 151 218 33 152 220 33 153 221 33 154 222 33 154 224 33 155 225 33 156 226 33 157 228 33 158 229 33 159 230 33 160 232 33 160 233 33 161 234 33 162 236 33 163 237 33 164 238 33 165 240 33 166 241 33 166 242 33 167 244 33 168 245 33 169 246 33 170 248 33 171 249 33 171 250 33 172 252 33 173 253 33 174 255 33 175
0 35 12 1 35 13 2 35 14 4 35 15 5 35 16 6 35 17 8 35 17 9 35 18 10 35 19 12 35 20 13 35 21 14 35 22 16 35 23 17 35 23 18 35 24 20 35 25 21 35 26 22 35 27 24 35 28 25 35 29 26 35 29 28 35 30 29 35 31 30 35 32 32 35 33 33 35 34 34 35 35 36 35 35 37 35 36 38 35 37 40 35 38 41 35 39 42 35 40 44 35 41 45 35 41 46 35 42 48 35 43 49 35 44 50 35 45 52 35 46 53 35 47 54 35 47 56 35 48 57 35 49 58 35 50 60 35 51 61 35 52 62 35 53 64 35 53 65 35 54 66 35 55 68 35 56 69 35 57 70 35 58 72 35 59 73 35 59 74 35 60 76 35 61 77 35 62 78 35 63 80 35 64 81 35 65 82 35 65 84 35 66 85 35 67 86 35 68 88 35 69 89 35 70 90 35 71 92 35 71 93 35 72 94 35 73 96 35 74 97 35 75 98 35 76 100 35 77 101 35 77 102 35 78 104 35 79 105 35 80 106 35 81 108 35 82 109 35 83 110 35 83 112 35 84 113 35 85 114 35 86 116 35 87 117 35 88 118 35 88 120 35 89 121 35 90 122 35 91 124 35 92 125 35 93 126 35 94 128 35 94 129 35 95 130 35 96 132 35 97 133 35 98 134 35 99 136 35 100 137 35 100 138 35 101 140 35 102 141 35 103 142 35 104 144 35 105 145 35 106 146 35 106 148 35 107 149 35 108 150 35 109 152 35 110 153 35 111 154 35 112 156 35 112 157 35 113 158 35 114 160 35 115 161 35 116 162 35 117 164 35 118 165 35 118 166 35 119 168 35 120 169 35 121 170 35 122 172 35 123 173 35 124 174 35 124 176 35 125 177 35 126 178 35 127 180 35 128 181 35 129 182 35 130 184 35 130 185 35 131 186 35 132 188 35 133 189 35 134 190 35 135 192 35 136 193 35 136 194 35 137 196 35 138 197 35 139 198 35 140 200 35 141 201 35 142 202 35 142 204 35 143 205 35 144 206 35 145 208 35 146 209 35 147 210 35 148 212 35 148 213 35 149 214 35 150 216 35 151 217 35 152 218 35 153 220 35 154 221 35 154 222 35 155 224 35 156 225 35 157 226 35 158 228 35 159 229 35 160 230 35 160 232 35 161 233 35 162 234 35 163 236 35 164 237 35 165 238 35 166 240 35 166 241 35 167 242 35 168 244 35 169 245 35 170 246 35 171 248 35 171 249 35 172 250 35 173 252 35 174 253 35 175 255 35 176
0 38 13 1 38 14 2 38 15 4 38 16 5 38 17 6 38 17 8 38 18 9 38 19 10 38 20 12 38 21 13 38 22 14 38 23 16 38 23 17 38 24 18 38 25 20 38 26 21 38 27 22 38 28 24 38 29 25 38 29 26 38 30 28 38 31 29 38 32 30 38 33 32 38 34 33 38 35 34 38 35 36 38 36 37 38 37 38 38 38 40 38 39 41 38 40 42 38 41 44 38 41 45 38 42 46 38 43 48 38 44 49 38 45 50 38 46 52 38 47 53 38 47 54 38 48 56 38 49 57 38 50 58 38 51 60 38 52 61 38 53 62 38 53 64 38 54 65 38 55 66 38 56 68 38 57 69 38 58 70 38 59 72 38 59 73 38 60 74 38 61 76 38 62 77 38 63 78 38 64 80 38 65 81 38 65 82 38 66 84 38 67 85 38 68 86 38 69 88 38 70 89 38 71 90 38 71 92 38 72 93 38 73 94 38 74 96 38 75 97 38 76 98 38 77 100 38 77 101 38 78 102 38 79 104 38 80 105 38 81 106 38 82 108 38 83 109 38 83 110 38 84 112 38 85 113 38 86 114 38 87 116 38 88 117 38 88 118 38 89 120 38 90 121 38 91 122 38 92 124 38 93 125 38 94 126 38 94 128 38 95 129 38 96 130 38 97 132 38 98 133 38 99 134 38 100 136 38 100 137 38 101 138 38 102 140 38 103 141 38 104 142 38 105 144 38 106 145 38 106 146 38 107 148 38 108 149 38 109 150 38 110 152 38 111 153 38 112 154 38 112 156 38 113 157 38 114 158 38 115 160 38 116 161 38 117 162 38 118 164 38 118 165 38 119 166 38 120 168 38 121 169 38 122 170 38 123 172 38 124 173 38 124 174 38 125 176 38 126 177 38 127 178 38 128 180 38 129 181 38 130 182 38 130 184 38 131 185 38 132 186 38 133 188 38 134 189 38 135 190 38 136 192 38 136 193 38 137 194 38 138 196 38 139 197 38 140 198 38 141 200 38 142 201 38 142 202 38 143 204 38 144 205 38 145 206 38 146 208 38 147 209 38 148 210 38 148 212 38 149 213 38 150 214 38 151 216 38 152 217 38 153 218 38 154 220 38 154 221 38 155 222 38 156 224 38 157 225 38 158 226 38 159 228 38 160 229 38 160 230 38 161 232 38 162 233 38 163 234 38 164 236 38 165 237 38 166 238 38 166 240 38 167 241 38 168 242 38 169 244 38 170 245 38 171 246 38 171 248 38 172 249 38 173 250 38 174 252 38 175 253 38 176 255 38 177
0 40 14 1 40 15 2 40 16 4 40 17 5 40 17 6 40 18 8 40 19 9 40 20 10 40 21 12 40 22 13 40 23 14 40 23 16 40 24 17 40 25 18 40 26 20 40 27 21 40 28 22 40 29 24 40 29 25 40 30 26 40 31 28 40 32 29 40 33 30 40 34 32 40 35 33 40 35 34 40 36 36 40 37 37 40 38 38 40 39 40 40 40 41 40 41 42 40 41 44 40 42 45 40 43 46 40 44 48 40 45 49 40 46 50 40 47 52 40 47 53 40 48 54 40 49 56 40 50 57 40 51 58 40 52 60 40 53 61 40 53 62 40 54 64 40 55 65 40 56 66 40 57 68 40 58 69 40 59 70 40 59 72 40 60 73 40 61 74 40 62 76 40 63 77 40 64 78 40 65 80 40 65 81 40 66 82 40 67 84 40 68 85 40 69 86 40 70 88 40 71 89 40 71 90 40 72 92 40 73 93 40 74 94 40 75 96 40 76 97 40 77 98 40 77 100 40 78 101 40 79 102 40 80 104 40 81 105 40 82 106 40 83 108 40 83 109 40 84 110 40 85 112 40 86 113 40 87 114 40 88 116 40 88 117 40 89 118 40 90 120 40 91 121 40 92 122 40 93 124 40 94 125 40 94 126 40 95 128 40 96 129 40 97 130 40 98 132 40 99 133 40 100 134 40 100 136 40 101 137 40 102 138 40 103 140 40 104 141 40 105 142 40 106 144 40 106 145 40 107 146 40 108 148 40 109 149 40 110 150 40 111 152 40 112 153 40 112 154 40 113 156 40 114 157 40 115 158 40 116 160 40 117 161 40 118 162 40 118 164 40 119 165 40 120 166 40 121 168 40 122 169 40 123 170 40 124 172 40 124 173 40 125 174 40 126 176 40 127 177 40 128 178 40 129 180 40 130 181 40 130 182 40 131 184 40 132 185 40 133 186 40 134 188 40 135 189 40 136 190 40 136 192 40 137 193 40 138 194 40 139 196 40 140 197 40 141 198 40 142 200 40 142 201 40 143 202 40 144 204 40 145 205 40 146 206 40 147 208 40 148 209 40 148 210 40 149 212 40 150 213 40 151 214 40 152 216 40 153 217 40 154 218 40 154 220 40 155 221 40 156 222 40 157 224 40 158 225 40 159 226 40 160 228 40 160 229 40 161 230 40 162 232 40 163 233 40 164 234 40 165 236 40 166 237 40 166 238 40 167 240 40 168 241 40 169 242 40 170 244 40 171 245 40 171 246 40 172 248 40 173 249 40 174 250 40 175 252 40 176 253 40 177 255 40 177
0 42 15 1 42 16 2 42 17 4 42 17 5 42 18 6 42 19 8 42 20 9 42 21 10 42 22 12 42 23 13 42 23 14 42 24 16 42 25 17 42 26 18 42 27 20 42 28 21 42 29 22 42 29 24 42 30 25 42 31 26 42 32 28 42 33 29 42 34 30 42 35 32 42 35 33 42 36 34 42 37 36 42 38 37 42 39 38 42 40 40 42 41 41 42 41 42 42 42 44 42 43 45 42 44 46 42 45 48 42 46 49 42 47 50 42 47 52 42 48 53 42 49 54 42 50 56 42 51 57 42 52 58 42 53 60 42 53 61 42 54 62 42 55 64 42 56 65 42 57 66 42 58 68 42 59 69 42 59 70 42 60 72 42 61 73 42 62 74 42 63 76 42 64 77 42 65 78 42 65 80 42 66 81 42 67 82 42 68 84 42 69 85 42 70 86 42 71 88 42 71 89 42 72 90 42 73 92 42 74 93 42 75 94 42 76 96 42 77 97 42 77 98 42 78 100 42 79 101 42 80 102 42 81 104 42 82 105 42 83 106 42 83 108 42 84 109 42 85 110 42 86 112 42 87 113 42 88 114 42 88 116 42 89 117 42 90 118 42 91 120 42 92 121 42 93 122 42 94 124 42 94 125 42 95 126 42 96 128 42 97 129 42 98 130 42 99 132 42 100 133 42 100 134 42 101 136 42 102 137 42 103 138 42 104 140 42 105 141 42 106 142 42 106 144 42 107 145 42 108 146 42 109 148 42 110 149 42 111 150 42 112 152 42 112 153 42 113 154 42 114 156 42 115 157 42 116 158 42 117 160 42 118 161 42 118 162 42 119 164 42 120 165 42 121 166 42 122 168 42 123 169 42 124 170 42 124 172 42 125 173 42 126 174 42 127 176 42 128 177 42 129 178 42 130 180 42 130 181 42 131 182 42 132 184 42 133 185 42 134 186 42 135 188 42 136 189 42 136 190 42 137 192 42 138 193 42 139 194 42 140 196 42 141 197 42 142 198 42 142 200 42 143 201 42 144 202 42 145 204 42 146 205 42 147 206 42 148 208 42 148 209 42 149 210 42 150 212 42 151 213 42 152 214 42 153 216 42 154 217 42 154 218 42 155 220 42 156 221 42 157 222 42 158 224 42 159 225 42 160 226 42 160 228 42 161 229 42 162 230 42 163 232 42 164 233 42 165 234 42 166 236 42 166 237 42 167 238 42 168 240 42 169 241 42 170 242 42 171 244 42 171 245 42 172 246 42 173 248 42 174 249 42 175 250 42 176 252 42 177 253 42 177 255 42 178
0 45 16 1 45 17 2 45 17 4 45 18 5 45 19 6 45 20 8 45 21 9 45 22 10 45 23 12 45 23 13 45 24 14 45 25 16 45 26 17 45 27 18 45 28 20 45 29 21 45 29 22 45 30 24 45 31 25 45 32 26 45 33 28 45 34 29 45 35 30 45 35 32 45 36 33 45 37 34 45 38 36 45 39 37 45 40 38 45 41 40 45 41 41 45 42 42 45 43 44 45 44 45 45 45 46 45 46 48 45 47 49 45 47 50 45 48 52 45 49 53 45 50 54 45 51 56 45 52 57 45 53 58 45 53 60 45 54 61 45 55 62 45 56 64 45 57 65 45 58 66 45 59 68 45 59 69 45 60 70 45 61 72 45 62 73 45 63 74 45 64 76 45 65 77 45 65 78 45 66 80 45 67 81 45 68 82 45 69 84 45 70 85 45 71 86 45 71 88 45 72 89 45 73 90 45 74 92 45 75 93 45 76 94 45 77 96 45 77 97 45 78 98 45 79 100 45 80 101 45 81 102 45 82 104 45 83 105 45 83 106 45 84 108 45 85 109 45 86 110 45 87 112 45 88 113 45 88 114 45 89 116 45 90 117 45 91 118 45 92 120 45 93 121 45 94 122 45 94 124 45 95 125 45 96 126 45 97 128 45 98 129 45 99 130 45 100 132 45 100 133 45 101 134 45 102 136 45 103 137 45 104 138 45 105 140 45 106 141 45 106 142 45 107 144 45 108 145 45 109 146 45 110 148 45 111 149 45 112 150 45 112 152 45 113 153 45 114 154 45 115 156 45 116 157 45 117 158 45 118 160 45 118 161 45 119 162 45 120 164 45 121 165 45 122 166 45 123 168 45 124 169 45 124 170 45 125 172 45 126 173 45 127 174 45 128 176 45 129 177 45 130 178 45 130 180 45 131 181 45 132 182 45 133 184 45 134 185 45 135 186 45 136 188 45 136 189 45 137 190 45 138 192 45 139 193 45 140 194 45 141 196 45 142 197 45 142 198 45 143 200 45 144 201 45 145 202 45 146 204 45 147 205 45 148 206 45 148 208 45 149 209 45 150 210 45 151 212 45 152 213 45 153 214 45 154 216 45 154 217 45 155 218 45 156 220 45 157 221 45 158 222 45 159 224 45 160 225 45 160 226 45 161 228 45 162 229 45 163 230 45 164 232 45 165 233 45 166 234 45 166 236 45 167 237 45 168 238 45 169 240 45 170 241 45 171 242 45 171 244 45 172 245 45 173 246 45 174 248 45 175 249 45 176 250 45 177 252 45 177 253 45 178 255 45 179
0 47 17 1 47 17 2 47 18 4 47 19 5 47 20 6 47 21 8 47 22 9 47 23 10 47 23 12 47 24 13 47 25 14 47 26 16 47 27 17 47 28 18 47 29 20 47 29 21 47 30 22 47 31 24 47 32 25 47 33 26 47 34 28 47 35 29 47 35 30 47 36 32 47 37 33 47 38 34 47 39 36 47 40 37 47 41 38 47 41 40 47 42 41 47 43 42 47 44 44 47 45 45 47 46 46 47 47 48 47 47 49 47 48 50 47 49 52 47 50 53 47 51 54 47 52 56 47 53 57 47 53 58 47 54 60 47 55 61 47 56 62 47 57 64 47 58 65 47 59 66 47 59 68 47 60 69 47 61 70 47 62 72 47 63 73 47 64 74 47 65 76 47 65 77 47 66 78 47 67 80 47 68 81 47 69 82 47 70 84 47 71 85 47 71 86 47 72 88 47 73 89 47 74 90 47 75 92 47 76 93 47 77 94 47 77 96 47 78 97 47 79 98 47 80 100 47 81 101 47 82 102 47 83 104 47 83 105 47 84 106 47 85 108 47 86 109 47 87 110 47 88 112 47 88 113 47 89 114 47 90 116 47 91 117 47 92 118 47 93 120 47 94 121 47 94 122 47 95 124 47 96 125 47 97 126 47 98 128 47 99 129 47 100 130 47 100 132 47 101 133 47 102 134 47 103 136 47 104 137 47 105 138 47 106 140 47 106 141 47 107 142 47 108 144 47 109 145 47 110 146 47 111 148 47 112 149 47 112 150 47 113 152 47 114 153 47 115 154 47 116 156 47 117 157 47 118 158 47 118 160 47 119 161 47 120 162 47 121 164 47 122 165 47 123 166 47 124 168 47 124 169 47 125 170 47 126 172 47 127 173 47 128 174 47 129 176 47 130 177 47 130 178 47 131 180 47 132 181 47 133 182 47 134 184 47 135 185 47 136 186 47 136 188 47 137 189 47 138 190 47 139 192 47 140 193 47 141 194 47 142 196 47 142 197 47 143 198 47 144 200 47 145 201 47 146 202 47 147 204 47 148 205 47 148 206 47 149 208 47 150 209 47 151 210 47 152 212 47 153 213 47 154 214 47 154 216 47 155 217 47 156 218 47 157 220 47 158 221 47 159 222 47 160 224 47 160 225 47 161 226 47 162 228 47 163 229 47 164 230 47 165 232 47 166 233 47 166 234 47 167 236 47 168 237 47 169 238 47 170 240 47 171 241 47 171 242 47 172 244 47 173 245 47 174 246 47 175 248 47 176 249 47 177 250 47 177 252 47 178 253 47 179 255 47 180
0 50 17 1 50 18 2 50 19 4 50 20 5 50 21 6 50 22 8 50 23 9 50 23 10 50 24 12 50 25 13 50 26 14 50 27 16 50 28 17 50 29 18 50 29 20 50 30 21 50 31 22 50 32 24 50 33 25 50 34 26 50 35 28 50 35 29 50 36 30 50 37 32 50 38 33 50 39 34 50 40 36 50 41 37 50 41 38 50 42 40 50 43 41 50 44 42 50 45 44 50 46 45 50 47 46 50 47 48 50 48 49 50 49 50 50 50 52 50 51 53 50 52 54 50 53 56 50 53 57 50 54 58 50 55 60 50 56 61 50 57 62 50 58 64 50 59 65 50 59 66 50 60 68 50 61 69 50 62 70 50 63 72 50 64 73 50 65 74 50 65 76 50 66 77 50 67 78 50 68 80 50 69 81 50 70 82 50 71 84 50 71 85 50 72 86 50 73 88 50 74 89 50 75 90 50 76 92 50 77 93 50 77 94 50 78 96 50 79 97 50 80 98 50 81 100 50 82 101 50 83 102 50 83 104 50 84 105 50 85 106 50 86 108 50 87 109 50 88 110 50 88 112 50 89 113 50 90 114 50 91 116 50 92 117 50 93 118 50 94 120 50 94 121 50 95 122 50 96 124 50 97 125 50 98 126 50 99 128 50 100 129 50 100 130 50 101 132 50 102 133 50 103 134 50 104 136 50 105 137 50 106 138 50 106 140 50 107 141 50 108 142 50 109 144 50 110 145 50 111 146 50 112 148 50 112 149 50 113 150 50 114 152 50 115 153 50 116 154 50 117 156 50 118 157 50 118 158 50 119 160 50 120 161 50 121 162 50 122 164 50 123 165 50 124 166 50 124 168 50 125 169 50 126 170 50 127 172 50 128 173 50 129 174 50 130 176 50 130 177 50 131 178 50 132 180 50 133 181 50 134 182 50 135 184 50 136 185 50 136 186 50 137 188 50 138 189 50 139 190 50 140 192 50 141 193 50 142 194 50 142 196 50 143 197 50 144 198 50 145 200 50 146 201 50 147 202 50 148 204 50 148 205 50 149 206 50 150 208 50 151 209 50 152 210 50 153 212 50 154 213 50 154 214 50 155 216 50 156 217 50 157 218 50 158 220 50 159 221 50 160 222 50 160 224 50 161 225 50 162 226 50 163 228 50 164 229 50 165 230 50 166 232 50 166 233 50 167 234 50 168 236 50 169 237 50 170 238 50 171 240 50 171 241 50 172 242 50 173 244 50 174 245 50 175 246 50 176 248 50 177 249 50 177 250 50 178 252 50 179 253 50 180 255 50 181
0 52 18 1 52 19 2 52 20 4 52 21 5 52 22 6 52 23 8 52 23 9 52 24 10 52 25 12 52 26 13 52 27 14 52 28 16 52 29 17 52 29 18 52 30 20 52 31 21 52 32 22 52 33 24 52 34 25 52 35 26 52 35 28 52 36 29 52 37 30 52 38 32 52 39 33 52 40 34 52 41 36 52 41 37 52 42 38 52 43 40 52 44 41 52 45 42 52 46 44 52 47 45 52 47 46 52 48 48 52 49 49 52 50 50 52 51 52 52 52 53 52 53 54 52 53 56 52 54 57 52 55 58 52 56 60 52 57 61 52 58 62 52 59 64 52 59 65 52 60 66 52 61 68 52 62 69 52 63 70 52 64 72 52 65 73 52 65 74 52 66 76 52 67 77 52 68 78 52 69 80 52 70 81 52 71 82 52 71 84 52 72 85 52 73 86 52 74 88 52 75 89 52 76 90 52 77 92 52 77 93 52 78 94 52 79 96 52 80 97 52 81 98 52 82 100 52 83 101 52 83 102 52 84 104 52 85 105 52 86 106 52 87 108 52 88 109 52 88 110 52 89 112 52 90 113 52 91 114 52 92 116 52 93 117 52 94 118 52 94 120 52 95 121 52 96 122 52 97 124 52 98 125 52 99 126 52 100 128 52 100 129 52 101 130 52 102 132 52 103 133 52 104 134 52 105 136 52 106 137 52 106 138 52 107 140 52 108 141 52 109 142 52 110 144 52 111 145 52 112 146 52 112 148 52 113 149 52 114 150 52 115 152 52 116 153 52 117 154 52 118 156 52 118 157 52 119 158 52 120 160 52 121 161 52 122 162 52 123 164 52 124 165 52 124 166 52 125 168 52 126 169 52 127 170 52 128 172 52 129 173 52 130 174 52 130 176 52 131 177 52 132 178 52 133 180 52 134 181 52 135 182 52 136 184 52 136 185 52 137 186 52 138 188 52 139 189 52 140 190 52 141 192 52 142 193 52 142 194 52 143 196 52 144 197 52 145 198 52 146 200 52 147 201 52 148 202 52 148 204 52 149 205 52 150 206 52 151 208 52 152 209 52 153 210 52 154 212 52 154 213 52 155 214 52 156 216 52 157 217 52 158 218 52 159 220 52 160 221 52 160 222 52 161 224 52 162 225 52 163 226 52 164 228 52 165 229 52 166 230 52 166 232 52 167 233 52 168 234 52 169 236 52 170 237 52 171 238 52 171 240 52 172 241 52 173 242 52 174 244 52 175 245 52 176 246 52 177 248 52 177 249 52 178 250 52 179 252 52 180 253 52 181 255 52 182
0 54 19 1 54 20 2 54 21 4 54 22 5 54 23 6 54 23 8 54 24 9 54 25 10 54 26 12 54 27 13 54 28 14 54 29 16 54 29 17 54 30 18 54 31 20 54 32 21 54 33 22 54 34 24 54 35 25 54 35 26 54 36 28 54 37 29 54 38 30 54 39 32 54 40 33 54 41 34 54 41 36 54 42 37 54 43 38 54 44 40 54 45 41 54 46 42 54 47 44 54 47 45 54 48 46 54 49 48 54 50 49 54 51 50 54 52 52 54 53 53 54 53 54 54 54 56 54 55 57 54 56 58 54 57 60 54 58 61 54 59 62 54 59 64 54 60 65 54 61 66 54 62 68 54 63 69 54 64 70 54 65 72 54 65 73 54 66 74 54 67 76 54 68 77 54 69 78 54 70 80 54 71 81 54 71 82 54 72 84 54 73 85 54 74 86 54 75 88 54 76 89 54 77 90 54 77 92 54 78 93 54 79 94 54 80 96 54 81 97 54 82 98 54 83 100 54 83 101 54 84 102 54 85 104 54 86 105 54 87 106 54 88 108 54 88 109 54 89 110 54 90 112 54 91 113 54 92 114 54 93 116 54 94 117 54 94 118 54 95 120 54 96 121 54 97 122 54 98 124 54 99 125 54 100 126 54 100 128 54 101 129 54 102 130 54 103 132 54 104 133 54 105 134 54 106 136 54 106 137 54 107 138 54 108 140 54 109 141 54 110 142 54 111 144 54 112 145 54 112 146 54 113 148 54 114 149 54 115 150 54 116 152 54 117 153 54 118 154 54 118 156 54 119 157 54 120 158 54 121 160 54 122 161 54 123 162 54 124 164 54 124 165 54 125 166 54 126 168 54 127 169 54 128 170 54 129 172 54 130 173 54 130 174 54 131 176 54 132 177 54 133 178 54 134 180 54 135 181 54 136 182 54 136 184 54 137 185 54 138 186 54 139 188 54 140 189 54 141 190 54 142 192 54 142 193 54 143 194 54 144 196 54 145 197 54 146 198 54 147 200 54 148 201 54 148 202 54 149 204 54 150 205 54 151 206 54 152 208 54 153 209 54 154 210 54 154 212 54 155 213 54 156 214 54 157 216 54 158 217 54 159 218 54 160 220 54 160 221 54 161 222 54 162 224 54 163 225 54 164 226 54 165 228 54 166 229 54 166 230 54 167 232 54 168 233 54 169 234 54 170 236 54 171 237 54 171 238 54 172 240 54 173 241 54 174 242 54 175 244 54 176 245 54 177 246 54 177 248 54 178 249 54 179 250 54 180 252 54 181 253 54 182 255 54 183
0 57 20 1 57 21 2 57 22 4 57 23 5 57 23 6 57 24 8 57 25 9 57 26 10 57 27 12 57 28 13 57 29 14 57 29 16 57 30 17 57 31 18 57 32 20 57 33 21 57 34 22 57 35 24 57 35 25 57 36 26 57 37 28 57 38 29 57 39 30 57 40 32 57 41 33 57 41 34 57 42 36 57 43 37 57 44 38 57 45 40 57 46 41 57 47 42 57 47 44 57 48 45 57 49 46 57 50 48 57 51 49 57 52 50 57 53 52 57 53 53 57 54 54 57 55 56 57 56 57 57 57 58 57 58 60 57 59 61 57 59 62 57 60 64 57 61 65 57 62 66 57 63 68 57 64 69 57 65 70 57 65 72 57 66 73 57 67 74 57 68 76 57 69 77 57 70 78 57 71 80 57 71 81 57 72 82 57 73 84 57 74 85 57 75 86 57 76 88 57 77 89 57 77 90 57 78 92 57 79 93 57 80 94 57 81 96 57 82 97 57 83 98 57 83 100 57 84 101 57 85 102 57 86 104 57 87 105 57 88 106 57 88 108 57 89 109 57 90 110 57 91 112 57 92 113 57 93 114 57 94 116 57 94 117 57 95 118 57 96 120 57 97 121 57 98 122 57 99 124 57 100 125 57 100 126 57 101 128 57 102 129 57 103 130 57 104 132 57 105 133 57 106 134 57 106 136 57 107 137 57 108 138 57 109 140 57 110 141 57 111 142 57 112 144 57 112 145 57 113 146 57 114 148 57 115 149 57 116 150 57 117 152 57 118 153 57 118 154 57 119 156 57 120 157 57 121 158 57 122 160 57 123 161 57 124 162 57 124 164 57 125 165 57 126 166 57 127 168 57 128 169 57 129 170 57 130 172 57 130 173 57 131 174 57 132 176 57 133 177 57 134 178 57 135 180 57 136 181 57 136 182 57 137 184 57 138 185 57 139 186 57 140 188 57 141 189 57 142 190 57 142 192 57 143 193 57 144 194 57 145 196 57 146 197 57 147 198 57 148 200 57 148 201 57 149 202 57 150 204 57 151 205 57 152 206 57 153 208 57 154 209 57 154 210 57 155 212 57 156 213 57 157 214 57 158 216 57 159 217 57 160 218 57 160 220 57 161 221 57 162 222 57 163 224 57 164 225 57 165 226 57 166 228 57 166 229 57 167 230 57 168 232 57 169 233 57 170 234 57 171 236 57 171 237 57 172 238 57 173 240 57 174 241 57 175 242 57 176 244 57 177 245 57 177 246 57 178 248 57 179 249 57 180 250 57 181 252 57 182 253 57 183 255 57 183
0 59 21 1 59 22 2 59 23 4 59 23 5 59 24 6 59 25 8 59 26 9 59 27 10 59 28 12 59 29 13 59 29 14 59 30 16 59 31 17 59 32 18 59 33 20 59 34 21 59 35 22 59 35 24 59 36 25 59 37 26 59 38 28 59 39 29 59 40 30 59 41 32 59 41 33 59 42 34 59 43 36 59 44 37 59 45 38 59 46 40 59 47 41 59 47 42 59 48 44 59 49 45 59 50 46 59 51 48 59 52 49 59 53 50 59 53 52 59 54 53 59 55 54 59 56 56 59 57 57 59 58 58 59 59 60 59 59 61 59 60 62 59 61 64 59 62 65 59 63 66 59 64 68 59 65 69 59 65 70 59 66 72 59 67 73 59 68 74 59 69 76 59 70 77 59 71 78 59 71 80 59 72 81 59 73 82 59 74 84 59 75 85 59 76 86 59 77 88 59 77 89 59 78 90 59 79 92 59 80 93 59 81 94 59 82 96 59 83 97 59 83 98 59 84 100 59 85 101 59 86 102 59 87 104 59 88 105 59 88 106 59 89 108 59 90 109 59 91 110 59 92 112 59 93 113 59 94 114 59 94 116 59 95 117 59 96 118 59 97 120 59 98 121 59 99 122 59 100 124 59 100 125 59 101 126 59 102 128 59 103 129 59 104 130 59 105 132 59 106 133 59 106 134 59 107 136 59 108 137 59 109 138 59 110 140 59 111 141 59 112 142 59 112 144 59 113 145 59 114 146 59 115 148 59 116 149 59 117 150 59 118 152 59 118 153 59 119 154 59 120 156 59 121 157 59 122 158 59 123 160 59 124 161 59 124 162 59 125 164 59 126 165 59 127 166 59 128 168 59 129 169 59 130 170 59 130 172 59 131 173 59 132 174 59 133 176 59 134 177 59 135 178 59 136 180 59 136 181 59 137 182 59 138 184 59 139 185 59 140 186 59 141 188 59 142 189 59 142 190 59 143 192 59 144 193 59 145 194 59 146 196 59 147 197 59 148 198 59 148 200 59 149 201 59 150 202 59 151 204 59 152 205 59 153 206 59 154 208 59 154 209 59 155 210 59 156 212 59 157 213 59 158 214 59 159 216 59 160 217 59 160 218 59 161 220 59 162 221 59 163 222 59 164 224 59 165 225 59 166 226 59 166 228 59 167 229 59 168 230 59 169 232 59 170 233 59 171 234 59 171 236 59 172 237 59 173 238 59 174 240 59 175 241 59 176 242 59 177 244 59 177 245 59 178 246 59 179 248 59 180 249 59 181 250 59 182 252 59 183 253 59 183 255 59 184
0 61 22 1 61 23 2 61 23 4 61 24 5 61 25 6 61 26 8 61 27 9 61 28 10 61 29 12 61 29 13 61 30 14 61 31 16 61 32 17 61 33 18 61 34 20 61 35 21 61 35 22 61 36 24 61 37 25 61 38 26 61 39 28 61 40 29 61 41 30 61 41 32 61 42 33 61 43 34 61 44 36 61 45 37 61 46 38 61 47 40 61 47 41 61 48 42 61 49 44 61 50 45 61 51 46 61 52 48 61 53 49 61 53 50 61 54 52 61 55 53 61 56 54 61 57 56 61 58 57 61 59 58 61 59 60 61 60 61 61 61 62 61 62 64 61 63 65 61 64 66 61 65 68 61 65 69 61 66 70 61 67 72 61 68 73 61 69 74 61 70 76 61 71 77 61 71 78 61 72 80 61 73 81 61 74 82 61 75 84 61 76 85 61 77 86 61 77 88 61 78 89 61 79 90 61 80 92 61 81 93 61 82 94 61 83 96 61 83 97 61 84 98 61 85 100 61 86 101 61 87 102 61 88 104 61 88 105 61 89 106 61 90 108 61 91 109 61 92 110 61 93 112 61 94 113 61 94 114 61 95 116 61 96 117 61 97 118 61 98 120 61 99 121 61 100 122 61 100 124 61 101 125 61 102 126 61 103 128 61 104 129 61 105 130 61 106 132 61 106 133 61 107 134 61 108 136 61 109 137 61 110 138 61 111 140 61 112 141 61 112 142 61 113 144 61 114 145 61 115 146 61 116 148 61 117 149 61 118 150 61 118 152 61 119 153 61 120 154 61 121 156 61 122 157 61 123 158 61 124 160 61 124 161 61 125 162 61 126 164 61 127 165 61 128 166 61 129 168 61 130 169 61 130 170 61 131 172 61 132 173 61 133 174 61 134 176 61 135 177 61 136 178 61 136 180 61 137 181 61 138 182 61 139 184 61 140 185 61 141 186 61 142 188 61 142 189 61 143 190 61 144 192 61 145 193 61 146 194 61 147 196 61 148 197 61 148 198 61 149 200 61 150 201 61 151 202 61 152 204 61 153 205 61 154 206 61 154 208 61 155 209 61 156 210 61 157 212 61 158 213 61 159 214 61 160 216 61 160 217 61 161 218 61 162 220 61 163 221 61 164 222 61 165 224 61 166 225 61 166 226 61 167 228 61 168 229 61 169 230 61 170 232 61 171 233 61 171 234 61 172 236 61 173 237 61 174 238 61 175 240 61 176 241 61 177 242 61 177 244 61 178 245 61 179 246 61 180 248 61 181 249 61 182 250 61 183 252 61 183 253 61 184 255 61 185
0 64 23 1 64 23 2 64 24 4 64 25 5 64 26 6 64 27 8 64 28 9 64 29 10 64 29 12 64 30 13 64 31 14 64 32 16 64 33 17 64 34 18 64 35 20 64 35 21 64 36 22 64 37 24 64 38 25 64 39 26 64 40 28 64 41 29 64 41 30 64 42 32 64 43 33 64 44 34 64 45 36 64 46 37 64 47 38 64 47 40 64 48 41 64 49 42 64 50 44 64 51 45 64 52 46 64 53 48 64 53 49 64 54 50 64 55 52 64 56 53 64 57 54 64 58 56 64 59 57 64 59 58 64 60 60 64 61 61 64 62 62 64 63 64 64 64 65 64 65 66 64 65 68 64 66 69 64 67 70 64 68 72 64 69 73 64 70 74 64 71 76 64 71 77 64 72 78 64 73 80 64 74 81 64 75 82 64 76 84 64 77 85 64 77 86 64 78 88 64 79 89 64 80 90 64 81 92 64 82 93 64 83 94 64 83 96 64 84 97 64 85 98 64 86 100 64 87 101 64 88 102 64 88 104 64 89 105 64 90 106 64 91 108 64 92 109 64 93 110 64 94 112 64 94 113 64 95 114 64 96 116 64 97 117 64 98 118 64 99 120 64 100 121 64 100 122 64 101 124 64 102 125 64 103 126 64 104 128 64 105 129 64 106 130 64 106 132 64 107 133 64 108 134 64 109 136 64 110 137 64 111 138 64 112 140 64 112 141 64 113 142 64 114 144 64 115 145 64 116 146 64 117 148 64 118 149 64 118 150 64 119 152 64 120 153 64 121 154 64 122 156 64 123 157 64 124 158 64 124 160 64 125 161 64 126 162 64 127 164 64 128 165 64 129 166 64 130 168 64 130 169 64 131 170 64 132 172 64 133 173 64 134 174 64 135 176 64 136 177 64 136 178 64 137 180 64 138 181 64 139 182 64 140 184 64 141 185 64 142 186 64 142 188 64 143 189 64 144 190 64 145 192 64 146 193 64 147 194 64 148 196 64 148 197 64 149 198 64 150 200 64 151 201 64 152 202 64 153 204 64 154 205 64 154 206 64 155 208 64 156 209 64 157 210 64 158 212 64 159 213 64 160 214 64 160 216 64 161 217 64 162 218 64 163 220 64 164 221 64 165 222 64 166 224 64 166 225 64 167 226 64 168 228 64 169 229 64 170 230 64 171 232 64 171 233 64 172 234 64 173 236 64 174 237 64 175 238 64 176 240 64 177 241 64 177 242 64 178 244 64 179 245 64 180 246 64 181 248 64 182 249 64 183 250 64 183 252 64 184 253 64 185 255 64 186
0 66 23 1 66 24 2 66 25 4 66 26 5 66 27 6 66 28 8 66 29 9 66 29 10 66 30 12 66 31 13 66 32 14 66 33 16 66 34 17 66 35 18 66 35 20 66 36 21 66 37 22 66 38 24 66 39 25 66 40 26 66 41 28 66 41 29 66 42 30 66 43 32 66 44 33 66 45 34 66 46 36 66 47 37 66 47 38 66 48 40 66 49 41 66 50 42 66 51 44 66 52 45 66 53 46 66 53 48 66 54 49 66 55 50 66 56 52 66 57 53 66 58 54 66 59 56 66 59 57 66 60 58 66 61 60 66 62 61 66 63 62 66 64 64 66 65 65 66 65 66 66 66 68 66 67 69 66 68 70 66 69 72 66 70 73 66 71 74 66 71 76 66 72 77 66 73 78 66 74 80 66 75 81 66 76 82 66 77 84 66 77 85 66 78 86 66 79 88 66 80 89 66 81 90 66 82 92 66 83 93 66 83 94 66 84 96 66 85 97 66 86 98 66 87 100 66 88 101 66 88 102 66 89 104 66 90 105 66 91 106 66 92 108 66 93 109 66 94 110 66 94 112 66 95 113 66 96 114 66 97 116 66 98 117 66 99 118 66 100 120 66 100 121 66 101 122 66 102 124 66 103 125 66 104 126 66 105 128 66 106 129 66 106 130 66 107 132 66 108 133 66 109 134 66 110 136 66 111 137 66 112 138 66 112 140 66 113 141 66 114 142 66 115 144 66 116 145 66 117 146 66 118 148 66 118 149 66 119 150 66 120 152 66 121 153 66 122 154 66 123 156 66 124 157 66 124 158 66 125 160 66 126 161 66 127 162 66 128 164 66 129 165 66 130 166 66 130 168 66 131 169 66 132 170 66 133 172 66 134 173 66 135 174 66 136 176 66 136 177 66 137 178 66 138 180 66 139 181 66 140 182 66 141 184 66 142 185 66 142 186 66 143 188 66 144 189 66 145 190 66 146 192 66 147 193 66 148 194 66 148 196 66 149 197 66 150 198 66 151 200 66 152 201 66 153 202 66 154 204 66 154 205 66 155 206 66 156 208 66 157 209 66 158 210 66 159 212 66 160 213 66 160 214 66 161 216 66 162 217 66 163 218 66 164 220 66 165 221 66 166 222 66 166 224 66 167 225 66 168 226 66 169 228 66 170 229 66 171 230 66 171 232 66 172 233 66 173 234 66 174 236 66 175 237 66 176 238 66 177 240 66 177 241 66 178 242 66 179 244 66 180 245 66 181 246 66 182 248 66 183 249 66 183 250 66 184 252 66 185 253 66 186 255 66 187
0 69 24 1 69 25 2 69 26 4 69 27 5 69 28 6 69 29 8 69 29 9 69 30 10 69 31 12 69 32 13 69 33 14 69 34 16 69 35 17 69 35 18 69 36 20 69 37 21 69 38 22 69 39 24 69 40 25 69 41 26 69 41 28 69 42 29 69 43 30 69 44 32 69 45 33 69 46 34 69 47 36 69 47 37 69 48 38 69 49 40 69 50 41 69 51 42 69 52 44 69 53 45 69 53 46 69 54 48 69 55 49 69 56 50 69 57 52 69 58 53 69 59 54 69 59 56 69 60 57 69 61 58 69 62 60 69 63 61 69 64 62 69 65 64 69 65 65 69 66 66 69 67 68 69 68 69 69 69 70 69 70 72 69 71 73 69 71 74 69 72 76 69 73 77 69 74 78 69 75 80 69 76 81 69 77 82 69 77 84 69 78 85 69 79 86 69 80 88 69 81 89 69 82 90 69 83 92 69 83 93 69 84 94 69 85 96 69 86 97 69 87 98 69 88 100 69 88 101 69 89 102 69 90 104 69 91 105 69 92 106 69 93 108 69 94 109 69 94 110 69 95 112 69 96 113 69 97 114 69 98 116 69 99 117 69 100 118 69 100 120 69 101 121 69 102 122 69 103 124 69 104 125 69 105 126 69 106 128 69 106 129 69 107 130 69 108 132 69 109 133 69 110 134 69 111 136 69 112 137 69 112 138 69 113 140 69 114 141 69 115 142 69 116 144 69 117 145 69 118 146 69 118 148 69 119 149 69 120 150 69 121 152 69 122 153 69 123 154 69 124 156 69 124 157 69 125 158 69 126 160 69 127 161 69 128 162 69 129 164 69 130 165 69 130 166 69 131 168 69 132 169 69 133 170 69 134 172 69 135 173 69 136 174 69 136 176 69 137 177 69 138 178 69 139 180 69 140 181 69 141 182 69 142 184 69 142 185 69 143 186 69 144 188 69 145 189 69 146 190 69 147 192 69 148 193 69 148 194 69 149 196 69 150 197 69 151 198 69 152 200 69 153 201 69 154 202 69 154 204 69 155 205 69 156 206 69 157 208 69 158 209 69 159 210 69 160 212 69 160 213 69 161 214 69 162 216 69 163 217 69 164 218 69 165 220 69 166 221 69 166 222 69 167 224 69 168 225 69 169 226 69 170 228 69 171 229 69 171 230 69 172 232 69 173 233 69 174 234 69 175 236 69 176 237 69 177 238 69 177 240 69 178 241 69 179 242 69 180 244 69 181 245 69 182 246 69 183 248 69 183 249 69 184 250 69 185 252 69 186 253 69 187 255 69 188
0 71 25 1 71 26 2 71 27 4 71 28 5 71 29 6 71 29 8 71 30 9 71 31 10 71 32 12 71 33 13 71 34 14 71 35 16 71 35 17 71 36 18 71 37 20 71 38 21 71 39 22 71 40 24 71 41 25 71 41 26 71 42 28 71 43 29 71 44 30 71 45 32 71 46 33 71 47 34 71 47 36 71 48 37 71 49 38 71 50 40 71 51 41 71 52 42 71 53 44 71 53 45 71 54 46 71 55 48 71 56 49 71 57 50 71 58 52 71 59 53 71 59 54 71 60 56 71 61 57 71 62 58 71 63 60 71 64 61 71 65 62 71 65 64 71 66 65 71 67 66 71 68 68 71 69 69 71 70 70 71 71 72 71 71 73 71 72 74 71 73 76 71 74 77 71 75 78 71 76 80 71 77 81 71 77 82 71 78 84 71 79 85 71 80 86 71 81 88 71 82 89 71 83 90 71 83 92 71 84 93 71 85 94 71 86 96 71 87 97 71 88 98 71 88 100 71 89 101 71 90 102 71 91 104 71 92 105 71 93 106 71 94 108 71 94 109 71 95 110 71 96 112 71 97 113 71 98 114 71 99 116 71 100 117 71 100 118 71 101 120 71 102 121 71 103 122 71 104 124 71 105 125 71 106 126 71 106 128 71 107 129 71 108 130 71 109 132 71 110 133 71 111 134 71 112 136 71 112 137 71 113 138 71 114 140 71 115 141 71 116 142 71 117 144 71 118 145 71 118 146 71 119 148 71 120 149 71 121 150 71 122 152 71 123 153 71 124 154 71 124 156 71 125 157 71 126 158 71 127 160 71 128 161 71 129 162 71 130 164 71 130 165 71 131 166 71 132 168 71 133 169 71 134 170 71 135 172 71 136 173 71 136 174 71 137 176 71 138 177 71 139 178 71 140 180 71 141 181 71 142 182 71 142 184 71 143 185 71 144 186 71 145 188 71 146 189 71 147 190 71 148 192 71 148 193 71 149 194 71 150 196 71 151 197 71 152 198 71 153 200 71 154 201 71 154 202 71 155 204 71 156 205 71 157 206 71 158 208 71 159 209 71 160 210 71 160 212 71 161 213 71 162 214 71 163 216 71 164 217 71 165 218 71 166 220 71 166 221 71 167 222 71 168 224 71 169 225 71 170 226 71 171 228 71 171 229 71 172 230 71 173 232 71 174 233 71 175 234 71 176 236 71 177 237 71 177 238 71 178 240 71 179 241 71 180 242 71 181 244 71 182 245 71 183 246 71 183 248 71 184 249 71 185 250 71 186 252 71 187 253 71 188 255 71 189
0 73 26 1 73 27 2 73 28 4 73 29 5 73 29 6 73 30 8 73 31 9 73 32 10 73 33 12 73 34 13 73 35 14 73 35 16 73 36 17 73 37 18 73 38 20 73 39 21 73 40 22 73 41 24 73 41 25 73 42 26 73 43 28 73 44 29 73 45 30 73 46 32 73 47 33 73 47 34 73 48 36 73 49 37 73 50 38 73 51 40 73 52 41 73 53 42 73 53 44 73 54 45 73 55 46 73 56 48 73 57 49 73 58 50 73 59 52 73 59 53 73 60 54 73 61 56 73 62 57 73 63 58 73 64 60 73 65 61 73 65 62 73 66 64 73 67 65 73 68 66 73 69 68 73 70 69 73 71 70 73 71 72 73 72 73 73 73 74 73 74 76 73 75 77 73 76 78 73 77 80 73 77 81 73 78 82 73 79 84 73 80 85 73 81 86 73 82 88 73 83 89 73 83 90 73 84 92 73 85 93 73 86 94 73 87 96 73 88 97 73 88 98 73 89 100 73 90 101 73 91 102 73 92 104 73 93 105 73 94 106 73 94 108 73 95 109 73 96 110 73 97 112 73 98 113 73 99 114 73 100 116 73 100 117 73 101 118 73 102 120 73 103 121 73 104 122 73 105 124 73 106 125 73 106 126 73 107 128 73 108 129 73 109 130 73 110 132 73 111 133 73 112 134 73 112 136 73 113 137 73 114 138 73 115 140 73 116 141 73 117 142 73 118 144 73 118 145 73 119 146 73 120 148 73 121 149 73 122 150 73 123 152 73 124 153 73 124 154 73 125 156 73 126 157 73 127 158 73 128 160 73 129 161 73 130 162 73 130 164 73 131 165 73 132 166 73 133 168 73 134 169 73 135 170 73 136 172 73 136 173 73 137 174 73 138 176 73 139 177 73 140 178 73 141 180 73 142 181 73 142 182 73 143 184 73 144 185 73 145 186 73 146 188 73 147 189 73 148 190 73 148 192 73 149 193 73 150 194 73 151 196 73 152 197 73 153 198 73 154 200 73 154 201 73 155 202 73 156 204 73 157 205 73 158 206 73 159 208 73 160 209 73 160 210 73 161 212 73 162 213 73 163 214 73 164 216 73 165 217 73 166 218 73 166 220 73 167 221 73 168 222 73 169 224 73 170 225 73 171 226 73 171 228 73 172 229 73 173 230 73 174 232 73 175 233 73 176 234 73 177 236 73 177 237 73 178 238 73 179 240 73 180 241 73 181 242 73 182 244 73 183 245 73 183 246 73 184 248 73 185 249 73 186 250 73 187 252 73 188 253 73 189 255 73 189
0 76 27 1 76 28 2 76 29 4 76 29 5 76 30 6 76 31 8 76 32 9 76 33 10 76 34 12 76 35 13 76 35 14 76 36 16 76 37 17 76 38 18 76 39 20 76 40 21 76 41 22 76 41 24 76 42 25 76 43 26 76 44 28 76 45 29 76 46 30 76 47 32 76 47 33 76 48 34 76 49 36 76 50 37 76 51 38 76 52 40 76 53 41 76 53 42 76 54 44 76 55 45 76 56 46 76 57 48 76 58 49 76 59 50 76 59 52 76 60 53 76 61 54 76 62 56 76 63 57 76 64 58 76 65 60 76 65 61 76 66 62 76 67 64 76 68 65 76 69 66 76 70 68 76 71 69 76 71 70 76 72 72 76 73 73 76 74 74 76 75 76 76 76 77 76 77 78 76 77 80 76 78 81 76 79 82 76 80 84 76 81 85 76 82 86 76 83 88 76 83 89 76 84 90 76 85 92 76 86 93 76 87 94 76 88 96 76 88 97 76 89 98 76 90 100 76 91 101 76 92 102 76 93 104 76 94 105 76 94 106 76 95 108 76 96 109 76 97 110 76 98 112 76 99 113 76 100 114 76 100 116 76 101 117 76 102 118 76 103 120 76 104 121 76 105 122 76 106 124 76 106 125 76 107 126 76 108 128 76 109 129 76 110 130 76 111 132 76 112 133 76 112 134 76 113 136 76 114 137 76 115 138 76 116 140 76 117 141 76 118 142 76 118 144 76 119 145 76 120 146 76 121 148 76 122 149 76 123 150 76 124 152 76 124 153 76 125 154 76 126 156 76 127 157 76 128 158 76 129 160 76 130 161 76 130 162 76 131 164 76 132 165 76 133 166 76 134 168 76 135 169 76 136 170 76 136 172 76 137 173 76 138 174 76 139 176 76 140 177 76 141 178 76 142 180 76 142 181 76 143 182 76 144 184 76 145 185 76 146 186 76 147 188 76 148 189 76 148 190 76 149 192 76 150 193 76 151 194 76 152 196 76 153 197 76 154 198 76 154 200 76 155 201 76 156 202 76 157 204 76 158 205 76 159 206 76 160 208 76 160 209 76 161 210 76 162 212 76 163 213 76 164 214 76 165 216 76 166 217 76 166 218 76 167 220 76 168 221 76 169 222 76 170 224 76 171 225 76 171 226 76 172 228 76 173 229 76 174 230 76 175 232 76 176 233 76 177 234 76 177 236 76 178 237 76 179 238 76 180 240 76 181 241 76 182 242 76 183 244 76 183 245 76 184 246 76 185 248 76 186 249 76 187 250 76 188 252 76 189 253 76 189 255 76 190
0 78 28 1 78 29 2 78 29 4 78 30 5 78 31 6 78 32 8 78 33 9 78 34 10 78 35 12 78 35 13 78 36 14 78 37 16 78 38 17 78 39 18 78 40 20 78 41 21 78 41 22 78 42 24 78 43 25 78 44 26 78 45 28 78 46 29 78 47 30 78 47 32 78 48 33 78 49 34 78 50 36 78 51 37 78 52 38 78 53 40 78 53 41 78 54 42 78 55 44 78 56 45 78 57 46 78 58 48 78 59 49 78 59 50 78 60 52 78 61 53 78 62 54 78 63 56 78 64 57 78 65 58 78 65 60 78 66 61 78 67 62 78 68 64 78 69 65 78 70 66 78 71 68 78 71 69 78 72 70 78 73 72 78 74 73 78 75 74 78 76 76 78 77 77 78 77 78 78 78 80 78 79 81 78 80 82 78 81 84 78 82 85 78 83 86 78 83 88 78 84 89 78 85 90 78 86 92 78 87 93 78 88 94 78 88 96 78 89 97 78 90 98 78 91 100 78 92 101 78 93 102 78 94 104 78 94 105 78 95 106 78 96 108 78 97 109 78 98 110 78 99 112 78 100 113 78 100 114 78 101 116 78 102 117 78 103 118 78 104 120 78 105 121 78 106 122 78 106 124 78 107 125 78 108 126 78 109 128 78 110 129 78 111 130 78 112 132 78 112 133 78 113 134 78 114 136 78 115 137 78 116 138 78 117 140 78 118 141 78 118 142 78 119 144 78 120 145 78 121 146 78 122 148 78 123 149 78 124 150 78 124 152 78 125 153 78 126 154 78 127 156 78 128 157 78 129 158 78 130 160 78 130 161 78 131 162 78 132 164 78 133 165 78 134 166 78 135 168 78 136 169 78 136 170 78 137 172 78 138 173 78 139 174 78 140 176 78 141 177 78 142 178 78 142 180 78 143 181 78 144 182 78 145 184 78 146 185 78 147 186 78 148 188 78 148 189 78 149 190 78 150 192 78 151 193 78 152 194 78 153 196 78 154 197 78 154 198 78 155 200 78 156 201 78 157 202 78 158 204 78 159 205 78 160 206 78 160 208 78 161 209 78 162 210 78 163 212 78 164 213 78 165 214 78 166 216 78 166 217 78 167 218 78 168 220 78 169 221 78 170 222 78 171 224 78 171 225 78 172 226 78 173 228 78 174 229 78 175 230 78 176 232 78 177 233 78 177 234 78 178 236 78 179 237 78 180 238 78 181 240 78 182 241 78 183 242 78 183 244 78 184 245 78 185 246 78 186 248 78 187 249 78 188 250 78 189 252 78 189 253 78 190 255 78 191
0 81 29 1 81 29 2 81 30 4 81 31 5 81 32 6 81 33 8 81 34 9 81 35 10 81 35 12 81 36 13 81 37 14 81 38 16 81 39 17 81 40 18 81 41 20 81 41 21 81 42 22 81 43 24 81 44 25 81 45 26 81 46 28 81 47 29 81 47 30 81 48 32 81 49 33 81 50 34 81 51 36 81 52 37 81 53 38 81 53 40 81 54 41 81 55 42 81 56 44 81 57 45 81 58 46 81 59 48 81 59 49 81 60 50 81 61 52 81 62 53 81 63 54 81 64 56 81 65 57 81 65 58 81 66 60 81 67 61 81 68 62 81 69 64 81 70 65 81 71 66 81 71 68 81 72 69 81 73 70 81 74 72 81 75 73 81 76 74 81 77 76 81 77 77 81 78 78 81 79 80 81 80 81 81 81 82 81 82 84 81 83 85 81 83 86 81 84 88 81 85 89 81 86 90 81 87 92 81 88 93 81 88 94 81 89 96 81 90 97 81 91 98 81 92 100 81 93 101 81 94 102 81 94 104 81 95 105 81 96 106 81 97 108 81 98 109 81 99 110 81 100 112 81 100 113 81 101 114 81 102 116 81 103 117 81 104 118 81 105 120 81 106 121 81 106 122 81 107 124 81 108 125 81 109 126 81 110 128 81 111 129 81 112 130 81 112 132 81 113 133 81 114 134 81 115 136 81 116 137 81 117 138 81 118 140 81 118 141 81 119 142 81 120 144 81 121 145 81 122 146 81 123 148 81 124 149 81 124 150 81 125 152 81 126 153 81 127 154 81 128 156 81 129 157 81 130 158 81 130 160 81 131 161 81 132 162 81 133 164 81 134 165 81 135 166 81 136 168 81 136 169 81 137 170 81 138 172 81 139 173 81 140 174 81 141 176 81 142 177 81 142 178 81 143 180 81 144 181 81 145 182 81 146 184 81 147 185 81 148 186 81 148 188 81 149 189 81 150 190 81 151 192 81 152 193 81 153 194 81 154 196 81 154 197 81 155 198 81 156 200 81 157 201 81 158 202 81 159 204 81 160 205 81 160 206 81 161 208 81 162 209 81 163 210 81 164 212 81 165 213 81 166 214 81 166 216 81 167 217 81 168 218 81 169 220 81 170 221 81 171 222 81 171 224 81 172 225 81 173 226 81 174 228 81 175 229 81 176 230 81 177 232 81 177 233 81 178 234 81 179 236 81 180 237 81 181 238 81 182 240 81 183 241 81 183 242 81 184 244 81 185 245 81 186 246 81 187 248 81 188 249 81 189 250 81 189 252 81 190 253 81 191 255 81 192
0 83 29 1 83 30 2 83 31 4 83 32 5 83 33 6 83 34 8 83 35 9 83 35 10 83 36 12 83 37 13 83 38 14 83 39 16 83 40 17 83 41 18 83 41 20 83 42 21 83 43 22 83 44 24 83 45 25 83 46 26 83 47 28 83 47 29 83 48 30 83 49 32 83 50 33 83 51 34 83 52 36 83 53 37 83 53 38 83 54 40 83 55 41 83 56 42 83 57 44 83 58 45 83 59 46 83 59 48 83 60 49 83 61 50 83 62 52 83 63 53 83 64 54 83 65 56 83 65 57 83 66 58 83 67 60 83 68 61 83 69 62 83 70 64 83 71 65 83 71 66 83 72 68 83 73 69 83 74 70 83 75 72 83 76 73 83 77 74 83 77 76 83 78 77 83 79 78 83 80 80 83 81 81 83 82 82 83 83 84 83 83 85 83 84 86 83 85 88 83 86 89 83 87 90 83 88 92 83 88 93 83 89 94 83 90 96 83 91 97 83 92 98 83 93 100 83 94 101 83 94 102 83 95 104 83 96 105 83 97 106 83 98 108 83 99 109 83 100 110 83 100 112 83 101 113 83 102 114 83 103 116 83 104 117 83 105 118 83 106 120 83 106 121 83 107 122 83 108 124 83 109 125 83 110 126 83 111 128 83 112 129 83 112 130 83 113 132 83 114 133 83 115 134 83 116 136 83 117 137 83 118 138 83 118 140 83 119 141 83 120 142 83 121 144 83 122 145 83 123 146 83 124 148 83 124 149 83 125 150 83 126 152 83 127 153 83 128 154 83 129 156 83 130 157 83 130 158 83 131 160 83 132 161 83 133 162 83 134 164 83 135 165 83 136 166 83 136 168 83 137 169 83 138 170 83 139 172 83 140 173 83 141 174 83 142 176 83 142 177 83 143 178 83 144 180 83 145 181 83 146 182 83 147 184 83 148 185 83 148 186 83 149 188 83 150 189 83 151 190 83 152 192 83 153 193 83 154 194 83 154 196 83 155 197 83 156 198 83 157 200 83 158 201 83 159 202 83 160 204 83 160 205 83 161 206 83 162 208 83 163 209 83 164 210 83 165 212 83 166 213 83 166 214 83 167 216 83 168 217 83 169 218 83 170 220 83 171 221 83 171 222 83 172 224 83 173 225 83 174 226 83 175 228 83 176 229 83 177 230 83 177 232 83 178 233 83 179 234 83 180 236 83 181 237 83 182 238 83 183 240 83 183 241 83 184 242 83 185 244 83 186 245 83 187 246 83 188 248 83 189 249 83 189 250 83 190 252 83 191 253 83 192 255 83 193
0 85 30 1 85 31 2 85 32 4 85 33 5 85 34 6 85 35 8 85 35 9 85 36 10 85 37 12 85 38 13 85 39 14 85 40 16 85 41 17 85 41 18 85 42 20 85 43 21 85 44 22 85 45 24 85 46 25 85 47 26 85 47 28 85 48 29 85 49 30 85 50 32 85 51 33 85 52 34 85 53 36 85 53 37 85 54 38 85 55 40 85 56 41 85 57 42 85 58 44 85 59 45 85 59 46 85 60 48 85 61 49 85 62 50 85 63 52 85 64 53 85 65 54 85 65 56 85 66 57 85 67 58 85 68 60 85 69 61 85 70 62 85 71 64 85 71 65 85 72 66 85 73 68 85 74 69 85 75 70 85 76 72 85 77 73 85 77 74 85 78 76 85 79 77 85 80 78 85 81 80 85 82 81 85 83 82 85 83 84 85 84 85 85 85 86 85 86 88 85 87 89 85 88 90 85 88 92 85 89 93 85 90 94 85 91 96 85 92 97 85 93 98 85 94 100 85 94 101 85 95 102 85 96 104 85 97 105 85 98 106 85 99 108 85 100 109 85 100 110 85 101 112 85 102 113 85 103 114 85 104 116 85 105 117 85 106 118 85 106 120 85 107 121 85 108 122 85 109 124 85 110 125 85 111 126 85 112 128 85 112 129 85 113 130 85 114 132 85 115 133 85 116 134 85 117 136 85 118 137 85 118 138 85 119 140 85 120 141 85 121 142 85 122 144 85 123 145 85 124 146 85 124 148 85 125 149 85 126 150 85 127 152 85 128 153 85 129 154 85 130 156 85 130 157 85 131 158 85 132 160 85 133 161 85 134 162 85 135 164 85 136 165 85 136 166 85 137 168 85 138 169 85 139 170 85 140 172 85 141 173 85 142 174 85 142 176 85 143 177 85 144 178 85 145 180 85 146 181 85 147 182 85 148 184 85 148 185 85 149 186 85 150 188 85 151 189 85 152 190 85 153 192 85 154 193 85 154 194 85 155 196 85 156 197 85 157 198 85 158 200 85 159 201 85 160 202 85 160 204 85 161 205 85 162 206 85 163 208 85 164 209 85 165 210 85 166 212 85 166 213 85 167 214 85 168 216 85 169 217 85 170 218 85 171 220 85 171 221 85 172 222 85 173 224 85 174 225 85 175 226 85 176 228 85 177 229 85 177 230 85 178 232 85 179 233 85 180 234 85 181 236 85 182 237 85 183 238 85 183 240 85 184 241 85 185 242 85 186 244 85 187 245 85 188 246 85 189 248 85 189 249 85 190 250 85 191 252 85 192 253 85 193 255 85 194
0 88 31 1 88 32 2 88 33 4 88 34 5 88 35 6 88 35 8 88 36 9 88 37 10 88 38 12 88 39 13 88 40 14 88 41 16 88 41 17 88 42 18 88 43 20 88 44 21 88 45 22 88 46 24 88 47 25 88 47 26 88 48 28 88 49 29 88 50 30 88 51 32 88 52 33 88 53 34 88 53 36 88 54 37 88 55 38 88 56 40 88 57 41 88 58 42 88 59 44 88 59 45 88 60 46 88 61 48 88 62 49 88 63 50 88 64 52 88 65 53 88 65 54 88 66 56 88 67 57 88 68 58 88 69 60 88 70 61 88 71 62 88 71 64 88 72 65 88 73 66 88 74 68 88 75 69 88 76 70 88 77 72 88 77 73 88 78 74 88 79 76 88 80 77 88 81 78 88 82 80 88 83 81 88 83 82 88 84 84 88 85 85 88 86 86 88 87 88 88 88 89 88 88 90 88 89 92 88 90 93 88 91 94 88 92 96 88 93 97 88 94 98 88 94 100 88 95 101 88 96 102 88 97 104 88 98 105 88 99 106 88 100 108 88 100 109 88 101 110 88 102 112 88 103 113 88 104 114 88 105 116 88 106 117 88 106 118 88 107 120 88 108 121 88 109 122 88 110 124 88 111 125 88 112 126 88 112 128 88 113 129 88 114 130 88 115 132 88 116 133 88 117 134 88 118 136 88 118 137 88 119 138 88 120 140 88 121 141 88 122 142 88 123 144 88 124 145 88 124 146 88 125 148 88 126 149 88 127 150 88 128 152 88 129 153 88 130 154 88 130 156 88 131 157 88 132 158 88 133 160 88 134 161 88 135 162 88 136 164 88 136 165 88 137 166 88 138 168 88 139 169 88 140 170 88 141 172 88 142 173 88 142 174 88 143 176 88 144 177 88 145 178 88 146 180 88 147 181 88 148 182 88 148 184 88 149 185 88 150 186 88 151 188 88 152 189 88 153 190 88 154 192 88 154 193 88 155 194 88 156 196 88 157 197 88 158 198 88 159 200 88 160 201 88 160 202 88 161 204 88 162 205 88 163 206 88 164 208 88 165 209 88 166 210 88 166 212 88 167 213 88 168 214 88 169 216 88 170 217 88 171 218 88 171 220 88 172 221 88 173 222 88 174 224 88 175 225 88 176 226 88 177 228 88 177 229 88 178 230 88 179 232 88 180 233 88 181 234 88 182 236 88 183 237 88 183 238 88 184 240 88 185 241 88 186 242 88 187 244 88 188 245 88 189 246 88 189 248 88 190 249 88 191 250 88 192 252 88 193 253 88 194 255 88 195
0 90 32 1 90 33 2 90 34 4 90 35 5 90 35 6 90 36 8 90 37 9 90 38 10 90 39 12 90 40 13 90 41 14 90 41 16 90 42 17 90 43 18 90 44 20 90 45 21 90 46 22 90 47 24 90 47 25 90 48 26 90 49 28 90 50 29 90 51 30 90 52 32 90 53 33 90 53 34 90 54 36 90 55 37 90 56 38 90 57 40 90 58 41 90 59 42 90 59 44 90 60 45 90 61 46 90 62 48 90 63 49 90 64 50 90 65 52 90 65 53 90 66 54 90 67 56 90 68 57 90 69 58 90 70 60 90 71 61 90 71 62 90 72 64 90 73 65 90 74 66 90 75 68 90 76 69 90 77 70 90 77 72 90 78 73 90 79 74 90 80 76 90 81 77 90 82 78 90 83 80 90 83 81 90 84 82 90 85 84 90 86 85 90 87 86 90 88 88 90 88 89 90 89 90 90 90 92 90 91 93 90 92 94 90 93 96 90 94 97 90 94 98 90 95 100 90 96 101 90 97 102 90 98 104 90 99 105 90 100 106 90 100 108 90 101 109 90 102 110 90 103 112 90 104 113 90 105 114 90 106 116 90 106 117 90 107 118 90 108 120 90 109 121 90 110 122 90 111 124 90 112 125 90 112 126 90 113 128 90 114 129 90 115 130 90 116 132 90 117 133 90 118 134 90 118 136 90 119 137 90 120 138 90 121 140 90 122 141 90 123 142 90 124 144 90 124 145 90 125 146 90 126 148 90 127 149 90 128 150 90 129 152 90 130 153 90 130 154 90 131 156 90 132 157 90 133 158 90 134 160 90 135 161 90 136 162 90 136 164 90 137 165 90 138 166 90 139 168 90 140 169 90 141 170 90 142 172 90 142 173 90 143 174 90 144 176 90 145 177 90 146 178 90 147 180 90 148 181 90 148 182 90 149 184 90 150 185 90 151 186 90 152 188 90 153 189 90 154 190 90 154 192 90 155 193 90 156 194 90 157 196 90 158 197 90 159 198 90 160 200 90 160 201 90 161 202 90 162 204 90 163 205 90 164 206 90 165 208 90 166 209 90 166 210 90 167 212 90 168 213 90 169 214 90 170 216 90 171 217 90 171 218 90 172 220 90 173 221 90 174 222 90 175 224 90 176 225 90 177 226 90 177 228 90 178 229 90 179 230 90 180 232 90 181 233 90 182 234 90 183 236 90 183 237 90 184 238 90 185 240 90 186 241 90 187 242 90 188 244 90 189 245 90 189 246 90 190 248 90 191 249 90 192 250 90 193 252 90 194 253 90 195 255 90 195
0 92 33 1 92 34 2 92 35 4 92 35 5 92 36 6 92 37 8 92 38 9 92 39 10 92 40 12 92 41 13 92 41 14 92 42 16 92 43 17 92 44 18 92 45 20 92 46 21 92 47 22 92 47 24 92 48 25 92 49 26 92 50 28 92 51 29 92 52 30 92 53 32 92 53 33 92 54 34 92 55 36 92 56 37 92 57 38 92 58 40 92 59 41 92 59 42 92 60 44 92 61 45 92 62 46 92 63 48 92 64 49 92 65 50 92 65 52 92 66 53 92 67 54 92 68 56 92 69 57 92 70 58 92 71 60 92 71 61 92 72 62 92 73 64 92 74 65 92 75 66 92 76 68 92 77 69 92 77 70 92 78 72 92 79 73 92 80 74 92 81 76 92 82 77 92 83 78 92 83 80 92 84 81 92 85 82 92 86 84 92 87 85 92 88 86 92 88 88 92 89 89 92 90 90 92 91 92 92 92 93 92 93 94 92 94 96 92 94 97 92 95 98 92 96 100 92 97 101 92 98 102 92 99 104 92 100 105 92 100 106 92 101 108 92 102 109 92 103 110 92 104 112 92 105 113 92 106 114 92 106 116 92 107 117 92 108 118 92 109 120 92 110 121 92 111 122 92 112 124 92 112 125 92 113 126 92 114 128 92 115 129 92 116 130 92 117 132 92 118 133 92 118 134 92 119 136 92 120 137 92 121 138 92 122 140 92 123 141 92 124 142 92 124 144 92 125 145 92 126 146 92 127 148 92 128 149 92 129 150 92 130 152 92 130 153 92 131 154 92 132 156 92 133 157 92 134 158 92 135 160 92 136 161 92 136 162 92 137 164 92 138 165 92 139 166 92 140 168 92 141 169 92 142 170 92 142 172 92 143 173 92 144 174 92 145 176 92 146 177 92 147 178 92 148 180 92 148 181 92 149 182 92 150 184 92 151 185 92 152 186 92 153 188 92 154 189 92 154 190 92 155 192 92 156 193 92 157 194 92 158 196 92 159 197 92 160 198 92 160 200 92 161 201 92 162 202 92 163 204 92 164 205 92 165 206 92 166 208 92 166 209 92 167 210 92 168 212 92 169 213 92 170 214 92 171 216 92 171 217 92 172 218 92 173 220 92 174 221 92 175 222 92 176 224 92 177 225 92 177 226 92 178 228 92 179 229 92 180 230 92 181 232 92 182 233 92 183 234 92 183 236 92 184 237 92 185 238 92 186 240 92 187 241 92 188 242 92 189 244 92 189 245 92 190 246 92 191 248 92 192 249 92 193 250 92 194 252 92 195 253 92 195 255 92 196
0 95 34 1 95 35 2 95 35 4 95 36 5 95 37 6 95 38 8 95 39 9 95 40 10 95 41 12 95 41 13 95 42 14 95 43 16 95 44 17 95 45 18 95 46 20 95 47 21 95 47 22 95 48 24 95 49 25 95 50 26 95 51 28 95 52 29 95 53 30 95 53 32 95 54 33 95 55 34 95 56 36 95 57 37 95 58 38 95 59 40 95 59 41 95 60 42 95 61 44 95 62 45 95 63 46 95 64 48 95 65 49 95 65 50 95 66 52 95 67 53 95 68 54 95 69 56 95 70 57 95 71 58 95 71 60 95 72 61 95 73 62 95 74 64 95 75 65 95 76 66 95 77 68 95 77 69 95 78 70 95 79 72 95 80 73 95 81 74 95 82 76 95 83 77 95 83 78 95 84 80 95 85 81 95 86 82 95 87 84 95 88 85 95 88 86 95 89 88 95 90 89 95 91 90 95 92 92 95 93 93 95 94 94 95 94 96 95 95 97 95 96 98 95 97 100 95 98 101 95 99 102 95 100 104 95 100 105 95 101 106 95 102 108 95 103 109 95 104 110 95 105 112 95 106 113 95 106 114 95 107 116 95 108 117 95 109 118 95 110 120 95 111 121 95 112 122 95 112 124 95 113 125 95 114 126 95 115 128 95 116 129 95 117 130 95 118 132 95 118 133 95 119 134 95 120 136 95 121 137 95 122 138 95 123 140 95 124 141 95 124 142 95 125 144 95 126 145 95 127 146 95 128 148 95 129 149 95 130 150 95 130 152 95 131 153 95 132 154 95 133 156 95 134 157 95 135 158 95 136 160 95 136 161 95 137 162 95 138 164 95 139 165 95 140 166 95 141 168 95 142 169 95 142 170 95 143 172 95 144 173 95 145 174 95 146 176 95 147 177 95 148 178 95 148 180 95 149 181 95 150 182 95 151 184 95 152 185 95 153 186 95 154 188 95 154 189 95 155 190 95 156 192 95 157 193 95 158 194 95 159 196 95 160 197 95 160 198 95 161 200 95 162 201 95 163 202 95 164 204 95 165 205 95 166 206 95 166 208 95 167 209 95 168 210 95 169 212 95 170 213 95 171 214 95 171 216 95 172 217 95 173 218 95 174 220 95 175 221 95 176 222 95 177 224 95 177 225 95 178 226 95 179 228 95 180 229 95 181 230 95 182 232 95 183 233 95 183 234 95 184 236 95 185 237 95 186 238 95 187 240 95 188 241 95 189 242 95 189 244 95 190 245 95 191 246 95 192 248 95 193 249 95 194 250 95 195 252 95 195 253 95 196 255 95 197
0 97 35 1 97 35 2 97 36 4 97 37 5 97 38 6 97 39 8 97 40 9 97 41 10 97 41 12 97 42 13 97 43 14 97 44 16 97 45 17 97 46 18 97 47 20 97 47 21 97 48 22 97 49 24 97 50 25 97 51 26 97 52 28 97 53 29 97 53 30 97 54 32 97 55 33 97 56 34 97 57 36 97 58 37 97 59 38 97 59 40 97 60 41 97 61 42 97 62 44 97 63 45 97 64 46 97 65 48 97 65 49 97 66 50 97 67 52 97 68 53 97 69 54 97 70 56 97 71 57 97 71 58 97 72 60 97 73 61 97 74 62 97 75 64 97 76 65 97 77 66 97 77 68 97 78 69 97 79 70 97 80 72 97 81 73 97 82 74 97 83 76 97 83 77 97 84 78 97 85 80 97 86 81 97 87 82 97 88 84 97 88 85 97 89 86 97 90 88 97 91 89 97 92 90 97 93 92 97 94 93 97 94 94 97 95 96 97 96 97 97 97 98 97 98 100 97 99 101 97 100 102 97 100 104 97 101 105 97 102 106 97 103 108 97 104 109 97 105 110 97 106 112 97 106 113 97 107 114 97 108 116 97 109 117 97 110 118 97 111 120 97 112 121 97 112 122 97 113 124 97 114 125 97 115 126 97 116 128 97 117 129 97 118 130 97 118 132 97 119 133 97 120 134 97 121 136 97 122 137 97 123 138 97 124 140 97 124 141 97 125 142 97 126 144 97 127 145 97 128 146 97 129 148 97 130 149 97 130 150 97 131 152 97 132 153 97 133 154 97 134 156 97 135 157 97 136 158 97 136 160 97 137 161 97 138 162 97 139 164 97 140 165 97 141 166 97 142 168 97 142 169 97 143 170 97 144 172 97 145 173 97 146 174 97 147 176 97 148 177 97 148 178 97 149 180 97 150 181 97 151 182 97 152 184 97 153 185 97 154 186 97 154 188 97 155 189 97 156 190 97 157 192 97 158 193 97 159 194 97 160 196 97 160 197 97 161 198 97 162 200 97 163 201 97 164 202 97 165 204 97 166 205 97 166 206 97 167 208 97 168 209 97 169 210 97 170 212 97 171 213 97 171 214 97 172 216 97 173 217 97 174 218 97 175 220 97 176 221 97 177 222 97 177 224 97 178 225 97 179 226 97 180 228 97 181 229 97 182 230 97 183 232 97 183 233 97 184 234 97 185 236 97 186 237 97 187 238 97 188 240 97 189 241 97 189 242 97 190 244 97 191 245 97 192 246 97 193 248 97 194 249 97 195 250 97 195 252 97 196 253 97 197 255 97 198
0 100 35 1 100 36 2 100 37 4 100 38 5 100 39 6 100 40 8 100 41 9 100 41 10 100 42 12 100 43 13 100 44 14 100 45 16 100 46 17 100 47 18 100 47 20 100 48 21 100 49 22 100 50 24 100 51 25 100 52 26 100 53 28 100 53 29 100 54 30 100 55 32 100 56 33 100 57 34 100 58 36 100 59 37 100 59 38 100 60 40 100 61 41 100 62 42 100 63 44 100 64 45 100 65 46 100 65 48 100 66 49 100 67 50 100 68 52 100 69 53 100 70 54 100 71 56 100 71 57 100 72 58 100 73 60 100 74 61 100 75 62 100 76 64 100 77 65 100 77 66 100 78 68 100 79 69 100 80 70 100 81 72 100 82 73 100 83 74 100 83 76 100 84 77 100 85 78 100 86 80 100 87 81 100 88 82 100 88 84 100 89 85 100 90 86 100 91 88 100 92 89 100 93 90 100 94 92 100 94 93 100 95 94 100 96 96 100 97 97 100 98 98 100 99 100 100 100 101 100 100 102 100 101 104 100 102 105 100 103 106 100 104 108 100 105 109 100 106 110 100 106 112 100 107 113 100 108 114 100 109 116 100 110 117 100 111 118 100 112 120 100 112 121 100 113 122 100 114 124 100 115 125 100 116 126 100 117 128 100 118 129 100 118 130 100 119 132 100 120 133 100 121 134 100 122 136 100 123 137 100 124 138 100 124 140 100 125 141 100 126 142 100 127 144 100 128 145 100 129 146 100 130 148 100 130 149 100 131 150 100 132 152 100 133 153 100 134 154 100 135 156 100 136 157 100 136 158 100 137 160 100 138 161 100 139 162 100 140 164 100 141 165 100 142 166 100 142 168 100 143 169 100 144 170 100 145 172 100 146 173 100 147 174 100 148 176 100 148 177 100 149 178 100 150 180 100 151 181 100 152 182 100 153 184 100 154 185 100 154 186 100 155 188 100 156 189 100 157 190 100 158 192 100 159 193 100 160 194 100 160 196 100 161 197 100 162 198 100 163 200 100 164 201 100 165 202 100 166 204 100 166 205 100 167 206 100 168 208 100 169 209 100 170 210 100 171 212 100 171 213 100 172 214 100 173 216 100 174 217 100 175 218 100 176 220 100 177 221 100 177 222 100 178 224 100 179 225 100 180 226 100 181 228 100 182 229 100 183 230 100 183 232 100 184 233 100 185 234 100 186 236 100 187 237 100 188 238 100 189 240 100 189 241 100 190 242 100 191 244 100 192 245 100 193 246 100 194 248 100 195 249 100 195 250 100 196 252 100 197 253 100 198 255 100 199
0 102 36 1 102 37 2 102 38 4 102 39 5 102 40 6 102 41 8 102 41 9 102 42 10 102 43 12 102 44 13 102 45 14 102 46 16 102 47 17 102 47 18 102 48 20 102 49 21 102 50 22 102 51 24 102 52 25 102 53 26 102 53 28 102 54 29 102 55 30 102 56 32 102 57 33 102 58 34 102 59 36 102 59 37 102 60 38 102 61 40 102 62 41 102 63 42 102 64 44 102 65 45 102 65 46 102 66 48 102 67 49 102 68 50 102 69 52 102 70 53 102 71 54 102 71 56 102 72 57 102 73 58 102 74 60 102 75 61 102 76 62 102 77 64 102 77 65 102 78 66 102 79 68 102 80 69 102 81 70 102 82 72 102 83 73 102 83 74 102 84 76 102 85 77 102 86 78 102 87 80 102 88 81 102 88 82 102 89 84 102 90 85 102 91 86 102 92 88 102 93 89 102 94 90 102 94 92 102 95 93 102 96 94 102 97 96 102 98 97 102 99 98 102 100 100 102 100 101 102 101 102 102 102 104 102 103 105 102 104 106 102 105 108 102 106 109 102 106 110 102 107 112 102 108 113 102 109 114 102 110 116 102 111 117 102 112 118 102 112 120 102 113 121 102 114 122 102 115 124 102 116 125 102 117 126 102 118 128 102 118 129 102 119 130 102 120 132 102 121 133 102 122 134 102 123 136 102 124 137 102 124 138 102 125 140 102 126 141 102 127 142 102 128 144 102 129 145 102 130 146 102 130 148 102 131 149 102 132 150 102 133 152 102 134 153 102 135 154 102 136 156 102 136 157 102 137 158 102 138 160 102 139 161 102 140 162 102 141 164 102 142 165 102 142 166 102 143 168 102 144 169 102 145 170 102 146 172 102 147 173 102 148 174 102 148 176 102 149 177 102 150 178 102 151 180 102 152 181 102 153 182 102 154 184 102 154 185 102 155 186 102 156 188 102 157 189 102 158 190 102 159 192 102 160 193 102 160 194 102 161 196 102 162 197 102 163 198 102 164 200 102 165 201 102 166 202 102 166 204 102 167 205 102 168 206 102 169 208 102 170 209 102 171 210 102 171 212 102 172 213 102 173 214 102 174 216 102 175 217 102 176 218 102 177 220 102 177 221 102 178 222 102 179 224 102 180 225 102 181 226 102 182 228 102 183 229 102 183 230 102 184 232 102 185 233 102 186 234 102 187 236 102 188 237 102 189 238 102 189 240 102 190 241 102 191 242 102 192 244 102 193 245 102 194 246 102 195 248 102 195 249 102 196 250 102 197 252 102 198 253 102 199 255 102 200
0 104 37 1 104 38 2 104 39 4 104 40 5 104 41 6 104 41 8 104 42 9 104 43 10 104 44 12 104 45 13 104 46 14 104 47 16 104 47 17 104 48 18 104 49 20 104 50 21 104 51 22 104 52 24 104 53 25 104 53 26 104 54 28 104 55 29 104 56 30 104 57 32 104 58 33 104 59 34 104 59 36 104 60 37 104 61 38 104 62 40 104 63 41 104 64 42 104 65 44 104 65 45 104 66 46 104 67 48 104 68 49 104 69 50 104 70 52 104 71 53 104 71 54 104 72 56 104 73 57 104 74 58 104 75 60 104 76 61 104 77 62 104 77 64 104 78 65 104 79 66 104 80 68 104 81 69 104 82 70 104 83 72 104 83 73 104 84 74 104 85 76 104 86 77 104 87 78 104 88 80 104 88 81 104 89 82 104 90 84 104 91 85 104 92 86 104 93 88 104 94 89 104 94 90 104 95 92 104 96 93 104 97 94 104 98 96 104 99 97 104 100 98 104 100 100 104 101 101 104 102 102 104 103 104 104 104 105 104 105 106 104 106 108 104 106 109 104 107 110 104 108 112 104 109 113 104 110 114 104 111 116 104 112 117 104 112 118 104 113 120 104 114 121 104 115 122 104 116 124 104 117 125 104 118 126 104 118 128 104 119 129 104 120 130 104 121 132 104 122 133 104 123 134 104 124 136 104 124 137 104 125 138 104 126 140 104 127 141 104 128 142 104 129 144 104 130 145 104 130 146 104 131 148 104 132 149 104 133 150 104 134 152 104 135 153 104 136 154 104 136 156 104 137 157 104 138 158 104 139 160 104 140 161 104 141 162 104 142 164 104 142 165 104 143 166 104 144 168 104 145 169 104 146 170 104 147 172 104 148 173 104 148 174 104 149 176 104 150 177 104 151 178 104 152 180 104 153 181 104 154 182 104 154 184 104 155 185 104 156 186 104 157 188 104 158 189 104 159 190 104 160 192 104 160 193 104 161 194 104 162 196 104 163 197 104 164 198 104 165 200 104 166 201 104 166 202 104 167 204 104 168 205 104 169 206 104 170 208 104 171 209 104 171 210 104 172 212 104 173 213 104 174 214 104 175 216 104 176 217 104 177 218 104 177 220 104 178 221 104 179 222 104 180 224 104 181 225 104 182 226 104 183 228 104 183 229 104 184 230 104 185 232 104 186 233 104 187 234 104 188 236 104 189 237 104 189 238 104 190 240 104 191 241 104 192 242 104 193 244 104 194 245 104 195 246 104 195 248 104 196 249 104 197 250 104 198 252 104 199 253 104 200 255 104 201
0 107 38 1 107 39 2 107 40 4 107 41 5 107 41 6 107 42 8 107 43 9 107 44 10 107 45 12 107 46 13 107 47 14 107 47 16 107 48 17 107 49 18 107 50 20 107 51 21 107 52 22 107 53 24 107 53 25 107 54 26 107 55 28 107 56 29 107 57 30 107 58 32 107 59 33 107 59 34 107 60 36 107 61 37 107 62 38 107 63 40 107 64 41 107 65 42 107 65 44 107 66 45 107 67 46 107 68 48 107 69 49 107 70 50 107 71 52 107 71 53 107 72 54 107 73 56 107 74 57 107 75 58 107 76 60 107 77 61 107 77 62 107 78 64 107 79 65 107 80 66 107 81 68 107 82 69 107 83 70 107 83 72 107 84 73 107 85 74 107 86 76 107 87 77 107 88 78 107 88 80 107 89 81 107 90 82 107 91 84 107 92 85 107 93 86 107 94 88 107 94 89 107 95 90 107 96 92 107 97 93 107 98 94 107 99 96 107 100 97 107 100 98 107 101 100 107 102 101 107 103 102 107 104 104 107 105 105 107 106 106 107 106 108 107 107 109 107 108 110 107 109 112 107 110 113 107 111 114 107 112 116 107 112 117 107 113 118 107 114 120 107 115 121 107 116 122 107 117 124 107 118 125 107 118 126 107 119 128 107 120 129 107 121 130 107 122 132 107 123 133 107 124 134 107 124 136 107 125 137 107 126 138 107 127 140 107 128 141 107 129 142 107 130 144 107 130 145 107 131 146 107 132 148 107 133 149 107 134 150 107 135 152 107 136 153 107 136 154 107 137 156 107 138 157 107 139 158 107 140 160 107 141 161 107 142 162 107 142 164 107 143 165 107 144 166 107 145 168 107 146 169 107 147 170 107 148 172 107 148 173 107 149 174 107 150 176 107 151 177 107 152 178 107 153 180 107 154 181 107 154 182 107 155 184 107 156 185 107 157 186 107 158 188 107 159 189 107 160 190 107 160 192 107 161 193 107 162 194 107 163 196 107 164 197 107 165 198 107 166 200 107 166 201 107 167 202 107 168 204 107 169 205 107 170 206 107 171 208 107 171 209 107 172 210 107 173 212 107 174 213 107 175 214 107 176 216 107 177 217 107 177 218 107 178 220 107 179 221 107 180 222 107 181 224 107 182 225 107 183 226 107 183 228 107 184 229 107 185 230 107 186 232 107 187 233 107 188 234 107 189 236 107 189 237 107 190 238 107 191 240 107 192 241 107 193 242 107 194 244 107 195 245 107 195 246 107 196 248 107 197 249 107 198 250 107 199 252 107 200 253 107 201 255 107 201
0 109 39 1 109 40 2 109 41 4 109 41 5 109 42 6 109 43 8 109 44 9 109 45 10 109 46 12 109 47 13 109 47 14 109 48 16 109 49 17 109 50 18 109 51 20 109 52 21 109 53 22 109 53 24 109 54 25 109 55 26 109 56 28 109 57 29 109 58 30 109 59 32 109 59 33 109 60 34 109 61 36 109 62 37 109 63 38 109 64 40 109 65 41 109 65 42 109 66 44 109 67 45 109 68 46 109 69 48 109 70 49 109 71 50 109 71 52 109 72 53 109 73 54 109 74 56 109 75 57 109 76 58 109 77 60 109 77 61 109 78 62 109 79 64 109 80 65 109 81 66 109 82 68 109 83 69 109 83 70 109 84 72 109 85 73 109 86 74 109 87 76 109 88 77 109 88 78 109 89 80 109 90 81 109 91 82 109 92 84 109 93 85 109 94 86 109 94 88 109 95 89 109 96 90 109 97 92 109 98 93 109 99 94 109 100 96 109 100 97 109 101 98 109 102 100 109 103 101 109 104 102 109 105 104 109 106 105 109 106 106 109 107 108 109 108 109 109 109 110 109 110 112 109 111 113 109 112 114 109 112 116 109 113 117 109 114 118 109 115 120 109 116 121 109 117 122 109 118 124 109 118 125 109 119 126 109 120 128 109 121 129 109 122 130 109 123 132 109 124 133 109 124 134 109 125 136 109 126 137 109 127 138 109 128 140 109 129 141 109 130 142 109 130 144 109 131 145 109 132 146 109 133 148 109 134 149 109 135 150 109 136 152 109 136 153 109 137 154 109 138 156 109 139 157 109 140 158 109 141 160 109 142 161 109 142 162 109 143 164 109 144 165 109 145 166 109 146 168 109 147 169 109 148 170 109 148 172 109 149 173 109 150 174 109 151 176 109 152 177 109 153 178 109 154 180 109 154 181 109 155 182 109 156 184 109 157 185 109 158 186 109 159 188 109 160 189 109 160 190 109 161 192 109 162 193 109 163 194 109 164 196 109 165 197 109 166 198 109 166 200 109 167 201 109 168 202 109 169 204 109 170 205 109 171 206 109 171 208 109 172 209 109 173 210 109 174 212 109 175 213 109 176 214 109 177 216 109 177 217 109 178 218 109 179 220 109 180 221 109 181 222 109 182 224 109 183 225 109 183 226 109 184 228 109 185 229 109 186 230 109 187 232 109 188 233 109 189 234 109 189 236 109 190 237 109 191 238 109 192 240 109 193 241 109 194 242 109 195 244 109 195 245 109 196 246 109 197 248 109 198 249 109 199 250 109 200 252 109 201 253 109 201 255 109 202
0 112 40 1 112 41 2 112 41 4 112 42 5 112 43 6 112 44 8 112 45 9 112 46 10 112 47 12 112 47 13 112 48 14 112 49 16 112 50 17 112 51 18 112 52 20 112 53 21 112 53 22 112 54 24 112 55 25 112 56 26 112 57 28 112 58 29 112 59 30 112 59 32 112 60 33 112 61 34 112 62 36 112 63 37 112 64 38 112 65 40 112 65 41 112 66 42 112 67 44 112 68 45 112 69 46 112 70 48 112 71 49 112 71 50 112 72 52 112 73 53 112 74 54 112 75 56 112 76 57 112 77 58 112 77 60 112 78 61 112 79 62 112 80 64 112 81 65 112 82 66 112 83 68 112 83 69 112 84 70 112 85 72 112 86 73 112 87 74 112 88 76 112 88 77 112 89 78 112 90 80 112 91 81 112 92 82 112 93 84 112 94 85 112 94 86 112 95 88 112 96 89 112 97 90 112 98 92 112 99 93 112 100 94 112 100 96 112 101 97 112 102 98 112 103 100 112 104 101 112 105 102 112 106 104 112 106 105 112 107 106 112 108 108 112 109 109 112 110 110 112 111 112 112 112 113 112 112 114 112 113 116 112 114 117 112 115 118 112 116 120 112 117 121 112 118 122 112 118 124 112 119 125 112 120 126 112 121 128 112 122 129 112 123 130 112 124 132 112 124 133 112 125 134 112 126 136 112 127 137 112 128 138 112 129 140 112 130 141 112 130 142 112 131 144 112 132 145 112 133 146 112 134 148 112 135 149 112 136 150 112 136 152 112 137 153 112 138 154 112 139 156 112 140 157 112 141 158 112 142 160 112 142 161 112 143 162 112 144 164 112 145 165 112 146 166 112 147 168 112 148 169 112 148 170 112 149 172 112 150 173 112 151 174 112 152 176 112 153 177 112 154 178 112 154 180 112 155 181 112 156 182 112 157 184 112 158 185 112 159 186 112 160 188 112 160 189 112 161 190 112 162 192 112 163 193 112 164 194 112 165 196 112 166 197 112 166 198 112 167 200 112 168 201 112 169 202 112 170 204 112 171 205 112 171 206 112 172 208 112 173 209 112 174 210 112 175 212 112 176 213 112 177 214 112 177 216 112 178 217 112 179 218 112 180 220 112 181 221 112 182 222 112 183 224 112 183 225 112 184 226 112 185 228 112 186 229 112 187 230 112 188 232 112 189 233 112 189 234 112 190 236 112 191 237 112 192 238 112 193 240 112 194 241 112 195 242 112 195 244 112 196 245 112 197 246 112 198 248 112 199 249 112 200 250 112 201 252 112 201 253 112 202 255 112 203
0 114 41 1 114 41 2 114 42 4 114 43 5 114 44 6 114 45 8 114 46 9 114 47 10 114 47 12 114 48 13 114 49 14 114 50 16 114 51 17 114 52 18 114 53 20 114 53 21 114 54 22 114 55 24 114 56 25 114 57 26 114 58 28 114 59 29 114 59 30 114 60 32 114 61 33 114 62 34 114 63 36 114 64 37 114 65 38 114 65 40 114 66 41 114 67 42 114 68 44 114 69 45 114 70 46 114 71 48 114 71 49 114 72 50 114 73 52 114 74 53 114 75 54 114 76 56 114 77 57 114 77 58 114 78 60 114 79 61 114 80 62 114 81 64 114 82 65 114 83 66 114 83 68 114 84 69 114 85 70 114 86 72 114 87 73 114 88 74 114 88 76 114 89 77 114 90 78 114 91 80 114 92 81 114 93 82 114 94 84 114 94 85 114 95 86 114 96 88 114 97 89 114 98 90 114 99 92 114 100 93 114 100 94 114 101 96 114 102 97 114 103 98 114 104 100 114 105 101 114 106 102 114 106 104 114 107 105 114 108 106 114 109 108 114 110 109 114 111 110 114 112 112 114 112 113 114 113 114 114 114 116 114 115 117 114 116 118 114 117 120 114 118 121 114 118 122 114 119 124 114 120 125 114 121 126 114 122 128 114 123 129 114 124 130 114 124 132 114 125 133 114 126 134 114 127 136 114 128 137 114 129 138 114 130 140 114 130 141 114 131 142 114 132 144 114 133 145 114 134 146 114 135 148 114 136 149 114 136 150 114 137 152 114 138 153 114 139 154 114 140 156 114 141 157 114 142 158 114 142 160 114 143 161 114 144 162 114 145 164 114 146 165 114 147 166 114 148 168 114 148 169 114 149 170 114 150 172 114 151 173 114 152 174 114 153 176 114 154 177 114 154 178 114 155 180 114 156 181 114 157 182 114 158 184 114 159 185 114 160 186 114 160 188 114 161 189 114 162 190 114 163 192 114 164 193 114 165 194 114 166 196 114 166 197 114 167 198 114 168 200 114 169 201 114 170 202 114 171 204 114 171 205 114 172 206 114 173 208 114 174 209 114 175 210 114 176 212 114 177 213 114 177 214 114 178 216 114 179 217 114 180 218 114 181 220 114 182 221 114 183 222 114 183 224 114 184 225 114 185 226 114 186 228 114 187 229 114 188 230 114 189 232 114 189 233 114 190 234 114 191 236 114 192 237 114 193 238 114 194 240 114 195 241 114 195 242 114 196 244 114 197 245 114 198 246 114 199 248 114 200 249 114 201 250 114 201 252 114 202 253 114 203 255 114 204
0 116 41 1 116 42 2 116 43 4 116 44 5 116 45 6 116 46 8 116 47 9 116 47 10 116 48 12 116 49 13 116 50 14 116 51 16 116 52 17 116 53 18 116 53 20 116 54 21 116 55 22 116 56 24 116 57 25 116 58 26 116 59 28 116 59 29 116 60 30 116 61 32 116 62 33 116 63 34 116 64 36 116 65 37 116 65 38 116 66 40 116 67 41 116 68 42 116 69 44 116 70 45 116 71 46 116 71 48 116 72 49 116 73 50 116 74 52 116 75 53 116 76 54 116 77 56 116 77 57 116 78 58 116 79 60 116 80 61 116 81 62 116 82 64 116 83 65 116 83 66 116 84 68 116 85 69 116 86 70 116 87 72 116 88 73 116 88 74 116 89 76 116 90 77 116 91 78 116 92 80 116 93 81 116 94 82 116 94 84 116 95 85 116 96 86 116 97 88 116 98 89 116 99 90 116 100 92 116 100 93 116 101 94 116 102 96 116 103 97 116 104 98 116 105 100 116 106 101 116 106 102 116 107 104 116 108 105 116 109 106 116 110 108 116 111 109 116 112 110 116 112 112 116 113 113 116 114 114 116 115 116 116 116 117 116 117 118 116 118 120 116 118 121 116 119 122 116 120 124 116 121 125 116 122 126 116 123 128 116 124 129 116 124 130 116 125 132 116 126 133 116 127 134 116 128 136 116 129 137 116 130 138 116 130 140 116 131 141 116 132 142 116 133 144 116 134 145 116 135 146 116 136 148 116 136 149 116 137 150 116 138 152 116 139 153 116 140 154 116 141 156 116 142 157 116 142 158 116 143 160 116 144 161 116 145 162 116 146 164 116 147 165 116 148 166 116 148 168 116 149 169 116 150 170 116 151 172 116 152 173 116 153 174 116 154 176 116 154 177 116 155 178 116 156 180 116 157 181 116 158 182 116 159 184 116 160 185 116 160 186 116 161 188 116 162 189 116 163 190 116 164 192 116 165 193 116 166 194 116 166 196 116 167 197 116 168 198 116 169 200 116 170 201 116 171 202 116 171 204 116 172 205 116 173 206 116 174 208 116 175 209 116 176 210 116 177 212 116 177 213 116 178 214 116 179 216 116 180 217 116 181 218 116 182 220 116 183 221 116 183 222 116 184 224 116 185 225 116 186 226 116 187 228 116 188 229 116 189 230 116 189 232 116 190 233 116 191 234 116 192 236 116 193 237 116 194 238 116 195 240 116 195 241 116 196 242 116 197 244 116 198 245 116 199 246 116 200 248 116 201 249 116 201 250 116 202 252 116 203 253 116 204 255 116 205
0 119 42 1 119 43 2 119 44 4 119 45 5 119 46 6 119 47 8 119 47 9 119 48 10 119 49 12 119 50 13 119 51 14 119 52 16 119 53 17 119 53 18 119 54 20 119 55 21 119 56 22 119 57 24 119 58 25 119 59 26 119 59 28 119 60 29 119 61 30 119 62 32 119 63 33 119 64 34 119 65 36 119 65 37 119 66 38 119 67 40 119 68 41 119 69 42 119 70 44 119 71 45 119 71 46 119 72 48 119 73 49 119 74 50 119 75 52 119 76 53 119 77 54 119 77 56 119 78 57 119 79 58 119 80 60 119 81 61 119 82 62 119 83 64 119 83 65 119 84 66 119 85 68 119 86 69 119 87 70 119 88 72 119 88 73 119 89 74 119 90 76 119 91 77 119 92 78 119 93 80 119 94 81 119 94 82 119 95 84 119 96 85 119 97 86 119 98 88 119 99 89 119 100 90 119 100 92 119 101 93 119 102 94 119 103 96 119 104 97 119 105 98 119 106 100 119 106 101 119 107 102 119 108 104 119 109 105 119 110 106 119 111 108 119 112 109 119 112 110 119 113 112 119 114 113 119 115 114 119 116 116 119 117 117 119 118 118 119 118 120 119 119 121 119 120 122 119 121 124 119 122 125 119 123 126 119 124 128 119 124 129 119 125 130 119 126 132 119 127 133 119 128 134 119 129 136 119 130 137 119 130 138 119 131 140 119 132 141 119 133 142 119 134 144 119 135 145 119 136 146 119 136 148 119 137 149 119 138 150 119 139 152 119 140 153 119 141 154 119 142 156 119 142 157 119 143 158 119 144 160 119 145 161 119 146 162 119 147 164 119 148 165 119 148 166 119 149 168 119 150 169 119 151 170 119 152 172 119 153 173 119 154 174 119 154 176 119 155 177 119 156 178 119 157 180 119 158 181 119 159 182 119 160 184 119 160 185 119 161 186 119 162 188 119 163 189 119 164 190 119 165 192 119 166 193 119 166 194 119 167 196 119 168 197 119 169 198 119 170 200 119 171 201 119 171 202 119 172 204 119 173 205 119 174 206 119 175 208 119 176 209 119 177 210 119 177 212 119 178 213 119 179 214 119 180 216 119 181 217 119 182 218 119 183 220 119 183 221 119 184 222 119 185 224 119 186 225 119 187 226 119 188 228 119 189 229 119 189 230 119 190 232 119 191 233 119 192 234 119 193 236 119 194 237 119 195 238 119 195 240 119 196 241 119 197 242 119 198 244 119 199 245 119 200 246 119 201 248 119 201 249 119 202 250 119 203 252 119 204 253 119 205 255 119 206
0 121 43 1 121 44 2 121 45 4 121 46 5 121 47 6 121 47 8 121 48 9 121 49 10 121 50 12 121 51 13 121 52 14 121 53 16 121 53 17 121 54 18 121 55 20 121 56 21 121 57 22 121 58 24 121 59 25 121 59 26 121 60 28 121 61 29 121 62 30 121 63 32 121 64 33 121 65 34 121 65 36 121 66 37 121 67 38 121 68 40 121 69 41 121 70 42 121 71 44 121 71 45 121 72 46 121 73 48 121 74 49 121 75 50 121 76 52 121 77 53 121 77 54 121 78 56 121 79 57 121 80 58 121 81 60 121 82 61 121 83 62 121 83 64 121 84 65 121 85 66 121 86 68 121 87 69 121 88 70 121 88 72 121 89 73 121 90 74 121 91 76 121 92 77 121 93 78 121 94 80 121 94 81 121 95 82 121 96 84 121 97 85 121 98 86 121 99 88 121 100 89 121 100 90 121 101 92 121 102 93 121 103 94 121 104 96 121 105 97 121 106 98 121 106 100 121 107 101 121 108 102 121 109 104 121 110 105 121 111 106 121 112 108 121 112 109 121 113 110 121 114 112 121 115 113 121 116 114 121 117 116 121 118 117 121 118 118 121 119 120 121 120 121 121 121 122 121 122 124 121 123 125 121 124 126 121 124 128 121 125 129 121 126 130 121 127 132 121 128 133 121 129 134 121 130 136 121 130 137 121 131 138 121 132 140 121 133 141 121 134 142 121 135 144 121 136 145 121 136 146 121 137 148 121 138 149 121 139 150 121 140 152 121 141 153 121 142 154 121 142 156 121 143 157 121 144 158 121 145 160 121 146 161 121 147 162 121 148 164 121 148 165 121 149 166 121 150 168 121 151 169 121 152 170 121 153 172 121 154 173 121 154 174 121 155 176 121 156 177 121 157 178 121 158 180 121 159 181 121 160 182 121 160 184 121 161 185 121 162 186 121 163 188 121 164 189 121 165 190 121 166 192 121 166 193 121 167 194 121 168 196 121 169 197 121 170 198 121 171 200 121 171 201 121 172 202 121 173 204 121 174 205 121 175 206 121 176 208 121 177 209 121 177 210 121 178 212 121 179 213 121 180 214 121 181 216 121 182 217 121 183 218 121 183 220 121 184 221 121 185 222 121 186 224 121 187 225 121 188 226 121 189 228 121 189 229 121 190 230 121 191 232 121 192 233 121 193 234 121 194 236 121 195 237 121 195 238 121 196 240 121 197 241 121 198 242 121 199 244 121 200 245 121 201 246 121 201 248 121 202 249 121 203 250 121 204 252 121 205 253 121 206 255 121 207
0 123 44 1 123 45 2 123 46 4 123 47 5 123 47 6 123 48 8 123 49 9 123 50 10 123 51 12 123 52 13 123 53 14 123 53 16 123 54 17 123 55 18 123 56 20 123 57 21 123 58 22 123 59 24 123 59 25 123 60 26 123 61 28 123 62 29 123 63 30 123 64 32 123 65 33 123 65 34 123 66 36 123 67 37 123 68 38 123 69 40 123 70 41 123 71 42 123 71 44 123 72 45 123 73 46 123 74 48 123 75 49 123 76 50 123 77 52 123 77 53 123 78 54 123 79 56 123 80 57 123 81 58 123 82 60 123 83 61 123 83 62 123 84 64 123 85 65 123 86 66 123 87 68 123 88 69 123 88 70 123 89 72 123 90 73 123 91 74 123 92 76 123 93 77 123 94 78 123 94 80 123 95 81 123 96 82 123 97 84 123 98 85 123 99 86 123 100 88 123 100 89 123 101 90 123 102 92 123 103 93 123 104 94 123 105 96 123 106 97 123 106 98 123 107 100 123 108 101 123 109 102 123 110 104 123 111 105 123 112 106 123 112 108 123 113 109 123 114 110 123 115 112 123 116 113 123 117 114 123 118 116 123 118 117 123 119 118 123 120 120 123 121 121 123 122 122 123 123 124 123 124 125 123 124 126 123 125 128 123 126 129 123 127 130 123 128 132 123 129 133 123 130 134 123 130 136 123 131 137 123 132 138 123 133 140 123 134 141 123 135 142 123 136 144 123 136 145 123 137 146 123 138 148 123 139 149 123 140 150 123 141 152 123 142 153 123 142 154 123 143 156 123 144 157 123 145 158 123 146 160 123 147 161 123 148 162 123 148 164 123 149 165 123 150 166 123 151 168 123 152 169 123 153 170 123 154 172 123 154 173 123 155 174 123 156 176 123 157 177 123 158 178 123 159 180 123 160 181 123 160 182 123 161 184 123 162 185 123 163 186 123 164 188 123 165 189 123 166 190 123 166 192 123 167 193 123 168 194 123 169 196 123 170 197 123 171 198 123 171 200 123 172 201 123 173 202 123 174 204 123 175 205 123 176 206 123 177 208 123 177 209 123 178 210 123 179 212 123 180 213 123 181 214 123 182 216 123 183 217 123 183 218 123 184 220 123 185 221 123 186 222 123 187 224 123 188 225 123 189 226 123 189 228 123 190 229 123 191 230 123 192 232 123 193 233 123 194 234 123 195 236 123 195 237 123 196 238 123 197 240 123 198 241 123 199 242 123 200 244 123 201 245 123 201 246 123 202 248 123 203 249 123 204 250 123 205 252 123 206 253 123 207 255 123 207
0 126 45 1 126 46 2 126 47 4 126 47 5 126 48 6 126 49 8 126 50 9 126 51 10 126 52 12 126 53 13 126 53 14 126 54 16 126 55 17 126 56 18 126 57 20 126 58 21 126 59 22 126 59 24 126 60 25 126 61 26 126 62 28 126 63 29 126 64 30 126 65 32 126 65 33 126 66 34 126 67 36 126 68 37 126 69 38 126 70 40 126 71 41 126 71 42 126 72 44 126 73 45 126 74 46 126 75 48 126 76 49 126 77 50 126 77 52 126 78 53 126 79 54 126 80 56 126 81 57 126 82 58 126 83 60 126 83 61 126 84 62 126 85 64 126 86 65 126 87 66 126 88 68 126 88 69 126 89 70 126 90 72 126 91 73 126 92 74 126 93 76 126 94 77 126 94 78 126 95 80 126 96 81 126 97 82 126 98 84 126 99 85 126 100 86 126 100 88 126 101 89 126 102 90 126 103 92 126 104 93 126 105 94 126 106 96 126 106 97 126 107 98 126 108 100 126 109 101 126 110 102 126 111 104 126 112 105 126 112 106 126 113 108 126 114 109 126 115 110 126 116 112 126 117 113 126 118 114 126 118 116 126 119 117 126 120 118 126 121 120 126 122 121 126 123 122 126 124 124 126 124 125 126 125 126 126 126 128 126 127 129 126 128 130 126 129 132 126 130 133 126 130 134 126 131 136 126 132 137 126 133 138 126 134 140 126 135 141 126 136 142 126 136 144 126 137 145 126 138 146 126 139 148 126 140 149 126 141 150 126 142 152 126 142 153 126 143 154 126 144 156 126 145 157 126 146 158 126 147 160 126 148 161 126 148 162 126 149 164 126 150 165 126 151 166 126 152 168 126 153 169 126 154 170 126 154 172 126 155 173 126 156 174 126 157 176 126 158 177 126 159 178 126 160 180 126 160 181 126 161 182 126 162 184 126 163 185 126 164 186 126 165 188 126 166 189 126 166 190 126 167 192 126 168 193 126 169 194 126 170 196 126 171 197 126 171 198 126 172 200 126 173 201 126 174 202 126 175 204 126 176 205 126 177 206 126 177 208 126 178 209 126 179 210 126 180 212 126 181 213 126 182 214 126 183 216 126 183 217 126 184 218 126 185 220 126 186 221 126 187 222 126 188 224 126 189 225 126 189 226 126 190 228 126 191 229 126 192 230 126 193 232 126 194 233 126 195 234 126 195 236 126 196 237 126 197 238 126 198 240 126 199 241 126 200 242 126 201 244 126 201 245 126 202 246 126 203 248 126 204 249 126 205 250 126 206 252 126 207 253 126 207 255 126 208
0 128 46 1 128 47 2 128 47 4 128 48 5 128 49 6 128 50 8 128 51 9 128 52 10 128 53 12 128 53 13 128 54 14 128 55 16 128 56 17 128 57 18 128 58 20 128 59 21 128 59 22 128 60 24 128 61 25 128 62 26 128 63 28 128 64 29 128 65 30 128 65 32 128 66 33 128 67 34 128 68 36 128 69 37 128 70 38 128 71 40 128 71 41 128 72 42 128 73 44 128 74 45 128 75 46 128 76 48 128 77 49 128 77 50 128 78 52 128 79 53 128 80 54 128 81 56 128 82 57 128 83 58 128 83 60 128 84 61 128 85 62 128 86 64 128 87 65 128 88 66 128 88 68 128 89 69 128 90 70 128 91 72 128 92 73 128 93 74 128 94 76 128 94 77 128 95 78 128 96 80 128 97 81 128 98 82 128 99 84 128 100 85 128 100 86 128 101 88 128 102 89 128 103 90 128 104 92 128 105 93 128 106 94 128 106 96 128 107 97 128 108 98 128 109 100 128 110 101 128 111 102 128 112 104 128 112 105 128 113 106 128 114 108 128 115 109 128 116 110 128 117 112 128 118 113 128 118 114 128 119 116 128 120 117 128 121 118 128 122 120 128 123 121 128 124 122 128 124 124 128 125 125 128 126 126 128 127 128 128 128 129 128 129 130 128 130 132 128 130 133 128 131 134 128 132 136 128 133 137 128 134 138 128 135 140 128 136 141 128 136 142 128 137 144 128 138 145 128 139 146 128 140 148 128 141 149 128 142 150 128 142 152 128 143 153 128 144 154 128 145 156 128 146 157 128 147 158 128 148 160 128 148 161 128 149 162 128 150 164 128 151 165 128 152 166 128 153 168 128 154 169 128 154 170 128 155 172 128 156 173 128 157 174 128 158 176 128 159 177 128 160 178 128 160 180 128 161 181 128 162 182 128 163 184 128 164 185 128 165 186 128 166 188 128 166 189 128 167 190 128 168 192 128 169 193 128 170 194 128 171 196 128 171 197 128 172 198 128 173 200 128 174 201 128 175 202 128 176 204 128 177 205 128 177 206 128 178 208 128 179 209 128 180 210 128 181 212 128 182 213 128 183 214 128 183 216 128 184 217 128 185 218 128 186 220 128 187 221 128 188 222 128 189 224 128 189 225 128 190 226 128 191 228 128 192 229 128 193 230 128 194 232 128 195 233 128 195 234 128 196 236 128 197 237 128 198 238 128 199 240 128 200 241 128 201 242 128 201 244 128 202 245 128 203 246 128 204 248 128 205 249 128 206 250 128 207 252 128 207 253 128 208 255 128 209
0 131 47 1 131 47 2 131 48 4 131 49 5 131 50 6 131 51 8 131 52 9 131 53 10 131 53 12 131 54 13 131 55 14 131 56 16 131 57 17 131 58 18 131 59 20 131 59 21 131 60 22 131 61 24 131 62 25 131 63 26 131 64 28 131 65 29 131 65 30 131 66 32 131 67 33 131 68 34 131 69 36 131 70 37 131 71 38 131 71 40 131 72 41 131 73 42 131 74 44 131 75 45 131 76 46 131 77 48 131 77 49 131 78 50 131 79 52 131 80 53 131 81 54 131 82 56 131 83 57 131 83 58 131 84 60 131 85 61 131 86 62 131 87 64 131 88 65 131 88 66 131 89 68 131 90 69 131 91 70 131 92 72 131 93 73 131 94 74 131 94 76 131 95 77 131 96 78 131 97 80 131 98 81 131 99 82 131 100 84 131 100 85 131 101 86 131 102 88 131 103 89 131 104 90 131 105 92 131 106 93 131 106 94 131 107 96 131 108 97 131 109 98 131 110 100 131 111 101 131 112 102 131 112 104 131 113 105 131 114 106 131 115 108 131 116 109 131 117 110 131 118 112 131 118 113 131 119 114 131 120 116 131 121 117 131 122 118 131 123 120 131 124 121 131 124 122 131 125 124 131 126 125 131 127 126 131 128 128 131 129 129 131 130 130 131 130 132 131 131 133 131 132 134 131 133 136 131 134 137 131 135 138 131 136 140 131 136 141 131 137 142 131 138 144 131 139 145 131 140 146 131 141 148 131 142 149 131 142 150 131 143 152 131 144 153 131 145 154 131 146 156 131 147 157 131 148 158 131 148 160 131 149 161 131 150 162 131 151 164 131 152 165 131 153 166 131 154 168 131 154 169 131 155 170 131 156 172 131 157 173 131 158 174 131 159 176 131 160 177 131 160 178 131 161 180 131 162 181 131 163 182 131 164 184 131 165 185 131 166 186 131 166 188 131 167 189 131 168 190 131 169 192 131 170 193 131 171 194 131 171 196 131 172 197 131 173 198 131 174 200 131 175 201 131 176 202 131 177 204 131 177 205 131 178 206 131 179 208 131 180 209 131 181 210 131 182 212 131 183 213 131 183 214 131 184 216 131 185 217 131 186 218 131 187 220 131 188 221 131 189 222 131 189 224 131 190 225 131 191 226 131 192 228 131 193 229 131 194 230 131 195 232 131 195 233 131 196 234 131 197 236 131 198 237 131 199 238 131 200 240 131 201 241 131 201 242 131 202 244 131 203 245 131 204 246 131 205 248 131 206 249 131 207 250 131 207 252 131 208 253 131 209 255 131 210
0 133 47 1 133 48 2 133 49 4 133 50 5 133 51 6 133 52 8 133 53 9 133 53 10 133 54 12 133 55 13 133 56 14 133 57 16 133 58 17 133 59 18 133 59 20 133 60 21 133 61 22 133 62 24 133 63 25 133 64 26 133 65 28 133 65 29 133 66 30 133 67 32 133 68 33 133 69 34 133 70 36 133 71 37 133 71 38 133 72 40 133 73 41 133 74 42 133 75 44 133 76 45 133 77 46 133 77 48 133 78 49 133 79 50 133 80 52 133 81 53 133 82 54 133 83 56 133 83 57 133 84 58 133 85 60 133 86 61 133 87 62 133 88 64 133 88 65 133 89 66 133 90 68 133 91 69 133 92 70 133 93 72 133 94 73 133 94 74 133 95 76 133 96 77 133 97 78 133 98 80 133 99 81 133 100 82 133 100 84 133 101 85 133 102 86 133 103 88 133 104 89 133 105 90 133 106 92 133 106 93 133 107 94 133 108 96 133 109 97 133 110 98 133 111 100 133 112 101 133 112 102 133 113 104 133 114 105 133 115 106 133 116 108 133 117 109 133 118 110 133 118 112 133 119 113 133 120 114 133 121 116 133 122 117 133 123 118 133 124 120 133 124 121 133 125 122 133 126 124 133 127 125 133 128 126 133 129 128 133 130 129 133 130 130 133 131 132 133 132 133 133 133 134 133 134 136 133 135 137 133 136 138 133 136 140 133 137 141 133 138 142 133 139 144 133 140 145 133 141 146 133 142 148 133 142 149 133 143 150 133 144 152 133 145 153 133 146 154 133 147 156 133 148 157 133 148 158 133 149 160 133 150 161 133 151 162 133 152 164 133 153 165 133 154 166 133 154 168 133 155 169 133 156 170 133 157 172 133 158 173 133 159 174 133 160 176 133 160 177 133 161 178 133 162 180 133 163 181 133 164 182 133 165 184 133 166 185 133 166 186 133 167 188 133 168 189 133 169 190 133 170 192 133 171 193 133 171 194 133 172 196 133 173 197 133 174 198 133 175 200 133 176 201 133 177 202 133 177 204 133 178 205 133 179 206 133 180 208 133 181 209 133 182 210 133 183 212 133 183 213 133 184 214 133 185 216 133 186 217 133 187 218 133 188 220 133 189 221 133 189 222 133 190 224 133 191 225 133 192 226 133 193 228 133 194 229 133 195 230 133 195 232 133 196 233 133 197 234 133 198 236 133 199 237 133 200 238 133 201 240 133 201 241 133 202 242 133 203 244 133 204 245 133 205 246 133 206 248 133 207 249 133 207 250 133 208 252 133 209 253 133 210 255 133 211
0 135 48 1 135 49 2 135 50 4 135 51 5 135 52 6 135 53 8 135 53 9 135 54 10 135 55 12 135 56 13 135 57 14 135 58 16 135 59 17 135 59 18 135 60 20 135 61 21 135 62 22 135 63 24 135 64 25 135 65 26 135 65 28 135 66 29 135 67 30 135 68 32 135 69 33 135 70 34 135 71 36 135 71 37 135 72 38 135 73 40 135 74 41 135 75 42 135 76 44 135 77 45 135 77 46 135 78 48 135 79 49 135 80 50 135 81 52 135 82 53 135 83 54 135 83 56 135 84 57 135 85 58 135 86 60 135 87 61 135 88 62 135 88 64 135 89 65 135 90 66 135 91 68 135 92 69 135 93 70 135 94 72 135 94 73 135 95 74 135 96 76 135 97 77 135 98 78 135 99 80 135 100 81 135 100 82 135 101 84 135 102 85 135 103 86 135 104 88 135 105 89 135 106 90 135 106 92 135 107 93 135 108 94 135 109 96 135 110 97 135 111 98 135 112 100 135 112 101 135 113 102 135 114 104 135 115 105 135 116 106 135 117 108 135 118 109 135 118 110 135 119 112 135 120 113 135 121 114 135 122 116 135 123 117 135 124 118 135 124 120 135 125 121 135 126 122 135 127 124 135 128 125 135 129 126 135 130 128 135 130 129 135 131 130 135 132 132 135 133 133 135 134 134 135 135 136 135 136 137 135 136 138 135 137 140 135 138 141 135 139 142 135 140 144 135 141 145 135 142 146 135 142 148 135 143 149 135 144 150 135 145 152 135 146 153 135 147 154 135 148 156 135 148 157 135 149 158 135 150 160 135 151 161 135 152 162 135 153 164 135 154 165 135 154 166 135 155 168 135 156 169 135 157 170 135 158 172 135 159 173 135 160 174 135 160 176 135 161 177 135 162 178 135 163 180 135 164 181 135 165 182 135 166 184 135 166 185 135 167 186 135 168 188 135 169 189 135 170 190 135 171 192 135 171 193 135 172 194 135 173 196 135 174 197 135 175 198 135 176 200 135 177 201 135 177 202 135 178 204 135 179 205 135 180 206 135 181 208 135 182 209 135 183 210 135 183 212 135 184 213 135 185 214 135 186 216 135 187 217 135 188 218 135 189 220 135 189 221 135 190 222 135 191 224 135 192 225 135 193 226 135 194 228 135 195 229 135 195 230 135 196 232 135 197 233 135 198 234 135 199 236 135 200 237 135 201 238 135 201 240 135 202 241 135 203 242 135 204 244 135 205 245 135 206 246 135 207 248 135 207 249 135 208 250 135 209 252 135 210 253 135 211 255 135 212
0 138 49 1 138 50 2 138 51 4 138 52 5 138 53 6 138 53 8 138 54 9 138 55 10 138 56 12 138 57 13 138 58 14 138 59 16 138 59 17 138 60 18 138 61 20 138 62 21 138 63 22 138 64 24 138 65 25 138 65 26 138 66 28 138 67 29 138 68 30 138 69 32 138 70 33 138 71 34 138 71 36 138 72 37 138 73 38 138 74 40 138 75 41 138 76 42 138 77 44 138 77 45 138 78 46 138 79 48 138 80 49 138 81 50 138 82 52 138 83 53 138 83 54 138 84 56 138 85 57 138 86 58 138 87 60 138 88 61 138 88 62 138 89 64 138 90 65 138 91 66 138 92 68 138 93 69 138 94 70 138 94 72 138 95 73 138 96 74 138 97 76 138 98 77 138 99 78 138 100 80 138 100 81 138 101 82 138 102 84 138 103 85 138 104 86 138 105 88 138 106 89 138 106 90 138 107 92 138 108 93 138 109 94 138 110 96 138 111 97 138 112 98 138 112 100 138 113 101 138 114 102 138 115 104 138 116 105 138 117 106 138 118 108 138 118 109 138 119 110 138 120 112 138 121 113 138 122 114 138 123 116 138 124 117 138 124 118 138 125 120 138 126 121 138 127 122 138 128 124 138 129 125 138 130 126 138 130 128 138 131 129 138 132 130 138 133 132 138 134 133 138 135 134 138 136 136 138 136 137 138 137 138 138 138 140 138 139 141 138 140 142 138 141 144 138 142 145 138 142 146 138 143 148 138 144 149 138 145 150 138 146 152 138 147 153 138 148 154 138 148 156 138 149 157 138 150 158 138 151 160 138 152 161 138 153 162 138 154 164 138 154 165 138 155 166 138 156 168 138 157 169 138 158 170 138 159 172 138 160 173 138 160 174 138 161 176 138 162 177 138 163 178 138 164 180 138 165 181 138 166 182 138 166 184 138 167 185 138 168 186 138 169 188 138 170 189 138 171 190 138 171 192 138 172 193 138 173 194 138 174 196 138 175 197 138 176 198 138 177 200 138 177 201 138 178 202 138 179 204 138 180 205 138 181 206 138 182 208 138 183 209 138 183 210 138 184 212 138 185 213 138 186 214 138 187 216 138 188 217 138 189 218 138 189 220 138 190 221 138 191 222 138 192 224 138 193 225 138 194 226 138 195 228 138 195 229 138 196 230 138 197 232 138 198 233 138 199 234 138 200 236 138 201 237 138 201 238 138 202 240 138 203 241 138 204 242 138 205 244 138 206 245 138 207 246 138 207 248 138 208 249 138 209 250 138 210 252 138 211 253 138 212 255 138 213
0 140 50 1 140 51 2 140 52 4 140 53 5 140 53 6 140 54 8 140 55 9 140 56 10 140 57 12 140 58 13 140 59 14 140 59 16 140 60 17 140 61 18 140 62 20 140 63 21 140 64 22 140 65 24 140 65 25 140 66 26 140 67 28 140 68 29 140 69 30 140 70 32 140 71 33 140 71 34 140 72 36 140 73 37 140 74 38 140 75 40 140 76 41 140 77 42 140 77 44 140 78 45 140 79 46 140 80 48 140 81 49 140 82 50 140 83 52 140 83 53 140 84 54 140 85 56 140 86 57 140 87 58 140 88 60 140 88 61 140 89 62 140 90 64 140 91 65 140 92 66 140 93 68 140 94 69 140 94 70 140 95 72 140 96 73 140 97 74 140 98 76 140 99 77 140 100 78 140 100 80 140 101 81 140 102 82 140 103 84 140 104 85 140 105 86 140 106 88 140 106 89 140 107 90 140 108 92 140 109 93 140 110 94 140 111 96 140 112 97 140 112 98 140 113 100 140 114 101 140 115 102 140 116 104 140 117 105 140 118 106 140 118 108 140 119 109 140 120 110 140 121 112 140 122 113 140 123 114 140 124 116 140 124 117 140 125 118 140 126 120 140 127 121 140 128 122 140 129 124 140 130 125 140 130 126 140 131 128 140 132 129 140 133 130 140 134 132 140 135 133 140 136 134 140 136 136 140 137 137 140 138 138 140 139 140 140 140 141 140 141 142 140 142 144 140 142 145 140 143 146 140 144 148 140 145 149 140 146 150 140 147 152 140 148 153 140 148 154 140 149 156 140 150 157 140 151 158 140 152 160 140 153 161 140 154 162 140 154 164 140 155 165 140 156 166 140 157 168 140 158 169 140 159 170 140 160 172 140 160 173 140 161 174 140 162 176 140 163 177 140 164 178 140 165 180 140 166 181 140 166 182 140 167 184 140 168 185 140 169 186 140 170 188 140 171 189 140 171 190 140 172 192 140 173 193 140 174 194 140 175 196 140 176 197 140 177 198 140 177 200 140 178 201 140 179 202 140 180 204 140 181 205 140 182 206 140 183 208 140 183 209 140 184 210 140 185 212 140 186 213 140 187 214 140 188 216 140 189 217 140 189 218 140 190 220 140 191 221 140 192 222 140 193 224 140 194 225 140 195 226 140 195 228 140 196 229 140 197 230 140 198 232 140 199 233 140 200 234 140 201 236 140 201 237 140 202 238 140 203 240 140 204 241 140 205 242 140 206 244 140 207 245 140 207 246 140 208 248 140 209 249 140 210 250 140 211 252 140 212 253 140 213 255 140 213
0 142 51 1 142 52 2 142 53 4 142 53 5 142 54 6 142 55 8 142 56 9 142 57 10 142 58 12 142 59 13 142 59 14 142 60 16 142 61 17 142 62 18 142 63 20 142 64 21 142 65 22 142 65 24 142 66 25 142 67 26 142 68 28 142 69 29 142 70 30 142 71 32 142 71 33 142 72 34 142 73 36 142 74 37 142 75 38 142 76 40 142 77 41 142 77 42 142 78 44 142 79 45 142 80 46 142 81 48 142 82 49 142 83 50 142 83 52 142 84 53 142 85 54 142 86 56 142 87 57 142 88 58 142 88 60 142 89 61 142 90 62 142 91 64 142 92 65 142 93 66 142 94 68 142 94 69 142 95 70 142 96 72 142 97 73 142 98 74 142 99 76 142 100 77 142 100 78 142 101 80 142 102 81 142 103 82 142 104 84 142 105 85 142 106 86 142 106 88 142 107 89 142 108 90 142 109 92 142 110 93 142 111 94 142 112 96 142 112 97 142 113 98 142 114 100 142 115 101 142 116 102 142 117 104 142 118 105 142 118 106 142 119 108 142 120 109 142 121 110 142 122 112 142 123 113 142 124 114 142 124 116 142 125 117 142 126 118 142 127 120 142 128 121 142 129 122 142 130 124 142 130 125 142 131 126 142 132 128 142 133 129 142 134 130 142 135 132 142 136 133 142 136 134 142 137 136 142 138 137 142 139 138 142 140 140 142 141 141 142 142 142 142 142 144 142 143 145 142 144 146 142 145 148 142 146 149 142 147 150 142 148 152 142 148 153 142 149 154 142 150 156 142 151 157 142 152 158 142 153 160 142 154 161 142 154 162 142 155 164 142 156 165 142 157 166 142 158 168 142 159 169 142 160 170 142 160 172 142 161 173 142 162 174 142 163 176 142 164 177 142 165 178 142 166 180 142 166 181 142 167 182 142 168 184 142 169 185 142 170 186 142 171 188 142 171 189 142 172 190 142 173 192 142 174 193 142 175 194 142 176 196 142 177 197 142 177 198 142 178 200 142 179 201 142 180 202 142 181 204 142 182 205 142 183 206 142 183 208 142 184 209 142 185 210 142 186 212 142 187 213 142 188 214 142 189 216 142 189 217 142 190 218 142 191 220 142 192 221 142 193 222 142 194 224 142 195 225 142 195 226 142 196 228 142 197 229 142 198 230 142 199 232 142 200 233 142 201 234 142 201 236 142 202 237 142 203 238 142 204 240 142 205 241 142 206 242 142 207 244 142 207 245 142 208 246 142 209 248 142 210 249 142 211 250 142 212 252 142 213 253 142 213 255 142 214
0 145 52 1 145 53 2 145 53 4 145 54 5 145 55 6 145 56 8 145 57 9 145 58 10 145 59 12 145 59 13 145 60 14 145 61 16 145 62 17 145 63 18 145 64 20 145 65 21 145 65 22 145 66 24 145 67 25 145 68 26 145 69 28 145 70 29 145 71 30 145 71 32 145 72 33 145 73 34 145 74 36 145 75 37 145 76 38 145 77 40 145 77 41 145 78 42 145 79 44 145 80 45 145 81 46 145 82 48 145 83 49 145 83 50 145 84 52 145 85 53 145 86 54 145 87 56 145 88 57 145 88 58 145 89 60 145 90 61 145 91 62 145 92 64 145 93 65 145 94 66 145 94 68 145 95 69 145 96 70 145 97 72 145 98 73 145 99 74 145 100 76 145 100 77 145 101 78 145 102 80 145 103 81 145 104 82 145 105 84 145 106 85 145 106 86 145 107 88 145 108 89 145 109 90 145 110 92 145 111 93 145 112 94 145 112 96 145 113 97 145 114 98 145 115 100 145 116 101 145 117 102 145 118 104 145 118 105 145 119 106 145 120 108 145 121 109 145 122 110 145 123 112 145 124 113 145 124 114 145 125 116 145 126 117 145 127 118 145 128 120 145 129 121 145 130 122 145 130 124 145 131 125 145 132 126 145 133 128 145 134 129 145 135 130 145 136 132 145 136 133 145 137 134 145 138 136 145 139 137 145 140 138 145 141 140 145 142 141 145 142 142 145 143 144 145 144 145 145 145 146 145 146 148 145 147 149 145 148 150 145 148 152 145 149 153 145 150 154 145 151 156 145 152 157 145 153 158 145 154 160 145 154 161 145 155 162 145 156 164 145 157 165 145 158 166 145 159 168 145 160 169 145 160 170 145 161 172 145 162 173 145 163 174 145 164 176 145 165 177 145 166 178 145 166 180 145 167 181 145 168 182 145 169 184 145 170 185 145 171 186 145 171 188 145 172 189 145 173 190 145 174 192 145 175 193 145 176 194 145 177 196 145 177 197 145 178 198 145 179 200 145 180 201 145 181 202 145 182 204 145 183 205 145 183 206 145 184 208 145 185 209 145 186 210 145 187 212 145 188 213 145 189 214 145 189 216 145 190 217 145 191 218 145 192 220 145 193 221 145 194 222 145 195 224 145 195 225 145 196 226 145 197 228 145 198 229 145 199 230 145 200 232 145 201 233 145 201 234 145 202 236 145 203 237 145 204 238 145 205 240 145 206 241 145 207 242 145 207 244 145 208 245 145 209 246 145 210 248 145 211 249 145 212 250 145 213 252 145 213 253 145 214 255 145 215
0 147 53 1 147 53 2 147 54 4 147 55 5 147 56 6 147 57 8 147 58 9 147 59 10 147 59 12 147 60 13 147 61 14 147 62 16 147 63 17 147 64 18 147 65 20 147 65 21 147 66 22 147 67 24 147 68 25 147 69 26 147 70 28 147 71 29 147 71 30 147 72 32 147 73 33 147 74 34 147 75 36 147 76 37 147 77 38 147 77 40 147 78 41 147 79 42 147 80 44 147 81 45 147 82 46 147 83 48 147 83 49 147 84 50 147 85 52 147 86 53 147 87 54 147 88 56 147 88 57 147 89 58 147 90 60 147 91 61 147 92 62 147 93 64 147 94 65 147 94 66 147 95 68 147 96 69 147 97 70 147 98 72 147 99 73 147 100 74 147 100 76 147 101 77 147 102 78 147 103 80 147 104 81 147 105 82 147 106 84 147 106 85 147 107 86 147 108 88 147 109 89 147 110 90 147 111 92 147 112 93 147 112 94 147 113 96 147 114 97 147 115 98 147 116 100 147 117 101 147 118 102 147 118 104 147 119 105 147 120 106 147 121 108 147 122 109 147 123 110 147 124 112 147 124 113 147 125 114 147 126 116 147 127 117 147 128 118 147 129 120 147 130 121 147 130 122 147 131 124 147 132 125 147 133 126 147 134 128 147 135 129 147 136 130 147 136 132 147 137 133 147 138 134 147 139 136 147 140 137 147 141 138 147 142 140 147 142 141 147 143 142 147 144 144 147 145 145 147 146 146 147 147 148 147 148 149 147 148 150 147 149 152 147 150 153 147 151 154 147 152 156 147 153 157 147 154 158 147 154 160 147 155 161 147 156 162 147 157 164 147 158 165 147 159 166 147 160 168 147 160 169 147 161 170 147 162 172 147 163 173 147 164 174 147 165 176 147 166 177 147 166 178 147 167 180 147 168 181 147 169 182 147 170 184 147 171 185 147 171 186 147 172 188 147 173 189 147 174 190 147 175 192 147 176 193 147 177 194 147 177 196 147 178 197 147 179 198 147 180 200 147 181 201 147 182 202 147 183 204 147 183 205 147 184 206 147 185 208 147 186 209 147 187 210 147 188 212 147 189 213 147 189 214 147 190 216 147 191 217 147 192 218 147 193 220 147 194 221 147 195 222 147 195 224 147 196 225 147 197 226 147 198 228 147 199 229 147 200 230 147 201 232 147 201 233 147 202 234 147 203 236 147 204 237 147 205 238 147 206 240 147 207 241 147 207 242 147 208 244 147 209 245 147 210 246 147 211 248 147 212 249 147 213 250 147 213 252 147 214 253 147 215 255 147 216
0 150 53 1 150 54 2 150 55 4 150 56 5 150 57 6 150 58 8 150 59 9 150 59 10 150 60 12 150 61 13 150 62 14 150 63 16 150 64 17 150 65 18 150 65 20 150 66 21 150 67 22 150 68 24 150 69 25 150 70 26 150 71 28 150 71 29 150 72 30 150 73 32 150 74 33 150 75 34 150 76 36 150 77 37 150 77 38 150 78 40 150 79 41 150 80 42 150 81 44 150 82 45 150 83 46 150 83 48 150 84 49 150 85 50 150 86 52 150 87 53 150 88 54 150 88 56 150 89 57 150 90 58 150 91 60 150 92 61 150 93 62 150 94 64 150 94 65 150 95 66 150 96 68 150 97 69 150 98 70 150 99 72 150 100 73 150 100 74 150 101 76 150 102 77 150 103 78 150 104 80 150 105 81 150 106 82 150 106 84 150 107 85 150 108 86 150 109 88 150 110 89 150 111 90 150 112 92 150 112 93 150 113 94 150 114 96 150 115 97 150 116 98 150 117 100 150 118 101 150 118 102 150 119 104 150 120 105 150 121 106 150 122 108 150 123 109 150 124 110 150 124 112 150 125 113 150 126 114 150 127 116 150 128 117 150 129 118 150 130 120 150 130 121 150 131 122 150 132 124 150 133 125 150 134 126 150 135 128 150 136 129 150 136 130 150 137 132 150 138 133 150 139 134 150 140 136 150 141 137 150 142 138 150 142 140 150 143 141 150 144 142 150 145 144 150 146 145 150 147 146 150 148 148 150 148 149 150 149 150 150 150 152 150 151 153 150 152 154 150 153 156 150 154 157 150 154 158 150 155 160 150 156 161 150 157 162 150 158 164 150 159 165 150 160 166 150 160 168 150 161 169 150 162 170 150 163 172 150 164 173 150 165 174 150 166 176 150 166 177 150 167 178 150 168 180 150 169 181 150 170 182 150 171 184 150 171 185 150 172 186 150 173 188 150 174 189 150 175 190 150 176 192 150 177 193 150 177 194 150 178 196 150 179 197 150 180 198 150 181 200 150 182 201 150 183 202 150 183 204 150 184 205 150 185 206 150 186 208 150 187 209 150 188 210 150 189 212 150 189 213 150 190 214 150 191 216 150 192 217 150 193 218 150 194 220 150 195 221 150 195 222 150 196 224 150 197 225 150 198 226 150 199 228 150 200 229 150 201 230 150 201 232 150 202 233 150 203 234 150 204 236 150 205 237 150 206 238 150 207 240 150 207 241 150 208 242 150 209 244 150 210 245 150 211 246 150 212 248 150 213 249 150 213 250 150 214 252 150 215 253 150 216 255 150 217
0 152 54 1 152 55 2 152 56 4 152 57 5 152 58 6 152 59 8 152 59 9 152 60 10 152 61 12 152 62 13 152 63 14 152 64 16 152 65 17 152 65 18 152 66 20 152 67 21 152 68 22 152 69 24 152 70 25 152 71 26 152 71 28 152 72 29 152 73 30 152 74 32 152 75 33 152 76 34 152 77 36 152 77 37 152 78 38 152 79 40 152 80 41 152 81 42 152 82 44 152 83 45 152 83 46 152 84 48 152 85 49 152 86 50 152 87 52 152 88 53 152 88 54 152 89 56 152 90 57 152 91 58 152 92 60 152 93 61 152 94 62 152 94 64 152 95 65 152 96 66 152 97 68 152 98 69 152 99 70 152 100 72 152 100 73 152 101 74 152 102 76 152 103 77 152 104 78 152 105 80 152 106 81 152 106 82 152 107 84 152 108 85 152 109 86 152 110 88 152 111 89 152 112 90 152 112 92 152 113 93 152 114 94 152 115 96 152 116 97 152 117 98 152 118 100 152 118 101 152 119 102 152 120 104 152 121 105 152 122 106 152 123 108 152 124 109 152 124 110 152 125 112 152 126 113 152 127 114 152 128 116 152 129 117 152 130 118 152 130 120 152 131 121 152 132 122 152 133 124 152 134 125 152 135 126 152 136 128 152 136 129 152 137 130 152 138 132 152 139 133 152 140 134 152 141 136 152 142 137 152 142 138 152 143 140 152 144 141 152 145 142 152 146 144 152 147 145 152 148 146 152 148 148 152 149 149 152 150 150 152 151 152 152 152 153 152 153 154 152 154 156 152 154 157 152 155 158 152 156 160 152 157 161 152 158 162 152 159 164 152 160 165 152 160 166 152 161 168 152 162 169 152 163 170 152 164 172 152 165 173 152 166 174 152 166 176 152 167 177 152 168 178 152 169 180 152 170 181 152 171 182 152 171 184 152 172 185 152 173 186 152 174 188 152 175 189 152 176 190 152 177 192 152 177 193 152 178 194 152 179 196 152 180 197 152 181 198 152 182 200 152 183 201 152 183 202 152 184 204 152 185 205 152 186 206 152 187 208 152 188 209 152 189 210 152 189 212 152 190 213 152 191 214 152 192 216 152 193 217 152 194 218 152 195 220 152 195 221 152 196 222 152 197 224 152 198 225 152 199 226 152 200 228 152 201 229 152 201 230 152 202 232 152 203 233 152 204 234 152 205 236 152 206 237 152 207 238 152 207 240 152 208 241 152 209 242 152 210 244 152 211 245 152 212 246 152 213 248 152 213 249 152 214 250 152 215 252 152 216 253 152 217 255 152 218
0 154 55 1 154 56 2 154 57 4 154 58 5 154 59 6 154 59 8 154 60 9 154 61 10 154 62 12 154 63 13 154 64 14 154 65 16 154 65 17 154 66 18 154 67 20 154 68 21 154 69 22 154 70 24 154 71 25 154 71 26 154 72 28 154 73 29 154 74 30 154 75 32 154 76 33 154 77 34 154 77 36 154 78 37 154 79 38 154 80 40 154 81 41 154 82 42 154 83 44 154 83 45 154 84 46 154 85 48 154 86 49 154 87 50 154 88 52 154 88 53 154 89 54 154 90 56 154 91 57 154 92 58 154 93 60 154 94 61 154 94 62 154 95 64 154 96 65 154 97 66 154 98 68 154 99 69 154 100 70 154 100 72 154 101 73 154 102 74 154 103 76 154 104 77 154 105 78 154 106 80 154 106 81 154 107 82 154 108 84 154 109 85 154 110 86 154 111 88 154 112 89 154 112 90 154 113 92 154 114 93 154 115 94 154 116 96 154 117 97 154 118 98 154 118 100 154 119 101 154 120 102 154 121 104 154 122 105 154 123 106 154 124 108 154 124 109 154 125 110 154 126 112 154 127 113 154 128 114 154 129 116 154 130 117 154 130 118 154 131 120 154 132 121 154 133 122 154 134 124 154 135 125 154 136 126 154 136 128 154 137 129 154 138 130 154 139 132 154 140 133 154 141 134 154 142 136 154 142 137 154 143 138 154 144 140 154 145 141 154 146 142 154 147 144 154 148 145 154 148 146 154 149 148 154 150 149 154 151 150 154 152 152 154 153 153 154 154 154 154 154 156 154 155 157 154 156 158 154 157 160 154 158 161 154 159 162 154 160 164 154 160 165 154 161 166 154 162 168 154 163 169 154 164 170 154 165 172 154 166 173 154 166 174 154 167 176 154 168 177 154 169 178 154 170 180 154 171 181 154 171 182 154 172 184 154 173 185 154 174 186 154 175 188 154 176 189 154 177 190 154 177 192 154 178 193 154 179 194 154 180 196 154 181 197 154 182 198 154 183 200 154 183 201 154 184 202 154 185 204 154 186 205 154 187 206 154 188 208 154 189 209 154 189 210 154 190 212 154 191 213 154 192 214 154 193 216 154 194 217 154 195 218 154 195 220 154 196 221 154 197 222 154 198 224 154 199 225 154 200 226 154 201 228 154 201 229 154 202 230 154 203 232 154 204 233 154 205 234 154 206 236 154 207 237 154 207 238 154 208 240 154 209 241 154 210 242 154 211 244 154 212 245 154 213 246 154 213 248 154 214 249 154 215 250 154 216 252 154 217 253 154 218 255 154 219
0 157 56 1 157 57 2 157 58 4 157 59 5 157 59 6 157 60 8 157 61 9 157 62 10 157 63 12 157 64 13 157 65 14 157 65 16 157 66 17 157 67 18 157 68 20 157 69 21 157 70 22 157 71 24 157 71 25 157 72 26 157 73 28 157 74 29 157 75 30 157 76 32 157 77 33 157 77 34 157 78 36 157 79 37 157 80 38 157 81 40 157 82 41 157 83 42 157 83 44 157 84 45 157 85 46 157 86 48 157 87 49 157 88 50 157 88 52 157 89 53 157 90 54 157 91 56 157 92 57 157 93 58 157 94 60 157 94 61 157 95 62 157 96 64 157 97 65 157 98 66 157 99 68 157 100 69 157 100 70 157 101 72 157 102 73 157 103 74 157 104 76 157 105 77 157 106 78 157 106 80 157 107 81 157 108 82 157 109 84 157 110 85 157 111 86 157 112 88 157 112 89 157 113 90 157 114 92 157 115 93 157 116 94 157 117 96 157 118 97 157 118 98 157 119 100 157 120 101 157 121 102 157 122 104 157 123 105 157 124 106 157 124 108 157 125 109 157 126 110 157 127 112 157 128 113 157 129 114 157 130 116 157 130 117 157 131 118 157 132 120 157 133 121 157 134 122 157 135 124 157 136 125 157 136 126 157 137 128 157 138 129 157 139 130 157 140 132 157 141 133 157 142 134 157 142 136 157 143 137 157 144 138 157 145 140 157 146 141 157 147 142 157 148 144 157 148 145 157 149 146 157 150 148 157 151 149 157 152 150 157 153 152 157 154 153 157 154 154 157 155 156 157 156 157 157 157 158 157 158 160 157 159 161 157 160 162 157 160 164 157 161 165 157 162 166 157 163 168 157 164 169 157 165 170 157 166 172 157 166 173 157 167 174 157 168 176 157 169 177 157 170 178 157 171 180 157 171 181 157 172 182 157 173 184 157 174 185 157 175 186 157 176 188 157 177 189 157 177 190 157 178 192 157 179 193 157 180 194 157 181 196 157 182 197 157 183 198 157 183 200 157 184 201 157 185 202 157 186 204 157 187 205 157 188 206 157 189 208 157 189 209 157 190 210 157 191 212 157 192 213 157 193 214 157 194 216 157 195 217 157 195 218 157 196 220 157 197 221 157 198 222 157 199 224 157 200 225 157 201 226 157 201 228 157 202 229 157 203 230 157 204 232 157 205 233 157 206 234 157 207 236 157 207 237 157 208 238 157 209 240 157 210 241 157 211 242 157 212 244 157 213 245 157 213 246 157 214 248 157 215 249 157 216 250 157 217 252 157 218 253 157 219 255 157 219
0 159 57 1 159 58 2 159 59 4 159 59 5 159 60 6 159 61 8 159 62 9 159 63 10 159 64 12 159 65 13 159 65 14 159 66 16 159 67 17 159 68 18 159 69 20 159 70 21 159 71 22 159 71 24 159 72 25 159 73 26 159 74 28 159 75 29 159 76 30 159 77 32 159 77 33 159 78 34 159 79 36 159 80 37 159 81 38 159 82 40 159 83 41 159 83 42 159 84 44 159 85 45 159 86 46 159 87 48 159 88 49 159 88 50 159 89 52 159 90 53 159 91 54 159 92 56 159 93 57 159 94 58 159 94 60 159 95 61 159 96 62 159 97 64 159 98 65 159 99 66 159 100 68 159 100 69 159 101 70 159 102 72 159 103 73 159 104 74 159 105 76 159 106 77 159 106 78 159 107 80 159 108 81 159 109 82 159 110 84 159 111 85 159 112 86 159 112 88 159 113 89 159 114 90 159 115 92 159 116 93 159 117 94 159 118 96 159 118 97 159 119 98 159 120 100 159 121 101 159 122 102 159 123 104 159 124 105 159 124 106 159 125 108 159 126 109 159 127 110 159 128 112 159 129 113 159 130 114 159 130 116 159 131 117 159 132 118 159 133 120 159 134 121 159 135 122 159 136 124 159 136 125 159 137 126 159 138 128 159 139 129 159 140 130 159 141 132 159 142 133 159 142 134 159 143 136 159 144 137 159 145 138 159 146 140 159 147 141 159 148 142 159 148 144 159 149 145 159 150 146 159 151 148 159 152 149 159 153 150 159 154 152 159 154 153 159 155 154 159 156 156 159 157 157 159 158 158 159 159 160 159 160 161 159 160 162 159 161 164 159 162 165 159 163 166 159 164 168 159 165 169 159 166 170 159 166 172 159 167 173 159 168 174 159 169 176 159 170 177 159 171 178 159 171 180 159 172 181 159 173 182 159 174 184 159 175 185 159 176 186 159 177 188 159 177 189 159 178 190 159 179 192 159 180 193 159 181 194 159 182 196 159 183 197 159 183 198 159 184 200 159 185 201 159 186 202 159 187 204 159 188 205 159 189 206 159 189 208 159 190 209 159 191 210 159 192 212 159 193 213 159 194 214 159 195 216 159 195 217 159 196 218 159 197 220 159 198 221 159 199 222 159 200 224 159 201 225 159 201 226 159 202 228 159 203 229 159 204 230 159 205 232 159 206 233 159 207 234 159 207 236 159 208 237 159 209 238 159 210 240 159 211 241 159 212 242 159 213 244 159 213 245 159 214 246 159 215 248 159 216 249 159 217 250 159 218 252 159 219 253 159 219 255 159 220
0 162 58 1 162 59 2 162 59 4 162 60 5 162 61 6 162 62 8 162 63 9 162 64 10 162 65 12 162 65 13 162 66 14 162 67 16 162 68 17 162 69 18 162 70 20 162 71 21 162 71 22 162 72 24 162 73 25 162 74 26 162 75 28 162 76 29 162 77 30 162 77 32 162 78 33 162 79 34 162 80 36 162 81 37 162 82 38 162 83 40 162 83 41 162 84 42 162 85 44 162 86 45 162 87 46 162 88 48 162 88 49 162 89 50 162 90 52 162 91 53 162 92 54 162 93 56 162 94 57 162 94 58 162 95 60 162 96 61 162 97 62 162 98 64 162 99 65 162 100 66 162 100 68 162 101 69 162 102 70 162 103 72 162 104 73 162 105 74 162 106 76 162 106 77 162 107 78 162 108 80 162 109 81 162 110 82 162 111 84 162 112 85 162 112 86 162 113 88 162 114 89 162 115 90 162 116 92 162 117 93 162 118 94 162 118 96 162 119 97 162 120 98 162 121 100 162 122 101 162 123 102 162 124 104 162 124 105 162 125 106 162 126 108 162 127 109 162 128 110 162 129 112 162 130 113 162 130 114 162 131 116 162 132 117 162 133 118 162 134 120 162 135 121 162 136 122 162 136 124 162 137 125 162 138 126 162 139 128 162 140 129 162 141 130 162 142 132 162 142 133 162 143 134 162 144 136 162 145 137 162 146 138 162 147 140 162 148 141 162 148 142 162 149 144 162 150 145 162 151 146 162 152 148 162 153 149 162 154 150 162 154 152 162 155 153 162 156 154 162 157 156 162 158 157 162 159 158 162 160 160 162 160 161 162 161 162 162 162 164 162 163 165 162 164 166 162 165 168 162 166 169 162 166 170 162 167 172 162 168 173 162 169 174 162 170 176 162 171 177 162 171 178 162 172 180 162 173 181 162 174 182 162 175 184 162 176 185 162 177 186 162 177 188 162 178 189 162 179 190 162 180 192 162 181 193 162 182 194 162 183 196 162 183 197 162 184 198 162 185 200 162 186 201 162 187 202 162 188 204 162 189 205 162 189 206 162 190 208 162 191 209 162 192 210 162 193 212 162 194 213 162 195 214 162 195 216 162 196 217 162 197 218 162 198 220 162 199 221 162 200 222 162 201 224 162 201 225 162 202 226 162 203 228 162 204 229 162 205 230 162 206 232 162 207 233 162 207 234 162 208 236 162 209 237 162 210 238 162 211 240 162 212 241 162 213 242 162 213 244 162 214 245 162 215 246 162 216 248 162 217 249 162 218 250 162 219 252 162 219 253 162 220 255 162 221
0 164 59 1 164 59 2 164 60 4 164 61 5 164 62 6 164 63 8 164 64 9 164 65 10 164 65 12 164 66 13 164 67 14 164 68 16 164 69 17 164 70 18 164 71 20 164 71 21 164 72 22 164 73 24 164 74 25 164 75 26 164 76 28 164 77 29 164 77 30 164 78 32 164 79 33 164 80 34 164 81 36 164 82 37 164 83 38 164 83 40 164 84 41 164 85 42 164 86 44 164 87 45 164 88 46 164 88 48 164 89 49 164 90 50 164 91 52 164 92 53 164 93 54 164 94 56 164 94 57 164 95 58 164 96 60 164 97 61 164 98 62 164 99 64 164 100 65 164 100 66 164 101 68 164 102 69 164 103 70 164 104 72 164 105 73 164 106 74 164 106 76 164 107 77 164 108 78 164 109 80 164 110 81 164 111 82 164 112 84 164 112 85 164 113 86 164 114 88 164 115 89 164 116 90 164 117 92 164 118 93 164 118 94 164 119 96 164 120 97 164 121 98 164 122 100 164 123 101 164 124 102 164 124 104 164 125 105 164 126 106 164 127 108 164 128 109 164 129 110 164 130 112 164 130 113 164 131 114 164 132 116 164 133 117 164 134 118 164 135 120 164 136 121 164 136 122 164 137 124 164 138 125 164 139 126 164 140 128 164 141 129 164 142 130 164 142 132 164 143 133 164 144 134 164 145 136 164 146 137 164 147 138 164 148 140 164 148 141 164 149 142 164 150 144 164 151 145 164 152 146 164 153 148 164 154 149 164 154 150 164 155 152 164 156 153 164 157 154 164 158 156 164 159 157 164 160 158 164 160 160 164 161 161 164 162 162 164 163 164 164 164 165 164 165 166 164 166 168 164 166 169 164 167 170 164 168 172 164 169 173 164 170 174 164 171 176 164 171 177 164 172 178 164 173 180 164 174 181 164 175 182 164 176 184 164 177 185 164 177 186 164 178 188 164 179 189 164 180 190 164 181 192 164 182 193 164 183 194 164 183 196 164 184 197 164 185 198 164 186 200 164 187 201 164 188 202 164 189 204 164 189 205 164 190 206 164 191 208 164 192 209 164 193 210 164 194 212 164 195 213 164 195 214 164 196 216 164 197 217 164 198 218 164 199 220 164 200 221 164 201 222 164 201 224 164 202 225 164 203 226 164 204 228 164 205 229 164 206 230 164 207 232 164 207 233 164 208 234 164 209 236 164 210 237 164 211 238 164 212 240 164 213 241 164 213 242 164 214 244 164 215 245 164 216 246 164 217 248 164 218 249 164 219 250 164 219 252 164 220 253 164 221 255 164 222
0 166 59 1 166 60 2 166 61 4 166 62 5 166 63 6 166 64 8 166 65 9 166 65 10 166 66 12 166 67 13 166 68 14 166 69 16 166 70 17 166 71 18 166 71 20 166 72 21 166 73 22 166 74 24 166 75 25 166 76 26 166 77 28 166 77 29 166 78 30 166 79 32 166 80 33 166 81 34 166 82 36 166 83 37 166 83 38 166 84 40 166 85 41 166 86 42 166 87 44 166 88 45 166 88 46 166 89 48 166 90 49 166 91 50 166 92 52 166 93 53 166 94 54 166 94 56 166 95 57 166 96 58 166 97 60 166 98 61 166 99 62 166 100 64 166 100 65 166 101 66 166 102 68 166 103 69 166 104 70 166 105 72 166 106 73 166 106 74 166 107 76 166 108 77 166 109 78 166 110 80 166 111 81 166 112 82 166 112 84 166 113 85 166 114 86 166 115 88 166 116 89 166 117 90 166 118 92 166 118 93 166 119 94 166 120 96 166 121 97 166 122 98 166 123 100 166 124 101 166 124 102 166 125 104 166 126 105 166 127 106 166 128 108 166 129 109 166 130 110 166 130 112 166 131 113 166 132 114 166 133 116 166 134 117 166 135 118 166 136 120 166 136 121 166 137 122 166 138 124 166 139 125 166 140 126 166 141 128 166 142 129 166 142 130 166 143 132 166 144 133 166 145 134 166 146 136 166 147 137 166 148 138 166 148 140 166 149 141 166 150 142 166 151 144 166 152 145 166 153 146 166 154 148 166 154 149 166 155 150 166 156 152 166 157 153 166 158 154 166 159 156 166 160 157 166 160 158 166 161 160 166 162 161 166 163 162 166 164 164 166 165 165 166 166 166 166 166 168 166 167 169 166 168 170 166 169 172 166 170 173 166 171 174 166 171 176 166 172 177 166 173 178 166 174 180 166 175 181 166 176 182 166 177 184 166 177 185 166 178 186 166 179 188 166 180 189 166 181 190 166 182 192 166 183 193 166 183 194 166 184 196 166 185 197 166 186 198 166 187 200 166 188 201 166 189 202 166 189 204 166 190 205 166 191 206 166 192 208 166 193 209 166 194 210 166 195 212 166 195 213 166 196 214 166 197 216 166 198 217 166 199 218 166 200 220 166 201 221 166 201 222 166 202 224 166 203 225 166 204 226 166 205 228 166 206 229 166 207 230 166 207 232 166 208 233 166 209 234 166 210 236 166 211 237 166 212 238 166 213 240 166 213 241 166 214 242 166 215 244 166 216 245 166 217 246 166 218 248 166 219 249 166 219 250 166 220 252 166 221 253 166 222 255 166 223
0 169 60 1 169 61 2 169 62 4 169 63 5 169 64 6 169 65 8 169 65 9 169 66 10 169 67 12 169 68 13 169 69 14 169 70 16 169 71 17 169 71 18 169 72 20 169 73 21 169 74 22 169 75 24 169 76 25 169 77 26 169 77 28 169 78 29 169 79 30 169 80 32 169 81 33 169 82 34 169 83 36 169 83 37 169 84 38 169 85 40 169 86 41 169 87 42 169 88 44 169 88 45 169 89 46 169 90 48 169 91 49 169 92 50 169 93 52 169 94 53 169 94 54 169 95 56 169 96 57 169 97 58 169 98 60 169 99 61 169 100 62 169 100 64 169 101 65 169 102 66 169 103 68 169 104 69 169 105 70 169 106 72 169 106 73 169 107 74 169 108 76 169 109 77 169 110 78 169 111 80 169 112 81 169 112 82 169 113 84 169 114 85 169 115 86 169 116 88 169 117 89 169 118 90 169 118 92 169 119 93 169 120 94 169 121 96 169 122 97 169 123 98 169 124 100 169 124 101 169 125 102 169 126 104 169 127 105 169 128 106 169 129 108 169 130 109 169 130 110 169 131 112 169 132 113 169 133 114 169 134 116 169 135 117 169 136 118 169 136 120 169 137 121 169 138 122 169 139 124 169 140 125 169 141 126 169 142 128 169 142 129 169 143 130 169 144 132 169 145 133 169 146 134 169 147 136 169 148 137 169 148 138 169 149 140 169 150 141 169 151 142 169 152 144 169 153 145 169 154 146 169 154 148 169 155 149 169 156 150 169 157 152 169 158 153 169 159 154 169 160 156 169 160 157 169 161 158 169 162 160 169 163 161 169 164 162 169 165 164 169 166 165 169 166 166 169 167 168 169 168 169 169 169 170 169 170 172 169 171 173 169 171 174 169 172 176 169 173 177 169 174 178 169 175 180 169 176 181 169 177 182 169 177 184 169 178 185 169 179 186 169 180 188 169 181 189 169 182 190 169 183 192 169 183 193 169 184 194 169 185 196 169 186 197 169 187 198 169 188 200 169 189 201 169 189 202 169 190 204 169 191 205 169 192 206 169 193 208 169 194 209 169 195 210 169 195 212 169 196 213 169 197 214 169 198 216 169 199 217 169 200 218 169 201 220 169 201 221 169 202 222 169 203 224 169 204 225 169 205 226 169 206 228 169 207 229 169 207 230 169 208 232 169 209 233 169 210 234 169 211 236 169 212 237 169 213 238 169 213 240 169 214 241 169 215 242 169 216 244 169 217 245 169 218 246 169 219 248 169 219 249 169 220 250 169 221 252 169 222 253 169 223 255 169 224
0 171 61 1 171 62 2 171 63 4 171 64 5 171 65 6 171 65 8 171 66 9 171 67 10 171 68 12 171 69 13 171 70 14 171 71 16 171 71 17 171 72 18 171 73 20 171 74 21 171 75 22 171 76 24 171 77 25 171 77 26 171 78 28 171 79 29 171 80 30 171 81 32 171 82 33 171 83 34 171 83 36 171 84 37 171 85 38 171 86 40 171 87 41 171 88 42 171 88 44 171 89 45 171 90 46 171 91 48 171 92 49 171 93 50 171 94 52 171 94 53 171 95 54 171 96 56 171 97 57 171 98 58 171 99 60 171 100 61 171 100 62 171 101 64 171 102 65 171 103 66 171 104 68 171 105 69 171 106 70 171 106 72 171 107 73 171 108 74 171 109 76 171 110 77 171 111 78 171 112 80 171 112 81 171 113 82 171 114 84 171 115 85 171 116 86 171 117 88 171 118 89 171 118 90 171 119 92 171 120 93 171 121 94 171 122 96 171 123 97 171 124 98 171 124 100 171 125 101 171 126 102 171 127 104 171 128 105 171 129 106 171 130 108 171 130 109 171 131 110 171 132 112 171 133 113 171 134 114 171 135 116 171 136 117 171 136 118 171 137 120 171 138 121 171 139 122 171 140 124 171 141 125 171 142 126 171 142 128 171 143 129 171 144 130 171 145 132 171 146 133 171 147 134 171 148 136 171 148 137 171 149 138 171 150 140 171 151 141 171 152 142 171 153 144 171 154 145 171 154 146 171 155 148 171 156 149 171 157 150 171 158 152 171 159 153 171 160 154 171 160 156 171 161 157 171 162 158 171 163 160 171 164 161 171 165 162 171 166 164 171 166 165 171 167 166 171 168 168 171 169 169 171 170 170 171 171 172 171 171 173 171 172 174 171 173 176 171 174 177 171 175 178 171 176 180 171 177 181 171 177 182 171 178 184 171 179 185 171 180 186 171 181 188 171 182 189 171 183 190 171 183 192 171 184 193 171 185 194 171 186 196 171 187 197 171 188 198 171 189 200 171 189 201 171 190 202 171 191 204 171 192 205 171 193 206 171 194 208 171 195 209 171 195 210 171 196 212 171 197 213 171 198 214 171 199 216 171 200 217 171 201 218 171 201 220 171 202 221 171 203 222 171 204 224 171 205 225 171 206 226 171 207 228 171 207 229 171 208 230 171 209 232 171 210 233 171 211 234 171 212 236 171 213 237 171 213 238 171 214 240 171 215 241 171 216 242 171 217 244 171 218 245 171 219 246 171 219 248 171 220 249 171 221 250 171 222 252 171 223 253 171 224 255 171 225
0 173 62 1 173 63 2 173 64 4 173 65 5 173 65 6 173 66 8 173 67 9 173 68 10 173 69 12 173 70 13 173 71 14 173 71 16 173 72 17 173 73 18 173 74 20 173 75 21 173 76 22 173 77 24 173 77 25 173 78 26 173 79 28 173 80 29 173 81 30 173 82 32 173 83 33 173 83 34 173 84 36 173 85 37 173 86 38 173 87 40 173 88 41 173 88 42 173 89 44 173 90 45 173 91 46 173 92 48 173 93 49 173 94 50 173 94 52 173 95 53 173 96 54 173 97 56 173 98 57 173 99 58 173 100 60 173 100 61 173 101 62 173 102 64 173 103 65 173 104 66 173 105 68 173 106 69 173 106 70 173 107 72 173 108 73 173 109 74 173 110 76 173 111 77 173 112 78 173 112 80 173 113 81 173 114 82 173 115 84 173 116 85 173 117 86 173 118 88 173 118 89 173 119 90 173 120 92 173 121 93 173 122 94 173 123 96 173 124 97 173 124 98 173 125 100 173 126 101 173 127 102 173 128 104 173 129 105 173 130 106 173 130 108 173 131 109 173 132 110 173 133 112 173 134 113 173 135 114 173 136 116 173 136 117 173 137 118 173 138 120 173 139 121 173 140 122 173 141 124 173 142 125 173 142 126 173 143 128 173 144 129 173 145 130 173 146 132 173 147 133 173 148 134 173 148 136 173 149 137 173 150 138 173 151 140 173 152 141 173 153 142 173 154 144 173 154 145 173 155 146 173 156 148 173 157 149 173 158 150 173 159 152 173 160 153 173 160 154 173 161 156 173 162 157 173 163 158 173 164 160 173 165 161 173 166 162 173 166 164 173 167 165 173 168 166 173 169 168 173 170 169 173 171 170 173 171 172 173 172 173 173 173 174 173 174 176 173 175 177 173 176 178 173 177 180 173 177 181 173 178 182 173 179 184 173 180 185 173 181 186 173 182 188 173 183 189 173 183 190 173 184 192 173 185 193 173 186 194 173 187 196 173 188 197 173 189 198 173 189 200 173 190 201 173 191 202 173 192 204 173 193 205 173 194 206 173 195 208 173 195 209 173 196 210 173 197 212 173 198 213 173 199 214 173 200 216 173 201 217 173 201 218 173 202 220 173 203 221 173 204 222 173 205 224 173 206 225 173 207 226 173 207 228 173 208 229 173 209 230 173 210 232 173 211 233 173 212 234 173 213 236 173 213 237 173 214 238 173 215 240 173 216 241 173 217 242 173 218 244 173 219 245 173 219 246 173 220 248 173 221 249 173 222 250 173 223 252 173 224 253 173 225 255 173 225
0 176 63 1 176 64 2 176 65 4 176 65 5 176 66 6 176 67 8 176 68 9 176 69 10 176 70 12 176 71 13 176 71 14 176 72 16 176 73 17 176 74 18 176 75 20 176 76 21 176 77 22 176 77 24 176 78 25 176 79 26 176 80 28 176 81 29 176 82 30 176 83 32 176 83 33 176 84 34 176 85 36 176 86 37 176 87 38 176 88 40 176 88 41 176 89 42 176 90 44 176 91 45 176 92 46 176 93 48 176 94 49 176 94 50 176 95 52 176 96 53 176 97 54 176 98 56 176 99 57 176 100 58 176 100 60 176 101 61 176 102 62 176 103 64 176 104 65 176 105 66 176 106 68 176 106 69 176 107 70 176 108 72 176 109 73 176 110 74 176 111 76 176 112 77 176 112 78 176 113 80 176 114 81 176 115 82 176 116 84 176 117 85 176 118 86 176 118 88 176 119 89 176 120 90 176 121 92 176 122 93 176 123 94 176 124 96 176 124 97 176 125 98 176 126 100 176 127 101 176 128 102 176 129 104 176 130 105 176 130 106 176 131 108 176 132 109 176 133 110 176 134 112 176 135 113 176 136 114 176 136 116 176 137 117 176 138 118 176 139 120 176 140 121 176 141 122 176 142 124 176 142 125 176 143 126 176 144 128 176 145 129 176 146 130 176 147 132 176 148 133 176 148 134 176 149 136 176 150 137 176 151 138 176 152 140 176 153 141 176 154 142 176 154 144 176 155 145 176 156 146 176 157 148 176 158 149 176 159 150 176 160 152 176 160 153 176 161 154 176 162 156 176 163 157 176 164 158 176 165 160 176 166 161 176 166 162 176 167 164 176 168 165 176 169 166 176 170 168 176 171 169 176 171 170 176 172 172 176 173 173 176 174 174 176 175 176 176 176 177 176 177 178 176 177 180 176 178 181 176 179 182 176 180 184 176 181 185 176 182 186 176 183 188 176 183 189 176 184 190 176 185 192 176 186 193 176 187 194 176 188 196 176 189 197 176 189 198 176 190 200 176 191 201 176 192 202 176 193 204 176 194 205 176 195 206 176 195 208 176 196 209 176 197 210 176 198 212 176 199 213 176 200 214 176 201 216 176 201 217 176 202 218 176 203 220 176 204 221 176 205 222 176 206 224 176 207 225 176 207 226 176 208 228 176 209 229 176 210 230 176 211 232 176 212 233 176 213 234 176 213 236 176 214 237 176 215 238 176 216 240 176 217 241 176 218 242 176 219 244 176 219 245 176 220 246 176 221 248 176 222 249 176 223 250 176 224 252 176 225 253 176 225 255 176 226
0 178 64 1 178 65 2 178 65 4 178 66 5 178 67 6 178 68 8 178 69 9 178 70 10 178 71 12 178 71 13 178 72 14 178 73 16 178 74 17 178 75 18 178 76 20 178 77 21 178 77 22 178 78 24 178 79 25 178 80 26 178 81 28 178 82 29 178 83 30 178 83 32 178 84 33 178 85 34 178 86 36 178 87 37 178 88 38 178 88 40 178 89 41 178 90 42 178 91 44 178 92 45 178 93 46 178 94 48 178 94 49 178 95 50 178 96 52 178 97 53 178 98 54 178 99 56 178 100 57 178 100 58 178 101 60 178 102 61 178 103 62 178 104 64 178 105 65 178 106 66 178 106 68 178 107 69 178 108 70 178 109 72 178 110 73 178 111 74 178 112 76 178 112 77 178 113 78 178 114 80 178 115 81 178 116 82 178 117 84 178 118 85 178 118 86 178 119 88 178 120 89 178 121 90 178 122 92 178 123 93 178 124 94 178 124 96 178 125 97 178 126 98 178 127 100 178 128 101 178 129 102 178 130 104 178 130 105 178 131 106 178 132 108 178 133 109 178 134 110 178 135 112 178 136 113 178 136 114 178 137 116 178 138 117 178 139 118 178 140 120 178 141 121 178 142 122 178 142 124 178 143 125 178 144 126 178 145 128 178 146 129 178 147 130 178 148 132 178 148 133 178 149 134 178 150 136 178 151 137 178 152 138 178 153 140 178 154 141 178 154 142 178 155 144 178 156 145 178 157 146 178 158 148 178 159 149 178 160 150 178 160 152 178 161 153 178 162 154 178 163 156 178 164 157 178 165 158 178 166 160 178 166 161 178 167 162 178 168 164 178 169 165 178 170 166 178 171 168 178 171 169 178 172 170 178 173 172 178 174 173 178 175 174 178 176 176 178 177 177 178 177 178 178 178 180 178 179 181 178 180 182 178 181 184 178 182 185 178 183 186 178 183 188 178 184 189 178 185 190 178 186 192 178 187 193 178 188 194 178 189 196 178 189 197 178 190 198 178 191 200 178 192 201 178 193 202 178 194 204 178 195 205 178 195 206 178 196 208 178 197 209 178 198 210 178 199 212 178 200 213 178 201 214 178 201 216 178 202 217 178 203 218 178 204 220 178 205 221 178 206 222 178 207 224 178 207 225 178 208 226 178 209 228 178 210 229 178 211 230 178 212 232 178 213 233 178 213 234 178 214 236 178 215 237 178 216 238 178 217 240 178 218 241 178 219 242 178 219 244 178 220 245 178 221 246 178 222 248 178 223 249 178 224 250 178 225 252 178 225 253 178 226 255 178 227
0 181 65 1 181 65 2 181 66 4 181 67 5 181 68 6 181 69 8 181 70 9 181 71 10 181 71 12 181 72 13 181 73 14 181 74 16 181 75 17 181 76 18 181 77 20 181 77 21 181 78 22 181 79 24 181 80 25 181 81 26 181 82 28 181 83 29 181 83 30 181 84 32 181 85 33 181 86 34 181 87 36 181 88 37 181 88 38 181 89 40 181 90 41 181 91 42 181 92 44 181 93 45 181 94 46 181 94 48 181 95 49 181 96 50 181 97 52 181 98 53 181 99 54 181 100 56 181 100 57 181 101 58 181 102 60 181 103 61 181 104 62 181 105 64 181 106 65 181 106 66 181 107 68 181 108 69 181 109 70 181 110 72 181 111 73 181 112 74 181 112 76 181 113 77 181 114 78 181 115 80 181 116 81 181 117 82 181 118 84 181 118 85 181 119 86 181 120 88 181 121 89 181 122 90 181 123 92 181 124 93 181 124 94 181 125 96 181 126 97 181 127 98 181 128 100 181 129 101 181 130 102 181 130 104 181 131 105 181 132 106 181 133 108 181 134 109 181 135 110 181 136 112 181 136 113 181 137 114 181 138 116 181 139 117 181 140 118 181 141 120 181 142 121 181 142 122 181 143 124 181 144 125 181 145 126 181 146 128 181 147 129 181 148 130 181 148 132 181 149 133 181 150 134 181 151 136 181 152 137 181 153 138 181 154 140 181 154 141 181 155 142 181 156 144 181 157 145 181 158 146 181 159 148 181 160 149 181 160 150 181 161 152 181 162 153 181 163 154 181 164 156 181 165 157 181 166 158 181 166 160 181 167 161 181 168 162 181 169 164 181 170 165 181 171 166 181 171 168 181 172 169 181 173 170 181 174 172 181 175 173 181 176 174 181 177 176 181 177 177 181 178 178 181 179 180 181 180 181 181 181 182 181 182 184 181 183 185 181 183 186 181 184 188 181 185 189 181 186 190 181 187 192 181 188 193 181 189 194 181 189 196 181 190 197 181 191 198 181 192 200 181 193 201 181 194 202 181 195 204 181 195 205 181 196 206 181 197 208 181 198 209 181 199 210 181 200 212 181 201 213 181 201 214 181 202 216 181 203 217 181 204 218 181 205 220 181 206 221 181 207 222 181 207 224 181 208 225 181 209 226 181 210 228 181 211 229 181 212 230 181 213 232 181 213 233 181 214 234 181 215 236 181 216 237 181 217 238 181 218 240 181 219 241 181 219 242 181 220 244 181 221 245 181 222 246 181 223 248 181 224 249 181 225 250 181 225 252 181 226 253 181 227 255 181 228
0 183 65 1 183 66 2 183 67 4 183 68 5 183 69 6 183 70 8 183 71 9 183 71 10 183 72 12 183 73 13 183 74 14 183 75 16 183 76 17 183 77 18 183 77 20 183 78 21 183 79 22 183 80 24 183 81 25 183 82 26 183 83 28 183 83 29 183 84 30 183 85 32 183 86 33 183 87 34 183 88 36 183 88 37 183 89 38 183 90 40 183 91 41 183 92 42 183 93 44 183 94 45 183 94 46 183 95 48 183 96 49 183 97 50 183 98 52 183 99 53 183 100 54 183 100 56 183 101 57 183 102 58 183 103 60 183 104 61 183 105 62 183 106 64 183 106 65 183 107 66 183 108 68 183 109 69 183 110 70 183 111 72 183 112 73 183 112 74 183 113 76 183 114 77 183 115 78 183 116 80 183 117 81 183 118 82 183 118 84 183 119 85 183 120 86 183 121 88 183 122 89 183 123 90 183 124 92 183 124 93 183 125 94 183 126 96 183 127 97 183 128 98 183 129 100 183 130 101 183 130 102 183 131 104 183 132 105 183 133 106 183 134 108 183 135 109 183 136 110 183 136 112 183 137 113 183 138 114 183 139 116 183 140 117 183 141 118 183 142 120 183 142 121 183 143 122 183 144 124 183 145 125 183 146 126 183 147 128 183 148 129 183 148 130 183 149 132 183 150 133 183 151 134 183 152 136 183 153 137 183 154 138 183 154 140 183 155 141 183 156 142 183 157 144 183 158 145 183 159 146 183 160 148 183 160 149 183 161 150 183 162 152 183 163 153 183 164 154 183 165 156 183 166 157 183 166 158 183 167 160 183 168 161 183 169 162 183 170 164 183 171 165 183 171 166 183 172 168 183 173 169 183 174 170 183 175 172 183 176 173 183 177 174 183 177 176 183 178 177 183 179 178 183 180 180 183 181 181 183 182 182 183 183 184 183 183 185 183 184 186 183 185 188 183 186 189 183 187 190 183 188 192 183 189 193 183 189 194 183 190 196 183 191 197 183 192 198 183 193 200 183 194 201 183 195 202 183 195 204 183 196 205 183 197 206 183 198 208 183 199 209 183 200 210 183 201 212 183 201 213 183 202 214 183 203 216 183 204 217 183 205 218 183 206 220 183 207 221 183 207 222 183 208 224 183 209 225 183 210 226 183 211 228 183 212 229 183 213 230 183 213 232 183 214 233 183 215 234 183 216 236 183 217 237 183 218 238 183 219 240 183 219 241 183 220 242 183 221 244 183 222 245 183 223 246 183 224 248 183 225 249 183 225 250 183 226 252 183 227 253 183 228 255 183 229
0 185 66 1 185 67 2 185 68 4 185 69 5 185 70 6 185 71 8 185 71 9 185 72 10 185 73 12 185 74 13 185 75 14 185 76 16 185 77 17 185 77 18 185 78 20 185 79 21 185 80 22 185 81 24 185 82 25 185 83 26 185 83 28 185 84 29 185 85 30 185 86 32 185 87 33 185 88 34 185 88 36 185 89 37 185 90 38 185 91 40 185 92 41 185 93 42 185 94 44 185 94 45 185 95 46 185 96 48 185 97 49 185 98 50 185 99 52 185 100 53 185 100 54 185 101 56 185 102 57 185 103 58 185 104 60 185 105 61 185 106 62 185 106 64 185 107 65 185 108 66 185 109 68 185 110 69 185 111 70 185 112 72 185 112 73 185 113 74 185 114 76 185 115 77 185 116 78 185 117 80 185 118 81 185 118 82 185 119 84 185 120 85 185 121 86 185 122 88 185 123 89 185 124 90 185 124 92 185 125 93 185 126 94 185 127 96 185 128 97 185 129 98 185 130 100 185 130 101 185 131 102 185 132 104 185 133 105 185 134 106 185 135 108 185 136 109 185 136 110 185 137 112 185 138 113 185 139 114 185 140 116 185 141 117 185 142 118 185 142 120 185 143 121 185 144 122 185 145 124 185 146 125 185 147 126 185 148 128 185 148 129 185 149 130 185 150 132 185 151 133 185 152 134 185 153 136 185 154 137 185 154 138 185 155 140 185 156 141 185 157 142 185 158 144 185 159 145 185 160 146 185 160 148 185 161 149 185 162 150 185 163 152 185 164 153 185 165 154 185 166 156 185 166 157 185 167 158 185 168 160 185 169 161 185 170 162 185 171 164 185 171 165 185 172 166 185 173 168 185 174 169 185 175 170 185 176 172 185 177 173 185 177 174 185 178 176 185 179 177 185 180 178 185 181 180 185 182 181 185 183 182 185 183 184 185 184 185 185 185 186 185 186 188 185 187 189 185 188 190 185 189 192 185 189 193 185 190 194 185 191 196 185 192 197 185 193 198 185 194 200 185 195 201 185 195 202 185 196 204 185 197 205 185 198 206 185 199 208 185 200 209 185 201 210 185 201 212 185 202 213 185 203 214 185 204 216 185 205 217 185 206 218 185 207 220 185 207 221 185 208 222 185 209 224 185 210 225 185 211 226 185 212 228 185 213 229 185 213 230 185 214 232 185 215 233 185 216 234 185 217 236 185 218 237 185 219 238 185 219 240 185 220 241 185 221 242 185 222 244 185 223 245 185 224 246 185 225 248 185 225 249 185 226 250 185 227 252 185 228 253 185 229 255 185 230
0 188 67 1 188 68 2 188 69 4 188 70 5 188 71 6 188 71 8 188 72 9 188 73 10 188 74 12 188 75 13 188 76 14 188 77 16 188 77 17 188 78 18 188 79 20 188 80 21 188 81 22 188 82 24 188 83 25 188 83 26 188 84 28 188 85 29 188 86 30 188 87 32 188 88 33 188 88 34 188 89 36 188 90 37 188 91 38 188 92 40 188 93 41 188 94 42 188 94 44 188 95 45 188 96 46 188 97 48 188 98 49 188 99 50 188 100 52 188 100 53 188 101 54 188 102 56 188 103 57 188 104 58 188 105 60 188 106 61 188 106 62 188 107 64 188 108 65 188 109 66 188 110 68 188 111 69 188 112 70 188 112 72 188 113 73 188 114 74 188 115 76 188 116 77 188 117 78 188 118 80 188 118 81 188 119 82 188 120 84 188 121 85 188 122 86 188 123 88 188 124 89 188 124 90 188 125 92 188 126 93 188 127 94 188 128 96 188 129 97 188 130 98 188 130 100 188 131 101 188 132 102 188 133 104 188 134 105 188 135 106 188 136 108 188 136 109 188 137 110 188 138 112 188 139 113 188 140 114 188 141 116 188 142 117 188 142 118 188 143 120 188 144 121 188 145 122 188 146 124 188 147 125 188 148 126 188 148 128 188 149 129 188 150 130 188 151 132 188 152 133 188 153 134 188 154 136 188 154 137 188 155 138 188 156 140 188 157 141 188 158 142 188 159 144 188 160 145 188 160 146 188 161 148 188 162 149 188 163 150 188 164 152 188 165 153 188 166 154 188 166 156 188 167 157 188 168 158 188 169 160 188 170 161 188 171 162 188 171 164 188 172 165 188 173 166 188 174 168 188 175 169 188 176 170 188 177 172 188 177 173 188 178 174 188 179 176 188 180 177 188 181 178 188 182 180 188 183 181 188 183 182 188 184 184 188 185 185 188 186 186 188 187 188 188 188 189 188 189 190 188 189 192 188 190 193 188 191 194 188 192 196 188 193 197 188 194 198 188 195 200 188 195 201 188 196 202 188 197 204 188 198 205 188 199 206 188 200 208 188 201 209 188 201 210 188 202 212 188 203 213 188 204 214 188 205 216 188 206 217 188 207 218 188 207 220 188 208 221 188 209 222 188 210 224 188 211 225 188 212 226 188 213 228 188 213 229 188 214 230 188 215 232 188 216 233 188 217 234 188 218 236 188 219 237 188 219 238 188 220 240 188 221 241 188 222 242 188 223 244 188 224 245 188 225 246 188 225 248 188 226 249 188 227 250 188 228 252 188 229 253 188 230 255 188 231
0 190 68 1 190 69 2 190 70 4 190 71 5 190 71 6 190 72 8 190 73 9 190 74 10 190 75 12 190 76 13 190 77 14 190 77 16 190 78 17 190 79 18 190 80 20 190 81 21 190 82 22 190 83 24 190 83 25 190 84 26 190 85 28 190 86 29 190 87 30 190 88 32 190 88 33 190 89 34 190 90 36 190 91 37 190 92 38 190 93 40 190 94 41 190 94 42 190 95 44 190 96 45 190 97 46 190 98 48 190 99 49 190 100 50 190 100 52 190 101 53 190 102 54 190 103 56 190 104 57 190 105 58 190 106 60 190 106 61 190 107 62 190 108 64 190 109 65 190 110 66 190 111 68 190 112 69 190 112 70 190 113 72 190 114 73 190 115 74 190 116 76 190 117 77 190 118 78 190 118 80 190 119 81 190 120 82 190 121 84 190 122 85 190 123 86 190 124 88 190 124 89 190 125 90 190 126 92 190 127 93 190 128 94 190 129 96 190 130 97 190 130 98 190 131 100 190 132 101 190 133 102 190 134 104 190 135 105 190 136 106 190 136 108 190 137 109 190 138 110 190 139 112 190 140 113 190 141 114 190 142 116 190 142 117 190 143 118 190 144 120 190 145 121 190 146 122 190 147 124 190 148 125 190 148 126 190 149 128 190 150 129 190 151 130 190 152 132 190 153 133 190 154 134 190 154 136 190 155 137 190 156 138 190 157 140 190 158 141 190 159 142 190 160 144 190 160 145 190 161 146 190 162 148 190 163 149 190 164 150 190 165 152 190 166 153 190 166 154 190 167 156 190 168 157 190 169 158 190 170 160 190 171 161 190 171 162 190 172 164 190 173 165 190 174 166 190 175 168 190 176 169 190 177 170 190 177 172 190 178 173 190 179 174 190 180 176 190 181 177 190 182 178 190 183 180 190 183 181 190 184 182 190 185 184 190 186 185 190 187 186 190 188 188 190 189 189 190 189 190 190 190 192 190 191 193 190 192 194 190 193 196 190 194 197 190 195 198 190 195 200 190 196 201 190 197 202 190 198 204 190 199 205 190 200 206 190 201 208 190 201 209 190 202 210 190 203 212 190 204 213 190 205 214 190 206 216 190 207 217 190 207 218 190 208 220 190 209 221 190 210 222 190 211 224 190 212 225 190 213 226 190 213 228 190 214 229 190 215 230 190 216 232 190 217 233 190 218 234 190 219 236 190 219 237 190 220 238 190 221 240 190 222 241 190 223 242 190 224 244 190 225 245 190 225 246 190 226 248 190 227 249 190 228 250 190 229 252 190 230 253 190 231 255 190 231
0 193 69 1 193 70 2 193 71 4 193 71 5 193 72 6 193 73 8 193 74 9 193 75 10 193 76 12 193 77 13 193 77 14 193 78 16 193 79 17 193 80 18 193 81 20 193 82 21 193 83 22 193 83 24 193 84 25 193 85 26 193 86 28 193 87 29 193 88 30 193 88 32 193 89 33 193 90 34 193 91 36 193 92 37 193 93 38 193 94 40 193 94 41 193 95 42 193 96 44 193 97 45 193 98 46 193 99 48 193 100 49 193 100 50 193 101 52 193 102 53 193 103 54 193 104 56 193 105 57 193 106 58 193 106 60 193 107 61 193 108 62 193 109 64 193 110 65 193 111 66 193 112 68 193 112 69 193 113 70 193 114 72 193 115 73 193 116 74 193 117 76 193 118 77 193 118 78 193 119 80 193 120 81 193 121 82 193 122 84 193 123 85 193 124 86 193 124 88 193 125 89 193 126 90 193 127 92 193 128 93 193 129 94 193 130 96 193 130 97 193 131 98 193 132 100 193 133 101 193 134 102 193 135 104 193 136 105 193 136 106 193 137 108 193 138 109 193 139 110 193 140 112 193 141 113 193 142 114 193 142 116 193 143 117 193 144 118 193 145 120 193 146 121 193 147 122 193 148 124 193 148 125 193 149 126 193 150 128 193 151 129 193 152 130 193 153 132 193 154 133 193 154 134 193 155 136 193 156 137 193 157 138 193 158 140 193 159 141 193 160 142 193 160 144 193 161 145 193 162 146 193 163 148 193 164 149 193 165 150 193 166 152 193 166 153 193 167 154 193 168 156 193 169 157 193 170 158 193 171 160 193 171 161 193 172 162 193 173 164 193 174 165 193 175 166 193 176 168 193 177 169 193 177 170 193 178 172 193 179 173 193 180 174 193 181 176 193 182 177 193 183 178 193 183 180 193 184 181 193 185 182 193 186 184 193 187 185 193 188 186 193 189 188 193 189 189 193 190 190 193 191 192 193 192 193 193 193 194 193 194 196 193 195 197 193 195 198 193 196 200 193 197 201 193 198 202 193 199 204 193 200 205 193 201 206 193 201 208 193 202 209 193 203 210 193 204 212 193 205 213 193 206 214 193 207 216 193 207 217 193 208 218 193 209 220 193 210 221 193 211 222 193 212 224 193 213 225 193 213 226 193 214 228 193 215 229 193 216 230 193 217 232 193 218 233 193 219 234 193 219 236 193 220 237 193 221 238 193 222 240 193 223 241 193 224 242 193 225 244 193 225 245 193 226 246 193 227 248 193 228 249 193 229 250 193 230 252 193 231 253 193 231 255 193 232
0 195 70 1 195 71 2 195 71 4 195 72 5 195 73 6 195 74 8 195 75 9 195 76 10 195 77 12 195 77 13 195 78 14 195 79 16 195 80 17 195 81 18 195 82 20 195 83 21 195 83 22 195 84 24 195 85 25 195 86 26 195 87 28 195 88 29 195 88 30 195 89 32 195 90 33 195 91 34 195 92 36 195 93 37 195 94 38 195 94 40 195 95 41 195 96 42 195 97 44 195 98 45 195 99 46 195 100 48 195 100 49 195 101 50 195 102 52 195 103 53 195 104 54 195 105 56 195 106 57 195 106 58 195 107 60 195 108 61 195 109 62 195 110 64 195 111 65 195 112 66 195 112 68 195 113 69 195 114 70 195 115 72 195 116 73 195 117 74 195 118 76 195 118 77 195 119 78 195 120 80 195 121 81 195 122 82 195 123 84 195 124 85 195 124 86 195 125 88 195 126 89 195 127 90 195 128 92 195 129 93 195 130 94 195 130 96 195 131 97 195 132 98 195 133 100 195 134 101 195 135 102 195 136 104 195 136 105 195 137 106 195 138 108 195 139 109 195 140 110 195 141 112 195 142 113 195 142 114 195 143 116 195 144 117 195 145 118 195 146 120 195 147 121 195 148 122 195 148 124 195 149 125 195 150 126 195 151 128 195 152 129 195 153 130 195 154 132 195 154 133 195 155 134 195 156 136 195 157 137 195 158 138 195 159 140 195 160 141 195 160 142 195 161 144 195 162 145 195 163 146 195 164 148 195 165 149 195 166 150 195 166 152 195 167 153 195 168 154 195 169 156 195 170 157 195 171 158 195 171 160 195 172 161 195 173 162 195 174 164 195 175 165 195 176 166 195 177 168 195 177 169 195 178 170 195 179 172 195 180 173 195 181 174 195 182 176 195 183 177 195 183 178 195 184 180 195 185 181 195 186 182 195 187 184 195 188 185 195 189 186 195 189 188 195 190 189 195 191 190 195 192 192 195 193 193 195 194 194 195 195 196 195 195 197 195 196 198 195 197 200 195 198 201 195 199 202 195 200 204 195 201 205 195 201 206 195 202 208 195 203 209 195 204 210 195 205 212 195 206 213 195 207 214 195 207 216 195 208 217 195 209 218 195 210 220 195 211 221 195 212 222 195 213 224 195 213 225 195 214 226 195 215 228 195 216 229 195 217 230 195 218 232 195 219 233 195 219 234 195 220 236 195 221 237 195 222 238 195 223 240 195 224 241 195 225 242 195 225 244 195 226 245 195 227 246 195 228 248 195 229 249 195 230 250 195 231 252 195 231 253 195 232 255 195 233
0 197 71 1 197 71 2 197 72 4 197 73 5 197 74 6 197 75 8 197 76 9 197 77 10 197 77 12 197 78 13 197 79 14 197 80 16 197 81 17 197 82 18 197 83 20 197 83 21 197 84 22 197 85 24 197 86 25 197 87 26 197 88 28 197 88 29 197 89 30 197 90 32 197 91 33 197 92 34 197 93 36 197 94 37 197 94 38 197 95 40 197 96 41 197 97 42 197 98 44 197 99 45 197 100 46 197 100 48 197 101 49 197 102 50 197 103 52 197 104 53 197 105 54 197 106 56 197 106 57 197 107 58 197 108 60 197 109 61 197 110 62 197 111 64 197 112 65 197 112 66 197 113 68 197 114 69 197 115 70 197 116 72 197 117 73 197 118 74 197 118 76 197 119 77 197 120 78 197 121 80 197 122 81 197 123 82 197 124 84 197 124 85 197 125 86 197 126 88 197 127 89 197 128 90 197 129 92 197 130 93 197 130 94 197 131 96 197 132 97 197 133 98 197 134 100 197 135 101 197 136 102 197 136 104 197 137 105 197 138 106 197 139 108 197 140 109 197 141 110 197 142 112 197 142 113 197 143 114 197 144 116 197 145 117 197 146 118 197 147 120 197 148 121 197 148 122 197 149 124 197 150 125 197 151 126 197 152 128 197 153 129 197 154 130 197 154 132 197 155 133 197 156 134 197 157 136 197 158 137 197 159 138 197 160 140 197 160 141 197 161 142 197 162 144 197 163 145 197 164 146 197 165 148 197 166 149 197 166 150 197 167 152 197 168 153 197 169 154 197 170 156 197 171 157 197 171 158 197 172 160 197 173 161 197 174 162 197 175 164 197 176 165 197 177 166 197 177 168 197 178 169 197 179 170 197 180 172 197 181 173 197 182 174 197 183 176 197 183 177 197 184 178 197 185 180 197 186 181 197 187 182 197 188 184 197 189 185 197 189 186 197 190 188 197 191 189 197 192 190 197 193 192 197 194 193 197 195 194 197 195 196 197 196 197 197 197 198 197 198 200 197 199 201 197 200 202 197 201 204 197 201 205 197 202 206 197 203 208 197 204 209 197 205 210 197 206 212 197 207 213 197 207 214 197 208 216 197 209 217 197 210 218 197 211 220 197 212 221 197 213 222 197 213 224 197 214 225 197 215 226 197 216 228 197 217 229 197 218 230 197 219 232 197 219 233 197 220 234 197 221 236 197 222 237 197 223 238 197 224 240 197 225 241 197 225 242 197 226 244 197 227 245 197 228 246 197 229 248 197 230 249 197 231 250 197 231 252 197 232 253 197 233 255 197 234
0 200 71 1 200 72 2 200 73 4 200 74 5 200 75 6 200 76 8 200 77 9 200 77 10 200 78 12 200 79 13 200 80 14 200 81 16 200 82 17 200 83 18 200 83 20 200 84 21 200 85 22 200 86 24 200 87 25 200 88 26 200 88 28 200 89 29 200 90 30 200 91 32 200 92 33 200 93 34 200 94 36 200 94 37 200 95 38 200 96 40 200 97 41 200 98 42 200 99 44 200 100 45 200 100 46 200 101 48 200 102 49 200 103 50 200 104 52 200 105 53 200 106 54 200 106 56 200 107 57 200 108 58 200 109 60 200 110 61 200 111 62 200 112 64 200 112 65 200 113 66 200 114 68 200 115 69 200 116 70 200 117 72 200 118 73 200 118 74 200 119 76 200 120 77 200 121 78 200 122 80 200 123 81 200 124 82 200 124 84 200 125 85 200 126 86 200 127 88 200 128 89 200 129 90 200 130 92 200 130 93 200 131 94 200 132 96 200 133 97 200 134 98 200 135 100 200 136 101 200 136 102 200 137 104 200 138 105 200 139 106 200 140 108 200 141 109 200 142 110 200 142 112 200 143 113 200 144 114 200 145 116 200 146 117 200 147 118 200 148 120 200 148 121 200 149 122 200 150 124 200 151 125 200 152 126 200 153 128 200 154 129 200 154 130 200 155 132 200 156 133 200 157 134 200 158 136 200 159 137 200 160 138 200 160 140 200 161 141 200 162 142 200 163 144 200 164 145 200 165 146 200 166 148 200 166 149 200 167 150 200 168 152 200 169 153 200 170 154 200 171 156 200 171 157 200 172 158 200 173 160 200 174 161 200 175 162 200 176 164 200 177 165 200 177 166 200 178 168 200 179 169 200 180 170 200 181 172 200 182 173 200 183 174 200 183 176 200 184 177 200 185 178 200 186 180 200 187 181 200 188 182 200 189 184 200 189 185 200 190 186 200 191 188 200 192 189 200 193 190 200 194 192 200 195 193 200 195 194 200 196 196 200 197 197 200 198 198 200 199 200 200 200 201 200 201 202 200 201 204 200 202 205 200 203 206 200 204 208 200 205 209 200 206 210 200 207 212 200 207 213 200 208 214 200 209 216 200 210 217 200 211 218 200 212 220 200 213 221 200 213 222 200 214 224 200 215 225 200 216 226 200 217 228 200 218 229 200 219 230 200 219 232 200 220 233 200 221 234 200 222 236 200 223 237 200 224 238 200 225 240 200 225 241 200 226 242 200 227 244 200 228 245 200 229 246 200 230 248 200 231 249 200 231 250 200 232 252 200 233 253 200 234 255 200 235
0 202 72 1 202 73 2 202 74 4 202 75 5 202 76 6 202 77 8 202 77 9 202 78 10 202 79 12 202 80 13 202 81 14 202 82 16 202 83 17 202 83 18 202 84 20 202 85 21 202 86 22 202 87 24 202 88 25 202 88 26 202 89 28 202 90 29 202 91 30 202 92 32 202 93 33 202 94 34 202 94 36 202 95 37 202 96 38 202 97 40 202 98 41 202 99 42 202 100 44 202 100 45 202 101 46 202 102 48 202 103 49 202 104 50 202 105 52 202 106 53 202 106 54 202 107 56 202 108 57 202 109 58 202 110 60 202 111 61 202 112 62 202 112 64 202 113 65 202 114 66 202 115 68 202 116 69 202 117 70 202 118 72 202 118 73 202 119 74 202 120 76 202 121 77 202 122 78 202 123 80 202 124 81 202 124 82 202 125 84 202 126 85 202 127 86 202 128 88 202 129 89 202 130 90 202 130 92 202 131 93 202 132 94 202 133 96 202 134 97 202 135 98 202 136 100 202 136 101 202 137 102 202 138 104 202 139 105 202 140 106 202 141 108 202 142 109 202 142 110 202 143 112 202 144 113 202 145 114 202 146 116 202 147 117 202 148 118 202 148 120 202 149 121 202 150 122 202 151 124 202 152 125 202 153 126 202 154 128 202 154 129 202 155 130 202 156 132 202 157 133 202 158 134 202 159 136 202 160 137 202 160 138 202 161 140 202 162 141 202 163 142 202 164 144 202 165 145 202 166 146 202 166 148 202 167 149 202 168 150 202 169 152 202 170 153 202 171 154 202 171 156 202 172 157 202 173 158 202 174 160 202 175 161 202 176 162 202 177 164 202 177 165 202 178 166 202 179 168 202 180 169 202 181 170 202 182 172 202 183 173 202 183 174 202 184 176 202 185 177 202 186 178 202 187 180 202 188 181 202 189 182 202 189 184 202 190 185 202 191 186 202 192 188 202 193 189 202 194 190 202 195 192 202 195 193 202 196 194 202 197 196 202 198 197 202 199 198 202 200 200 202 201 201 202 201 202 202 202 204 202 203 205 202 204 206 202 205 208 202 206 209 202 207 210 202 207 212 202 208 213 202 209 214 202 210 216 202 211 217 202 212 218 202 213 220 202 213 221 202 214 222 202 215 224 202 216 225 202 217 226 202 218 228 202 219 229 202 219 230 202 220 232 202 221 233 202 222 234 202 223 236 202 224 237 202 225 238 202 225 240 202 226 241 202 227 242 202 228 244 202 229 245 202 230 246 202 231 248 202 231 249 202 232 250 202 233 252 202 234 253 202 235 255 202 236
0 204 73 1 204 74 2 204 75 4 204 76 5 204 77 6 204 77 8 204 78 9 204 79 10 204 80 12 204 81 13 204 82 14 204 83 16 204 83 17 204 84 18 204 85 20 204 86 21 204 87 22 204 88 24 204 88 25 204 89 26 204 90 28 204 91 29 204 92 30 204 93 32 204 94 33 204 94 34 204 95 36 204 96 37 204 97 38 204 98 40 204 99 41 204 100 42 204 100 44 204 101 45 204 102 46 204 103 48 204 104 49 204 105 50 204 106 52 204 106 53 204 107 54 204 108 56 204 109 57 204 110 58 204 111 60 204 112 61 204 112 62 204 113 64 204 114 65 204 115 66 204 116 68 204 117 69 204 118 70 204 118 72 204 119 73 204 120 74 204 121 76 204 122 77 204 123 78 204 124 80 204 124 81 204 125 82 204 126 84 204 127 85 204 128 86 204 129 88 204 130 89 204 130 90 204 131 92 204 132 93 204 133 94 204 134 96 204 135 97 204 136 98 204 136 100 204 137 101 204 138 102 204 139 104 204 140 105 204 141 106 204 142 108 204 142 109 204 143 110 204 144 112 204 145 113 204 146 114 204 147 116 204 148 117 204 148 118 204 149 120 204 150 121 204 151 122 204 152 124 204 153 125 204 154 126 204 154 128 204 155 129 204 156 130 204 157 132 204 158 133 204 159 134 204 160 136 204 160 137 204 161 138 204 162 140 204 163 141 204 164 142 204 165 144 204 166 145 204 166 146 204 167 148 204 168 149 204 169 150 204 170 152 204 171 153 204 171 154 204 172 156 204 173 157 204 174 158 204 175 160 204 176 161 204 177 162 204 177 164 204 178 165 204 179 166 204 180 168 204 181 169 204 182 170 204 183 172 204 183 173 204 184 174 204 185 176 204 186 177 204 187 178 204 188 180 204 189 181 204 189 182 204 190 184 204 191 185 204 192 186 204 193 188 204 194 189 204 195 190 204 195 192 204 196 193 204 197 194 204 198 196 204 199 197 204 200 198 204 201 200 204 201 201 204 202 202 204 203 204 204 204 205 204 205 206 204 206 208 204 207 209 204 207 210 204 208 212 204 209 213 204 210 214 204 211 216 204 212 217 204 213 218 204 213 220 204 214 221 204 215 222 204 216 224 204 217 225 204 218 226 204 219 228 204 219 229 204 220 230 204 221 232 204 222 233 204 223 234 204 224 236 204 225 237 204 225 238 204 226 240 204 227 241 204 228 242 204 229 244 204 230 245 204 231 246 204 231 248 204 232 249 204 233 250 204 234 252 204 235 253 204 236 255 204 237
0 207 74 1 207 75 2 207 76 4 207 77 5 207 77 6 207 78 8 207 79 9 207 80 10 207 81 12 207 82 13 207 83 14 207 83 16 207 84 17 207 85 18 207 86 20 207 87 21 207 88 22 207 88 24 207 89 25 207 90 26 207 91 28 207 92 29 207 93 30 207 94 32 207 94 33 207 95 34 207 96 36 207 97 37 207 98 38 207 99 40 207 100 41 207 100 42 207 101 44 207 102 45 207 103 46 207 104 48 207 105 49 207 106 50 207 106 52 207 107 53 207 108 54 207 109 56 207 110 57 207 111 58 207 112 60 207 112 61 207 113 62 207 114 64 207 115 65 207 116 66 207 117 68 207 118 69 207 118 70 207 119 72 207 120 73 207 121 74 207 122 76 207 123 77 207 124 78 207 124 80 207 125 81 207 126 82 207 127 84 207 128 85 207 129 86 207 130 88 207 130 89 207 131 90 207 132 92 207 133 93 207 134 94 207 135 96 207 136 97 207 136 98 207 137 100 207 138 101 207 139 102 207 140 104 207 141 105 207 142 106 207 142 108 207 143 109 207 144 110 207 145 112 207 146 113 207 147 114 207 148 116 207 148 117 207 149 118 207 150 120 207 151 121 207 152 122 207 153 124 207 154 125 207 154 126 207 155 128 207 156 129 207 157 130 207 158 132 207 159 133 207 160 134 207 160 136 207 161 137 207 162 138 207 163 140 207 164 141 207 165 142 207 166 144 207 166 145 207 167 146 207 168 148 207 169 149 207 170 150 207 171 152 207 171 153 207 172 154 207 173 156 207 174 157 207 175 158 207 176 160 207 177 161 207 177 162 207 178 164 207 179 165 207 180 166 207 181 168 207 182 169 207 183 170 207 183 172 207 184 173 207 185 174 207 186 176 207 187 177 207 188 178 207 189 180 207 189 181 207 190 182 207 191 184 207 192 185 207 193 186 207 194 188 207 195 189 207 195 190 207 196 192 207 197 193 207 198 194 207 199 196 207 200 197 207 201 198 207 201 200 207 202 201 207 203 202 207 204 204 207 205 205 207 206 206 207 207 208 207 207 209 207 208 210 207 209 212 207 210 213 207 211 214 207 212 216 207 213 217 207 213 218 207 214 220 207 215 221 207 216 222 207 217 224 207 218 225 207 219 226 207 219 228 207 220 229 207 221 230 207 222 232 207 223 233 207 224 234 207 225 236 207 225 237 207 226 238 207 227 240 207 228 241 207 229 242 207 230 244 207 231 245 207 231 246 207 232 248 207 233 249 207 234 250 207 235 252 207 236 253 207 237 255 207 237
0 209 75 1 209 76 2 209 77 4 209 77 5 209 78 6 209 79 8 209 80 9 209 81 10 209 82 12 209 83 13 209 83 14 209 84 16 209 85 17 209 86 18 209 87 20 209 88 21 209 88 22 209 89 24 209 90 25 209 91 26 209 92 28 209 93 29 209 94 30 209 94 32 209 95 33 209 96 34 209 97 36 209 98 37 209 99 38 209 100 40 209 100 41 209 101 42 209 102 44 209 103 45 209 104 46 209 105 48 209 106 49 209 106 50 209 107 52 209 108 53 209 109 54 209 110 56 209 111 57 209 112 58 209 112 60 209 113 61 209 114 62 209 115 64 209 116 65 209 117 66 209 118 68 209 118 69 209 119 70 209 120 72 209 121 73 209 122 74 209 123 76 209 124 77 209 124 78 209 125 80 209 126 81 209 127 82 209 128 84 209 129 85 209 130 86 209 130 88 209 131 89 209 132 90 209 133 92 209 134 93 209 135 94 209 136 96 209 136 97 209 137 98 209 138 100 209 139 101 209 140 102 209 141 104 209 142 105 209 142 106 209 143 108 209 144 109 209 145 110 209 146 112 209 147 113 209 148 114 209 148 116 209 149 117 209 150 118 209 151 120 209 152 121 209 153 122 209 154 124 209 154 125 209 155 126 209 156 128 209 157 129 209 158 130 209 159 132 209 160 133 209 160 134 209 161 136 209 162 137 209 163 138 209 164 140 209 165 141 209 166 142 209 166 144 209 167 145 209 168 146 209 169 148 209 170 149 209 171 150 209 171 152 209 172 153 209 173 154 209 174 156 209 175 157 209 176 158 209 177 160 209 177 161 209 178 162 209 179 164 209 180 165 209 181 166 209 182 168 209 183 169 209 183 170 209 184 172 209 185 173 209 186 174 209 187 176 209 188 177 209 189 178 209 189 180 209 190 181 209 191 182 209 192 184 209 193 185 209 194 186 209 195 188 209 195 189 209 196 190 209 197 192 209 198 193 209 199 194 209 200 196 209 201 197 209 201 198 209 202 200 209 203 201 209 204 202 209 205 204 209 206 205 209 207 206 209 207 208 209 208 209 209 209 210 209 210 212 209 211 213 209 212 214 209 213 216 209 213 217 209 214 218 209 215 220 209 216 221 209 217 222 209 218 224 209 219 225 209 219 226 209 220 228 209 221 229 209 222 230 209 223 232 209 224 233 209 225 234 209 225 236 209 226 237 209 227 238 209 228 240 209 229 241 209 230 242 209 231 244 209 231 245 209 232 246 209 233 248 209 234 249 209 235 250 209 236 252 209 237 253 209 237 255 209 238
0 212 76 1 212 77 2 212 77 4 212 78 5 212 79 6 212 80 8 212 81 9 212 82 10 212 83 12 212 83 13 212 84 14 212 85 16 212 86 17 212 87 18 212 88 20 212 88 21 212 89 22 212 90 24 212 91 25 212 92 26 212 93 28 212 94 29 212 94 30 212 95 32 212 96 33 212 97 34 212 98 36 212 99 37 212 100 38 212 100 40 212 101 41 212 102 42 212 103 44 212 104 45 212 105 46 212 106 48 212 106 49 212 107 50 212 108 52 212 109 53 212 110 54 212 111 56 212 112 57 212 112 58 212 113 60 212 114 61 212 115 62 212 116 64 212 117 65 212 118 66 212 118 68 212 119 69 212 120 70 212 121 72 212 122 73 212 123 74 212 124 76 212 124 77 212 125 78 212 126 80 212 127 81 212 128 82 212 129 84 212 130 85 212 130 86 212 131 88 212 132 89 212 133 90 212 134 92 212 135 93 212 136 94 212 136 96 212 137 97 212 138 98 212 139 100 212 140 101 212 141 102 212 142 104 212 142 105 212 143 106 212 144 108 212 145 109 212 146 110 212 147 112 212 148 113 212 148 114 212 149 116 212 150 117 212 151 118 212 152 120 212 153 121 212 154 122 212 154 124 212 155 125 212 156 126 212 157 128 212 158 129 212 159 130 212 160 132 212 160 133 212 161 134 212 162 136 212 163 137 212 164 138 212 165 140 212 166 141 212 166 142 212 167 144 212 168 145 212 169 146 212 170 148 212 171 149 212 171 150 212 172 152 212 173 153 212 174 154 212 175 156 212 176 157 212 177 158 212 177 160 212 178 161 212 179 162 212 180 164 212 181 165 212 182 166 212 183 168 212 183 169 212 184 170 212 185 172 212 186 173 212 187 174 212 188 176 212 189 177 212 189 178 212 190 180 212 191 181 212 192 182 212 193 184 212 194 185 212 195 186 212 195 188 212 196 189 212 197 190 212 198 192 212 199 193 212 200 194 212 201 196 212 201 197 212 202 198 212 203 200 212 204 201 212 205 202 212 206 204 212 207 205 212 207 206 212 208 208 212 209 209 212 210 210 212 211 212 212 212 213 212 213 214 212 213 216 212 214 217 212 215 218 212 216 220 212 217 221 212 218 222 212 219 224 212 219 225 212 220 226 212 221 228 212 222 229 212 223 230 212 224 232 212 225 233 212 225 234 212 226 236 212 227 237 212 228 238 212 229 240 212 230 241 212 231 242 212 231 244 212 232 245 212 233 246 212 234 248 212 235 249 212 236 250 212 237 252 212 237 253 212 238 255 212 239
0 214 77 1 214 77 2 214 78 4 214 79 5 214 80 6 214 81 8 214 82 9 214 83 10 214 83 12 214 84 13 214 85 14 214 86 16 214 87 17 214 88 18 214 88 20 214 89 21 214 90 22 214 91 24 214 92 25 214 93 26 214 94 28 214 94 29 214 95 30 214 96 32 214 97 33 214 98 34 214 99 36 214 100 37 214 100 38 214 101 40 214 102 41 214 103 42 214 104 44 214 105 45 214 106 46 214 106 48 214 107 49 214 108 50 214 109 52 214 110 53 214 111 54 214 112 56 214 112 57 214 113 58 214 114 60 214 115 61 214 116 62 214 117 64 214 118 65 214 118 66 214 119 68 214 120 69 214 121 70 214 122 72 214 123 73 214 124 74 214 124 76 214 125 77 214 126 78 214 127 80 214 128 81 214 129 82 214 130 84 214 130 85 214 131 86 214 132 88 214 133 89 214 134 90 214 135 92 214 136 93 214 136 94 214 137 96 214 138 97 214 139 98 214 140 100 214 141 101 214 142 102 214 142 104 214 143 105 214 144 106 214 145 108 214 146 109 214 147 110 214 148 112 214 148 113 214 149 114 214 150 116 214 151 117 214 152 118 214 153 120 214 154 121 214 154 122 214 155 124 214 156 125 214 157 126 214 158 128 214 159 129 214 160 130 214 160 132 214 161 133 214 162 134 214 163 136 214 164 137 214 165 138 214 166 140 214 166 141 214 167 142 214 168 144 214 169 145 214 170 146 214 171 148 214 171 149 214 172 150 214 173 152 214 174 153 214 175 154 214 176 156 214 177 157 214 177 158 214 178 160 214 179 161 214 180 162 214 181 164 214 182 165 214 183 166 214 183 168 214 184 169 214 185 170 214 186 172 214 187 173 214 188 174 214 189 176 214 189 177 214 190 178 214 191 180 214 192 181 214 193 182 214 194 184 214 195 185 214 195 186 214 196 188 214 197 189 214 198 190 214 199 192 214 200 193 214 201 194 214 201 196 214 202 197 214 203 198 214 204 200 214 205 201 214 206 202 214 207 204 214 207 205 214 208 206 214 209 208 214 210 209 214 211 210 214 212 212 214 213 213 214 213 214 214 214 216 214 215 217 214 216 218 214 217 220 214 218 221 214 219 222 214 219 224 214 220 225 214 221 226 214 222 228 214 223 229 214 224 230 214 225 232 214 225 233 214 226 234 214 227 236 214 228 237 214 229 238 214 230 240 214 231 241 214 231 242 214 232 244 214 233 245 214 234 246 214 235 248 214 236 249 214 237 250 214 237 252 214 238 253 214 239 255 214 240
0 216 77 1 216 78 2 216 79 4 216 80 5 216 81 6 216 82 8 216 83 9 216 83 10 216 84 12 216 85 13 216 86 14 216 87 16 216 88 17 216 88 18 216 89 20 216 90 21 216 91 22 216 92 24 216 93 25 216 94 26 216 94 28 216 95 29 216 96 30 216 97 32 216 98 33 216 99 34 216 100 36 216 100 37 216 101 38 216 102 40 216 103 41 216 104 42 216 105 44 216 106 45 216 106 46 216 107 48 216 108 49 216 109 50 216 110 52 216 111 53 216 112 54 216 112 56 216 113 57 216 114 58 216 115 60 216 116 61 216 117 62 216 118 64 216 118 65 216 119 66 216 120 68 216 121 69 216 122 70 216 123 72 216 124 73 216 124 74 216 125 76 216 126 77 216 127 78 216 128 80 216 129 81 216 130 82 216 130 84 216 131 85 216 132 86 216 133 88 216 134 89 216 135 90 216 136 92 216 136 93 216 137 94 216 138 96 216 139 97 216 140 98 216 141 100 216 142 101 216 142 102 216 143 104 216 144 105 216 145 106 216 146 108 216 147 109 216 148 110 216 148 112 216 149 113 216 150 114 216 151 116 216 152 117 216 153 118 216 154 120 216 154 121 216 155 122 216 156 124 216 157 125 216 158 126 216 159 128 216 160 129 216 160 130 216 161 132 216 162 133 216 163 134 216 164 136 216 165 137 216 166 138 216 166 140 216 167 141 216 168 142 216 169 144 216 170 145 216 171 146 216 171 148 216 172 149 216 173 150 216 174 152 216 175 153 216 176 154 216 177 156 216 177 157 216 178 158 216 179 160 216 180 161 216 181 162 216 182 164 216 183 165 216 183 166 216 184 168 216 185 169 216 186 170 216 187 172 216 188 173 216 189 174 216 189 176 216 190 177 216 191 178 216 192 180 216 193 181 216 194 182 216 195 184 216 195 185 216 196 186 216 197 188 216 198 189 216 199 190 216 200 192 216 201 193 216 201 194 216 202 196 216 203 197 216 204 198 216 205 200 216 206 201 216 207 202 216 207 204 216 208 205 216 209 206 216 210 208 216 211 209 216 212 210 216 213 212 216 213 213 216 214 214 216 215 216 216 216 217 216 217 218 216 218 220 216 219 221 216 219 222 216 220 224 216 221 225 216 222 226 216 223 228 216 224 229 216 225 230 216 225 232 216 226 233 216 227 234 216 228 236 216 229 237 216 230 238 216 231 240 216 231 241 216 232 242 216 233 244 216 234 245 216 235 246 216 236 248 216 237 249 216 237 250 216 238 252 216 239 253 216 240 255 216 241
0 219 78 1 219 79 2 219 80 4 219 81 5 219 82 6 219 83 8 219 83 9 219 84 10 219 85 12 219 86 13 219 87 14 219 88 16 219 88 17 219 89 18 219 90 20 219 91 21 219 92 22 219 93 24 219 94 25 219 94 26 219 95 28 219 96 29 219 97 30 219 98 32 219 99 33 219 100 34 219 100 36 219 101 37 219 102 38 219 103 40 219 104 41 219 105 42 219 106 44 219 106 45 219 107 46 219 108 48 219 109 49 219 110 50 219 111 52 219 112 53 219 112 54 219 113 56 219 114 57 219 115 58 219 116 60 219 117 61 219 118 62 219 118 64 219 119 65 219 120 66 219 121 68 219 122 69 219 123 70 219 124 72 219 124 73 219 125 74 219 126 76 219 127 77 219 128 78 219 129 80 219 130 81 219 130 82 219 131 84 219 132 85 219 133 86 219 134 88 219 135 89 219 136 90 219 136 92 219 137 93 219 138 94 219 139 96 219 140 97 219 141 98 219 142 100 219 142 101 219 143 102 219 144 104 219 145 105 219 146 106 219 147 108 219 148 109 219 148 110 219 149 112 219 150 113 219 151 114 219 152 116 219 153 117 219 154 118 219 154 120 219 155 121 219 156 122 219 157 124 219 158 125 219 159 126 219 160 128 219 160 129 219 161 130 219 162 132 219 163 133 219 164 134 219 165 136 219 166 137 219 166 138 219 167 140 219 168 141 219 169 142 219 170 144 219 171 145 219 171 146 219 172 148 219 173 149 219 174 150 219 175 152 219 176 153 219 177 154 219 177 156 219 178 157 219 179 158 219 180 160 219 181 161 219 182 162 219 183 164 219 183 165 219 184 166 219 185 168 219 186 169 219 187 170 219 188 172 219 189 173 219 189 174 219 190 176 219 191 177 219 192 178 219 193 180 219 194 181 219 195 182 219 195 184 219 196 185 219 197 186 219 198 188 219 199 189 219 200 190 219 201 192 219 201 193 219 202 194 219 203 196 219 204 197 219 205 198 219 206 200 219 207 201 219 207 202 219 208 204 219 209 205 219 210 206 219 211 208 219 212 209 219 213 210 219 213 212 219 214 213 219 215 214 219 216 216 219 217 217 219 218 218 219 219 220 219 219 221 219 220 222 219 221 224 219 222 225 219 223 226 219 224 228 219 225 229 219 225 230 219 226 232 219 227 233 219 228 234 219 229 236 219 230 237 219 231 238 219 231 240 219 232 241 219 233 242 219 234 244 219 235 245 219 236 246 219 237 248 219 237 249 219 238 250 219 239 252 219 240 253 219 241 255 219 242
0 221 79 1 221 80 2 221 81 4 221 82 5 221 83 6 221 83 8 221 84 9 221 85 10 221 86 12 221 87 13 221 88 14 221 88 16 221 89 17 221 90 18 221 91 20 221 92 21 221 93 22 221 94 24 221 94 25 221 95 26 221 96 28 221 97 29 221 98 30 221 99 32 221 100 33 221 100 34 221 101 36 221 102 37 221 103 38 221 104 40 221 105 41 221 106 42 221 106 44 221 107 45 221 108 46 221 109 48 221 110 49 221 111 50 221 112 52 221 112 53 221 113 54 221 114 56 221 115 57 221 116 58 221 117 60 221 118 61 221 118 62 221 119 64 221 120 65 221 121 66 221 122 68 221 123 69 221 124 70 221 124 72 221 125 73 221 126 74 221 127 76 221 128 77 221 129 78 221 130 80 221 130 81 221 131 82 221 132 84 221 133 85 221 134 86 221 135 88 221 136 89 221 136 90 221 137 92 221 138 93 221 139 94 221 140 96 221 141 97 221 142 98 221 142 100 221 143 101 221 144 102 221 145 104 221 146 105 221 147 106 221 148 108 221 148 109 221 149 110 221 150 112 221 151 113 221 152 114 221 153 116 221 154 117 221 154 118 221 155 120 221 156 121 221 157 122 221 158 124 221 159 125 221 160 126 221 160 128 221 161 129 221 162 130 221 163 132 221 164 133 221 165 134 221 166 136 221 166 137 221 167 138 221 168 140 221 169 141 221 170 142 221 171 144 221 171 145 221 172 146 221 173 148 221 174 149 221 175 150 221 176 152 221 177 153 221 177 154 221 178 156 221 179 157 221 180 158 221 181 160 221 182 161 221 183 162 221 183 164 221 184 165 221 185 166 221 186 168 221 187 169 221 188 170 221 189 172 221 189 173 221 190 174 221 191 176 221 192 177 221 193 178 221 194 180 221 195 181 221 195 182 221 196 184 221 197 185 221 198 186 221 199 188 221 200 189 221 201 190 221 201 192 221 202 193 221 203 194 221 204 196 221 205 197 221 206 198 221 207 200 221 207 201 221 208 202 221 209 204 221 210 205 221 211 206 221 212 208 221 213 209 221 213 210 221 214 212 221 215 213 221 216 214 221 217 216 221 218 217 221 219 218 221 219 220 221 220 221 221 221 222 221 222 224 221 223 225 221 224 226 221 225 228 221 225 229 221 226 230 221 227 232 221 228 233 221 229 234 221 230 236 221 231 237 221 231 238 221 232 240 221 233 241 221 234 242 221 235 244 221 236 245 221 237 246 221 237 248 221 238 249 221 239 250 221 240 252 221 241 253 221 242 255 221 243
0 224 80 1 224 81 2 224 82 4 224 83 5 224 83 6 224 84 8 224 85 9 224 86 10 224 87 12 224 88 13 224 88 14 224 89 16 224 90 17 224 91 18 224 92 20 224 93 21 224 94 22 224 94 24 224 95 25 224 96 26 224 97 28 224 98 29 224 99 30 224 100 32 224 100 33 224 101 34 224 102 36 224 103 37 224 104 38 224 105 40 224 106 41 224 106 42 224 107 44 224 108 45 224 109 46 224 110 48 224 111 49 224 112 50 224 112 52 224 113 53 224 114 54 224 115 56 224 116 57 224 117 58 224 118 60 224 118 61 224 119 62 224 120 64 224 121 65 224 122 66 224 123 68 224 124 69 224 124 70 224 125 72 224 126 73 224 127 74 224 128 76 224 129 77 224 130 78 224 130 80 224 131 81 224 132 82 224 133 84 224 134 85 224 135 86 224 136 88 224 136 89 224 137 90 224 138 92 224 139 93 224 140 94 224 141 96 224 142 97 224 142 98 224 143 100 224 144 101 224 145 102 224 146 104 224 147 105 224 148 106 224 148 108 224 149 109 224 150 110 224 151 112 224 152 113 224 153 114 224 154 116 224 154 117 224 155 118 224 156 120 224 157 121 224 158 122 224 159 124 224 160 125 224 160 126 224 161 128 224 162 129 224 163 130 224 164 132 224 165 133 224 166 134 224 166 136 224 167 137 224 168 138 224 169 140 224 170 141 224 171 142 224 171 144 224 172 145 224 173 146 224 174 148 224 175 149 224 176 150 224 177 152 224 177 153 224 178 154 224 179 156 224 180 157 224 181 158 224 182 160 224 183 161 224 183 162 224 184 164 224 185 165 224 186 166 224 187 168 224 188 169 224 189 170 224 189 172 224 190 173 224 191 174 224 192 176 224 193 177 224 194 178 224 195 180 224 195 181 224 196 182 224 197 184 224 198 185 224 199 186 224 200 188 224 201 189 224 201 190 224 202 192 224 203 193 224 204 194 224 205 196 224 206 197 224 207 198 224 207 200 224 208 201 224 209 202 224 210 204 224 211 205 224 212 206 224 213 208 224 213 209 224 214 210 224 215 212 224 216 213 224 217 214 224 218 216 224 219 217 224 219 218 224 220 220 224 221 221 224 222 222 224 223 224 224 224 225 224 225 226 224 225 228 224 226 229 224 227 230 224 228 232 224 229 233 224 230 234 224 231 236 224 231 237 224 232 238 224 233 240 224 234 241 224 235 242 224 236 244 224 237 245 224 237 246 224 238 248 224 239 249 224 240 250 224 241 252 224 242 253 224 243 255 224 243
0 226 81 1 226 82 2 226 83 4 226 83 5 226 84 6 226 85 8 226 86 9 226 87 10 226 88 12 226 88 13 226 89 14 226 90 16 226 91 17 226 92 18 226 93 20 226 94 21 226 94 22 226 95 24 226 96 25 226 97 26 226 98 28 226 99 29 226 100 30 226 100 32 226 101 33 226 102 34 226 103 36 226 104 37 226 105 38 226 106 40 226 106 41 226 107 42 226 108 44 226 109 45 226 110 46 226 111 48 226 112 49 226 112 50 226 113 52 226 114 53 226 115 54 226 116 56 226 117 57 226 118 58 226 118 60 226 119 61 226 120 62 226 121 64 226 122 65 226 123 66 226 124 68 226 124 69 226 125 70 226 126 72 226 127 73 226 128 74 226 129 76 226 130 77 226 130 78 226 131 80 226 132 81 226 133 82 226 134 84 226 135 85 226 136 86 226 136 88 226 137 89 226 138 90 226 139 92 226 140 93 226 141 94 226 142 96 226 142 97 226 143 98 226 144 100 226 145 101 226 146 102 226 147 104 226 148 105 226 148 106 226 149 108 226 150 109 226 151 110 226 152 112 226 153 113 226 154 114 226 154 116 226 155 117 226 156 118 226 157 120 226 158 121 226 159 122 226 160 124 226 160 125 226 161 126 226 162 128 226 163 129 226 164 130 226 165 132 226 166 133 226 166 134 226 167 136 226 168 137 226 169 138 226 170 140 226 171 141 226 171 142 226 172 144 226 173 145 226 174 146 226 175 148 226 176 149 226 177 150 226 177 152 226 178 153 226 179 154 226 180 156 226 181 157 226 182 158 226 183 160 226 183 161 226 184 162 226 185 164 226 186 165 226 187 166 226 188 168 226 189 169 226 189 170 226 190 172 226 191 173 226 192 174 226 193 176 226 194 177 226 195 178 226 195 180 226 196 181 226 197 182 226 198 184 226 199 185 226 200 186 226 201 188 226 201 189 226 202 190 226 203 192 226 204 193 226 205 194 226 206 196 226 207 197 226 207 198 226 208 200 226 209 201 226 210 202 226 211 204 226 212 205 226 213 206 226 213 208 226 214 209 226 215 210 226 216 212 226 217 213 226 218 214 226 219 216 226 219 217 226 220 218 226 221 220 226 222 221 226 223 222 226 224 224 226 225 225 226 225 226 226 226 228 226 227 229 226 228 230 226 229 232 226 230 233 226 231 234 226 231 236 226 232 237 226 233 238 226 234 240 226 235 241 226 236 242 226 237 244 226 237 245 226 238 246 226 239 248 226 240 249 226 241 250 226 242 252 226 243 253 226 243 255 226 244
0 228 82 1 228 83 2 228 83 4 228 84 5 228 85 6 228 86 8 228 87 9 228 88 10 228 88 12 228 89 13 228 90 14 228 91 16 228 92 17 228 93 18 228 94 20 228 94 21 228 95 22 228 96 24 228 97 25 228 98 26 228 99 28 228 100 29 228 100 30 228 101 32 228 102 33 228 103 34 228 104 36 228 105 37 228 106 38 228 106 40 228 107 41 228 108 42 228 109 44 228 110 45 228 111 46 228 112 48 228 112 49 228 113 50 228 114 52 228 115 53 228 116 54 228 117 56 228 118 57 228 118 58 228 119 60 228 120 61 228 121 62 228 122 64 228 123 65 228 124 66 228 124 68 228 125 69 228 126 70 228 127 72 228 128 73 228 129 74 228 130 76 228 130 77 228 131 78 228 132 80 228 133 81 228 134 82 228 135 84 228 136 85 228 136 86 228 137 88 228 138 89 228 139 90 228 140 92 228 141 93 228 142 94 228 142 96 228 143 97 228 144 98 228 145 100 228 146 101 228 147 102 228 148 104 228 148 105 228 149 106 228 150 108 228 151 109 228 152 110 228 153 112 228 154 113 228 154 114 228 155 116 228 156 117 228 157 118 228 158 120 228 159 121 228 160 122 228 160 124 228 161 125 228 162 126 228 163 128 228 164 129 228 165 130 228 166 132 228 166 133 228 167 134 228 168 136 228 169 137 228 170 138 228 171 140 228 171 141 228 172 142 228 173 144 228 174 145 228 175 146 228 176 148 228 177 149 228 177 150 228 178 152 228 179 153 228 180 154 228 181 156 228 182 157 228 183 158 228 183 160 228 184 161 228 185 162 228 186 164 228 187 165 228 188 166 228 189 168 228 189 169 228 190 170 228 191 172 228 192 173 228 193 174 228 194 176 228 195 177 228 195 178 228 196 180 228 197 181 228 198 182 228 199 184 228 200 185 228 201 186 228 201 188 228 202 189 228 203 190 228 204 192 228 205 193 228 206 194 228 207 196 228 207 197 228 208 198 228 209 200 228 210 201 228 211 202 228 212 204 228 213 205 228 213 206 228 214 208 228 215 209 228 216 210 228 217 212 228 218 213 228 219 214 228 219 216 228 220 217 228 221 218 228 222 220 228 223 221 228 224 222 228 225 224 228 225 225 228 226 226 228 227 228 228 228 229 228 229 230 228 230 232 228 231 233 228 231 234 228 232 236 228 233 237 228 234 238 228 235 240 228 236 241 228 237 242 228 237 244 228 238 245 228 239 246 228 240 248 228 241 249 228 242 250 228 243 252 228 243 253 228 244 255 228 245
0 231 83 1 231 83 2 231 84 4 231 85 5 231 86 6 231 87 8 231 88 9 231 88 10 231 89 12 231 90 13 231 91 14 231 92 16 231 93 17 231 94 18 231 94 20 231 95 21 231 96 22 231 97 24 231 98 25 231 99 26 231 100 28 231 100 29 231 101 30 231 102 32 231 103 33 231 104 34 231 105 36 231 106 37 231 106 38 231 107 40 231 108 41 231 109 42 231 110 44 231 111 45 231 112 46 231 112 48 231 113 49 231 114 50 231 115 52 231 116 53 231 117 54 231 118 56 231 118 57 231 119 58 231 120 60 231 121 61 231 122 62 231 123 64 231 124 65 231 124 66 231 125 68 231 126 69 231 127 70 231 128 72 231 129 73 231 130 74 231 130 76 231 131 77 231 132 78 231 133 80 231 134 81 231 135 82 231 136 84 231 136 85 231 137 86 231 138 88 231 139 89 231 140 90 231 141 92 231 142 93 231 142 94 231 143 96 231 144 97 231 145 98 231 146 100 231 147 101 231 148 102 231 148 104 231 149 105 231 150 106 231 151 108 231 152 109 231 153 110 231 154 112 231 154 113 231 155 114 231 156 116 231 157 117 231 158 118 231 159 120 231 160 121 231 160 122 231 161 124 231 162 125 231 163 126 231 164 128 231 165 129 231 166 130 231 166 132 231 167 133 231 168 134 231 169 136 231 170 137 231 171 138 231 171 140 231 172 141 231 173 142 231 174 144 231 175 145 231 176 146 231 177 148 231 177 149 231 178 150 231 179 152 231 180 153 231 181 154 231 182 156 231 183 157 231 183 158 231 184 160 231 185 161 231 186 162 231 187 164 231 188 165 231 189 166 231 189 168 231 190 169 231 191 170 231 192 172 231 193 173 231 194 174 231 195 176 231 195 177 231 196 178 231 197 180 231 198 181 231 199 182 231 200 184 231 201 185 231 201 186 231 202 188 231 203 189 231 204 190 231 205 192 231 206 193 231 207 194 231 207 196 231 208 197 231 209 198 231 210 200 231 211 201 231 212 202 231 213 204 231 213 205 231 214 206 231 215 208 231 216 209 231 217 210 231 218 212 231 219 213 231 219 214 231 220 216 231 221 217 231 222 218 231 223 220 231 224 221 231 225 222 231 225 224 231 226 225 231 227 226 231 228 228 231 229 229 231 230 230 231 231 232 231 231 233 231 232 234 231 233 236 231 234 237 231 235 238 231 236 240 231 237 241 231 237 242 231 238 244 231 239 245 231 240 246 231 241 248 231 242 249 231 243 250 231 243 252 231 244 253 231 245 255 231 246
0 233 83 1 233 84 2 233 85 4 233 86 5 233 87 6 233 88 8 233 88 9 233 89 10 233 90 12 233 91 13 233 92 14 233 93 16 233 94 17 233 94 18 233 95 20 233 96 21 233 97 22 233 98 24 233 99 25 233 100 26 233 100 28 233 101 29 233 102 30 233 103 32 233 104 33 233 105 34 233 106 36 233 106 37 233 107 38 233 108 40 233 109 41 233 110 42 233 111 44 233 112 45 233 112 46 233 113 48 233 114 49 233 115 50 233 116 52 233 117 53 233 118 54 233 118 56 233 119 57 233 120 58 233 121 60 233 122 61 233 123 62 233 124 64 233 124 65 233 125 66 233 126 68 233 127 69 233 128 70 233 129 72 233 130 73 233 130 74 233 131 76 233 132 77 233 133 78 233 134 80 233 135 81 233 136 82 233 136 84 233 137 85 233 138 86 233 139 88 233 140 89 233 141 90 233 142 92 233 142 93 233 143 94 233 144 96 233 145 97 233 146 98 233 147 100 233 148 101 233 148 102 233 149 104 233 150 105 233 151 106 233 152 108 233 153 109 233 154 110 233 154 112 233 155 113 233 156 114 233 157 116 233 158 117 233 159 118 233 160 120 233 160 121 233 161 122 233 162 124 233 163 125 233 164 126 233 165 128 233 166 129 233 166 130 233 167 132 233 168 133 233 169 134 233 170 136 233 171 137 233 171 138 233 172 140 233 173 141 233 174 142 233 175 144 233 176 145 233 177 146 233 177 148 233 178 149 233 179 150 233 180 152 233 181 153 233 182 154 233 183 156 233 183 157 233 184 158 233 185 160 233 186 161 233 187 162 233 188 164 233 189 165 233 189 166 233 190 168 233 191 169 233 192 170 233 193 172 233 194 173 233 195 174 233 195 176 233 196 177 233 197 178 233 198 180 233 199 181 233 200 182 233 201 184 233 201 185 233 202 186 233 203 188 233 204 189 233 205 190 233 206 192 233 207 193 233 207 194 233 208 196 233 209 197 233 210 198 233 211 200 233 212 201 233 213 202 233 213 204 233 214 205 233 215 206 233 216 208 233 217 209 233 218 210 233 219 212 233 219 213 233 220 214 233 221 216 233 222 217 233 223 218 233 224 220 233 225 221 233 225 222 233 226 224 233 227 225 233 228 226 233 229 228 233 230 229 233 231 230 233 231 232 233 232 233 233 233 234 233 234 236 233 235 237 233 236 238 233 237 240 233 237 241 233 238 242 233 239 244 233 240 245 233 241 246 233 242 248 233 243 249 233 243 250 233 244 252 233 245 253 233 246 255 233 247
0 235 84 1 235 85 2 235 86 4 235 87 5 235 88 6 235 88 8 235 89 9 235 90 10 235 91 12 235 92 13 235 93 14 235 94 16 235 94 17 235 95 18 235 96 20 235 97 21 235 98 22 235 99 24 235 100 25 235 100 26 235 101 28 235 102 29 235 103 30 235 104 32 235 105 33 235 106 34 235 106 36 235 107 37 235 108 38 235 109 40 235 110 41 235 111 42 235 112 44 235 112 45 235 113 46 235 114 48 235 115 49 235 116 50 235 117 52 235 118 53 235 118 54 235 119 56 235 120 57 235 121 58 235 122 60 235 123 61 235 124 62 235 124 64 235 125 65 235 126 66 235 127 68 235 128 69 235 129 70 235 130 72 235 130 73 235 131 74 235 132 76 235 133 77 235 134 78 235 135 80 235 136 81 235 136 82 235 137 84 235 138 85 235 139 86 235 140 88 235 141 89 235 142 90 235 142 92 235 143 93 235 144 94 235 145 96 235 146 97 235 147 98 235 148 100 235 148 101 235 149 102 235 150 104 235 151 105 235 152 106 235 153 108 235 154 109 235 154 110 235 155 112 235 156 113 235 157 114 235 158 116 235 159 117 235 160 118 235 160 120 235 161 121 235 162 122 235 163 124 235 164 125 235 165 126 235 166 128 235 166 129 235 167 130 235 168 132 235 169 133 235 170 134 235 171 136 235 171 137 235 172 138 235 173 140 235 174 141 235 175 142 235 176 144 235 177 145 235 177 146 235 178 148 235 179 149 235 180 150 235 181 152 235 182 153 235 183 154 235 183 156 235 184 157 235 185 158 235 186 160 235 187 161 235 188 162 235 189 164 235 189 165 235 190 166 235 191 168 235 192 169 235 193 170 235 194 172 235 195 173 235 195 174 235 196 176 235 197 177 235 198 178 235 199 180 235 200 181 235 201 182 235 201 184 235 202 185 235 203 186 235 204 188 235 205 189 235 206 190 235 207 192 235 207 193 235 208 194 235 209 196 235 210 197 235 211 198 235 212 200 235 213 201 235 213 202 235 214 204 235 215 205 235 216 206 235 217 208 235 218 209 235 219 210 235 219 212 235 220 213 235 221 214 235 222 216 235 223 217 235 224 218 235 225 220 235 225 221 235 226 222 235 227 224 235 228 225 235 229 226 235 230 228 235 231 229 235 231 230 235 232 232 235 233 233 235 234 234 235 235 236 235 236 237 235 237 238 235 237 240 235 238 241 235 239 242 235 240 244 235 241 245 235 242 246 235 243 248 235 243 249 235 244 250 235 245 252 235 246 253 235 247 255 235 248
0 238 85 1 238 86 2 238 87 4 238 88 5 238 88 6 238 89 8 238 90 9 238 91 10 238 92 12 238 93 13 238 94 14 238 94 16 238 95 17 238 96 18 238 97 20 238 98 21 238 99 22 238 100 24 238 100 25 238 101 26 238 102 28 238 103 29 238 104 30 238 105 32 238 106 33 238 106 34 238 107 36 238 108 37 238 109 38 238 110 40 238 111 41 238 112 42 238 112 44 238 113 45 238 114 46 238 115 48 238 116 49 238 117 50 238 118 52 238 118 53 238 119 54 238 120 56 238 121 57 238 122 58 238 123 60 238 124 61 238 124 62 238 125 64 238 126 65 238 127 66 238 128 68 238 129 69 238 130 70 238 130 72 238 131 73 238 132 74 238 133 76 238 134 77 238 135 78 238 136 80 238 136 81 238 137 82 238 138 84 238 139 85 238 140 86 238 141 88 238 142 89 238 142 90 238 143 92 238 144 93 238 145 94 238 146 96 238 147 97 238 148 98 238 148 100 238 149 101 238 150 102 238 151 104 238 152 105 238 153 106 238 154 108 238 154 109 238 155 110 238 156 112 238 157 113 238 158 114 238 159 116 238 160 117 238 160 118 238 161 120 238 162 121 238 163 122 238 164 124 238 165 125 238 166 126 238 166 128 238 167 129 238 168 130 238 169 132 238 170 133 238 171 134 238 171 136 238 172 137 238 173 138 238 174 140 238 175 141 238 176 142 238 177 144 238 177 145 238 178 146 238 179 148 238 180 149 238 181 150 238 182 152 238 183 153 238 183 154 238 184 156 238 185 157 238 186 158 238 187 160 238 188 161 238 189 162 238 189 164 238 190 165 238 191 166 238 192 168 238 193 169 238 194 170 238 195 172 238 195 173 238 196 174 238 197 176 238 198 177 238 199 178 238 200 180 238 201 181 238 201 182 238 202 184 238 203 185 238 204 186 238 205 188 238 206 189 238 207 190 238 207 192 238 208 193 238 209 194 238 210 196 238 211 197 238 212 198 238 213 200 238 213 201 238 214 202 238 215 204 238 216 205 238 217 206 238 218 208 238 219 209 238 219 210 238 220 212 238 221 213 238 222 214 238 223 216 238 224 217 238 225 218 238 225 220 238 226 221 238 227 222 238 228 224 238 229 225 238 230 226 238 231 228 238 231 229 238 232 230 238 233 232 238 234 233 238 235 234 238 236 236 238 237 237 238 237 238 238 238 240 238 239 241 238 240 242 238 241 244 238 242 245 238 243 246 238 243 248 238 244 249 238 245 250 238 246 252 238 247 253 238 248 255 238 249
0 240 86 1 240 87 2 240 88 4 240 88 5 240 89 6 240 90 8 240 91 9 240 92 10 240 93 12 240 94 13 240 94 14 240 95 16 240 96 17 240 97 18 240 98 20 240 99 21 240 100 22 240 100 24 240 101 25 240 102 26 240 103 28 240 104 29 240 105 30 240 106 32 240 106 33 240 107 34 240 108 36 240 109 37 240 110 38 240 111 40 240 112 41 240 112 42 240 113 44 240 114 45 240 115 46 240 116 48 240 117 49 240 118 50 240 118 52 240 119 53 240 120 54 240 121 56 240 122 57 240 123 58 240 124 60 240 124 61 240 125 62 240 126 64 240 127 65 240 128 66 240 129 68 240 130 69 240 130 70 240 131 72 240 132 73 240 133 74 240 134 76 240 135 77 240 136 78 240 136 80 240 137 81 240 138 82 240 139 84 240 140 85 240 141 86 240 142 88 240 142 89 240 143 90 240 144 92 240 145 93 240 146 94 240 147 96 240 148 97 240 148 98 240 149 100 240 150 101 240 151 102 240 152 104 240 153 105 240 154 106 240 154 108 240 155 109 240 156 110 240 157 112 240 158 113 240 159 114 240 160 116 240 160 117 240 161 118 240 162 120 240 163 121 240 164 122 240 165 124 240 166 125 240 166 126 240 167 128 240 168 129 240 169 130 240 170 132 240 171 133 240 171 134 240 172 136 240 173 137 240 174 138 240 175 140 240 176 141 240 177 142 240 177 144 240 178 145 240 179 146 240 180 148 240 181 149 240 182 150 240 183 152 240 183 153 240 184 154 240 185 156 240 186 157 240 187 158 240 188 160 240 189 161 240 189 162 240 190 164 240 191 165 240 192 166 240 193 168 240 194 169 240 195 170 240 195 172 240 196 173 240 197 174 240 198 176 240 199 177 240 200 178 240 201 180 240 201 181 240 202 182 240 203 184 240 204 185 240 205 186 240 206 188 240 207 189 240 207 190 240 208 192 240 209 193 240 210 194 240 211 196 240 212 197 240 213 198 240 213 200 240 214 201 240 215 202 240 216 204 240 217 205 240 218 206 240 219 208 240 219 209 240 220 210 240 221 212 240 222 213 240 223 214 240 224 216 240 225 217 240 225 218 240 226 220 240 227 221 240 228 222 240 229 224 240 230 225 240 231 226 240 231 228 240 232 229 240 233 230 240 234 232 240 235 233 240 236 234 240 237 236 240 237 237 240 238 238 240 239 240 240 240 241 240 241 242 240 242 244 240 243 245 240 243 246 240 244 248 240 245 249 240 246 250 240 247 252 240 248 253 240 249 255 240 249
0 243 87 1 243 88 2 243 88 4 243 89 5 243 90 6 243 91 8 243 92 9 243 93 10 243 94 12 243 94 13 243 95 14 243 96 16 243 97 17 243 98 18 243 99 20 243 100 21 243 100 22 243 101 24 243 102 25 243 103 26 243 104 28 243 105 29 243 106 30 243 106 32 243 107 33 243 108 34 243 109 36 243 110 37 243 111 38 243 112 40 243 112 41 243 113 42 243 114 44 243 115 45 243 116 46 243 117 48 243 118 49 243 118 50 243 119 52 243 120 53 243 121 54 243 122 56 243 123 57 243 124 58 243 124 60 243 125 61 243 126 62 243 127 64 243 128 65 243 129 66 243 130 68 243 130 69 243 131 70 243 132 72 243 133 73 243 134 74 243 135 76 243 136 77 243 136 78 243 137 80 243 138 81 243 139 82 243 140 84 243 141 85 243 142 86 243 142 88 243 143 89 243 144 90 243 145 92 243 146 93 243 147 94 243 148 96 243 148 97 243 149 98 243 150 100 243 151 101 243 152 102 243 153 104 243 154 105 243 154 106 243 155 108 243 156 109 243 157 110 243 158 112 243 159 113 243 160 114 243 160 116 243 161 117 243 162 118 243 163 120 243 164 121 243 165 122 243 166 124 243 166 125 243 167 126 243 168 128 243 169 129 243 170 130 243 171 132 243 171 133 243 172 134 243 173 136 243 174 137 243 175 138 243 176 140 243 177 141 243 177 142 243 178 144 243 179 145 243 180 146 243 181 148 243 182 149 243 183 150 243 183 152 243 184 153 243 185 154 243 186 156 243 187 157 243 188 158 243 189 160 243 189 161 243 190 162 243 191 164 243 192 165 243 193 166 243 194 168 243 195 169 243 195 170 243 196 172 243 197 173 243 198 174 243 199 176 243 200 177 243 201 178 243 201 180 243 202 181 243 203 182 243 204 184 243 205 185 243 206 186 243 207 188 243 207 189 243 208 190 243 209 192 243 210 193 243 211 194 243 212 196 243 213 197 243 213 198 243 214 200 243 215 201 243 216 202 243 217 204 243 218 205 243 219 206 243 219 208 243 220 209 243 221 210 243 222 212 243 223 213 243 224 214 243 225 216 243 225 217 243 226 218 243 227 220 243 228 221 243 229 222 243 230 224 243 231 225 243 231 226 243 232 228 243 233 229 243 234 230 243 235 232 243 236 233 243 237 234 243 237 236 243 238 237 243 239 238 243 240 240 243 241 241 243 242 242 243 243 244 243 243 245 243 244 246 243 245 248 243 246 249 243 247 250 243 248 252 243 249 253 243 249 255 243 250
0 245 88 1 245 88 2 245 89 4 245 90 5 245 91 6 245 92 8 245 93 9 245 94 10 245 94 12 245 95 13 245 96 14 245 97 16 245 98 17 245 99 18 245 100 20 245 100 21 245 101 22 245 102 24 245 103 25 245 104 26 245 105 28 245 106 29 245 106 30 245 107 32 245 108 33 245 109 34 245 110 36 245 111 37 245 112 38 245 112 40 245 113 41 245 114 42 245 115 44 245 116 45 245 117 46 245 118 48 245 118 49 245 119 50 245 120 52 245 121 53 245 122 54 245 123 56 245 124 57 245 124 58 245 125 60 245 126 61 245 127 62 245 128 64 245 129 65 245 130 66 245 130 68 245 131 69 245 132 70 245 133 72 245 134 73 245 135 74 245 136 76 245 136 77 245 137 78 245 138 80 245 139 81 245 140 82 245 141 84 245 142 85 245 142 86 245 143 88 245 144 89 245 145 90 245 146 92 245 147 93 245 148 94 245 148 96 245 149 97 245 150 98 245 151 100 245 152 101 245 153 102 245 154 104 245 154 105 245 155 106 245 156 108 245 157 109 245 158 110 245 159 112 245 160 113 245 160 114 245 161 116 245 162 117 245 163 118 245 164 120 245 165 121 245 166 122 245 166 124 245 167 125 245 168 126 245 169 128 245 170 129 245 171 130 245 171 132 245 172 133 245 173 134 245 174 136 245 175 137 245 176 138 245 177 140 245 177 141 245 178 142 245 179 144 245 180 145 245 181 146 245 182 148 245 183 149 245 183 150 245 184 152 245 185 153 245 186 154 245 187 156 245 188 157 245 189 158 245 189 160 245 190 161 245 191 162 245 192 164 245 193 165 245 194 166 245 195 168 245 195 169 245 196 170 245 197 172 245 198 173 245 199 174 245 200 176 245 201 177 245 201 178 245 202 180 245 203 181 245 204 182 245 205 184 245 206 185 245 207 186 245 207 188 245 208 189 245 209 190 245 210 192 245 211 193 245 212 194 245 213 196 245 213 197 245 214 198 245 215 200 245 216 201 245 217 202 245 218 204 245 219 205 245 219 206 245 220 208 245 221 209 245 222 210 245 223 212 245 224 213 245 225 214 245 225 216 245 226 217 245 227 218 245 228 220 245 229 221 245 230 222 245 231 224 245 231 225 245 232 226 245 233 228 245 234 229 245 235 230 245 236 232 245 237 233 245 237 234 245 238 236 245 239 237 245 240 238 245 241 240 245 242 241 245 243 242 245 243 244 245 244 245 245 245 246 245 246 248 245 247 249 245 248 250 245 249 252 245 249 253 245 250 255 245 251
0 247 88 1 247 89 2 247 90 4 247 91 5 247 92 6 247 93 8 247 94 9 247 94 10 247 95 12 247 96 13 247 97 14 247 98 16 247 99 17 247 100 18 247 100 20 247 101 21 247 102 22 247 103 24 247 104 25 247 105 26 247 106 28 247 106 29 247 107 30 247 108 32 247 109 33 247 110 34 247 111 36 247 112 37 247 112 38 247 113 40 247 114 41 247 115 42 247 116 44 247 117 45 247 118 46 247 118 48 247 119 49 247 120 50 247 121 52 247 122 53 247 123 54 247 124 56 247 124 57 247 125 58 247 126 60 247 127 61 247 128 62 247 129 64 247 130 65 247 130 66 247 131 68 247 132 69 247 133 70 247 134 72 247 135 73 247 136 74 247 136 76 247 137 77 247 138 78 247 139 80 247 140 81 247 141 82 247 142 84 247 142 85 247 143 86 247 144 88 247 145 89 247 146 90 247 147 92 247 148 93 247 148 94 247 149 96 247 150 97 247 151 98 247 152 100 247 153 101 247 154 102 247 154 104 247 155 105 247 156 106 247 157 108 247 158 109 247 159 110 247 160 112 247 160 113 247 161 114 247 162 116 247 163 117 247 164 118 247 165 120 247 166 121 247 166 122 247 167 124 247 168 125 247 169 126 247 170 128 247 171 129 247 171 130 247 172 132 247 173 133 247 174 134 247 175 136 247 176 137 247 177 138 247 177 140 247 178 141 247 179 142 247 180 144 247 181 145 247 182 146 247 183 148 247 183 149 247 184 150 247 185 152 247 186 153 247 187 154 247 188 156 247 189 157 247 189 158 247 190 160 247 191 161 247 192 162 247 193 164 247 194 165 247 195 166 247 195 168 247 196 169 247 197 170 247 198 172 247 199 173 247 200 174 247 201 176 247 201 177 247 202 178 247 203 180 247 204 181 247 205 182 247 206 184 247 207 185 247 207 186 247 208 188 247 209 189 247 210 190 247 211 192 247 212 193 247 213 194 247 213 196 247 214 197 247 215 198 247 216 200 247 217 201 247 218 202 247 219 204 247 219 205 247 220 206 247 221 208 247 222 209 247 223 210 247 224 212 247 225 213 247 225 214 247 226 216 247 227 217 247 228 218 247 229 220 247 230 221 247 231 222 247 231 224 247 232 225 247 233 226 247 234 228 247 235 229 247 236 230 247 237 232 247 237 233 247 238 234 247 239 236 247 240 237 247 241 238 247 242 240 247 243 241 247 243 242 247 244 244 247 245 245 247 246 246 247 247 248 247 248 249 247 249 250 247 249 252 247 250 253 247 251 255 247 252
0 250 89 1 250 90 2 250 91 4 250 92 5 250 93 6 250 94 8 250 94 9 250 95 10 250 96 12 250 97 13 250 98 14 250 99 16 250 100 17 250 100 18 250 101 20 250 102 21 250 103 22 250 104 24 250 105 25 250 106 26 250 106 28 250 107 29 250 108 30 250 109 32 250 110 33 250 111 34 250 112 36 250 112 37 250 113 38 250 114 40 250 115 41 250 116 42 250 117 44 250 118 45 250 118 46 250 119 48 250 120 49 250 121 50 250 122 52 250 123 53 250 124 54 250 124 56 250 125 57 250 126 58 250 127 60 250 128 61 250 129 62 250 130 64 250 130 65 250 131 66 250 132 68 250 133 69 250 134 70 250 135 72 250 136 73 250 136 74 250 137 76 250 138 77 250 139 78 250 140 80 250 141 81 250 142 82 250 142 84 250 143 85 250 144 86 250 145 88 250 146 89 250 147 90 250 148 92 250 148 93 250 149 94 250 150 96 250 151 97 250 152 98 250 153 100 250 154 101 250 154 102 250 155 104 250 156 105 250 157 106 250 158 108 250 159 109 250 160 110 250 160 112 250 161 113 250 162 114 250 163 116 250 164 117 250 165 118 250 166 120 250 166 121 250 167 122 250 168 124 250 169 125 250 170 126 250 171 128 250 171 129 250 172 130 250 173 132 250 174 133 250 175 134 250 176 136 250 177 137 250 177 138 250 178 140 250 179 141 250 180 142 250 181 144 250 182 145 250 183 146 250 183 148 250 184 149 250 185 150 250 186 152 250 187 153 250 188 154 250 189 156 250 189 157 250 190 158 250 191 160 250 192 161 250 193 162 250 194 164 250 195 165 250 195 166 250 196 168 250 197 169 250 198 170 250 199 172 250 200 173 250 201 174 250 201 176 250 202 177 250 203 178 250 204 180 250 205 181 250 206 182 250 207 184 250 207 185 250 208 186 250 209 188 250 210 189 250 211 190 250 212 192 250 213 193 250 213 194 250 214 196 250 215 197 250 216 198 250 217 200 250 218 201 250 219 202 250 219 204 250 220 205 250 221 206 250 222 208 250 223 209 250 224 210 250 225 212 250 225 213 250 226 214 250 227 216 250 228 217 250 229 218 250 230 220 250 231 221 250 231 222 250 232 224 250 233 225 250 234 226 250 235 228 250 236 229 250 237 230 250 237 232 250 238 233 250 239 234 250 240 236 250 241 237 250 242 238 250 243 240 250 243 241 250 244 242 250 245 244 250 246 245 250 247 246 250 248 248 250 249 249 250 249 250 250 250 252 250 251 253 250 252 255 250 253
0 252 90 1 252 91 2 252 92 4 252 93 5 252 94 6 252 94 8 252 95 9 252 96 10 252 97 12 252 98 13 252 99 14 252 100 16 252 100 17 252 101 18 252 102 20 252 103 21 252 104 22 252 105 24 252 106 25 252 106 26 252 107 28 252 108 29 252 109 30 252 110 32 252 111 33 252 112 34 252 112 36 252 113 37 252 114 38 252 115 40 252 116 41 252 117 42 252 118 44 252 118 45 252 119 46 252 120 48 252 121 49 252 122 50 252 123 52 252 124 53 252 124 54 252 125 56 252 126 57 252 127 58 252 128 60 252 129 61 252 130 62 252 130 64 252 131 65 252 132 66 252 133 68 252 134 69 252 135 70 252 136 72 252 136 73 252 137 74 252 138 76 252 139 77 252 140 78 252 141 80 252 142 81 252 142 82 252 143 84 252 144 85 252 145 86 252 146 88 252 147 89 252 148 90 252 148 92 252 149 93 252 150 94 252 151 96 252 152 97 252 153 98 252 154 100 252 154 101 252 155 102 252 156 104 252 157 105 252 158 106 252 159 108 252 160 109 252 160 110 252 161 112 252 162 113 252 163 114 252 164 116 252 165 117 252 166 118 252 166 120 252 167 121 252 168 122 252 169 124 252 170 125 252 171 126 252 171 128 252 172 129 252 173 130 252 174 132 252 175 133 252 176 134 252 177 136 252 177 137 252 178 138 252 179 140 252 180 141 252 181 142 252 182 144 252 183 145 252 183 146 252 184 148 252 185 149 252 186 150 252 187 152 252 188 153 252 189 154 252 189 156 252 190 157 252 191 158 252 192 160 252 193 161 252 194 162 252 195 164 252 195 165 252 196 166 252 197 168 252 198 169 252 199 170 252 200 172 252 201 173 252 201 174 252 202 176 252 203 177 252 204 178 252 205 180 252 206 181 252 207 182 252 207 184 252 208 185 252 209 186 252 210 188 252 211 189 252 212 190 252 213 192 252 213 193 252 214 194 252 215 196 252 216 197 252 217 198 252 218 200 252 219 201 252 219 202 252 220 204 252 221 205 252 222 206 252 223 208 252 224 209 252 225 210 252 225 212 252 226 213 252 227 214 252 228 216 252 229 217 252 230 218 252 231 220 252 231 221 252 232 222 252 233 224 252 234 225 252 235 226 252 236 228 252 237 229 252 237 230 252 238 232 252 239 233 252 240 234 252 241 236 252 242 237 252 243 238 252 243 240 252 244 241 252 245 242 252 246 244 252 247 245 252 248 246 252 249 248 252 249 249 252 250 250 252 251 252 252 252 253 252 253 255 252 254
0 255 91 1 255 92 2 255 93 4 255 94 5 255 94 6 255 95 8 255 96 9 255 97 10 255 98 12 255 99 13 255 100 14 255 100 16 255 101 17 255 102 18 255 103 20 255 104 21 255 105 22 255 106 24 255 106 25 255 107 26 255 108 28 255 109 29 255 110 30 255 111 32 255 112 33 255 112 34 255 113 36 255 114 37 255 115 38 255 116 40 255 117 41 255 118 42 255 118 44 255 119 45 255 120 46 255 121 48 255 122 49 255 123 50 255 124 52 255 124 53 255 125 54 255 126 56 255 127 57 255 128 58 255 129 60 255 130 61 255 130 62 255 131 64 255 132 65 255 133 66 255 134 68 255 135 69 255 136 70 255 136 72 255 137 73 255 138 74 255 139 76 255 140 77 255 141 78 255 142 80 255 142 81 255 143 82 255 144 84 255 145 85 255 146 86 255 147 88 255 148 89 255 148 90 255 149 92 255 150 93 255 151 94 255 152 96 255 153 97 255 154 98 255 154 100 255 155 101 255 156 102 255 157 104 255 158 105 255 159 106 255 160 108 255 160 109 255 161 110 255 162 112 255 163 113 255 164 114 255 165 116 255 166 117 255 166 118 255 167 120 255 168 121 255 169 122 255 170 124 255 171 125 255 171 126 255 172 128 255 173 129 255 174 130 255 175 132 255 176 133 255 177 134 255 177 136 255 178 137 255 179 138 255 180 140 255 181 141 255 182 142 255 183 144 255 183 145 255 184 146 255 185 148 255 186 149 255 187 150 255 188 152 255 189 153 255 189 154 255 190 156 255 191 157 255 192 158 255 193 160 255 194 161 255 195 162 255 195 164 255 196 165 255 197 166 255 198 168 255 199 169 255 200 170 255 201 172 255 201 173 255 202 174 255 203 176 255 204 177 255 205 178 255 206 180 255 207 181 255 207 182 255 208 184 255 209 185 255 210 186 255 211 188 255 212 189 255 213 190 255 213 192 255 214 193 255 215 194 255 216 196 255 217 197 255 218 198 255 219 200 255 219 201 255 220 202 255 221 204 255 222 205 255 223 206 255 224 208 255 225 209 255 225 210 255 226 212 255 227 213 255 228 214 255 229 216 255 230 217 255 231 218 255 231 220 255 232 221 255 233 222 255 234 224 255 235 225 255 236 226 255 237 228 255 237 229 255 238 230 255 239 232 255 240 233 255 241 234 255 242 236 255 243 237 255 243 238 255 244 240 255 245 241 255 246 242 255 247 244 255 248 245 255 249 246 255 249 248 255 250 249 255 251 250 255 252 252 255 253 253 255 254 255 255 255
