P3
160 90
255
0 255 0 1 254 2 2 253 4 3 252 6 4 251 8 5 250 10 6 249 12 7 248 14 8 247 16 9 246 18 10 245 20 11 244 22 12 243 24 13 242 26 14 241 28 15 240 30 16 239 32 17 238 34 18 237 36 19 236 38 20 235 40 21 234 42 22 233 44 23 232 46 24 231 48 25 230 50 26 229 52 27 228 54 28 227 56 29 226 58 30 225 60 31 224 62 32 223 64 33 222 66 34 221 68 35 220 70 36 219 72 37 218 74 38 217 76 39 216 78 40 215 80 41 214 82 42 213 84 43 212 86 44 211 88 45 210 90 46 209 92 47 208 94 48 207 96 49 206 98 50 205 100 51 204 102 52 203 104 53 202 106 54 201 108 55 200 110 56 199 112 57 198 114 58 197 116 59 196 118 60 195 120 61 194 122 62 193 124 63 192 126 64 191 128 65 190 130 66 189 132 67 188 134 68 187 136 69 186 138 70 185 140 71 184 142 72 183 144 73 182 146 74 181 148 75 180 150 76 179 152 77 178 154 78 177 156 79 176 158 80 175 160 81 174 162 82 173 164 83 172 166 84 171 168 85 170 170 86 169 172 87 168 174 88 167 176 89 166 178 90 165 180 91 164 182 92 163 184 93 162 186 94 161 188 95 160 190 96 159 192 97 158 194 98 157 196 99 156 198 100 155 200 101 154 202 102 153 204 103 152 206 104 151 208 105 150 210 106 149 212 107 148 214 108 147 216 109 146 218 110 145 220 111 144 222 112 143 224 113 142 226 114 141 228 115 140 230 116 139 232 117 138 234 118 137 236 119 136 238 120 135 240 121 134 242 122 133 244 123 132 246 124 131 248 125 130 250 126 129 252 127 128 254 128 127 0 129 126 2 130 125 4 131 124 6 132 123 8 133 122 10 134 121 12 135 120 14 136 119 16 137 118 18 138 117 20 139 116 22 140 115 24 141 114 26 142 113 28 143 112 30 144 111 32 145 110 34 146 109 36 147 108 38 148 107 40 149 106 42 150 105 44 151 104 46 152 103 48 153 102 50 154 101 52 155 100 54 156 99 56 157 98 58 158 97 60 159 96 62
1 254 2 2 253 4 3 252 6 4 251 8 5 250 10 6 249 12 7 248 14 8 247 16 9 246 18 10 245 20 11 244 22 12 243 24 13 242 26 14 241 28 15 240 30 16 239 32 17 238 34 18 237 36 19 236 38 20 235 40 21 234 42 22 233 44 23 232 46 24 231 48 25 230 50 26 229 52 27 228 54 28 227 56 29 226 58 30 225 60 31 224 62 32 223 64 33 222 66 34 221 68 35 220 70 36 219 72 37 218 74 38 217 76 39 216 78 40 215 80 41 214 82 42 213 84 43 212 86 44 211 88 45 210 90 46 209 92 47 208 94 48 207 96 49 206 98 50 205 100 51 204 102 52 203 104 53 202 106 54 201 108 55 200 110 56 199 112 57 198 114 58 197 116 59 196 118 60 195 120 61 194 122 62 193 124 63 192 126 64 191 128 65 190 130 66 189 132 67 188 134 68 187 136 69 186 138 70 185 140 71 184 142 72 183 144 73 182 146 74 181 148 75 180 150 76 179 152 77 178 154 78 177 156 79 176 158 80 175 160 81 174 162 82 173 164 83 172 166 84 171 168 85 170 170 86 169 172 87 168 174 88 167 176 89 166 178 90 165 180 91 164 182 92 163 184 93 162 186 94 161 188 95 160 190 96 159 192 97 158 194 98 157 196 99 156 198 100 155 200 101 154 202 102 153 204 103 152 206 104 151 208 105 150 210 106 149 212 107 148 214 108 147 216 109 146 218 110 145 220 111 144 222 112 143 224 113 142 226 114 141 228 115 140 230 116 139 232 117 138 234 118 137 236 119 136 238 120 135 240 121 134 242 122 133 244 123 132 246 124 131 248 125 130 250 126 129 252 127 128 254 128 127 0 129 126 2 130 125 4 131 124 6 132 123 8 133 122 10 134 121 12 135 120 14 136 119 16 137 118 18 138 117 20 139 116 22 140 115 24 141 114 26 142 113 28 143 112 30 144 111 32 145 110 34 146 109 36 147 108 38 148 107 40 149 106 42 150 105 44 151 104 46 152 103 48 153 102 50 154 101 52 155 100 54 156 99 56 157 98 58 158 97 60 159 96 62 160 95 64
2 253 4 3 252 6 4 251 8 5 250 10 6 249 12 7 248 14 8 247 16 9 246 18 10 245 20 11 244 22 12 243 24 13 242 26 14 241 28 15 240 30 16 239 32 17 238 34 18 237 36 19 236 38 20 235 40 21 234 42 22 233 44 23 232 46 24 231 48 25 230 50 26 229 52 27 228 54 28 227 56 29 226 58 30 225 60 31 224 62 32 223 64 33 222 66 34 221 68 35 220 70 36 219 72 37 218 74 38 217 76 39 216 78 40 215 80 41 214 82 42 213 84 43 212 86 44 211 88 45 210 90 46 209 92 47 208 94 48 207 96 49 206 98 50 205 100 51 204 102 52 203 104 53 202 106 54 201 108 55 200 110 56 199 112 57 198 114 58 197 116 59 196 118 60 195 120 61 194 122 62 193 124 63 192 126 64 191 128 65 190 130 66 189 132 67 188 134 68 187 136 69 186 138 70 185 140 71 184 142 72 183 144 73 182 146 74 181 148 75 180 150 76 179 152 77 178 154 78 177 156 79 176 158 80 175 160 81 174 162 82 173 164 83 172 166 84 171 168 85 170 170 86 169 172 87 168 174 88 167 176 89 166 178 90 165 180 91 164 182 92 163 184 93 162 186 94 161 188 95 160 190 96 159 192 97 158 194 98 157 196 99 156 198 100 155 200 101 154 202 102 153 204 103 152 206 104 151 208 105 150 210 106 149 212 107 148 214 108 147 216 109 146 218 110 145 220 111 144 222 112 143 224 113 142 226 114 141 228 115 140 230 116 139 232 117 138 234 118 137 236 119 136 238 120 135 240 121 134 242 122 133 244 123 132 246 124 131 248 125 130 250 126 129 252 127 128 254 128 127 0 129 126 2 130 125 4 131 124 6 132 123 8 133 122 10 134 121 12 135 120 14 136 119 16 137 118 18 138 117 20 139 116 22 140 115 24 141 114 26 142 113 28 143 112 30 144 111 32 145 110 34 146 109 36 147 108 38 148 107 40 149 106 42 150 105 44 151 104 46 152 103 48 153 102 50 154 101 52 155 100 54 156 99 56 157 98 58 158 97 60 159 96 62 160 95 64 161 94 66
3 252 6 4 251 8 5 250 10 6 249 12 7 248 14 8 247 16 9 246 18 10 245 20 11 244 22 12 243 24 13 242 26 14 241 28 15 240 30 16 239 32 17 238 34 18 237 36 19 236 38 20 235 40 21 234 42 22 233 44 23 232 46 24 231 48 25 230 50 26 229 52 27 228 54 28 227 56 29 226 58 30 225 60 31 224 62 32 223 64 33 222 66 34 221 68 35 220 70 36 219 72 37 218 74 38 217 76 39 216 78 40 215 80 41 214 82 42 213 84 43 212 86 44 211 88 45 210 90 46 209 92 47 208 94 48 207 96 49 206 98 50 205 100 51 204 102 52 203 104 53 202 106 54 201 108 55 200 110 56 199 112 57 198 114 58 197 116 59 196 118 60 195 120 61 194 122 62 193 124 63 192 126 64 191 128 65 190 130 66 189 132 67 188 134 68 187 136 69 186 138 70 185 140 71 184 142 72 183 144 73 182 146 74 181 148 75 180 150 76 179 152 77 178 154 78 177 156 79 176 158 80 175 160 81 174 162 82 173 164 83 172 166 84 171 168 85 170 170 86 169 172 87 168 174 88 167 176 89 166 178 90 165 180 91 164 182 92 163 184 93 162 186 94 161 188 95 160 190 96 159 192 97 158 194 98 157 196 99 156 198 100 155 200 101 154 202 102 153 204 103 152 206 104 151 208 105 150 210 106 149 212 107 148 214 108 147 216 109 146 218 110 145 220 111 144 222 112 143 224 113 142 226 114 141 228 115 140 230 116 139 232 117 138 234 118 137 236 119 136 238 120 135 240 121 134 242 122 133 244 123 132 246 124 131 248 125 130 250 126 129 252 127 128 254 128 127 0 129 126 2 130 125 4 131 124 6 132 123 8 133 122 10 134 121 12 135 120 14 136 119 16 137 118 18 138 117 20 139 116 22 140 115 24 141 114 26 142 113 28 143 112 30 144 111 32 145 110 34 146 109 36 147 108 38 148 107 40 149 106 42 150 105 44 151 104 46 152 103 48 153 102 50 154 101 52 155 100 54 156 99 56 157 98 58 158 97 60 159 96 62 160 95 64 161 94 66 162 93 68
4 251 8 5 250 10 6 249 12 7 248 14 8 247 16 9 246 18 10 245 20 11 244 22 12 243 24 13 242 26 14 241 28 15 240 30 16 239 32 17 238 34 18 237 36 19 236 38 20 235 40 21 234 42 22 233 44 23 232 46 24 231 48 25 230 50 26 229 52 27 228 54 28 227 56 29 226 58 30 225 60 31 224 62 32 223 64 33 222 66 34 221 68 35 220 70 36 219 72 37 218 74 38 217 76 39 216 78 40 215 80 41 214 82 42 213 84 43 212 86 44 211 88 45 210 90 46 209 92 47 208 94 48 207 96 49 206 98 50 205 100 51 204 102 52 203 104 53 202 106 54 201 108 55 200 110 56 199 112 57 198 114 58 197 116 59 196 118 60 195 120 61 194 122 62 193 124 63 192 126 64 191 128 65 190 130 66 189 132 67 188 134 68 187 136 69 186 138 70 185 140 71 184 142 72 183 144 73 182 146 74 181 148 75 180 150 76 179 152 77 178 154 78 177 156 79 176 158 80 175 160 81 174 162 82 173 164 83 172 166 84 171 168 85 170 170 86 169 172 87 168 174 88 167 176 89 166 178 90 165 180 91 164 182 92 163 184 93 162 186 94 161 188 95 160 190 96 159 192 97 158 194 98 157 196 99 156 198 100 155 200 101 154 202 102 153 204 103 152 206 104 151 208 105 150 210 106 149 212 107 148 214 108 147 216 109 146 218 110 145 220 111 144 222 112 143 224 113 142 226 114 141 228 115 140 230 116 139 232 117 138 234 118 137 236 119 136 238 120 135 240 121 134 242 122 133 244 123 132 246 124 131 248 125 130 250 126 129 252 127 128 254 128 127 0 129 126 2 130 125 4 131 124 6 132 123 8 133 122 10 134 121 12 135 120 14 136 119 16 137 118 18 138 117 20 139 116 22 140 115 24 141 114 26 142 113 28 143 112 30 144 111 32 145 110 34 146 109 36 147 108 38 148 107 40 149 106 42 150 105 44 151 104 46 152 103 48 153 102 50 154 101 52 155 100 54 156 99 56 157 98 58 158 97 60 159 96 62 160 95 64 161 94 66 162 93 68 163 92 70
5 250 10 6 249 12 7 248 14 8 247 16 9 246 18 10 245 20 11 244 22 12 243 24 13 242 26 14 241 28 15 240 30 16 239 32 17 238 34 18 237 36 19 236 38 20 235 40 21 234 42 22 233 44 23 232 46 24 231 48 25 230 50 26 229 52 27 228 54 28 227 56 29 226 58 30 225 60 31 224 62 32 223 64 33 222 66 34 221 68 35 220 70 36 219 72 37 218 74 38 217 76 39 216 78 40 215 80 41 214 82 42 213 84 43 212 86 44 211 88 45 210 90 46 209 92 47 208 94 48 207 96 49 206 98 50 205 100 51 204 102 52 203 104 53 202 106 54 201 108 55 200 110 56 199 112 57 198 114 58 197 116 59 196 118 60 195 120 61 194 122 62 193 124 63 192 126 64 191 128 65 190 130 66 189 132 67 188 134 68 187 136 69 186 138 70 185 140 71 184 142 72 183 144 73 182 146 74 181 148 75 180 150 76 179 152 77 178 154 78 177 156 79 176 158 80 175 160 81 174 162 82 173 164 83 172 166 84 171 168 85 170 170 86 169 172 87 168 174 88 167 176 89 166 178 90 165 180 91 164 182 92 163 184 93 162 186 94 161 188 95 160 190 96 159 192 97 158 194 98 157 196 99 156 198 100 155 200 101 154 202 102 153 204 103 152 206 104 151 208 105 150 210 106 149 212 107 148 214 108 147 216 109 146 218 110 145 220 111 144 222 112 143 224 113 142 226 114 141 228 115 140 230 116 139 232 117 138 234 118 137 236 119 136 238 120 135 240 121 134 242 122 133 244 123 132 246 124 131 248 125 130 250 126 129 252 127 128 254 128 127 0 129 126 2 130 125 4 131 124 6 132 123 8 133 122 10 134 121 12 135 120 14 136 119 16 137 118 18 138 117 20 139 116 22 140 115 24 141 114 26 142 113 28 143 112 30 144 111 32 145 110 34 146 109 36 147 108 38 148 107 40 149 106 42 150 105 44 151 104 46 152 103 48 153 102 50 154 101 52 155 100 54 156 99 56 157 98 58 158 97 60 159 96 62 160 95 64 161 94 66 162 93 68 163 92 70 164 91 72
6 249 12 7 248 14 8 247 16 9 246 18 10 245 20 11 244 22 12 243 24 13 242 26 14 241 28 15 240 30 16 239 32 17 238 34 18 237 36 19 236 38 20 235 40 21 234 42 22 233 44 23 232 46 24 231 48 25 230 50 26 229 52 27 228 54 28 227 56 29 226 58 30 225 60 31 224 62 32 223 64 33 222 66 34 221 68 35 220 70 36 219 72 37 218 74 38 217 76 39 216 78 40 215 80 41 214 82 42 213 84 43 212 86 44 211 88 45 210 90 46 209 92 47 208 94 48 207 96 49 206 98 50 205 100 51 204 102 52 203 104 53 202 106 54 201 108 55 200 110 56 199 112 57 198 114 58 197 116 59 196 118 60 195 120 61 194 122 62 193 124 63 192 126 64 191 128 65 190 130 66 189 132 67 188 134 68 187 136 69 186 138 70 185 140 71 184 142 72 183 144 73 182 146 74 181 148 75 180 150 76 179 152 77 178 154 78 177 156 79 176 158 80 175 160 81 174 162 82 173 164 83 172 166 84 171 168 85 170 170 86 169 172 87 168 174 88 167 176 89 166 178 90 165 180 91 164 182 92 163 184 93 162 186 94 161 188 95 160 190 96 159 192 97 158 194 98 157 196 99 156 198 100 155 200 101 154 202 102 153 204 103 152 206 104 151 208 105 150 210 106 149 212 107 148 214 108 147 216 109 146 218 110 145 220 111 144 222 112 143 224 113 142 226 114 141 228 115 140 230 116 139 232 117 138 234 118 137 236 119 136 238 120 135 240 121 134 242 122 133 244 123 132 246 124 131 248 125 130 250 126 129 252 127 128 254 128 127 0 129 126 2 130 125 4 131 124 6 132 123 8 133 122 10 134 121 12 135 120 14 136 119 16 137 118 18 138 117 20 139 116 22 140 115 24 141 114 26 142 113 28 143 112 30 144 111 32 145 110 34 146 109 36 147 108 38 148 107 40 149 106 42 150 105 44 151 104 46 152 103 48 153 102 50 154 101 52 155 100 54 156 99 56 157 98 58 158 97 60 159 96 62 160 95 64 161 94 66 162 93 68 163 92 70 164 91 72 165 90 74
7 248 14 8 247 16 9 246 18 10 245 20 11 244 22 12 243 24 13 242 26 14 241 28 15 240 30 16 239 32 17 238 34 18 237 36 19 236 38 20 235 40 21 234 42 22 233 44 23 232 46 24 231 48 25 230 50 26 229 52 27 228 54 28 227 56 29 226 58 30 225 60 31 224 62 32 223 64 33 222 66 34 221 68 35 220 70 36 219 72 37 218 74 38 217 76 39 216 78 40 215 80 41 214 82 42 213 84 43 212 86 44 211 88 45 210 90 46 209 92 47 208 94 48 207 96 49 206 98 50 205 100 51 204 102 52 203 104 53 202 106 54 201 108 55 200 110 56 199 112 57 198 114 58 197 116 59 196 118 60 195 120 61 194 122 62 193 124 63 192 126 64 191 128 65 190 130 66 189 132 67 188 134 68 187 136 69 186 138 70 185 140 71 184 142 72 183 144 73 182 146 74 181 148 75 180 150 76 179 152 77 178 154 78 177 156 79 176 158 80 175 160 81 174 162 82 173 164 83 172 166 84 171 168 85 170 170 86 169 172 87 168 174 88 167 176 89 166 178 90 165 180 91 164 182 92 163 184 93 162 186 94 161 188 95 160 190 96 159 192 97 158 194 98 157 196 99 156 198 100 155 200 101 154 202 102 153 204 103 152 206 104 151 208 105 150 210 106 149 212 107 148 214 108 147 216 109 146 218 110 145 220 111 144 222 112 143 224 113 142 226 114 141 228 115 140 230 116 139 232 117 138 234 118 137 236 119 136 238 120 135 240 121 134 242 122 133 244 123 132 246 124 131 248 125 130 250 126 129 252 127 128 254 128 127 0 129 126 2 130 125 4 131 124 6 132 123 8 133 122 10 134 121 12 135 120 14 136 119 16 137 118 18 138 117 20 139 116 22 140 115 24 141 114 26 142 113 28 143 112 30 144 111 32 145 110 34 146 109 36 147 108 38 148 107 40 149 106 42 150 105 44 151 104 46 152 103 48 153 102 50 154 101 52 155 100 54 156 99 56 157 98 58 158 97 60 159 96 62 160 95 64 161 94 66 162 93 68 163 92 70 164 91 72 165 90 74 166 89 76
8 247 16 9 246 18 10 245 20 11 244 22 12 243 24 13 242 26 14 241 28 15 240 30 16 239 32 17 238 34 18 237 36 19 236 38 20 235 40 21 234 42 22 233 44 23 232 46 24 231 48 25 230 50 26 229 52 27 228 54 28 227 56 29 226 58 30 225 60 31 224 62 32 223 64 33 222 66 34 221 68 35 220 70 36 219 72 37 218 74 38 217 76 39 216 78 40 215 80 41 214 82 42 213 84 43 212 86 44 211 88 45 210 90 46 209 92 47 208 94 48 207 96 49 206 98 50 205 100 51 204 102 52 203 104 53 202 106 54 201 108 55 200 110 56 199 112 57 198 114 58 197 116 59 196 118 60 195 120 61 194 122 62 193 124 63 192 126 64 191 128 65 190 130 66 189 132 67 188 134 68 187 136 69 186 138 70 185 140 71 184 142 72 183 144 73 182 146 74 181 148 75 180 150 76 179 152 77 178 154 78 177 156 79 176 158 80 175 160 81 174 162 82 173 164 83 172 166 84 171 168 85 170 170 86 169 172 87 168 174 88 167 176 89 166 178 90 165 180 91 164 182 92 163 184 93 162 186 94 161 188 95 160 190 96 159 192 97 158 194 98 157 196 99 156 198 100 155 200 101 154 202 102 153 204 103 152 206 104 151 208 105 150 210 106 149 212 107 148 214 108 147 216 109 146 218 110 145 220 111 144 222 112 143 224 113 142 226 114 141 228 115 140 230 116 139 232 117 138 234 118 137 236 119 136 238 120 135 240 121 134 242 122 133 244 123 132 246 124 131 248 125 130 250 126 129 252 127 128 254 128 127 0 129 126 2 130 125 4 131 124 6 132 123 8 133 122 10 134 121 12 135 120 14 136 119 16 137 118 18 138 117 20 139 116 22 140 115 24 141 114 26 142 113 28 143 112 30 144 111 32 145 110 34 146 109 36 147 108 38 148 107 40 149 106 42 150 105 44 151 104 46 152 103 48 153 102 50 154 101 52 155 100 54 156 99 56 157 98 58 158 97 60 159 96 62 160 95 64 161 94 66 162 93 68 163 92 70 164 91 72 165 90 74 166 89 76 167 88 78
9 246 18 10 245 20 11 244 22 12 243 24 13 242 26 14 241 28 15 240 30 16 239 32 17 238 34 18 237 36 19 236 38 20 235 40 21 234 42 22 233 44 23 232 46 24 231 48 25 230 50 26 229 52 27 228 54 28 227 56 29 226 58 30 225 60 31 224 62 32 223 64 33 222 66 34 221 68 35 220 70 36 219 72 37 218 74 38 217 76 39 216 78 40 215 80 41 214 82 42 213 84 43 212 86 44 211 88 45 210 90 46 209 92 47 208 94 48 207 96 49 206 98 50 205 100 51 204 102 52 203 104 53 202 106 54 201 108 55 200 110 56 199 112 57 198 114 58 197 116 59 196 118 60 195 120 61 194 122 62 193 124 63 192 126 64 191 128 65 190 130 66 189 132 67 188 134 68 187 136 69 186 138 70 185 140 71 184 142 72 183 144 73 182 146 74 181 148 75 180 150 76 179 152 77 178 154 78 177 156 79 176 158 80 175 160 81 174 162 82 173 164 83 172 166 84 171 168 85 170 170 86 169 172 87 168 174 88 167 176 89 166 178 90 165 180 91 164 182 92 163 184 93 162 186 94 161 188 95 160 190 96 159 192 97 158 194 98 157 196 99 156 198 100 155 200 101 154 202 102 153 204 103 152 206 104 151 208 105 150 210 106 149 212 107 148 214 108 147 216 109 146 218 110 145 220 111 144 222 112 143 224 113 142 226 114 141 228 115 140 230 116 139 232 117 138 234 118 137 236 119 136 238 120 135 240 121 134 242 122 133 244 123 132 246 124 131 248 125 130 250 126 129 252 127 128 254 128 127 0 129 126 2 130 125 4 131 124 6 132 123 8 133 122 10 134 121 12 135 120 14 136 119 16 137 118 18 138 117 20 139 116 22 140 115 24 141 114 26 142 113 28 143 112 30 144 111 32 145 110 34 146 109 36 147 108 38 148 107 40 149 106 42 150 105 44 151 104 46 152 103 48 153 102 50 154 101 52 155 100 54 156 99 56 157 98 58 158 97 60 159 96 62 160 95 64 161 94 66 162 93 68 163 92 70 164 91 72 165 90 74 166 89 76 167 88 78 168 87 80
10 245 20 11 244 22 12 243 24 13 242 26 14 241 28 15 240 30 16 239 32 17 238 34 18 237 36 19 236 38 20 235 40 21 234 42 22 233 44 23 232 46 24 231 48 25 230 50 26 229 52 27 228 54 28 227 56 29 226 58 30 225 60 31 224 62 32 223 64 33 222 66 34 221 68 35 220 70 36 219 72 37 218 74 38 217 76 39 216 78 40 215 80 41 214 82 42 213 84 43 212 86 44 211 88 45 210 90 46 209 92 47 208 94 48 207 96 49 206 98 50 205 100 51 204 102 52 203 104 53 202 106 54 201 108 55 200 110 56 199 112 57 198 114 58 197 116 59 196 118 60 195 120 61 194 122 62 193 124 63 192 126 64 191 128 65 190 130 66 189 132 67 188 134 68 187 136 69 186 138 70 185 140 71 184 142 72 183 144 73 182 146 74 181 148 75 180 150 76 179 152 77 178 154 78 177 156 79 176 158 80 175 160 81 174 162 82 173 164 83 172 166 84 171 168 85 170 170 86 169 172 87 168 174 88 167 176 89 166 178 90 165 180 91 164 182 92 163 184 93 162 186 94 161 188 95 160 190 96 159 192 97 158 194 98 157 196 99 156 198 100 155 200 101 154 202 102 153 204 103 152 206 104 151 208 105 150 210 106 149 212 107 148 214 108 147 216 109 146 218 110 145 220 111 144 222 112 143 224 113 142 226 114 141 228 115 140 230 116 139 232 117 138 234 118 137 236 119 136 238 120 135 240 121 134 242 122 133 244 123 132 246 124 131 248 125 130 250 126 129 252 127 128 254 128 127 0 129 126 2 130 125 4 131 124 6 132 123 8 133 122 10 134 121 12 135 120 14 136 119 16 137 118 18 138 117 20 139 116 22 140 115 24 141 114 26 142 113 28 143 112 30 144 111 32 145 110 34 146 109 36 147 108 38 148 107 40 149 106 42 150 105 44 151 104 46 152 103 48 153 102 50 154 101 52 155 100 54 156 99 56 157 98 58 158 97 60 159 96 62 160 95 64 161 94 66 162 93 68 163 92 70 164 91 72 165 90 74 166 89 76 167 88 78 168 87 80 169 86 82
11 244 22 12 243 24 13 242 26 14 241 28 15 240 30 16 239 32 17 238 34 18 237 36 19 236 38 20 235 40 21 234 42 22 233 44 23 232 46 24 231 48 25 230 50 26 229 52 27 228 54 28 227 56 29 226 58 30 225 60 31 224 62 32 223 64 33 222 66 34 221 68 35 220 70 36 219 72 37 218 74 38 217 76 39 216 78 40 215 80 41 214 82 42 213 84 43 212 86 44 211 88 45 210 90 46 209 92 47 208 94 48 207 96 49 206 98 50 205 100 51 204 102 52 203 104 53 202 106 54 201 108 55 200 110 56 199 112 57 198 114 58 197 116 59 196 118 60 195 120 61 194 122 62 193 124 63 192 126 64 191 128 65 190 130 66 189 132 67 188 134 68 187 136 69 186 138 70 185 140 71 184 142 72 183 144 73 182 146 74 181 148 75 180 150 76 179 152 77 178 154 78 177 156 79 176 158 80 175 160 81 174 162 82 173 164 83 172 166 84 171 168 85 170 170 86 169 172 87 168 174 88 167 176 89 166 178 90 165 180 91 164 182 92 163 184 93 162 186 94 161 188 95 160 190 96 159 192 97 158 194 98 157 196 99 156 198 100 155 200 101 154 202 102 153 204 103 152 206 104 151 208 105 150 210 106 149 212 107 148 214 108 147 216 109 146 218 110 145 220 111 144 222 112 143 224 113 142 226 114 141 228 115 140 230 116 139 232 117 138 234 118 137 236 119 136 238 120 135 240 121 134 242 122 133 244 123 132 246 124 131 248 125 130 250 126 129 252 127 128 254 128 127 0 129 126 2 130 125 4 131 124 6 132 123 8 133 122 10 134 121 12 135 120 14 136 119 16 137 118 18 138 117 20 139 116 22 140 115 24 141 114 26 142 113 28 143 112 30 144 111 32 145 110 34 146 109 36 147 108 38 148 107 40 149 106 42 150 105 44 151 104 46 152 103 48 153 102 50 154 101 52 155 100 54 156 99 56 157 98 58 158 97 60 159 96 62 160 95 64 161 94 66 162 93 68 163 92 70 164 91 72 165 90 74 166 89 76 167 88 78 168 87 80 169 86 82 170 85 84
12 243 24 13 242 26 14 241 28 15 240 30 16 239 32 17 238 34 18 237 36 19 236 38 20 235 40 21 234 42 22 233 44 23 232 46 24 231 48 25 230 50 26 229 52 27 228 54 28 227 56 29 226 58 30 225 60 31 224 62 32 223 64 33 222 66 34 221 68 35 220 70 36 219 72 37 218 74 38 217 76 39 216 78 40 215 80 41 214 82 42 213 84 43 212 86 44 211 88 45 210 90 46 209 92 47 208 94 48 207 96 49 206 98 50 205 100 51 204 102 52 203 104 53 202 106 54 201 108 55 200 110 56 199 112 57 198 114 58 197 116 59 196 118 60 195 120 61 194 122 62 193 124 63 192 126 64 191 128 65 190 130 66 189 132 67 188 134 68 187 136 69 186 138 70 185 140 71 184 142 72 183 144 73 182 146 74 181 148 75 180 150 76 179 152 77 178 154 78 177 156 79 176 158 80 175 160 81 174 162 82 173 164 83 172 166 84 171 168 85 170 170 86 169 172 87 168 174 88 167 176 89 166 178 90 165 180 91 164 182 92 163 184 93 162 186 94 161 188 95 160 190 96 159 192 97 158 194 98 157 196 99 156 198 100 155 200 101 154 202 102 153 204 103 152 206 104 151 208 105 150 210 106 149 212 107 148 214 108 147 216 109 146 218 110 145 220 111 144 222 112 143 224 113 142 226 114 141 228 115 140 230 116 139 232 117 138 234 118 137 236 119 136 238 120 135 240 121 134 242 122 133 244 123 132 246 124 131 248 125 130 250 126 129 252 127 128 254 128 127 0 129 126 2 130 125 4 131 124 6 132 123 8 133 122 10 134 121 12 135 120 14 136 119 16 137 118 18 138 117 20 139 116 22 140 115 24 141 114 26 142 113 28 143 112 30 144 111 32 145 110 34 146 109 36 147 108 38 148 107 40 149 106 42 150 105 44 151 104 46 152 103 48 153 102 50 154 101 52 155 100 54 156 99 56 157 98 58 158 97 60 159 96 62 160 95 64 161 94 66 162 93 68 163 92 70 164 91 72 165 90 74 166 89 76 167 88 78 168 87 80 169 86 82 170 85 84 171 84 86
13 242 26 14 241 28 15 240 30 16 239 32 17 238 34 18 237 36 19 236 38 20 235 40 21 234 42 22 233 44 23 232 46 24 231 48 25 230 50 26 229 52 27 228 54 28 227 56 29 226 58 30 225 60 31 224 62 32 223 64 33 222 66 34 221 68 35 220 70 36 219 72 37 218 74 38 217 76 39 216 78 40 215 80 41 214 82 42 213 84 43 212 86 44 211 88 45 210 90 46 209 92 47 208 94 48 207 96 49 206 98 50 205 100 51 204 102 52 203 104 53 202 106 54 201 108 55 200 110 56 199 112 57 198 114 58 197 116 59 196 118 60 195 120 61 194 122 62 193 124 63 192 126 64 191 128 65 190 130 66 189 132 67 188 134 68 187 136 69 186 138 70 185 140 71 184 142 72 183 144 73 182 146 74 181 148 75 180 150 76 179 152 77 178 154 78 177 156 79 176 158 80 175 160 81 174 162 82 173 164 83 172 166 84 171 168 85 170 170 86 169 172 87 168 174 88 167 176 89 166 178 90 165 180 91 164 182 92 163 184 93 162 186 94 161 188 95 160 190 96 159 192 97 158 194 98 157 196 99 156 198 100 155 200 101 154 202 102 153 204 103 152 206 104 151 208 105 150 210 106 149 212 107 148 214 108 147 216 109 146 218 110 145 220 111 144 222 112 143 224 113 142 226 114 141 228 115 140 230 116 139 232 117 138 234 118 137 236 119 136 238 120 135 240 121 134 242 122 133 244 123 132 246 124 131 248 125 130 250 126 129 252 127 128 254 128 127 0 129 126 2 130 125 4 131 124 6 132 123 8 133 122 10 134 121 12 135 120 14 136 119 16 137 118 18 138 117 20 139 116 22 140 115 24 141 114 26 142 113 28 143 112 30 144 111 32 145 110 34 146 109 36 147 108 38 148 107 40 149 106 42 150 105 44 151 104 46 152 103 48 153 102 50 154 101 52 155 100 54 156 99 56 157 98 58 158 97 60 159 96 62 160 95 64 161 94 66 162 93 68 163 92 70 164 91 72 165 90 74 166 89 76 167 88 78 168 87 80 169 86 82 170 85 84 171 84 86 172 83 88
14 241 28 15 240 30 16 239 32 17 238 34 18 237 36 19 236 38 20 235 40 21 234 42 22 233 44 23 232 46 24 231 48 25 230 50 26 229 52 27 228 54 28 227 56 29 226 58 30 225 60 31 224 62 32 223 64 33 222 66 34 221 68 35 220 70 36 219 72 37 218 74 38 217 76 39 216 78 40 215 80 41 214 82 42 213 84 43 212 86 44 211 88 45 210 90 46 209 92 47 208 94 48 207 96 49 206 98 50 205 100 51 204 102 52 203 104 53 202 106 54 201 108 55 200 110 56 199 112 57 198 114 58 197 116 59 196 118 60 195 120 61 194 122 62 193 124 63 192 126 64 191 128 65 190 130 66 189 132 67 188 134 68 187 136 69 186 138 70 185 140 71 184 142 72 183 144 73 182 146 74 181 148 75 180 150 76 179 152 77 178 154 78 177 156 79 176 158 80 175 160 81 174 162 82 173 164 83 172 166 84 171 168 85 170 170 86 169 172 87 168 174 88 167 176 89 166 178 90 165 180 91 164 182 92 163 184 93 162 186 94 161 188 95 160 190 96 159 192 97 158 194 98 157 196 99 156 198 100 155 200 101 154 202 102 153 204 103 152 206 104 151 208 105 150 210 106 149 212 107 148 214 108 147 216 109 146 218 110 145 220 111 144 222 112 143 224 113 142 226 114 141 228 115 140 230 116 139 232 117 138 234 118 137 236 119 136 238 120 135 240 121 134 242 122 133 244 123 132 246 124 131 248 125 130 250 126 129 252 127 128 254 128 127 0 129 126 2 130 125 4 131 124 6 132 123 8 133 122 10 134 121 12 135 120 14 136 119 16 137 118 18 138 117 20 139 116 22 140 115 24 141 114 26 142 113 28 143 112 30 144 111 32 145 110 34 146 109 36 147 108 38 148 107 40 149 106 42 150 105 44 151 104 46 152 103 48 153 102 50 154 101 52 155 100 54 156 99 56 157 98 58 158 97 60 159 96 62 160 95 64 161 94 66 162 93 68 163 92 70 164 91 72 165 90 74 166 89 76 167 88 78 168 87 80 169 86 82 170 85 84 171 84 86 172 83 88 173 82 90
15 240 30 16 239 32 17 238 34 18 237 36 19 236 38 20 235 40 21 234 42 22 233 44 23 232 46 24 231 48 25 230 50 26 229 52 27 228 54 28 227 56 29 226 58 30 225 60 31 224 62 32 223 64 33 222 66 34 221 68 35 220 70 36 219 72 37 218 74 38 217 76 39 216 78 40 215 80 41 214 82 42 213 84 43 212 86 44 211 88 45 210 90 46 209 92 47 208 94 48 207 96 49 206 98 50 205 100 51 204 102 52 203 104 53 202 106 54 201 108 55 200 110 56 199 112 57 198 114 58 197 116 59 196 118 60 195 120 61 194 122 62 193 124 63 192 126 64 191 128 65 190 130 66 189 132 67 188 134 68 187 136 69 186 138 70 185 140 71 184 142 72 183 144 73 182 146 74 181 148 75 180 150 76 179 152 77 178 154 78 177 156 79 176 158 80 175 160 81 174 162 82 173 164 83 172 166 84 171 168 85 170 170 86 169 172 87 168 174 88 167 176 89 166 178 90 165 180 91 164 182 92 163 184 93 162 186 94 161 188 95 160 190 96 159 192 97 158 194 98 157 196 99 156 198 100 155 200 101 154 202 102 153 204 103 152 206 104 151 208 105 150 210 106 149 212 107 148 214 108 147 216 109 146 218 110 145 220 111 144 222 112 143 224 113 142 226 114 141 228 115 140 230 116 139 232 117 138 234 118 137 236 119 136 238 120 135 240 121 134 242 122 133 244 123 132 246 124 131 248 125 130 250 126 129 252 127 128 254 128 127 0 129 126 2 130 125 4 131 124 6 132 123 8 133 122 10 134 121 12 135 120 14 136 119 16 137 118 18 138 117 20 139 116 22 140 115 24 141 114 26 142 113 28 143 112 30 144 111 32 145 110 34 146 109 36 147 108 38 148 107 40 149 106 42 150 105 44 151 104 46 152 103 48 153 102 50 154 101 52 155 100 54 156 99 56 157 98 58 158 97 60 159 96 62 160 95 64 161 94 66 162 93 68 163 92 70 164 91 72 165 90 74 166 89 76 167 88 78 168 87 80 169 86 82 170 85 84 171 84 86 172 83 88 173 82 90 174 81 92
16 239 32 17 238 34 18 237 36 19 236 38 20 235 40 21 234 42 22 233 44 23 232 46 24 231 48 25 230 50 26 229 52 27 228 54 28 227 56 29 226 58 30 225 60 31 224 62 32 223 64 33 222 66 34 221 68 35 220 70 36 219 72 37 218 74 38 217 76 39 216 78 40 215 80 41 214 82 42 213 84 43 212 86 44 211 88 45 210 90 46 209 92 47 208 94 48 207 96 49 206 98 50 205 100 51 204 102 52 203 104 53 202 106 54 201 108 55 200 110 56 199 112 57 198 114 58 197 116 59 196 118 60 195 120 61 194 122 62 193 124 63 192 126 64 191 128 65 190 130 66 189 132 67 188 134 68 187 136 69 186 138 70 185 140 71 184 142 72 183 144 73 182 146 74 181 148 75 180 150 76 179 152 77 178 154 78 177 156 79 176 158 80 175 160 81 174 162 82 173 164 83 172 166 84 171 168 85 170 170 86 169 172 87 168 174 88 167 176 89 166 178 90 165 180 91 164 182 92 163 184 93 162 186 94 161 188 95 160 190 96 159 192 97 158 194 98 157 196 99 156 198 100 155 200 101 154 202 102 153 204 103 152 206 104 151 208 105 150 210 106 149 212 107 148 214 108 147 216 109 146 218 110 145 220 111 144 222 112 143 224 113 142 226 114 141 228 115 140 230 116 139 232 117 138 234 118 137 236 119 136 238 120 135 240 121 134 242 122 133 244 123 132 246 124 131 248 125 130 250 126 129 252 127 128 254 128 127 0 129 126 2 130 125 4 131 124 6 132 123 8 133 122 10 134 121 12 135 120 14 136 119 16 137 118 18 138 117 20 139 116 22 140 115 24 141 114 26 142 113 28 143 112 30 144 111 32 145 110 34 146 109 36 147 108 38 148 107 40 149 106 42 150 105 44 151 104 46 152 103 48 153 102 50 154 101 52 155 100 54 156 99 56 157 98 58 158 97 60 159 96 62 160 95 64 161 94 66 162 93 68 163 92 70 164 91 72 165 90 74 166 89 76 167 88 78 168 87 80 169 86 82 170 85 84 171 84 86 172 83 88 173 82 90 174 81 92 175 80 94
17 238 34 18 237 36 19 236 38 20 235 40 21 234 42 22 233 44 23 232 46 24 231 48 25 230 50 26 229 52 27 228 54 28 227 56 29 226 58 30 225 60 31 224 62 32 223 64 33 222 66 34 221 68 35 220 70 36 219 72 37 218 74 38 217 76 39 216 78 40 215 80 41 214 82 42 213 84 43 212 86 44 211 88 45 210 90 46 209 92 47 208 94 48 207 96 49 206 98 50 205 100 51 204 102 52 203 104 53 202 106 54 201 108 55 200 110 56 199 112 57 198 114 58 197 116 59 196 118 60 195 120 61 194 122 62 193 124 63 192 126 64 191 128 65 190 130 66 189 132 67 188 134 68 187 136 69 186 138 70 185 140 71 184 142 72 183 144 73 182 146 74 181 148 75 180 150 76 179 152 77 178 154 78 177 156 79 176 158 80 175 160 81 174 162 82 173 164 83 172 166 84 171 168 85 170 170 86 169 172 87 168 174 88 167 176 89 166 178 90 165 180 91 164 182 92 163 184 93 162 186 94 161 188 95 160 190 96 159 192 97 158 194 98 157 196 99 156 198 100 155 200 101 154 202 102 153 204 103 152 206 104 151 208 105 150 210 106 149 212 107 148 214 108 147 216 109 146 218 110 145 220 111 144 222 112 143 224 113 142 226 114 141 228 115 140 230 116 139 232 117 138 234 118 137 236 119 136 238 120 135 240 121 134 242 122 133 244 123 132 246 124 131 248 125 130 250 126 129 252 127 128 254 128 127 0 129 126 2 130 125 4 131 124 6 132 123 8 133 122 10 134 121 12 135 120 14 136 119 16 137 118 18 138 117 20 139 116 22 140 115 24 141 114 26 142 113 28 143 112 30 144 111 32 145 110 34 146 109 36 147 108 38 148 107 40 149 106 42 150 105 44 151 104 46 152 103 48 153 102 50 154 101 52 155 100 54 156 99 56 157 98 58 158 97 60 159 96 62 160 95 64 161 94 66 162 93 68 163 92 70 164 91 72 165 90 74 166 89 76 167 88 78 168 87 80 169 86 82 170 85 84 171 84 86 172 83 88 173 82 90 174 81 92 175 80 94 176 79 96
18 237 36 19 236 38 20 235 40 21 234 42 22 233 44 23 232 46 24 231 48 25 230 50 26 229 52 27 228 54 28 227 56 29 226 58 30 225 60 31 224 62 32 223 64 33 222 66 34 221 68 35 220 70 36 219 72 37 218 74 38 217 76 39 216 78 40 215 80 41 214 82 42 213 84 43 212 86 44 211 88 45 210 90 46 209 92 47 208 94 48 207 96 49 206 98 50 205 100 51 204 102 52 203 104 53 202 106 54 201 108 55 200 110 56 199 112 57 198 114 58 197 116 59 196 118 60 195 120 61 194 122 62 193 124 63 192 126 64 191 128 65 190 130 66 189 132 67 188 134 68 187 136 69 186 138 70 185 140 71 184 142 72 183 144 73 182 146 74 181 148 75 180 150 76 179 152 77 178 154 78 177 156 79 176 158 80 175 160 81 174 162 82 173 164 83 172 166 84 171 168 85 170 170 86 169 172 87 168 174 88 167 176 89 166 178 90 165 180 91 164 182 92 163 184 93 162 186 94 161 188 95 160 190 96 159 192 97 158 194 98 157 196 99 156 198 100 155 200 101 154 202 102 153 204 103 152 206 104 151 208 105 150 210 106 149 212 107 148 214 108 147 216 109 146 218 110 145 220 111 144 222 112 143 224 113 142 226 114 141 228 115 140 230 116 139 232 117 138 234 118 137 236 119 136 238 120 135 240 121 134 242 122 133 244 123 132 246 124 131 248 125 130 250 126 129 252 127 128 254 128 127 0 129 126 2 130 125 4 131 124 6 132 123 8 133 122 10 134 121 12 135 120 14 136 119 16 137 118 18 138 117 20 139 116 22 140 115 24 141 114 26 142 113 28 143 112 30 144 111 32 145 110 34 146 109 36 147 108 38 148 107 40 149 106 42 150 105 44 151 104 46 152 103 48 153 102 50 154 101 52 155 100 54 156 99 56 157 98 58 158 97 60 159 96 62 160 95 64 161 94 66 162 93 68 163 92 70 164 91 72 165 90 74 166 89 76 167 88 78 168 87 80 169 86 82 170 85 84 171 84 86 172 83 88 173 82 90 174 81 92 175 80 94 176 79 96 177 78 98
19 236 38 20 235 40 21 234 42 22 233 44 23 232 46 24 231 48 25 230 50 26 229 52 27 228 54 28 227 56 29 226 58 30 225 60 31 224 62 32 223 64 33 222 66 34 221 68 35 220 70 36 219 72 37 218 74 38 217 76 39 216 78 40 215 80 41 214 82 42 213 84 43 212 86 44 211 88 45 210 90 46 209 92 47 208 94 48 207 96 49 206 98 50 205 100 51 204 102 52 203 104 53 202 106 54 201 108 55 200 110 56 199 112 57 198 114 58 197 116 59 196 118 60 195 120 61 194 122 62 193 124 63 192 126 64 191 128 65 190 130 66 189 132 67 188 134 68 187 136 69 186 138 70 185 140 71 184 142 72 183 144 73 182 146 74 181 148 75 180 150 76 179 152 77 178 154 78 177 156 79 176 158 80 175 160 81 174 162 82 173 164 83 172 166 84 171 168 85 170 170 86 169 172 87 168 174 88 167 176 89 166 178 90 165 180 91 164 182 92 163 184 93 162 186 94 161 188 95 160 190 96 159 192 97 158 194 98 157 196 99 156 198 100 155 200 101 154 202 102 153 204 103 152 206 104 151 208 105 150 210 106 149 212 107 148 214 108 147 216 109 146 218 110 145 220 111 144 222 112 143 224 113 142 226 114 141 228 115 140 230 116 139 232 117 138 234 118 137 236 119 136 238 120 135 240 121 134 242 122 133 244 123 132 246 124 131 248 125 130 250 126 129 252 127 128 254 128 127 0 129 126 2 130 125 4 131 124 6 132 123 8 133 122 10 134 121 12 135 120 14 136 119 16 137 118 18 138 117 20 139 116 22 140 115 24 141 114 26 142 113 28 143 112 30 144 111 32 145 110 34 146 109 36 147 108 38 148 107 40 149 106 42 150 105 44 151 104 46 152 103 48 153 102 50 154 101 52 155 100 54 156 99 56 157 98 58 158 97 60 159 96 62 160 95 64 161 94 66 162 93 68 163 92 70 164 91 72 165 90 74 166 89 76 167 88 78 168 87 80 169 86 82 170 85 84 171 84 86 172 83 88 173 82 90 174 81 92 175 80 94 176 79 96 177 78 98 178 77 100
20 235 40 21 234 42 22 233 44 23 232 46 24 231 48 25 230 50 26 229 52 27 228 54 28 227 56 29 226 58 30 225 60 31 224 62 32 223 64 33 222 66 34 221 68 35 220 70 36 219 72 37 218 74 38 217 76 39 216 78 40 215 80 41 214 82 42 213 84 43 212 86 44 211 88 45 210 90 46 209 92 47 208 94 48 207 96 49 206 98 50 205 100 51 204 102 52 203 104 53 202 106 54 201 108 55 200 110 56 199 112 57 198 114 58 197 116 59 196 118 60 195 120 61 194 122 62 193 124 63 192 126 64 191 128 65 190 130 66 189 132 67 188 134 68 187 136 69 186 138 70 185 140 71 184 142 72 183 144 73 182 146 74 181 148 75 180 150 76 179 152 77 178 154 78 177 156 79 176 158 80 175 160 81 174 162 82 173 164 83 172 166 84 171 168 85 170 170 86 169 172 87 168 174 88 167 176 89 166 178 90 165 180 91 164 182 92 163 184 93 162 186 94 161 188 95 160 190 96 159 192 97 158 194 98 157 196 99 156 198 100 155 200 101 154 202 102 153 204 103 152 206 104 151 208 105 150 210 106 149 212 107 148 214 108 147 216 109 146 218 110 145 220 111 144 222 112 143 224 113 142 226 114 141 228 115 140 230 116 139 232 117 138 234 118 137 236 119 136 238 120 135 240 121 134 242 122 133 244 123 132 246 124 131 248 125 130 250 126 129 252 127 128 254 128 127 0 129 126 2 130 125 4 131 124 6 132 123 8 133 122 10 134 121 12 135 120 14 136 119 16 137 118 18 138 117 20 139 116 22 140 115 24 141 114 26 142 113 28 143 112 30 144 111 32 145 110 34 146 109 36 147 108 38 148 107 40 149 106 42 150 105 44 151 104 46 152 103 48 153 102 50 154 101 52 155 100 54 156 99 56 157 98 58 158 97 60 159 96 62 160 95 64 161 94 66 162 93 68 163 92 70 164 91 72 165 90 74 166 89 76 167 88 78 168 87 80 169 86 82 170 85 84 171 84 86 172 83 88 173 82 90 174 81 92 175 80 94 176 79 96 177 78 98 178 77 100 179 76 102
21 234 42 22 233 44 23 232 46 24 231 48 25 230 50 26 229 52 27 228 54 28 227 56 29 226 58 30 225 60 31 224 62 32 223 64 33 222 66 34 221 68 35 220 70 36 219 72 37 218 74 38 217 76 39 216 78 40 215 80 41 214 82 42 213 84 43 212 86 44 211 88 45 210 90 46 209 92 47 208 94 48 207 96 49 206 98 50 205 100 51 204 102 52 203 104 53 202 106 54 201 108 55 200 110 56 199 112 57 198 114 58 197 116 59 196 118 60 195 120 61 194 122 62 193 124 63 192 126 64 191 128 65 190 130 66 189 132 67 188 134 68 187 136 69 186 138 70 185 140 71 184 142 72 183 144 73 182 146 74 181 148 75 180 150 76 179 152 77 178 154 78 177 156 79 176 158 80 175 160 81 174 162 82 173 164 83 172 166 84 171 168 85 170 170 86 169 172 87 168 174 88 167 176 89 166 178 90 165 180 91 164 182 92 163 184 93 162 186 94 161 188 95 160 190 96 159 192 97 158 194 98 157 196 99 156 198 100 155 200 101 154 202 102 153 204 103 152 206 104 151 208 105 150 210 106 149 212 107 148 214 108 147 216 109 146 218 110 145 220 111 144 222 112 143 224 113 142 226 114 141 228 115 140 230 116 139 232 117 138 234 118 137 236 119 136 238 120 135 240 121 134 242 122 133 244 123 132 246 124 131 248 125 130 250 126 129 252 127 128 254 128 127 0 129 126 2 130 125 4 131 124 6 132 123 8 133 122 10 134 121 12 135 120 14 136 119 16 137 118 18 138 117 20 139 116 22 140 115 24 141 114 26 142 113 28 143 112 30 144 111 32 145 110 34 146 109 36 147 108 38 148 107 40 149 106 42 150 105 44 151 104 46 152 103 48 153 102 50 154 101 52 155 100 54 156 99 56 157 98 58 158 97 60 159 96 62 160 95 64 161 94 66 162 93 68 163 92 70 164 91 72 165 90 74 166 89 76 167 88 78 168 87 80 169 86 82 170 85 84 171 84 86 172 83 88 173 82 90 174 81 92 175 80 94 176 79 96 177 78 98 178 77 100 179 76 102 180 75 104
22 233 44 23 232 46 24 231 48 25 230 50 26 229 52 27 228 54 28 227 56 29 226 58 30 225 60 31 224 62 32 223 64 33 222 66 34 221 68 35 220 70 36 219 72 37 218 74 38 217 76 39 216 78 40 215 80 41 214 82 42 213 84 43 212 86 44 211 88 45 210 90 46 209 92 47 208 94 48 207 96 49 206 98 50 205 100 51 204 102 52 203 104 53 202 106 54 201 108 55 200 110 56 199 112 57 198 114 58 197 116 59 196 118 60 195 120 61 194 122 62 193 124 63 192 126 64 191 128 65 190 130 66 189 132 67 188 134 68 187 136 69 186 138 70 185 140 71 184 142 72 183 144 73 182 146 74 181 148 75 180 150 76 179 152 77 178 154 78 177 156 79 176 158 80 175 160 81 174 162 82 173 164 83 172 166 84 171 168 85 170 170 86 169 172 87 168 174 88 167 176 89 166 178 90 165 180 91 164 182 92 163 184 93 162 186 94 161 188 95 160 190 96 159 192 97 158 194 98 157 196 99 156 198 100 155 200 101 154 202 102 153 204 103 152 206 104 151 208 105 150 210 106 149 212 107 148 214 108 147 216 109 146 218 110 145 220 111 144 222 112 143 224 113 142 226 114 141 228 115 140 230 116 139 232 117 138 234 118 137 236 119 136 238 120 135 240 121 134 242 122 133 244 123 132 246 124 131 248 125 130 250 126 129 252 127 128 254 128 127 0 129 126 2 130 125 4 131 124 6 132 123 8 133 122 10 134 121 12 135 120 14 136 119 16 137 118 18 138 117 20 139 116 22 140 115 24 141 114 26 142 113 28 143 112 30 144 111 32 145 110 34 146 109 36 147 108 38 148 107 40 149 106 42 150 105 44 151 104 46 152 103 48 153 102 50 154 101 52 155 100 54 156 99 56 157 98 58 158 97 60 159 96 62 160 95 64 161 94 66 162 93 68 163 92 70 164 91 72 165 90 74 166 89 76 167 88 78 168 87 80 169 86 82 170 85 84 171 84 86 172 83 88 173 82 90 174 81 92 175 80 94 176 79 96 177 78 98 178 77 100 179 76 102 180 75 104 181 74 106
23 232 46 24 231 48 25 230 50 26 229 52 27 228 54 28 227 56 29 226 58 30 225 60 31 224 62 32 223 64 33 222 66 34 221 68 35 220 70 36 219 72 37 218 74 38 217 76 39 216 78 40 215 80 41 214 82 42 213 84 43 212 86 44 211 88 45 210 90 46 209 92 47 208 94 48 207 96 49 206 98 50 205 100 51 204 102 52 203 104 53 202 106 54 201 108 55 200 110 56 199 112 57 198 114 58 197 116 59 196 118 60 195 120 61 194 122 62 193 124 63 192 126 64 191 128 65 190 130 66 189 132 67 188 134 68 187 136 69 186 138 70 185 140 71 184 142 72 183 144 73 182 146 74 181 148 75 180 150 76 179 152 77 178 154 78 177 156 79 176 158 80 175 160 81 174 162 82 173 164 83 172 166 84 171 168 85 170 170 86 169 172 87 168 174 88 167 176 89 166 178 90 165 180 91 164 182 92 163 184 93 162 186 94 161 188 95 160 190 96 159 192 97 158 194 98 157 196 99 156 198 100 155 200 101 154 202 102 153 204 103 152 206 104 151 208 105 150 210 106 149 212 107 148 214 108 147 216 109 146 218 110 145 220 111 144 222 112 143 224 113 142 226 114 141 228 115 140 230 116 139 232 117 138 234 118 137 236 119 136 238 120 135 240 121 134 242 122 133 244 123 132 246 124 131 248 125 130 250 126 129 252 127 128 254 128 127 0 129 126 2 130 125 4 131 124 6 132 123 8 133 122 10 134 121 12 135 120 14 136 119 16 137 118 18 138 117 20 139 116 22 140 115 24 141 114 26 142 113 28 143 112 30 144 111 32 145 110 34 146 109 36 147 108 38 148 107 40 149 106 42 150 105 44 151 104 46 152 103 48 153 102 50 154 101 52 155 100 54 156 99 56 157 98 58 158 97 60 159 96 62 160 95 64 161 94 66 162 93 68 163 92 70 164 91 72 165 90 74 166 89 76 167 88 78 168 87 80 169 86 82 170 85 84 171 84 86 172 83 88 173 82 90 174 81 92 175 80 94 176 79 96 177 78 98 178 77 100 179 76 102 180 75 104 181 74 106 182 73 108
24 231 48 25 230 50 26 229 52 27 228 54 28 227 56 29 226 58 30 225 60 31 224 62 32 223 64 33 222 66 34 221 68 35 220 70 36 219 72 37 218 74 38 217 76 39 216 78 40 215 80 41 214 82 42 213 84 43 212 86 44 211 88 45 210 90 46 209 92 47 208 94 48 207 96 49 206 98 50 205 100 51 204 102 52 203 104 53 202 106 54 201 108 55 200 110 56 199 112 57 198 114 58 197 116 59 196 118 60 195 120 61 194 122 62 193 124 63 192 126 64 191 128 65 190 130 66 189 132 67 188 134 68 187 136 69 186 138 70 185 140 71 184 142 72 183 144 73 182 146 74 181 148 75 180 150 76 179 152 77 178 154 78 177 156 79 176 158 80 175 160 81 174 162 82 173 164 83 172 166 84 171 168 85 170 170 86 169 172 87 168 174 88 167 176 89 166 178 90 165 180 91 164 182 92 163 184 93 162 186 94 161 188 95 160 190 96 159 192 97 158 194 98 157 196 99 156 198 100 155 200 101 154 202 102 153 204 103 152 206 104 151 208 105 150 210 106 149 212 107 148 214 108 147 216 109 146 218 110 145 220 111 144 222 112 143 224 113 142 226 114 141 228 115 140 230 116 139 232 117 138 234 118 137 236 119 136 238 120 135 240 121 134 242 122 133 244 123 132 246 124 131 248 125 130 250 126 129 252 127 128 254 128 127 0 129 126 2 130 125 4 131 124 6 132 123 8 133 122 10 134 121 12 135 120 14 136 119 16 137 118 18 138 117 20 139 116 22 140 115 24 141 114 26 142 113 28 143 112 30 144 111 32 145 110 34 146 109 36 147 108 38 148 107 40 149 106 42 150 105 44 151 104 46 152 103 48 153 102 50 154 101 52 155 100 54 156 99 56 157 98 58 158 97 60 159 96 62 160 95 64 161 94 66 162 93 68 163 92 70 164 91 72 165 90 74 166 89 76 167 88 78 168 87 80 169 86 82 170 85 84 171 84 86 172 83 88 173 82 90 174 81 92 175 80 94 176 79 96 177 78 98 178 77 100 179 76 102 180 75 104 181 74 106 182 73 108 183 72 110
25 230 50 26 229 52 27 228 54 28 227 56 29 226 58 30 225 60 31 224 62 32 223 64 33 222 66 34 221 68 35 220 70 36 219 72 37 218 74 38 217 76 39 216 78 40 215 80 41 214 82 42 213 84 43 212 86 44 211 88 45 210 90 46 209 92 47 208 94 48 207 96 49 206 98 50 205 100 51 204 102 52 203 104 53 202 106 54 201 108 55 200 110 56 199 112 57 198 114 58 197 116 59 196 118 60 195 120 61 194 122 62 193 124 63 192 126 64 191 128 65 190 130 66 189 132 67 188 134 68 187 136 69 186 138 70 185 140 71 184 142 72 183 144 73 182 146 74 181 148 75 180 150 76 179 152 77 178 154 78 177 156 79 176 158 80 175 160 81 174 162 82 173 164 83 172 166 84 171 168 85 170 170 86 169 172 87 168 174 88 167 176 89 166 178 90 165 180 91 164 182 92 163 184 93 162 186 94 161 188 95 160 190 96 159 192 97 158 194 98 157 196 99 156 198 100 155 200 101 154 202 102 153 204 103 152 206 104 151 208 105 150 210 106 149 212 107 148 214 108 147 216 109 146 218 110 145 220 111 144 222 112 143 224 113 142 226 114 141 228 115 140 230 116 139 232 117 138 234 118 137 236 119 136 238 120 135 240 121 134 242 122 133 244 123 132 246 124 131 248 125 130 250 126 129 252 127 128 254 128 127 0 129 126 2 130 125 4 131 124 6 132 123 8 133 122 10 134 121 12 135 120 14 136 119 16 137 118 18 138 117 20 139 116 22 140 115 24 141 114 26 142 113 28 143 112 30 144 111 32 145 110 34 146 109 36 147 108 38 148 107 40 149 106 42 150 105 44 151 104 46 152 103 48 153 102 50 154 101 52 155 100 54 156 99 56 157 98 58 158 97 60 159 96 62 160 95 64 161 94 66 162 93 68 163 92 70 164 91 72 165 90 74 166 89 76 167 88 78 168 87 80 169 86 82 170 85 84 171 84 86 172 83 88 173 82 90 174 81 92 175 80 94 176 79 96 177 78 98 178 77 100 179 76 102 180 75 104 181 74 106 182 73 108 183 72 110 184 71 112
26 229 52 27 228 54 28 227 56 29 226 58 30 225 60 31 224 62 32 223 64 33 222 66 34 221 68 35 220 70 36 219 72 37 218 74 38 217 76 39 216 78 40 215 80 41 214 82 42 213 84 43 212 86 44 211 88 45 210 90 46 209 92 47 208 94 48 207 96 49 206 98 50 205 100 51 204 102 52 203 104 53 202 106 54 201 108 55 200 110 56 199 112 57 198 114 58 197 116 59 196 118 60 195 120 61 194 122 62 193 124 63 192 126 64 191 128 65 190 130 66 189 132 67 188 134 68 187 136 69 186 138 70 185 140 71 184 142 72 183 144 73 182 146 74 181 148 75 180 150 76 179 152 77 178 154 78 177 156 79 176 158 80 175 160 81 174 162 82 173 164 83 172 166 84 171 168 85 170 170 86 169 172 87 168 174 88 167 176 89 166 178 90 165 180 91 164 182 92 163 184 93 162 186 94 161 188 95 160 190 96 159 192 97 158 194 98 157 196 99 156 198 100 155 200 101 154 202 102 153 204 103 152 206 104 151 208 105 150 210 106 149 212 107 148 214 108 147 216 109 146 218 110 145 220 111 144 222 112 143 224 113 142 226 114 141 228 115 140 230 116 139 232 117 138 234 118 137 236 119 136 238 120 135 240 121 134 242 122 133 244 123 132 246 124 131 248 125 130 250 126 129 252 127 128 254 128 127 0 129 126 2 130 125 4 131 124 6 132 123 8 133 122 10 134 121 12 135 120 14 136 119 16 137 118 18 138 117 20 139 116 22 140 115 24 141 114 26 142 113 28 143 112 30 144 111 32 145 110 34 146 109 36 147 108 38 148 107 40 149 106 42 150 105 44 151 104 46 152 103 48 153 102 50 154 101 52 155 100 54 156 99 56 157 98 58 158 97 60 159 96 62 160 95 64 161 94 66 162 93 68 163 92 70 164 91 72 165 90 74 166 89 76 167 88 78 168 87 80 169 86 82 170 85 84 171 84 86 172 83 88 173 82 90 174 81 92 175 80 94 176 79 96 177 78 98 178 77 100 179 76 102 180 75 104 181 74 106 182 73 108 183 72 110 184 71 112 185 70 114
27 228 54 28 227 56 29 226 58 30 225 60 31 224 62 32 223 64 33 222 66 34 221 68 35 220 70 36 219 72 37 218 74 38 217 76 39 216 78 40 215 80 41 214 82 42 213 84 43 212 86 44 211 88 45 210 90 46 209 92 47 208 94 48 207 96 49 206 98 50 205 100 51 204 102 52 203 104 53 202 106 54 201 108 55 200 110 56 199 112 57 198 114 58 197 116 59 196 118 60 195 120 61 194 122 62 193 124 63 192 126 64 191 128 65 190 130 66 189 132 67 188 134 68 187 136 69 186 138 70 185 140 71 184 142 72 183 144 73 182 146 74 181 148 75 180 150 76 179 152 77 178 154 78 177 156 79 176 158 80 175 160 81 174 162 82 173 164 83 172 166 84 171 168 85 170 170 86 169 172 87 168 174 88 167 176 89 166 178 90 165 180 91 164 182 92 163 184 93 162 186 94 161 188 95 160 190 96 159 192 97 158 194 98 157 196 99 156 198 100 155 200 101 154 202 102 153 204 103 152 206 104 151 208 105 150 210 106 149 212 107 148 214 108 147 216 109 146 218 110 145 220 111 144 222 112 143 224 113 142 226 114 141 228 115 140 230 116 139 232 117 138 234 118 137 236 119 136 238 120 135 240 121 134 242 122 133 244 123 132 246 124 131 248 125 130 250 126 129 252 127 128 254 128 127 0 129 126 2 130 125 4 131 124 6 132 123 8 133 122 10 134 121 12 135 120 14 136 119 16 137 118 18 138 117 20 139 116 22 140 115 24 141 114 26 142 113 28 143 112 30 144 111 32 145 110 34 146 109 36 147 108 38 148 107 40 149 106 42 150 105 44 151 104 46 152 103 48 153 102 50 154 101 52 155 100 54 156 99 56 157 98 58 158 97 60 159 96 62 160 95 64 161 94 66 162 93 68 163 92 70 164 91 72 165 90 74 166 89 76 167 88 78 168 87 80 169 86 82 170 85 84 171 84 86 172 83 88 173 82 90 174 81 92 175 80 94 176 79 96 177 78 98 178 77 100 179 76 102 180 75 104 181 74 106 182 73 108 183 72 110 184 71 112 185 70 114 186 69 116
28 227 56 29 226 58 30 225 60 31 224 62 32 223 64 33 222 66 34 221 68 35 220 70 36 219 72 37 218 74 38 217 76 39 216 78 40 215 80 41 214 82 42 213 84 43 212 86 44 211 88 45 210 90 46 209 92 47 208 94 48 207 96 49 206 98 50 205 100 51 204 102 52 203 104 53 202 106 54 201 108 55 200 110 56 199 112 57 198 114 58 197 116 59 196 118 60 195 120 61 194 122 62 193 124 63 192 126 64 191 128 65 190 130 66 189 132 67 188 134 68 187 136 69 186 138 70 185 140 71 184 142 72 183 144 73 182 146 74 181 148 75 180 150 76 179 152 77 178 154 78 177 156 79 176 158 80 175 160 81 174 162 82 173 164 83 172 166 84 171 168 85 170 170 86 169 172 87 168 174 88 167 176 89 166 178 90 165 180 91 164 182 92 163 184 93 162 186 94 161 188 95 160 190 96 159 192 97 158 194 98 157 196 99 156 198 100 155 200 101 154 202 102 153 204 103 152 206 104 151 208 105 150 210 106 149 212 107 148 214 108 147 216 109 146 218 110 145 220 111 144 222 112 143 224 113 142 226 114 141 228 115 140 230 116 139 232 117 138 234 118 137 236 119 136 238 120 135 240 121 134 242 122 133 244 123 132 246 124 131 248 125 130 250 126 129 252 127 128 254 128 127 0 129 126 2 130 125 4 131 124 6 132 123 8 133 122 10 134 121 12 135 120 14 136 119 16 137 118 18 138 117 20 139 116 22 140 115 24 141 114 26 142 113 28 143 112 30 144 111 32 145 110 34 146 109 36 147 108 38 148 107 40 149 106 42 150 105 44 151 104 46 152 103 48 153 102 50 154 101 52 155 100 54 156 99 56 157 98 58 158 97 60 159 96 62 160 95 64 161 94 66 162 93 68 163 92 70 164 91 72 165 90 74 166 89 76 167 88 78 168 87 80 169 86 82 170 85 84 171 84 86 172 83 88 173 82 90 174 81 92 175 80 94 176 79 96 177 78 98 178 77 100 179 76 102 180 75 104 181 74 106 182 73 108 183 72 110 184 71 112 185 70 114 186 69 116 187 68 118
29 226 58 30 225 60 31 224 62 32 223 64 33 222 66 34 221 68 35 220 70 36 219 72 37 218 74 38 217 76 39 216 78 40 215 80 41 214 82 42 213 84 43 212 86 44 211 88 45 210 90 46 209 92 47 208 94 48 207 96 49 206 98 50 205 100 51 204 102 52 203 104 53 202 106 54 201 108 55 200 110 56 199 112 57 198 114 58 197 116 59 196 118 60 195 120 61 194 122 62 193 124 63 192 126 64 191 128 65 190 130 66 189 132 67 188 134 68 187 136 69 186 138 70 185 140 71 184 142 72 183 144 73 182 146 74 181 148 75 180 150 76 179 152 77 178 154 78 177 156 79 176 158 80 175 160 81 174 162 82 173 164 83 172 166 84 171 168 85 170 170 86 169 172 87 168 174 88 167 176 89 166 178 90 165 180 91 164 182 92 163 184 93 162 186 94 161 188 95 160 190 96 159 192 97 158 194 98 157 196 99 156 198 100 155 200 101 154 202 102 153 204 103 152 206 104 151 208 105 150 210 106 149 212 107 148 214 108 147 216 109 146 218 110 145 220 111 144 222 112 143 224 113 142 226 114 141 228 115 140 230 116 139 232 117 138 234 118 137 236 119 136 238 120 135 240 121 134 242 122 133 244 123 132 246 124 131 248 125 130 250 126 129 252 127 128 254 128 127 0 129 126 2 130 125 4 131 124 6 132 123 8 133 122 10 134 121 12 135 120 14 136 119 16 137 118 18 138 117 20 139 116 22 140 115 24 141 114 26 142 113 28 143 112 30 144 111 32 145 110 34 146 109 36 147 108 38 148 107 40 149 106 42 150 105 44 151 104 46 152 103 48 153 102 50 154 101 52 155 100 54 156 99 56 157 98 58 158 97 60 159 96 62 160 95 64 161 94 66 162 93 68 163 92 70 164 91 72 165 90 74 166 89 76 167 88 78 168 87 80 169 86 82 170 85 84 171 84 86 172 83 88 173 82 90 174 81 92 175 80 94 176 79 96 177 78 98 178 77 100 179 76 102 180 75 104 181 74 106 182 73 108 183 72 110 184 71 112 185 70 114 186 69 116 187 68 118 188 67 120
30 225 60 31 224 62 32 223 64 33 222 66 34 221 68 35 220 70 36 219 72 37 218 74 38 217 76 39 216 78 40 215 80 41 214 82 42 213 84 43 212 86 44 211 88 45 210 90 46 209 92 47 208 94 48 207 96 49 206 98 50 205 100 51 204 102 52 203 104 53 202 106 54 201 108 55 200 110 56 199 112 57 198 114 58 197 116 59 196 118 60 195 120 61 194 122 62 193 124 63 192 126 64 191 128 65 190 130 66 189 132 67 188 134 68 187 136 69 186 138 70 185 140 71 184 142 72 183 144 73 182 146 74 181 148 75 180 150 76 179 152 77 178 154 78 177 156 79 176 158 80 175 160 81 174 162 82 173 164 83 172 166 84 171 168 85 170 170 86 169 172 87 168 174 88 167 176 89 166 178 90 165 180 91 164 182 92 163 184 93 162 186 94 161 188 95 160 190 96 159 192 97 158 194 98 157 196 99 156 198 100 155 200 101 154 202 102 153 204 103 152 206 104 151 208 105 150 210 106 149 212 107 148 214 108 147 216 109 146 218 110 145 220 111 144 222 112 143 224 113 142 226 114 141 228 115 140 230 116 139 232 117 138 234 118 137 236 119 136 238 120 135 240 121 134 242 122 133 244 123 132 246 124 131 248 125 130 250 126 129 252 127 128 254 128 127 0 129 126 2 130 125 4 131 124 6 132 123 8 133 122 10 134 121 12 135 120 14 136 119 16 137 118 18 138 117 20 139 116 22 140 115 24 141 114 26 142 113 28 143 112 30 144 111 32 145 110 34 146 109 36 147 108 38 148 107 40 149 106 42 150 105 44 151 104 46 152 103 48 153 102 50 154 101 52 155 100 54 156 99 56 157 98 58 158 97 60 159 96 62 160 95 64 161 94 66 162 93 68 163 92 70 164 91 72 165 90 74 166 89 76 167 88 78 168 87 80 169 86 82 170 85 84 171 84 86 172 83 88 173 82 90 174 81 92 175 80 94 176 79 96 177 78 98 178 77 100 179 76 102 180 75 104 181 74 106 182 73 108 183 72 110 184 71 112 185 70 114 186 69 116 187 68 118 188 67 120 189 66 122
31 224 62 32 223 64 33 222 66 34 221 68 35 220 70 36 219 72 37 218 74 38 217 76 39 216 78 40 215 80 41 214 82 42 213 84 43 212 86 44 211 88 45 210 90 46 209 92 47 208 94 48 207 96 49 206 98 50 205 100 51 204 102 52 203 104 53 202 106 54 201 108 55 200 110 56 199 112 57 198 114 58 197 116 59 196 118 60 195 120 61 194 122 62 193 124 63 192 126 64 191 128 65 190 130 66 189 132 67 188 134 68 187 136 69 186 138 70 185 140 71 184 142 72 183 144 73 182 146 74 181 148 75 180 150 76 179 152 77 178 154 78 177 156 79 176 158 80 175 160 81 174 162 82 173 164 83 172 166 84 171 168 85 170 170 86 169 172 87 168 174 88 167 176 89 166 178 90 165 180 91 164 182 92 163 184 93 162 186 94 161 188 95 160 190 96 159 192 97 158 194 98 157 196 99 156 198 100 155 200 101 154 202 102 153 204 103 152 206 104 151 208 105 150 210 106 149 212 107 148 214 108 147 216 109 146 218 110 145 220 111 144 222 112 143 224 113 142 226 114 141 228 115 140 230 116 139 232 117 138 234 118 137 236 119 136 238 120 135 240 121 134 242 122 133 244 123 132 246 124 131 248 125 130 250 126 129 252 127 128 254 128 127 0 129 126 2 130 125 4 131 124 6 132 123 8 133 122 10 134 121 12 135 120 14 136 119 16 137 118 18 138 117 20 139 116 22 140 115 24 141 114 26 142 113 28 143 112 30 144 111 32 145 110 34 146 109 36 147 108 38 148 107 40 149 106 42 150 105 44 151 104 46 152 103 48 153 102 50 154 101 52 155 100 54 156 99 56 157 98 58 158 97 60 159 96 62 160 95 64 161 94 66 162 93 68 163 92 70 164 91 72 165 90 74 166 89 76 167 88 78 168 87 80 169 86 82 170 85 84 171 84 86 172 83 88 173 82 90 174 81 92 175 80 94 176 79 96 177 78 98 178 77 100 179 76 102 180 75 104 181 74 106 182 73 108 183 72 110 184 71 112 185 70 114 186 69 116 187 68 118 188 67 120 189 66 122 190 65 124
32 223 64 33 222 66 34 221 68 35 220 70 36 219 72 37 218 74 38 217 76 39 216 78 40 215 80 41 214 82 42 213 84 43 212 86 44 211 88 45 210 90 46 209 92 47 208 94 48 207 96 49 206 98 50 205 100 51 204 102 52 203 104 53 202 106 54 201 108 55 200 110 56 199 112 57 198 114 58 197 116 59 196 118 60 195 120 61 194 122 62 193 124 63 192 126 64 191 128 65 190 130 66 189 132 67 188 134 68 187 136 69 186 138 70 185 140 71 184 142 72 183 144 73 182 146 74 181 148 75 180 150 76 179 152 77 178 154 78 177 156 79 176 158 80 175 160 81 174 162 82 173 164 83 172 166 84 171 168 85 170 170 86 169 172 87 168 174 88 167 176 89 166 178 90 165 180 91 164 182 92 163 184 93 162 186 94 161 188 95 160 190 96 159 192 97 158 194 98 157 196 99 156 198 100 155 200 101 154 202 102 153 204 103 152 206 104 151 208 105 150 210 106 149 212 107 148 214 108 147 216 109 146 218 110 145 220 111 144 222 112 143 224 113 142 226 114 141 228 115 140 230 116 139 232 117 138 234 118 137 236 119 136 238 120 135 240 121 134 242 122 133 244 123 132 246 124 131 248 125 130 250 126 129 252 127 128 254 128 127 0 129 126 2 130 125 4 131 124 6 132 123 8 133 122 10 134 121 12 135 120 14 136 119 16 137 118 18 138 117 20 139 116 22 140 115 24 141 114 26 142 113 28 143 112 30 144 111 32 145 110 34 146 109 36 147 108 38 148 107 40 149 106 42 150 105 44 151 104 46 152 103 48 153 102 50 154 101 52 155 100 54 156 99 56 157 98 58 158 97 60 159 96 62 160 95 64 161 94 66 162 93 68 163 92 70 164 91 72 165 90 74 166 89 76 167 88 78 168 87 80 169 86 82 170 85 84 171 84 86 172 83 88 173 82 90 174 81 92 175 80 94 176 79 96 177 78 98 178 77 100 179 76 102 180 75 104 181 74 106 182 73 108 183 72 110 184 71 112 185 70 114 186 69 116 187 68 118 188 67 120 189 66 122 190 65 124 191 64 126
33 222 66 34 221 68 35 220 70 36 219 72 37 218 74 38 217 76 39 216 78 40 215 80 41 214 82 42 213 84 43 212 86 44 211 88 45 210 90 46 209 92 47 208 94 48 207 96 49 206 98 50 205 100 51 204 102 52 203 104 53 202 106 54 201 108 55 200 110 56 199 112 57 198 114 58 197 116 59 196 118 60 195 120 61 194 122 62 193 124 63 192 126 64 191 128 65 190 130 66 189 132 67 188 134 68 187 136 69 186 138 70 185 140 71 184 142 72 183 144 73 182 146 74 181 148 75 180 150 76 179 152 77 178 154 78 177 156 79 176 158 80 175 160 81 174 162 82 173 164 83 172 166 84 171 168 85 170 170 86 169 172 87 168 174 88 167 176 89 166 178 90 165 180 91 164 182 92 163 184 93 162 186 94 161 188 95 160 190 96 159 192 97 158 194 98 157 196 99 156 198 100 155 200 101 154 202 102 153 204 103 152 206 104 151 208 105 150 210 106 149 212 107 148 214 108 147 216 109 146 218 110 145 220 111 144 222 112 143 224 113 142 226 114 141 228 115 140 230 116 139 232 117 138 234 118 137 236 119 136 238 120 135 240 121 134 242 122 133 244 123 132 246 124 131 248 125 130 250 126 129 252 127 128 254 128 127 0 129 126 2 130 125 4 131 124 6 132 123 8 133 122 10 134 121 12 135 120 14 136 119 16 137 118 18 138 117 20 139 116 22 140 115 24 141 114 26 142 113 28 143 112 30 144 111 32 145 110 34 146 109 36 147 108 38 148 107 40 149 106 42 150 105 44 151 104 46 152 103 48 153 102 50 154 101 52 155 100 54 156 99 56 157 98 58 158 97 60 159 96 62 160 95 64 161 94 66 162 93 68 163 92 70 164 91 72 165 90 74 166 89 76 167 88 78 168 87 80 169 86 82 170 85 84 171 84 86 172 83 88 173 82 90 174 81 92 175 80 94 176 79 96 177 78 98 178 77 100 179 76 102 180 75 104 181 74 106 182 73 108 183 72 110 184 71 112 185 70 114 186 69 116 187 68 118 188 67 120 189 66 122 190 65 124 191 64 126 192 63 128
34 221 68 35 220 70 36 219 72 37 218 74 38 217 76 39 216 78 40 215 80 41 214 82 42 213 84 43 212 86 44 211 88 45 210 90 46 209 92 47 208 94 48 207 96 49 206 98 50 205 100 51 204 102 52 203 104 53 202 106 54 201 108 55 200 110 56 199 112 57 198 114 58 197 116 59 196 118 60 195 120 61 194 122 62 193 124 63 192 126 64 191 128 65 190 130 66 189 132 67 188 134 68 187 136 69 186 138 70 185 140 71 184 142 72 183 144 73 182 146 74 181 148 75 180 150 76 179 152 77 178 154 78 177 156 79 176 158 80 175 160 81 174 162 82 173 164 83 172 166 84 171 168 85 170 170 86 169 172 87 168 174 88 167 176 89 166 178 90 165 180 91 164 182 92 163 184 93 162 186 94 161 188 95 160 190 96 159 192 97 158 194 98 157 196 99 156 198 100 155 200 101 154 202 102 153 204 103 152 206 104 151 208 105 150 210 106 149 212 107 148 214 108 147 216 109 146 218 110 145 220 111 144 222 112 143 224 113 142 226 114 141 228 115 140 230 116 139 232 117 138 234 118 137 236 119 136 238 120 135 240 121 134 242 122 133 244 123 132 246 124 131 248 125 130 250 126 129 252 127 128 254 128 127 0 129 126 2 130 125 4 131 124 6 132 123 8 133 122 10 134 121 12 135 120 14 136 119 16 137 118 18 138 117 20 139 116 22 140 115 24 141 114 26 142 113 28 143 112 30 144 111 32 145 110 34 146 109 36 147 108 38 148 107 40 149 106 42 150 105 44 151 104 46 152 103 48 153 102 50 154 101 52 155 100 54 156 99 56 157 98 58 158 97 60 159 96 62 160 95 64 161 94 66 162 93 68 163 92 70 164 91 72 165 90 74 166 89 76 167 88 78 168 87 80 169 86 82 170 85 84 171 84 86 172 83 88 173 82 90 174 81 92 175 80 94 176 79 96 177 78 98 178 77 100 179 76 102 180 75 104 181 74 106 182 73 108 183 72 110 184 71 112 185 70 114 186 69 116 187 68 118 188 67 120 189 66 122 190 65 124 191 64 126 192 63 128 193 62 130
35 220 70 36 219 72 37 218 74 38 217 76 39 216 78 40 215 80 41 214 82 42 213 84 43 212 86 44 211 88 45 210 90 46 209 92 47 208 94 48 207 96 49 206 98 50 205 100 51 204 102 52 203 104 53 202 106 54 201 108 55 200 110 56 199 112 57 198 114 58 197 116 59 196 118 60 195 120 61 194 122 62 193 124 63 192 126 64 191 128 65 190 130 66 189 132 67 188 134 68 187 136 69 186 138 70 185 140 71 184 142 72 183 144 73 182 146 74 181 148 75 180 150 76 179 152 77 178 154 78 177 156 79 176 158 80 175 160 81 174 162 82 173 164 83 172 166 84 171 168 85 170 170 86 169 172 87 168 174 88 167 176 89 166 178 90 165 180 91 164 182 92 163 184 93 162 186 94 161 188 95 160 190 96 159 192 97 158 194 98 157 196 99 156 198 100 155 200 101 154 202 102 153 204 103 152 206 104 151 208 105 150 210 106 149 212 107 148 214 108 147 216 109 146 218 110 145 220 111 144 222 112 143 224 113 142 226 114 141 228 115 140 230 116 139 232 117 138 234 118 137 236 119 136 238 120 135 240 121 134 242 122 133 244 123 132 246 124 131 248 125 130 250 126 129 252 127 128 254 128 127 0 129 126 2 130 125 4 131 124 6 132 123 8 133 122 10 134 121 12 135 120 14 136 119 16 137 118 18 138 117 20 139 116 22 140 115 24 141 114 26 142 113 28 143 112 30 144 111 32 145 110 34 146 109 36 147 108 38 148 107 40 149 106 42 150 105 44 151 104 46 152 103 48 153 102 50 154 101 52 155 100 54 156 99 56 157 98 58 158 97 60 159 96 62 160 95 64 161 94 66 162 93 68 163 92 70 164 91 72 165 90 74 166 89 76 167 88 78 168 87 80 169 86 82 170 85 84 171 84 86 172 83 88 173 82 90 174 81 92 175 80 94 176 79 96 177 78 98 178 77 100 179 76 102 180 75 104 181 74 106 182 73 108 183 72 110 184 71 112 185 70 114 186 69 116 187 68 118 188 67 120 189 66 122 190 65 124 191 64 126 192 63 128 193 62 130 194 61 132
36 219 72 37 218 74 38 217 76 39 216 78 40 215 80 41 214 82 42 213 84 43 212 86 44 211 88 45 210 90 46 209 92 47 208 94 48 207 96 49 206 98 50 205 100 51 204 102 52 203 104 53 202 106 54 201 108 55 200 110 56 199 112 57 198 114 58 197 116 59 196 118 60 195 120 61 194 122 62 193 124 63 192 126 64 191 128 65 190 130 66 189 132 67 188 134 68 187 136 69 186 138 70 185 140 71 184 142 72 183 144 73 182 146 74 181 148 75 180 150 76 179 152 77 178 154 78 177 156 79 176 158 80 175 160 81 174 162 82 173 164 83 172 166 84 171 168 85 170 170 86 169 172 87 168 174 88 167 176 89 166 178 90 165 180 91 164 182 92 163 184 93 162 186 94 161 188 95 160 190 96 159 192 97 158 194 98 157 196 99 156 198 100 155 200 101 154 202 102 153 204 103 152 206 104 151 208 105 150 210 106 149 212 107 148 214 108 147 216 109 146 218 110 145 220 111 144 222 112 143 224 113 142 226 114 141 228 115 140 230 116 139 232 117 138 234 118 137 236 119 136 238 120 135 240 121 134 242 122 133 244 123 132 246 124 131 248 125 130 250 126 129 252 127 128 254 128 127 0 129 126 2 130 125 4 131 124 6 132 123 8 133 122 10 134 121 12 135 120 14 136 119 16 137 118 18 138 117 20 139 116 22 140 115 24 141 114 26 142 113 28 143 112 30 144 111 32 145 110 34 146 109 36 147 108 38 148 107 40 149 106 42 150 105 44 151 104 46 152 103 48 153 102 50 154 101 52 155 100 54 156 99 56 157 98 58 158 97 60 159 96 62 160 95 64 161 94 66 162 93 68 163 92 70 164 91 72 165 90 74 166 89 76 167 88 78 168 87 80 169 86 82 170 85 84 171 84 86 172 83 88 173 82 90 174 81 92 175 80 94 176 79 96 177 78 98 178 77 100 179 76 102 180 75 104 181 74 106 182 73 108 183 72 110 184 71 112 185 70 114 186 69 116 187 68 118 188 67 120 189 66 122 190 65 124 191 64 126 192 63 128 193 62 130 194 61 132 195 60 134
37 218 74 38 217 76 39 216 78 40 215 80 41 214 82 42 213 84 43 212 86 44 211 88 45 210 90 46 209 92 47 208 94 48 207 96 49 206 98 50 205 100 51 204 102 52 203 104 53 202 106 54 201 108 55 200 110 56 199 112 57 198 114 58 197 116 59 196 118 60 195 120 61 194 122 62 193 124 63 192 126 64 191 128 65 190 130 66 189 132 67 188 134 68 187 136 69 186 138 70 185 140 71 184 142 72 183 144 73 182 146 74 181 148 75 180 150 76 179 152 77 178 154 78 177 156 79 176 158 80 175 160 81 174 162 82 173 164 83 172 166 84 171 168 85 170 170 86 169 172 87 168 174 88 167 176 89 166 178 90 165 180 91 164 182 92 163 184 93 162 186 94 161 188 95 160 190 96 159 192 97 158 194 98 157 196 99 156 198 100 155 200 101 154 202 102 153 204 103 152 206 104 151 208 105 150 210 106 149 212 107 148 214 108 147 216 109 146 218 110 145 220 111 144 222 112 143 224 113 142 226 114 141 228 115 140 230 116 139 232 117 138 234 118 137 236 119 136 238 120 135 240 121 134 242 122 133 244 123 132 246 124 131 248 125 130 250 126 129 252 127 128 254 128 127 0 129 126 2 130 125 4 131 124 6 132 123 8 133 122 10 134 121 12 135 120 14 136 119 16 137 118 18 138 117 20 139 116 22 140 115 24 141 114 26 142 113 28 143 112 30 144 111 32 145 110 34 146 109 36 147 108 38 148 107 40 149 106 42 150 105 44 151 104 46 152 103 48 153 102 50 154 101 52 155 100 54 156 99 56 157 98 58 158 97 60 159 96 62 160 95 64 161 94 66 162 93 68 163 92 70 164 91 72 165 90 74 166 89 76 167 88 78 168 87 80 169 86 82 170 85 84 171 84 86 172 83 88 173 82 90 174 81 92 175 80 94 176 79 96 177 78 98 178 77 100 179 76 102 180 75 104 181 74 106 182 73 108 183 72 110 184 71 112 185 70 114 186 69 116 187 68 118 188 67 120 189 66 122 190 65 124 191 64 126 192 63 128 193 62 130 194 61 132 195 60 134 196 59 136
38 217 76 39 216 78 40 215 80 41 214 82 42 213 84 43 212 86 44 211 88 45 210 90 46 209 92 47 208 94 48 207 96 49 206 98 50 205 100 51 204 102 52 203 104 53 202 106 54 201 108 55 200 110 56 199 112 57 198 114 58 197 116 59 196 118 60 195 120 61 194 122 62 193 124 63 192 126 64 191 128 65 190 130 66 189 132 67 188 134 68 187 136 69 186 138 70 185 140 71 184 142 72 183 144 73 182 146 74 181 148 75 180 150 76 179 152 77 178 154 78 177 156 79 176 158 80 175 160 81 174 162 82 173 164 83 172 166 84 171 168 85 170 170 86 169 172 87 168 174 88 167 176 89 166 178 90 165 180 91 164 182 92 163 184 93 162 186 94 161 188 95 160 190 96 159 192 97 158 194 98 157 196 99 156 198 100 155 200 101 154 202 102 153 204 103 152 206 104 151 208 105 150 210 106 149 212 107 148 214 108 147 216 109 146 218 110 145 220 111 144 222 112 143 224 113 142 226 114 141 228 115 140 230 116 139 232 117 138 234 118 137 236 119 136 238 120 135 240 121 134 242 122 133 244 123 132 246 124 131 248 125 130 250 126 129 252 127 128 254 128 127 0 129 126 2 130 125 4 131 124 6 132 123 8 133 122 10 134 121 12 135 120 14 136 119 16 137 118 18 138 117 20 139 116 22 140 115 24 141 114 26 142 113 28 143 112 30 144 111 32 145 110 34 146 109 36 147 108 38 148 107 40 149 106 42 150 105 44 151 104 46 152 103 48 153 102 50 154 101 52 155 100 54 156 99 56 157 98 58 158 97 60 159 96 62 160 95 64 161 94 66 162 93 68 163 92 70 164 91 72 165 90 74 166 89 76 167 88 78 168 87 80 169 86 82 170 85 84 171 84 86 172 83 88 173 82 90 174 81 92 175 80 94 176 79 96 177 78 98 178 77 100 179 76 102 180 75 104 181 74 106 182 73 108 183 72 110 184 71 112 185 70 114 186 69 116 187 68 118 188 67 120 189 66 122 190 65 124 191 64 126 192 63 128 193 62 130 194 61 132 195 60 134 196 59 136 197 58 138
39 216 78 40 215 80 41 214 82 42 213 84 43 212 86 44 211 88 45 210 90 46 209 92 47 208 94 48 207 96 49 206 98 50 205 100 51 204 102 52 203 104 53 202 106 54 201 108 55 200 110 56 199 112 57 198 114 58 197 116 59 196 118 60 195 120 61 194 122 62 193 124 63 192 126 64 191 128 65 190 130 66 189 132 67 188 134 68 187 136 69 186 138 70 185 140 71 184 142 72 183 144 73 182 146 74 181 148 75 180 150 76 179 152 77 178 154 78 177 156 79 176 158 80 175 160 81 174 162 82 173 164 83 172 166 84 171 168 85 170 170 86 169 172 87 168 174 88 167 176 89 166 178 90 165 180 91 164 182 92 163 184 93 162 186 94 161 188 95 160 190 96 159 192 97 158 194 98 157 196 99 156 198 100 155 200 101 154 202 102 153 204 103 152 206 104 151 208 105 150 210 106 149 212 107 148 214 108 147 216 109 146 218 110 145 220 111 144 222 112 143 224 113 142 226 114 141 228 115 140 230 116 139 232 117 138 234 118 137 236 119 136 238 120 135 240 121 134 242 122 133 244 123 132 246 124 131 248 125 130 250 126 129 252 127 128 254 128 127 0 129 126 2 130 125 4 131 124 6 132 123 8 133 122 10 134 121 12 135 120 14 136 119 16 137 118 18 138 117 20 139 116 22 140 115 24 141 114 26 142 113 28 143 112 30 144 111 32 145 110 34 146 109 36 147 108 38 148 107 40 149 106 42 150 105 44 151 104 46 152 103 48 153 102 50 154 101 52 155 100 54 156 99 56 157 98 58 158 97 60 159 96 62 160 95 64 161 94 66 162 93 68 163 92 70 164 91 72 165 90 74 166 89 76 167 88 78 168 87 80 169 86 82 170 85 84 171 84 86 172 83 88 173 82 90 174 81 92 175 80 94 176 79 96 177 78 98 178 77 100 179 76 102 180 75 104 181 74 106 182 73 108 183 72 110 184 71 112 185 70 114 186 69 116 187 68 118 188 67 120 189 66 122 190 65 124 191 64 126 192 63 128 193 62 130 194 61 132 195 60 134 196 59 136 197 58 138 198 57 140
40 215 80 41 214 82 42 213 84 43 212 86 44 211 88 45 210 90 46 209 92 47 208 94 48 207 96 49 206 98 50 205 100 51 204 102 52 203 104 53 202 106 54 201 108 55 200 110 56 199 112 57 198 114 58 197 116 59 196 118 60 195 120 61 194 122 62 193 124 63 192 126 64 191 128 65 190 130 66 189 132 67 188 134 68 187 136 69 186 138 70 185 140 71 184 142 72 183 144 73 182 146 74 181 148 75 180 150 76 179 152 77 178 154 78 177 156 79 176 158 80 175 160 81 174 162 82 173 164 83 172 166 84 171 168 85 170 170 86 169 172 87 168 174 88 167 176 89 166 178 90 165 180 91 164 182 92 163 184 93 162 186 94 161 188 95 160 190 96 159 192 97 158 194 98 157 196 99 156 198 100 155 200 101 154 202 102 153 204 103 152 206 104 151 208 105 150 210 106 149 212 107 148 214 108 147 216 109 146 218 110 145 220 111 144 222 112 143 224 113 142 226 114 141 228 115 140 230 116 139 232 117 138 234 118 137 236 119 136 238 120 135 240 121 134 242 122 133 244 123 132 246 124 131 248 125 130 250 126 129 252 127 128 254 128 127 0 129 126 2 130 125 4 131 124 6 132 123 8 133 122 10 134 121 12 135 120 14 136 119 16 137 118 18 138 117 20 139 116 22 140 115 24 141 114 26 142 113 28 143 112 30 144 111 32 145 110 34 146 109 36 147 108 38 148 107 40 149 106 42 150 105 44 151 104 46 152 103 48 153 102 50 154 101 52 155 100 54 156 99 56 157 98 58 158 97 60 159 96 62 160 95 64 161 94 66 162 93 68 163 92 70 164 91 72 165 90 74 166 89 76 167 88 78 168 87 80 169 86 82 170 85 84 171 84 86 172 83 88 173 82 90 174 81 92 175 80 94 176 79 96 177 78 98 178 77 100 179 76 102 180 75 104 181 74 106 182 73 108 183 72 110 184 71 112 185 70 114 186 69 116 187 68 118 188 67 120 189 66 122 190 65 124 191 64 126 192 63 128 193 62 130 194 61 132 195 60 134 196 59 136 197 58 138 198 57 140 199 56 142
41 214 82 42 213 84 43 212 86 44 211 88 45 210 90 46 209 92 47 208 94 48 207 96 49 206 98 50 205 100 51 204 102 52 203 104 53 202 106 54 201 108 55 200 110 56 199 112 57 198 114 58 197 116 59 196 118 60 195 120 61 194 122 62 193 124 63 192 126 64 191 128 65 190 130 66 189 132 67 188 134 68 187 136 69 186 138 70 185 140 71 184 142 72 183 144 73 182 146 74 181 148 75 180 150 76 179 152 77 178 154 78 177 156 79 176 158 80 175 160 81 174 162 82 173 164 83 172 166 84 171 168 85 170 170 86 169 172 87 168 174 88 167 176 89 166 178 90 165 180 91 164 182 92 163 184 93 162 186 94 161 188 95 160 190 96 159 192 97 158 194 98 157 196 99 156 198 100 155 200 101 154 202 102 153 204 103 152 206 104 151 208 105 150 210 106 149 212 107 148 214 108 147 216 109 146 218 110 145 220 111 144 222 112 143 224 113 142 226 114 141 228 115 140 230 116 139 232 117 138 234 118 137 236 119 136 238 120 135 240 121 134 242 122 133 244 123 132 246 124 131 248 125 130 250 126 129 252 127 128 254 128 127 0 129 126 2 130 125 4 131 124 6 132 123 8 133 122 10 134 121 12 135 120 14 136 119 16 137 118 18 138 117 20 139 116 22 140 115 24 141 114 26 142 113 28 143 112 30 144 111 32 145 110 34 146 109 36 147 108 38 148 107 40 149 106 42 150 105 44 151 104 46 152 103 48 153 102 50 154 101 52 155 100 54 156 99 56 157 98 58 158 97 60 159 96 62 160 95 64 161 94 66 162 93 68 163 92 70 164 91 72 165 90 74 166 89 76 167 88 78 168 87 80 169 86 82 170 85 84 171 84 86 172 83 88 173 82 90 174 81 92 175 80 94 176 79 96 177 78 98 178 77 100 179 76 102 180 75 104 181 74 106 182 73 108 183 72 110 184 71 112 185 70 114 186 69 116 187 68 118 188 67 120 189 66 122 190 65 124 191 64 126 192 63 128 193 62 130 194 61 132 195 60 134 196 59 136 197 58 138 198 57 140 199 56 142 200 55 144
42 213 84 43 212 86 44 211 88 45 210 90 46 209 92 47 208 94 48 207 96 49 206 98 50 205 100 51 204 102 52 203 104 53 202 106 54 201 108 55 200 110 56 199 112 57 198 114 58 197 116 59 196 118 60 195 120 61 194 122 62 193 124 63 192 126 64 191 128 65 190 130 66 189 132 67 188 134 68 187 136 69 186 138 70 185 140 71 184 142 72 183 144 73 182 146 74 181 148 75 180 150 76 179 152 77 178 154 78 177 156 79 176 158 80 175 160 81 174 162 82 173 164 83 172 166 84 171 168 85 170 170 86 169 172 87 168 174 88 167 176 89 166 178 90 165 180 91 164 182 92 163 184 93 162 186 94 161 188 95 160 190 96 159 192 97 158 194 98 157 196 99 156 198 100 155 200 101 154 202 102 153 204 103 152 206 104 151 208 105 150 210 106 149 212 107 148 214 108 147 216 109 146 218 110 145 220 111 144 222 112 143 224 113 142 226 114 141 228 115 140 230 116 139 232 117 138 234 118 137 236 119 136 238 120 135 240 121 134 242 122 133 244 123 132 246 124 131 248 125 130 250 126 129 252 127 128 254 128 127 0 129 126 2 130 125 4 131 124 6 132 123 8 133 122 10 134 121 12 135 120 14 136 119 16 137 118 18 138 117 20 139 116 22 140 115 24 141 114 26 142 113 28 143 112 30 144 111 32 145 110 34 146 109 36 147 108 38 148 107 40 149 106 42 150 105 44 151 104 46 152 103 48 153 102 50 154 101 52 155 100 54 156 99 56 157 98 58 158 97 60 159 96 62 160 95 64 161 94 66 162 93 68 163 92 70 164 91 72 165 90 74 166 89 76 167 88 78 168 87 80 169 86 82 170 85 84 171 84 86 172 83 88 173 82 90 174 81 92 175 80 94 176 79 96 177 78 98 178 77 100 179 76 102 180 75 104 181 74 106 182 73 108 183 72 110 184 71 112 185 70 114 186 69 116 187 68 118 188 67 120 189 66 122 190 65 124 191 64 126 192 63 128 193 62 130 194 61 132 195 60 134 196 59 136 197 58 138 198 57 140 199 56 142 200 55 144 201 54 146
43 212 86 44 211 88 45 210 90 46 209 92 47 208 94 48 207 96 49 206 98 50 205 100 51 204 102 52 203 104 53 202 106 54 201 108 55 200 110 56 199 112 57 198 114 58 197 116 59 196 118 60 195 120 61 194 122 62 193 124 63 192 126 64 191 128 65 190 130 66 189 132 67 188 134 68 187 136 69 186 138 70 185 140 71 184 142 72 183 144 73 182 146 74 181 148 75 180 150 76 179 152 77 178 154 78 177 156 79 176 158 80 175 160 81 174 162 82 173 164 83 172 166 84 171 168 85 170 170 86 169 172 87 168 174 88 167 176 89 166 178 90 165 180 91 164 182 92 163 184 93 162 186 94 161 188 95 160 190 96 159 192 97 158 194 98 157 196 99 156 198 100 155 200 101 154 202 102 153 204 103 152 206 104 151 208 105 150 210 106 149 212 107 148 214 108 147 216 109 146 218 110 145 220 111 144 222 112 143 224 113 142 226 114 141 228 115 140 230 116 139 232 117 138 234 118 137 236 119 136 238 120 135 240 121 134 242 122 133 244 123 132 246 124 131 248 125 130 250 126 129 252 127 128 254 128 127 0 129 126 2 130 125 4 131 124 6 132 123 8 133 122 10 134 121 12 135 120 14 136 119 16 137 118 18 138 117 20 139 116 22 140 115 24 141 114 26 142 113 28 143 112 30 144 111 32 145 110 34 146 109 36 147 108 38 148 107 40 149 106 42 150 105 44 151 104 46 152 103 48 153 102 50 154 101 52 155 100 54 156 99 56 157 98 58 158 97 60 159 96 62 160 95 64 161 94 66 162 93 68 163 92 70 164 91 72 165 90 74 166 89 76 167 88 78 168 87 80 169 86 82 170 85 84 171 84 86 172 83 88 173 82 90 174 81 92 175 80 94 176 79 96 177 78 98 178 77 100 179 76 102 180 75 104 181 74 106 182 73 108 183 72 110 184 71 112 185 70 114 186 69 116 187 68 118 188 67 120 189 66 122 190 65 124 191 64 126 192 63 128 193 62 130 194 61 132 195 60 134 196 59 136 197 58 138 198 57 140 199 56 142 200 55 144 201 54 146 202 53 148
44 211 88 45 210 90 46 209 92 47 208 94 48 207 96 49 206 98 50 205 100 51 204 102 52 203 104 53 202 106 54 201 108 55 200 110 56 199 112 57 198 114 58 197 116 59 196 118 60 195 120 61 194 122 62 193 124 63 192 126 64 191 128 65 190 130 66 189 132 67 188 134 68 187 136 69 186 138 70 185 140 71 184 142 72 183 144 73 182 146 74 181 148 75 180 150 76 179 152 77 178 154 78 177 156 79 176 158 80 175 160 81 174 162 82 173 164 83 172 166 84 171 168 85 170 170 86 169 172 87 168 174 88 167 176 89 166 178 90 165 180 91 164 182 92 163 184 93 162 186 94 161 188 95 160 190 96 159 192 97 158 194 98 157 196 99 156 198 100 155 200 101 154 202 102 153 204 103 152 206 104 151 208 105 150 210 106 149 212 107 148 214 108 147 216 109 146 218 110 145 220 111 144 222 112 143 224 113 142 226 114 141 228 115 140 230 116 139 232 117 138 234 118 137 236 119 136 238 120 135 240 121 134 242 122 133 244 123 132 246 124 131 248 125 130 250 126 129 252 127 128 254 128 127 0 129 126 2 130 125 4 131 124 6 132 123 8 133 122 10 134 121 12 135 120 14 136 119 16 137 118 18 138 117 20 139 116 22 140 115 24 141 114 26 142 113 28 143 112 30 144 111 32 145 110 34 146 109 36 147 108 38 148 107 40 149 106 42 150 105 44 151 104 46 152 103 48 153 102 50 154 101 52 155 100 54 156 99 56 157 98 58 158 97 60 159 96 62 160 95 64 161 94 66 162 93 68 163 92 70 164 91 72 165 90 74 166 89 76 167 88 78 168 87 80 169 86 82 170 85 84 171 84 86 172 83 88 173 82 90 174 81 92 175 80 94 176 79 96 177 78 98 178 77 100 179 76 102 180 75 104 181 74 106 182 73 108 183 72 110 184 71 112 185 70 114 186 69 116 187 68 118 188 67 120 189 66 122 190 65 124 191 64 126 192 63 128 193 62 130 194 61 132 195 60 134 196 59 136 197 58 138 198 57 140 199 56 142 200 55 144 201 54 146 202 53 148 203 52 150
45 210 90 46 209 92 47 208 94 48 207 96 49 206 98 50 205 100 51 204 102 52 203 104 53 202 106 54 201 108 55 200 110 56 199 112 57 198 114 58 197 116 59 196 118 60 195 120 61 194 122 62 193 124 63 192 126 64 191 128 65 190 130 66 189 132 67 188 134 68 187 136 69 186 138 70 185 140 71 184 142 72 183 144 73 182 146 74 181 148 75 180 150 76 179 152 77 178 154 78 177 156 79 176 158 80 175 160 81 174 162 82 173 164 83 172 166 84 171 168 85 170 170 86 169 172 87 168 174 88 167 176 89 166 178 90 165 180 91 164 182 92 163 184 93 162 186 94 161 188 95 160 190 96 159 192 97 158 194 98 157 196 99 156 198 100 155 200 101 154 202 102 153 204 103 152 206 104 151 208 105 150 210 106 149 212 107 148 214 108 147 216 109 146 218 110 145 220 111 144 222 112 143 224 113 142 226 114 141 228 115 140 230 116 139 232 117 138 234 118 137 236 119 136 238 120 135 240 121 134 242 122 133 244 123 132 246 124 131 248 125 130 250 126 129 252 127 128 254 128 127 0 129 126 2 130 125 4 131 124 6 132 123 8 133 122 10 134 121 12 135 120 14 136 119 16 137 118 18 138 117 20 139 116 22 140 115 24 141 114 26 142 113 28 143 112 30 144 111 32 145 110 34 146 109 36 147 108 38 148 107 40 149 106 42 150 105 44 151 104 46 152 103 48 153 102 50 154 101 52 155 100 54 156 99 56 157 98 58 158 97 60 159 96 62 160 95 64 161 94 66 162 93 68 163 92 70 164 91 72 165 90 74 166 89 76 167 88 78 168 87 80 169 86 82 170 85 84 171 84 86 172 83 88 173 82 90 174 81 92 175 80 94 176 79 96 177 78 98 178 77 100 179 76 102 180 75 104 181 74 106 182 73 108 183 72 110 184 71 112 185 70 114 186 69 116 187 68 118 188 67 120 189 66 122 190 65 124 191 64 126 192 63 128 193 62 130 194 61 132 195 60 134 196 59 136 197 58 138 198 57 140 199 56 142 200 55 144 201 54 146 202 53 148 203 52 150 204 51 152
46 209 92 47 208 94 48 207 96 49 206 98 50 205 100 51 204 102 52 203 104 53 202 106 54 201 108 55 200 110 56 199 112 57 198 114 58 197 116 59 196 118 60 195 120 61 194 122 62 193 124 63 192 126 64 191 128 65 190 130 66 189 132 67 188 134 68 187 136 69 186 138 70 185 140 71 184 142 72 183 144 73 182 146 74 181 148 75 180 150 76 179 152 77 178 154 78 177 156 79 176 158 80 175 160 81 174 162 82 173 164 83 172 166 84 171 168 85 170 170 86 169 172 87 168 174 88 167 176 89 166 178 90 165 180 91 164 182 92 163 184 93 162 186 94 161 188 95 160 190 96 159 192 97 158 194 98 157 196 99 156 198 100 155 200 101 154 202 102 153 204 103 152 206 104 151 208 105 150 210 106 149 212 107 148 214 108 147 216 109 146 218 110 145 220 111 144 222 112 143 224 113 142 226 114 141 228 115 140 230 116 139 232 117 138 234 118 137 236 119 136 238 120 135 240 121 134 242 122 133 244 123 132 246 124 131 248 125 130 250 126 129 252 127 128 254 128 127 0 129 126 2 130 125 4 131 124 6 132 123 8 133 122 10 134 121 12 135 120 14 136 119 16 137 118 18 138 117 20 139 116 22 140 115 24 141 114 26 142 113 28 143 112 30 144 111 32 145 110 34 146 109 36 147 108 38 148 107 40 149 106 42 150 105 44 151 104 46 152 103 48 153 102 50 154 101 52 155 100 54 156 99 56 157 98 58 158 97 60 159 96 62 160 95 64 161 94 66 162 93 68 163 92 70 164 91 72 165 90 74 166 89 76 167 88 78 168 87 80 169 86 82 170 85 84 171 84 86 172 83 88 173 82 90 174 81 92 175 80 94 176 79 96 177 78 98 178 77 100 179 76 102 180 75 104 181 74 106 182 73 108 183 72 110 184 71 112 185 70 114 186 69 116 187 68 118 188 67 120 189 66 122 190 65 124 191 64 126 192 63 128 193 62 130 194 61 132 195 60 134 196 59 136 197 58 138 198 57 140 199 56 142 200 55 144 201 54 146 202 53 148 203 52 150 204 51 152 205 50 154
47 208 94 48 207 96 49 206 98 50 205 100 51 204 102 52 203 104 53 202 106 54 201 108 55 200 110 56 199 112 57 198 114 58 197 116 59 196 118 60 195 120 61 194 122 62 193 124 63 192 126 64 191 128 65 190 130 66 189 132 67 188 134 68 187 136 69 186 138 70 185 140 71 184 142 72 183 144 73 182 146 74 181 148 75 180 150 76 179 152 77 178 154 78 177 156 79 176 158 80 175 160 81 174 162 82 173 164 83 172 166 84 171 168 85 170 170 86 169 172 87 168 174 88 167 176 89 166 178 90 165 180 91 164 182 92 163 184 93 162 186 94 161 188 95 160 190 96 159 192 97 158 194 98 157 196 99 156 198 100 155 200 101 154 202 102 153 204 103 152 206 104 151 208 105 150 210 106 149 212 107 148 214 108 147 216 109 146 218 110 145 220 111 144 222 112 143 224 113 142 226 114 141 228 115 140 230 116 139 232 117 138 234 118 137 236 119 136 238 120 135 240 121 134 242 122 133 244 123 132 246 124 131 248 125 130 250 126 129 252 127 128 254 128 127 0 129 126 2 130 125 4 131 124 6 132 123 8 133 122 10 134 121 12 135 120 14 136 119 16 137 118 18 138 117 20 139 116 22 140 115 24 141 114 26 142 113 28 143 112 30 144 111 32 145 110 34 146 109 36 147 108 38 148 107 40 149 106 42 150 105 44 151 104 46 152 103 48 153 102 50 154 101 52 155 100 54 156 99 56 157 98 58 158 97 60 159 96 62 160 95 64 161 94 66 162 93 68 163 92 70 164 91 72 165 90 74 166 89 76 167 88 78 168 87 80 169 86 82 170 85 84 171 84 86 172 83 88 173 82 90 174 81 92 175 80 94 176 79 96 177 78 98 178 77 100 179 76 102 180 75 104 181 74 106 182 73 108 183 72 110 184 71 112 185 70 114 186 69 116 187 68 118 188 67 120 189 66 122 190 65 124 191 64 126 192 63 128 193 62 130 194 61 132 195 60 134 196 59 136 197 58 138 198 57 140 199 56 142 200 55 144 201 54 146 202 53 148 203 52 150 204 51 152 205 50 154 206 49 156
48 207 96 49 206 98 50 205 100 51 204 102 52 203 104 53 202 106 54 201 108 55 200 110 56 199 112 57 198 114 58 197 116 59 196 118 60 195 120 61 194 122 62 193 124 63 192 126 64 191 128 65 190 130 66 189 132 67 188 134 68 187 136 69 186 138 70 185 140 71 184 142 72 183 144 73 182 146 74 181 148 75 180 150 76 179 152 77 178 154 78 177 156 79 176 158 80 175 160 81 174 162 82 173 164 83 172 166 84 171 168 85 170 170 86 169 172 87 168 174 88 167 176 89 166 178 90 165 180 91 164 182 92 163 184 93 162 186 94 161 188 95 160 190 96 159 192 97 158 194 98 157 196 99 156 198 100 155 200 101 154 202 102 153 204 103 152 206 104 151 208 105 150 210 106 149 212 107 148 214 108 147 216 109 146 218 110 145 220 111 144 222 112 143 224 113 142 226 114 141 228 115 140 230 116 139 232 117 138 234 118 137 236 119 136 238 120 135 240 121 134 242 122 133 244 123 132 246 124 131 248 125 130 250 126 129 252 127 128 254 128 127 0 129 126 2 130 125 4 131 124 6 132 123 8 133 122 10 134 121 12 135 120 14 136 119 16 137 118 18 138 117 20 139 116 22 140 115 24 141 114 26 142 113 28 143 112 30 144 111 32 145 110 34 146 109 36 147 108 38 148 107 40 149 106 42 150 105 44 151 104 46 152 103 48 153 102 50 154 101 52 155 100 54 156 99 56 157 98 58 158 97 60 159 96 62 160 95 64 161 94 66 162 93 68 163 92 70 164 91 72 165 90 74 166 89 76 167 88 78 168 87 80 169 86 82 170 85 84 171 84 86 172 83 88 173 82 90 174 81 92 175 80 94 176 79 96 177 78 98 178 77 100 179 76 102 180 75 104 181 74 106 182 73 108 183 72 110 184 71 112 185 70 114 186 69 116 187 68 118 188 67 120 189 66 122 190 65 124 191 64 126 192 63 128 193 62 130 194 61 132 195 60 134 196 59 136 197 58 138 198 57 140 199 56 142 200 55 144 201 54 146 202 53 148 203 52 150 204 51 152 205 50 154 206 49 156 207 48 158
49 206 98 50 205 100 51 204 102 52 203 104 53 202 106 54 201 108 55 200 110 56 199 112 57 198 114 58 197 116 59 196 118 60 195 120 61 194 122 62 193 124 63 192 126 64 191 128 65 190 130 66 189 132 67 188 134 68 187 136 69 186 138 70 185 140 71 184 142 72 183 144 73 182 146 74 181 148 75 180 150 76 179 152 77 178 154 78 177 156 79 176 158 80 175 160 81 174 162 82 173 164 83 172 166 84 171 168 85 170 170 86 169 172 87 168 174 88 167 176 89 166 178 90 165 180 91 164 182 92 163 184 93 162 186 94 161 188 95 160 190 96 159 192 97 158 194 98 157 196 99 156 198 100 155 200 101 154 202 102 153 204 103 152 206 104 151 208 105 150 210 106 149 212 107 148 214 108 147 216 109 146 218 110 145 220 111 144 222 112 143 224 113 142 226 114 141 228 115 140 230 116 139 232 117 138 234 118 137 236 119 136 238 120 135 240 121 134 242 122 133 244 123 132 246 124 131 248 125 130 250 126 129 252 127 128 254 128 127 0 129 126 2 130 125 4 131 124 6 132 123 8 133 122 10 134 121 12 135 120 14 136 119 16 137 118 18 138 117 20 139 116 22 140 115 24 141 114 26 142 113 28 143 112 30 144 111 32 145 110 34 146 109 36 147 108 38 148 107 40 149 106 42 150 105 44 151 104 46 152 103 48 153 102 50 154 101 52 155 100 54 156 99 56 157 98 58 158 97 60 159 96 62 160 95 64 161 94 66 162 93 68 163 92 70 164 91 72 165 90 74 166 89 76 167 88 78 168 87 80 169 86 82 170 85 84 171 84 86 172 83 88 173 82 90 174 81 92 175 80 94 176 79 96 177 78 98 178 77 100 179 76 102 180 75 104 181 74 106 182 73 108 183 72 110 184 71 112 185 70 114 186 69 116 187 68 118 188 67 120 189 66 122 190 65 124 191 64 126 192 63 128 193 62 130 194 61 132 195 60 134 196 59 136 197 58 138 198 57 140 199 56 142 200 55 144 201 54 146 202 53 148 203 52 150 204 51 152 205 50 154 206 49 156 207 48 158 208 47 160
50 205 100 51 204 102 52 203 104 53 202 106 54 201 108 55 200 110 56 199 112 57 198 114 58 197 116 59 196 118 60 195 120 61 194 122 62 193 124 63 192 126 64 191 128 65 190 130 66 189 132 67 188 134 68 187 136 69 186 138 70 185 140 71 184 142 72 183 144 73 182 146 74 181 148 75 180 150 76 179 152 77 178 154 78 177 156 79 176 158 80 175 160 81 174 162 82 173 164 83 172 166 84 171 168 85 170 170 86 169 172 87 168 174 88 167 176 89 166 178 90 165 180 91 164 182 92 163 184 93 162 186 94 161 188 95 160 190 96 159 192 97 158 194 98 157 196 99 156 198 100 155 200 101 154 202 102 153 204 103 152 206 104 151 208 105 150 210 106 149 212 107 148 214 108 147 216 109 146 218 110 145 220 111 144 222 112 143 224 113 142 226 114 141 228 115 140 230 116 139 232 117 138 234 118 137 236 119 136 238 120 135 240 121 134 242 122 133 244 123 132 246 124 131 248 125 130 250 126 129 252 127 128 254 128 127 0 129 126 2 130 125 4 131 124 6 132 123 8 133 122 10 134 121 12 135 120 14 136 119 16 137 118 18 138 117 20 139 116 22 140 115 24 141 114 26 142 113 28 143 112 30 144 111 32 145 110 34 146 109 36 147 108 38 148 107 40 149 106 42 150 105 44 151 104 46 152 103 48 153 102 50 154 101 52 155 100 54 156 99 56 157 98 58 158 97 60 159 96 62 160 95 64 161 94 66 162 93 68 163 92 70 164 91 72 165 90 74 166 89 76 167 88 78 168 87 80 169 86 82 170 85 84 171 84 86 172 83 88 173 82 90 174 81 92 175 80 94 176 79 96 177 78 98 178 77 100 179 76 102 180 75 104 181 74 106 182 73 108 183 72 110 184 71 112 185 70 114 186 69 116 187 68 118 188 67 120 189 66 122 190 65 124 191 64 126 192 63 128 193 62 130 194 61 132 195 60 134 196 59 136 197 58 138 198 57 140 199 56 142 200 55 144 201 54 146 202 53 148 203 52 150 204 51 152 205 50 154 206 49 156 207 48 158 208 47 160 209 46 162
51 204 102 52 203 104 53 202 106 54 201 108 55 200 110 56 199 112 57 198 114 58 197 116 59 196 118 60 195 120 61 194 122 62 193 124 63 192 126 64 191 128 65 190 130 66 189 132 67 188 134 68 187 136 69 186 138 70 185 140 71 184 142 72 183 144 73 182 146 74 181 148 75 180 150 76 179 152 77 178 154 78 177 156 79 176 158 80 175 160 81 174 162 82 173 164 83 172 166 84 171 168 85 170 170 86 169 172 87 168 174 88 167 176 89 166 178 90 165 180 91 164 182 92 163 184 93 162 186 94 161 188 95 160 190 96 159 192 97 158 194 98 157 196 99 156 198 100 155 200 101 154 202 102 153 204 103 152 206 104 151 208 105 150 210 106 149 212 107 148 214 108 147 216 109 146 218 110 145 220 111 144 222 112 143 224 113 142 226 114 141 228 115 140 230 116 139 232 117 138 234 118 137 236 119 136 238 120 135 240 121 134 242 122 133 244 123 132 246 124 131 248 125 130 250 126 129 252 127 128 254 128 127 0 129 126 2 130 125 4 131 124 6 132 123 8 133 122 10 134 121 12 135 120 14 136 119 16 137 118 18 138 117 20 139 116 22 140 115 24 141 114 26 142 113 28 143 112 30 144 111 32 145 110 34 146 109 36 147 108 38 148 107 40 149 106 42 150 105 44 151 104 46 152 103 48 153 102 50 154 101 52 155 100 54 156 99 56 157 98 58 158 97 60 159 96 62 160 95 64 161 94 66 162 93 68 163 92 70 164 91 72 165 90 74 166 89 76 167 88 78 168 87 80 169 86 82 170 85 84 171 84 86 172 83 88 173 82 90 174 81 92 175 80 94 176 79 96 177 78 98 178 77 100 179 76 102 180 75 104 181 74 106 182 73 108 183 72 110 184 71 112 185 70 114 186 69 116 187 68 118 188 67 120 189 66 122 190 65 124 191 64 126 192 63 128 193 62 130 194 61 132 195 60 134 196 59 136 197 58 138 198 57 140 199 56 142 200 55 144 201 54 146 202 53 148 203 52 150 204 51 152 205 50 154 206 49 156 207 48 158 208 47 160 209 46 162 210 45 164
52 203 104 53 202 106 54 201 108 55 200 110 56 199 112 57 198 114 58 197 116 59 196 118 60 195 120 61 194 122 62 193 124 63 192 126 64 191 128 65 190 130 66 189 132 67 188 134 68 187 136 69 186 138 70 185 140 71 184 142 72 183 144 73 182 146 74 181 148 75 180 150 76 179 152 77 178 154 78 177 156 79 176 158 80 175 160 81 174 162 82 173 164 83 172 166 84 171 168 85 170 170 86 169 172 87 168 174 88 167 176 89 166 178 90 165 180 91 164 182 92 163 184 93 162 186 94 161 188 95 160 190 96 159 192 97 158 194 98 157 196 99 156 198 100 155 200 101 154 202 102 153 204 103 152 206 104 151 208 105 150 210 106 149 212 107 148 214 108 147 216 109 146 218 110 145 220 111 144 222 112 143 224 113 142 226 114 141 228 115 140 230 116 139 232 117 138 234 118 137 236 119 136 238 120 135 240 121 134 242 122 133 244 123 132 246 124 131 248 125 130 250 126 129 252 127 128 254 128 127 0 129 126 2 130 125 4 131 124 6 132 123 8 133 122 10 134 121 12 135 120 14 136 119 16 137 118 18 138 117 20 139 116 22 140 115 24 141 114 26 142 113 28 143 112 30 144 111 32 145 110 34 146 109 36 147 108 38 148 107 40 149 106 42 150 105 44 151 104 46 152 103 48 153 102 50 154 101 52 155 100 54 156 99 56 157 98 58 158 97 60 159 96 62 160 95 64 161 94 66 162 93 68 163 92 70 164 91 72 165 90 74 166 89 76 167 88 78 168 87 80 169 86 82 170 85 84 171 84 86 172 83 88 173 82 90 174 81 92 175 80 94 176 79 96 177 78 98 178 77 100 179 76 102 180 75 104 181 74 106 182 73 108 183 72 110 184 71 112 185 70 114 186 69 116 187 68 118 188 67 120 189 66 122 190 65 124 191 64 126 192 63 128 193 62 130 194 61 132 195 60 134 196 59 136 197 58 138 198 57 140 199 56 142 200 55 144 201 54 146 202 53 148 203 52 150 204 51 152 205 50 154 206 49 156 207 48 158 208 47 160 209 46 162 210 45 164 211 44 166
53 202 106 54 201 108 55 200 110 56 199 112 57 198 114 58 197 116 59 196 118 60 195 120 61 194 122 62 193 124 63 192 126 64 191 128 65 190 130 66 189 132 67 188 134 68 187 136 69 186 138 70 185 140 71 184 142 72 183 144 73 182 146 74 181 148 75 180 150 76 179 152 77 178 154 78 177 156 79 176 158 80 175 160 81 174 162 82 173 164 83 172 166 84 171 168 85 170 170 86 169 172 87 168 174 88 167 176 89 166 178 90 165 180 91 164 182 92 163 184 93 162 186 94 161 188 95 160 190 96 159 192 97 158 194 98 157 196 99 156 198 100 155 200 101 154 202 102 153 204 103 152 206 104 151 208 105 150 210 106 149 212 107 148 214 108 147 216 109 146 218 110 145 220 111 144 222 112 143 224 113 142 226 114 141 228 115 140 230 116 139 232 117 138 234 118 137 236 119 136 238 120 135 240 121 134 242 122 133 244 123 132 246 124 131 248 125 130 250 126 129 252 127 128 254 128 127 0 129 126 2 130 125 4 131 124 6 132 123 8 133 122 10 134 121 12 135 120 14 136 119 16 137 118 18 138 117 20 139 116 22 140 115 24 141 114 26 142 113 28 143 112 30 144 111 32 145 110 34 146 109 36 147 108 38 148 107 40 149 106 42 150 105 44 151 104 46 152 103 48 153 102 50 154 101 52 155 100 54 156 99 56 157 98 58 158 97 60 159 96 62 160 95 64 161 94 66 162 93 68 163 92 70 164 91 72 165 90 74 166 89 76 167 88 78 168 87 80 169 86 82 170 85 84 171 84 86 172 83 88 173 82 90 174 81 92 175 80 94 176 79 96 177 78 98 178 77 100 179 76 102 180 75 104 181 74 106 182 73 108 183 72 110 184 71 112 185 70 114 186 69 116 187 68 118 188 67 120 189 66 122 190 65 124 191 64 126 192 63 128 193 62 130 194 61 132 195 60 134 196 59 136 197 58 138 198 57 140 199 56 142 200 55 144 201 54 146 202 53 148 203 52 150 204 51 152 205 50 154 206 49 156 207 48 158 208 47 160 209 46 162 210 45 164 211 44 166 212 43 168
54 201 108 55 200 110 56 199 112 57 198 114 58 197 116 59 196 118 60 195 120 61 194 122 62 193 124 63 192 126 64 191 128 65 190 130 66 189 132 67 188 134 68 187 136 69 186 138 70 185 140 71 184 142 72 183 144 73 182 146 74 181 148 75 180 150 76 179 152 77 178 154 78 177 156 79 176 158 80 175 160 81 174 162 82 173 164 83 172 166 84 171 168 85 170 170 86 169 172 87 168 174 88 167 176 89 166 178 90 165 180 91 164 182 92 163 184 93 162 186 94 161 188 95 160 190 96 159 192 97 158 194 98 157 196 99 156 198 100 155 200 101 154 202 102 153 204 103 152 206 104 151 208 105 150 210 106 149 212 107 148 214 108 147 216 109 146 218 110 145 220 111 144 222 112 143 224 113 142 226 114 141 228 115 140 230 116 139 232 117 138 234 118 137 236 119 136 238 120 135 240 121 134 242 122 133 244 123 132 246 124 131 248 125 130 250 126 129 252 127 128 254 128 127 0 129 126 2 130 125 4 131 124 6 132 123 8 133 122 10 134 121 12 135 120 14 136 119 16 137 118 18 138 117 20 139 116 22 140 115 24 141 114 26 142 113 28 143 112 30 144 111 32 145 110 34 146 109 36 147 108 38 148 107 40 149 106 42 150 105 44 151 104 46 152 103 48 153 102 50 154 101 52 155 100 54 156 99 56 157 98 58 158 97 60 159 96 62 160 95 64 161 94 66 162 93 68 163 92 70 164 91 72 165 90 74 166 89 76 167 88 78 168 87 80 169 86 82 170 85 84 171 84 86 172 83 88 173 82 90 174 81 92 175 80 94 176 79 96 177 78 98 178 77 100 179 76 102 180 75 104 181 74 106 182 73 108 183 72 110 184 71 112 185 70 114 186 69 116 187 68 118 188 67 120 189 66 122 190 65 124 191 64 126 192 63 128 193 62 130 194 61 132 195 60 134 196 59 136 197 58 138 198 57 140 199 56 142 200 55 144 201 54 146 202 53 148 203 52 150 204 51 152 205 50 154 206 49 156 207 48 158 208 47 160 209 46 162 210 45 164 211 44 166 212 43 168 213 42 170
55 200 110 56 199 112 57 198 114 58 197 116 59 196 118 60 195 120 61 194 122 62 193 124 63 192 126 64 191 128 65 190 130 66 189 132 67 188 134 68 187 136 69 186 138 70 185 140 71 184 142 72 183 144 73 182 146 74 181 148 75 180 150 76 179 152 77 178 154 78 177 156 79 176 158 80 175 160 81 174 162 82 173 164 83 172 166 84 171 168 85 170 170 86 169 172 87 168 174 88 167 176 89 166 178 90 165 180 91 164 182 92 163 184 93 162 186 94 161 188 95 160 190 96 159 192 97 158 194 98 157 196 99 156 198 100 155 200 101 154 202 102 153 204 103 152 206 104 151 208 105 150 210 106 149 212 107 148 214 108 147 216 109 146 218 110 145 220 111 144 222 112 143 224 113 142 226 114 141 228 115 140 230 116 139 232 117 138 234 118 137 236 119 136 238 120 135 240 121 134 242 122 133 244 123 132 246 124 131 248 125 130 250 126 129 252 127 128 254 128 127 0 129 126 2 130 125 4 131 124 6 132 123 8 133 122 10 134 121 12 135 120 14 136 119 16 137 118 18 138 117 20 139 116 22 140 115 24 141 114 26 142 113 28 143 112 30 144 111 32 145 110 34 146 109 36 147 108 38 148 107 40 149 106 42 150 105 44 151 104 46 152 103 48 153 102 50 154 101 52 155 100 54 156 99 56 157 98 58 158 97 60 159 96 62 160 95 64 161 94 66 162 93 68 163 92 70 164 91 72 165 90 74 166 89 76 167 88 78 168 87 80 169 86 82 170 85 84 171 84 86 172 83 88 173 82 90 174 81 92 175 80 94 176 79 96 177 78 98 178 77 100 179 76 102 180 75 104 181 74 106 182 73 108 183 72 110 184 71 112 185 70 114 186 69 116 187 68 118 188 67 120 189 66 122 190 65 124 191 64 126 192 63 128 193 62 130 194 61 132 195 60 134 196 59 136 197 58 138 198 57 140 199 56 142 200 55 144 201 54 146 202 53 148 203 52 150 204 51 152 205 50 154 206 49 156 207 48 158 208 47 160 209 46 162 210 45 164 211 44 166 212 43 168 213 42 170 214 41 172
56 199 112 57 198 114 58 197 116 59 196 118 60 195 120 61 194 122 62 193 124 63 192 126 64 191 128 65 190 130 66 189 132 67 188 134 68 187 136 69 186 138 70 185 140 71 184 142 72 183 144 73 182 146 74 181 148 75 180 150 76 179 152 77 178 154 78 177 156 79 176 158 80 175 160 81 174 162 82 173 164 83 172 166 84 171 168 85 170 170 86 169 172 87 168 174 88 167 176 89 166 178 90 165 180 91 164 182 92 163 184 93 162 186 94 161 188 95 160 190 96 159 192 97 158 194 98 157 196 99 156 198 100 155 200 101 154 202 102 153 204 103 152 206 104 151 208 105 150 210 106 149 212 107 148 214 108 147 216 109 146 218 110 145 220 111 144 222 112 143 224 113 142 226 114 141 228 115 140 230 116 139 232 117 138 234 118 137 236 119 136 238 120 135 240 121 134 242 122 133 244 123 132 246 124 131 248 125 130 250 126 129 252 127 128 254 128 127 0 129 126 2 130 125 4 131 124 6 132 123 8 133 122 10 134 121 12 135 120 14 136 119 16 137 118 18 138 117 20 139 116 22 140 115 24 141 114 26 142 113 28 143 112 30 144 111 32 145 110 34 146 109 36 147 108 38 148 107 40 149 106 42 150 105 44 151 104 46 152 103 48 153 102 50 154 101 52 155 100 54 156 99 56 157 98 58 158 97 60 159 96 62 160 95 64 161 94 66 162 93 68 163 92 70 164 91 72 165 90 74 166 89 76 167 88 78 168 87 80 169 86 82 170 85 84 171 84 86 172 83 88 173 82 90 174 81 92 175 80 94 176 79 96 177 78 98 178 77 100 179 76 102 180 75 104 181 74 106 182 73 108 183 72 110 184 71 112 185 70 114 186 69 116 187 68 118 188 67 120 189 66 122 190 65 124 191 64 126 192 63 128 193 62 130 194 61 132 195 60 134 196 59 136 197 58 138 198 57 140 199 56 142 200 55 144 201 54 146 202 53 148 203 52 150 204 51 152 205 50 154 206 49 156 207 48 158 208 47 160 209 46 162 210 45 164 211 44 166 212 43 168 213 42 170 214 41 172 215 40 174
57 198 114 58 197 116 59 196 118 60 195 120 61 194 122 62 193 124 63 192 126 64 191 128 65 190 130 66 189 132 67 188 134 68 187 136 69 186 138 70 185 140 71 184 142 72 183 144 73 182 146 74 181 148 75 180 150 76 179 152 77 178 154 78 177 156 79 176 158 80 175 160 81 174 162 82 173 164 83 172 166 84 171 168 85 170 170 86 169 172 87 168 174 88 167 176 89 166 178 90 165 180 91 164 182 92 163 184 93 162 186 94 161 188 95 160 190 96 159 192 97 158 194 98 157 196 99 156 198 100 155 200 101 154 202 102 153 204 103 152 206 104 151 208 105 150 210 106 149 212 107 148 214 108 147 216 109 146 218 110 145 220 111 144 222 112 143 224 113 142 226 114 141 228 115 140 230 116 139 232 117 138 234 118 137 236 119 136 238 120 135 240 121 134 242 122 133 244 123 132 246 124 131 248 125 130 250 126 129 252 127 128 254 128 127 0 129 126 2 130 125 4 131 124 6 132 123 8 133 122 10 134 121 12 135 120 14 136 119 16 137 118 18 138 117 20 139 116 22 140 115 24 141 114 26 142 113 28 143 112 30 144 111 32 145 110 34 146 109 36 147 108 38 148 107 40 149 106 42 150 105 44 151 104 46 152 103 48 153 102 50 154 101 52 155 100 54 156 99 56 157 98 58 158 97 60 159 96 62 160 95 64 161 94 66 162 93 68 163 92 70 164 91 72 165 90 74 166 89 76 167 88 78 168 87 80 169 86 82 170 85 84 171 84 86 172 83 88 173 82 90 174 81 92 175 80 94 176 79 96 177 78 98 178 77 100 179 76 102 180 75 104 181 74 106 182 73 108 183 72 110 184 71 112 185 70 114 186 69 116 187 68 118 188 67 120 189 66 122 190 65 124 191 64 126 192 63 128 193 62 130 194 61 132 195 60 134 196 59 136 197 58 138 198 57 140 199 56 142 200 55 144 201 54 146 202 53 148 203 52 150 204 51 152 205 50 154 206 49 156 207 48 158 208 47 160 209 46 162 210 45 164 211 44 166 212 43 168 213 42 170 214 41 172 215 40 174 216 39 176
58 197 116 59 196 118 60 195 120 61 194 122 62 193 124 63 192 126 64 191 128 65 190 130 66 189 132 67 188 134 68 187 136 69 186 138 70 185 140 71 184 142 72 183 144 73 182 146 74 181 148 75 180 150 76 179 152 77 178 154 78 177 156 79 176 158 80 175 160 81 174 162 82 173 164 83 172 166 84 171 168 85 170 170 86 169 172 87 168 174 88 167 176 89 166 178 90 165 180 91 164 182 92 163 184 93 162 186 94 161 188 95 160 190 96 159 192 97 158 194 98 157 196 99 156 198 100 155 200 101 154 202 102 153 204 103 152 206 104 151 208 105 150 210 106 149 212 107 148 214 108 147 216 109 146 218 110 145 220 111 144 222 112 143 224 113 142 226 114 141 228 115 140 230 116 139 232 117 138 234 118 137 236 119 136 238 120 135 240 121 134 242 122 133 244 123 132 246 124 131 248 125 130 250 126 129 252 127 128 254 128 127 0 129 126 2 130 125 4 131 124 6 132 123 8 133 122 10 134 121 12 135 120 14 136 119 16 137 118 18 138 117 20 139 116 22 140 115 24 141 114 26 142 113 28 143 112 30 144 111 32 145 110 34 146 109 36 147 108 38 148 107 40 149 106 42 150 105 44 151 104 46 152 103 48 153 102 50 154 101 52 155 100 54 156 99 56 157 98 58 158 97 60 159 96 62 160 95 64 161 94 66 162 93 68 163 92 70 164 91 72 165 90 74 166 89 76 167 88 78 168 87 80 169 86 82 170 85 84 171 84 86 172 83 88 173 82 90 174 81 92 175 80 94 176 79 96 177 78 98 178 77 100 179 76 102 180 75 104 181 74 106 182 73 108 183 72 110 184 71 112 185 70 114 186 69 116 187 68 118 188 67 120 189 66 122 190 65 124 191 64 126 192 63 128 193 62 130 194 61 132 195 60 134 196 59 136 197 58 138 198 57 140 199 56 142 200 55 144 201 54 146 202 53 148 203 52 150 204 51 152 205 50 154 206 49 156 207 48 158 208 47 160 209 46 162 210 45 164 211 44 166 212 43 168 213 42 170 214 41 172 215 40 174 216 39 176 217 38 178
59 196 118 60 195 120 61 194 122 62 193 124 63 192 126 64 191 128 65 190 130 66 189 132 67 188 134 68 187 136 69 186 138 70 185 140 71 184 142 72 183 144 73 182 146 74 181 148 75 180 150 76 179 152 77 178 154 78 177 156 79 176 158 80 175 160 81 174 162 82 173 164 83 172 166 84 171 168 85 170 170 86 169 172 87 168 174 88 167 176 89 166 178 90 165 180 91 164 182 92 163 184 93 162 186 94 161 188 95 160 190 96 159 192 97 158 194 98 157 196 99 156 198 100 155 200 101 154 202 102 153 204 103 152 206 104 151 208 105 150 210 106 149 212 107 148 214 108 147 216 109 146 218 110 145 220 111 144 222 112 143 224 113 142 226 114 141 228 115 140 230 116 139 232 117 138 234 118 137 236 119 136 238 120 135 240 121 134 242 122 133 244 123 132 246 124 131 248 125 130 250 126 129 252 127 128 254 128 127 0 129 126 2 130 125 4 131 124 6 132 123 8 133 122 10 134 121 12 135 120 14 136 119 16 137 118 18 138 117 20 139 116 22 140 115 24 141 114 26 142 113 28 143 112 30 144 111 32 145 110 34 146 109 36 147 108 38 148 107 40 149 106 42 150 105 44 151 104 46 152 103 48 153 102 50 154 101 52 155 100 54 156 99 56 157 98 58 158 97 60 159 96 62 160 95 64 161 94 66 162 93 68 163 92 70 164 91 72 165 90 74 166 89 76 167 88 78 168 87 80 169 86 82 170 85 84 171 84 86 172 83 88 173 82 90 174 81 92 175 80 94 176 79 96 177 78 98 178 77 100 179 76 102 180 75 104 181 74 106 182 73 108 183 72 110 184 71 112 185 70 114 186 69 116 187 68 118 188 67 120 189 66 122 190 65 124 191 64 126 192 63 128 193 62 130 194 61 132 195 60 134 196 59 136 197 58 138 198 57 140 199 56 142 200 55 144 201 54 146 202 53 148 203 52 150 204 51 152 205 50 154 206 49 156 207 48 158 208 47 160 209 46 162 210 45 164 211 44 166 212 43 168 213 42 170 214 41 172 215 40 174 216 39 176 217 38 178 218 37 180
60 195 120 61 194 122 62 193 124 63 192 126 64 191 128 65 190 130 66 189 132 67 188 134 68 187 136 69 186 138 70 185 140 71 184 142 72 183 144 73 182 146 74 181 148 75 180 150 76 179 152 77 178 154 78 177 156 79 176 158 80 175 160 81 174 162 82 173 164 83 172 166 84 171 168 85 170 170 86 169 172 87 168 174 88 167 176 89 166 178 90 165 180 91 164 182 92 163 184 93 162 186 94 161 188 95 160 190 96 159 192 97 158 194 98 157 196 99 156 198 100 155 200 101 154 202 102 153 204 103 152 206 104 151 208 105 150 210 106 149 212 107 148 214 108 147 216 109 146 218 110 145 220 111 144 222 112 143 224 113 142 226 114 141 228 115 140 230 116 139 232 117 138 234 118 137 236 119 136 238 120 135 240 121 134 242 122 133 244 123 132 246 124 131 248 125 130 250 126 129 252 127 128 254 128 127 0 129 126 2 130 125 4 131 124 6 132 123 8 133 122 10 134 121 12 135 120 14 136 119 16 137 118 18 138 117 20 139 116 22 140 115 24 141 114 26 142 113 28 143 112 30 144 111 32 145 110 34 146 109 36 147 108 38 148 107 40 149 106 42 150 105 44 151 104 46 152 103 48 153 102 50 154 101 52 155 100 54 156 99 56 157 98 58 158 97 60 159 96 62 160 95 64 161 94 66 162 93 68 163 92 70 164 91 72 165 90 74 166 89 76 167 88 78 168 87 80 169 86 82 170 85 84 171 84 86 172 83 88 173 82 90 174 81 92 175 80 94 176 79 96 177 78 98 178 77 100 179 76 102 180 75 104 181 74 106 182 73 108 183 72 110 184 71 112 185 70 114 186 69 116 187 68 118 188 67 120 189 66 122 190 65 124 191 64 126 192 63 128 193 62 130 194 61 132 195 60 134 196 59 136 197 58 138 198 57 140 199 56 142 200 55 144 201 54 146 202 53 148 203 52 150 204 51 152 205 50 154 206 49 156 207 48 158 208 47 160 209 46 162 210 45 164 211 44 166 212 43 168 213 42 170 214 41 172 215 40 174 216 39 176 217 38 178 218 37 180 219 36 182
61 194 122 62 193 124 63 192 126 64 191 128 65 190 130 66 189 132 67 188 134 68 187 136 69 186 138 70 185 140 71 184 142 72 183 144 73 182 146 74 181 148 75 180 150 76 179 152 77 178 154 78 177 156 79 176 158 80 175 160 81 174 162 82 173 164 83 172 166 84 171 168 85 170 170 86 169 172 87 168 174 88 167 176 89 166 178 90 165 180 91 164 182 92 163 184 93 162 186 94 161 188 95 160 190 96 159 192 97 158 194 98 157 196 99 156 198 100 155 200 101 154 202 102 153 204 103 152 206 104 151 208 105 150 210 106 149 212 107 148 214 108 147 216 109 146 218 110 145 220 111 144 222 112 143 224 113 142 226 114 141 228 115 140 230 116 139 232 117 138 234 118 137 236 119 136 238 120 135 240 121 134 242 122 133 244 123 132 246 124 131 248 125 130 250 126 129 252 127 128 254 128 127 0 129 126 2 130 125 4 131 124 6 132 123 8 133 122 10 134 121 12 135 120 14 136 119 16 137 118 18 138 117 20 139 116 22 140 115 24 141 114 26 142 113 28 143 112 30 144 111 32 145 110 34 146 109 36 147 108 38 148 107 40 149 106 42 150 105 44 151 104 46 152 103 48 153 102 50 154 101 52 155 100 54 156 99 56 157 98 58 158 97 60 159 96 62 160 95 64 161 94 66 162 93 68 163 92 70 164 91 72 165 90 74 166 89 76 167 88 78 168 87 80 169 86 82 170 85 84 171 84 86 172 83 88 173 82 90 174 81 92 175 80 94 176 79 96 177 78 98 178 77 100 179 76 102 180 75 104 181 74 106 182 73 108 183 72 110 184 71 112 185 70 114 186 69 116 187 68 118 188 67 120 189 66 122 190 65 124 191 64 126 192 63 128 193 62 130 194 61 132 195 60 134 196 59 136 197 58 138 198 57 140 199 56 142 200 55 144 201 54 146 202 53 148 203 52 150 204 51 152 205 50 154 206 49 156 207 48 158 208 47 160 209 46 162 210 45 164 211 44 166 212 43 168 213 42 170 214 41 172 215 40 174 216 39 176 217 38 178 218 37 180 219 36 182 220 35 184
62 193 124 63 192 126 64 191 128 65 190 130 66 189 132 67 188 134 68 187 136 69 186 138 70 185 140 71 184 142 72 183 144 73 182 146 74 181 148 75 180 150 76 179 152 77 178 154 78 177 156 79 176 158 80 175 160 81 174 162 82 173 164 83 172 166 84 171 168 85 170 170 86 169 172 87 168 174 88 167 176 89 166 178 90 165 180 91 164 182 92 163 184 93 162 186 94 161 188 95 160 190 96 159 192 97 158 194 98 157 196 99 156 198 100 155 200 101 154 202 102 153 204 103 152 206 104 151 208 105 150 210 106 149 212 107 148 214 108 147 216 109 146 218 110 145 220 111 144 222 112 143 224 113 142 226 114 141 228 115 140 230 116 139 232 117 138 234 118 137 236 119 136 238 120 135 240 121 134 242 122 133 244 123 132 246 124 131 248 125 130 250 126 129 252 127 128 254 128 127 0 129 126 2 130 125 4 131 124 6 132 123 8 133 122 10 134 121 12 135 120 14 136 119 16 137 118 18 138 117 20 139 116 22 140 115 24 141 114 26 142 113 28 143 112 30 144 111 32 145 110 34 146 109 36 147 108 38 148 107 40 149 106 42 150 105 44 151 104 46 152 103 48 153 102 50 154 101 52 155 100 54 156 99 56 157 98 58 158 97 60 159 96 62 160 95 64 161 94 66 162 93 68 163 92 70 164 91 72 165 90 74 166 89 76 167 88 78 168 87 80 169 86 82 170 85 84 171 84 86 172 83 88 173 82 90 174 81 92 175 80 94 176 79 96 177 78 98 178 77 100 179 76 102 180 75 104 181 74 106 182 73 108 183 72 110 184 71 112 185 70 114 186 69 116 187 68 118 188 67 120 189 66 122 190 65 124 191 64 126 192 63 128 193 62 130 194 61 132 195 60 134 196 59 136 197 58 138 198 57 140 199 56 142 200 55 144 201 54 146 202 53 148 203 52 150 204 51 152 205 50 154 206 49 156 207 48 158 208 47 160 209 46 162 210 45 164 211 44 166 212 43 168 213 42 170 214 41 172 215 40 174 216 39 176 217 38 178 218 37 180 219 36 182 220 35 184 221 34 186
63 192 126 64 191 128 65 190 130 66 189 132 67 188 134 68 187 136 69 186 138 70 185 140 71 184 142 72 183 144 73 182 146 74 181 148 75 180 150 76 179 152 77 178 154 78 177 156 79 176 158 80 175 160 81 174 162 82 173 164 83 172 166 84 171 168 85 170 170 86 169 172 87 168 174 88 167 176 89 166 178 90 165 180 91 164 182 92 163 184 93 162 186 94 161 188 95 160 190 96 159 192 97 158 194 98 157 196 99 156 198 100 155 200 101 154 202 102 153 204 103 152 206 104 151 208 105 150 210 106 149 212 107 148 214 108 147 216 109 146 218 110 145 220 111 144 222 112 143 224 113 142 226 114 141 228 115 140 230 116 139 232 117 138 234 118 137 236 119 136 238 120 135 240 121 134 242 122 133 244 123 132 246 124 131 248 125 130 250 126 129 252 127 128 254 128 127 0 129 126 2 130 125 4 131 124 6 132 123 8 133 122 10 134 121 12 135 120 14 136 119 16 137 118 18 138 117 20 139 116 22 140 115 24 141 114 26 142 113 28 143 112 30 144 111 32 145 110 34 146 109 36 147 108 38 148 107 40 149 106 42 150 105 44 151 104 46 152 103 48 153 102 50 154 101 52 155 100 54 156 99 56 157 98 58 158 97 60 159 96 62 160 95 64 161 94 66 162 93 68 163 92 70 164 91 72 165 90 74 166 89 76 167 88 78 168 87 80 169 86 82 170 85 84 171 84 86 172 83 88 173 82 90 174 81 92 175 80 94 176 79 96 177 78 98 178 77 100 179 76 102 180 75 104 181 74 106 182 73 108 183 72 110 184 71 112 185 70 114 186 69 116 187 68 118 188 67 120 189 66 122 190 65 124 191 64 126 192 63 128 193 62 130 194 61 132 195 60 134 196 59 136 197 58 138 198 57 140 199 56 142 200 55 144 201 54 146 202 53 148 203 52 150 204 51 152 205 50 154 206 49 156 207 48 158 208 47 160 209 46 162 210 45 164 211 44 166 212 43 168 213 42 170 214 41 172 215 40 174 216 39 176 217 38 178 218 37 180 219 36 182 220 35 184 221 34 186 222 33 188
64 191 128 65 190 130 66 189 132 67 188 134 68 187 136 69 186 138 70 185 140 71 184 142 72 183 144 73 182 146 74 181 148 75 180 150 76 179 152 77 178 154 78 177 156 79 176 158 80 175 160 81 174 162 82 173 164 83 172 166 84 171 168 85 170 170 86 169 172 87 168 174 88 167 176 89 166 178 90 165 180 91 164 182 92 163 184 93 162 186 94 161 188 95 160 190 96 159 192 97 158 194 98 157 196 99 156 198 100 155 200 101 154 202 102 153 204 103 152 206 104 151 208 105 150 210 106 149 212 107 148 214 108 147 216 109 146 218 110 145 220 111 144 222 112 143 224 113 142 226 114 141 228 115 140 230 116 139 232 117 138 234 118 137 236 119 136 238 120 135 240 121 134 242 122 133 244 123 132 246 124 131 248 125 130 250 126 129 252 127 128 254 128 127 0 129 126 2 130 125 4 131 124 6 132 123 8 133 122 10 134 121 12 135 120 14 136 119 16 137 118 18 138 117 20 139 116 22 140 115 24 141 114 26 142 113 28 143 112 30 144 111 32 145 110 34 146 109 36 147 108 38 148 107 40 149 106 42 150 105 44 151 104 46 152 103 48 153 102 50 154 101 52 155 100 54 156 99 56 157 98 58 158 97 60 159 96 62 160 95 64 161 94 66 162 93 68 163 92 70 164 91 72 165 90 74 166 89 76 167 88 78 168 87 80 169 86 82 170 85 84 171 84 86 172 83 88 173 82 90 174 81 92 175 80 94 176 79 96 177 78 98 178 77 100 179 76 102 180 75 104 181 74 106 182 73 108 183 72 110 184 71 112 185 70 114 186 69 116 187 68 118 188 67 120 189 66 122 190 65 124 191 64 126 192 63 128 193 62 130 194 61 132 195 60 134 196 59 136 197 58 138 198 57 140 199 56 142 200 55 144 201 54 146 202 53 148 203 52 150 204 51 152 205 50 154 206 49 156 207 48 158 208 47 160 209 46 162 210 45 164 211 44 166 212 43 168 213 42 170 214 41 172 215 40 174 216 39 176 217 38 178 218 37 180 219 36 182 220 35 184 221 34 186 222 33 188 223 32 190
65 190 130 66 189 132 67 188 134 68 187 136 69 186 138 70 185 140 71 184 142 72 183 144 73 182 146 74 181 148 75 180 150 76 179 152 77 178 154 78 177 156 79 176 158 80 175 160 81 174 162 82 173 164 83 172 166 84 171 168 85 170 170 86 169 172 87 168 174 88 167 176 89 166 178 90 165 180 91 164 182 92 163 184 93 162 186 94 161 188 95 160 190 96 159 192 97 158 194 98 157 196 99 156 198 100 155 200 101 154 202 102 153 204 103 152 206 104 151 208 105 150 210 106 149 212 107 148 214 108 147 216 109 146 218 110 145 220 111 144 222 112 143 224 113 142 226 114 141 228 115 140 230 116 139 232 117 138 234 118 137 236 119 136 238 120 135 240 121 134 242 122 133 244 123 132 246 124 131 248 125 130 250 126 129 252 127 128 254 128 127 0 129 126 2 130 125 4 131 124 6 132 123 8 133 122 10 134 121 12 135 120 14 136 119 16 137 118 18 138 117 20 139 116 22 140 115 24 141 114 26 142 113 28 143 112 30 144 111 32 145 110 34 146 109 36 147 108 38 148 107 40 149 106 42 150 105 44 151 104 46 152 103 48 153 102 50 154 101 52 155 100 54 156 99 56 157 98 58 158 97 60 159 96 62 160 95 64 161 94 66 162 93 68 163 92 70 164 91 72 165 90 74 166 89 76 167 88 78 168 87 80 169 86 82 170 85 84 171 84 86 172 83 88 173 82 90 174 81 92 175 80 94 176 79 96 177 78 98 178 77 100 179 76 102 180 75 104 181 74 106 182 73 108 183 72 110 184 71 112 185 70 114 186 69 116 187 68 118 188 67 120 189 66 122 190 65 124 191 64 126 192 63 128 193 62 130 194 61 132 195 60 134 196 59 136 197 58 138 198 57 140 199 56 142 200 55 144 201 54 146 202 53 148 203 52 150 204 51 152 205 50 154 206 49 156 207 48 158 208 47 160 209 46 162 210 45 164 211 44 166 212 43 168 213 42 170 214 41 172 215 40 174 216 39 176 217 38 178 218 37 180 219 36 182 220 35 184 221 34 186 222 33 188 223 32 190 224 31 192
66 189 132 67 188 134 68 187 136 69 186 138 70 185 140 71 184 142 72 183 144 73 182 146 74 181 148 75 180 150 76 179 152 77 178 154 78 177 156 79 176 158 80 175 160 81 174 162 82 173 164 83 172 166 84 171 168 85 170 170 86 169 172 87 168 174 88 167 176 89 166 178 90 165 180 91 164 182 92 163 184 93 162 186 94 161 188 95 160 190 96 159 192 97 158 194 98 157 196 99 156 198 100 155 200 101 154 202 102 153 204 103 152 206 104 151 208 105 150 210 106 149 212 107 148 214 108 147 216 109 146 218 110 145 220 111 144 222 112 143 224 113 142 226 114 141 228 115 140 230 116 139 232 117 138 234 118 137 236 119 136 238 120 135 240 121 134 242 122 133 244 123 132 246 124 131 248 125 130 250 126 129 252 127 128 254 128 127 0 129 126 2 130 125 4 131 124 6 132 123 8 133 122 10 134 121 12 135 120 14 136 119 16 137 118 18 138 117 20 139 116 22 140 115 24 141 114 26 142 113 28 143 112 30 144 111 32 145 110 34 146 109 36 147 108 38 148 107 40 149 106 42 150 105 44 151 104 46 152 103 48 153 102 50 154 101 52 155 100 54 156 99 56 157 98 58 158 97 60 159 96 62 160 95 64 161 94 66 162 93 68 163 92 70 164 91 72 165 90 74 166 89 76 167 88 78 168 87 80 169 86 82 170 85 84 171 84 86 172 83 88 173 82 90 174 81 92 175 80 94 176 79 96 177 78 98 178 77 100 179 76 102 180 75 104 181 74 106 182 73 108 183 72 110 184 71 112 185 70 114 186 69 116 187 68 118 188 67 120 189 66 122 190 65 124 191 64 126 192 63 128 193 62 130 194 61 132 195 60 134 196 59 136 197 58 138 198 57 140 199 56 142 200 55 144 201 54 146 202 53 148 203 52 150 204 51 152 205 50 154 206 49 156 207 48 158 208 47 160 209 46 162 210 45 164 211 44 166 212 43 168 213 42 170 214 41 172 215 40 174 216 39 176 217 38 178 218 37 180 219 36 182 220 35 184 221 34 186 222 33 188 223 32 190 224 31 192 225 30 194
67 188 134 68 187 136 69 186 138 70 185 140 71 184 142 72 183 144 73 182 146 74 181 148 75 180 150 76 179 152 77 178 154 78 177 156 79 176 158 80 175 160 81 174 162 82 173 164 83 172 166 84 171 168 85 170 170 86 169 172 87 168 174 88 167 176 89 166 178 90 165 180 91 164 182 92 163 184 93 162 186 94 161 188 95 160 190 96 159 192 97 158 194 98 157 196 99 156 198 100 155 200 101 154 202 102 153 204 103 152 206 104 151 208 105 150 210 106 149 212 107 148 214 108 147 216 109 146 218 110 145 220 111 144 222 112 143 224 113 142 226 114 141 228 115 140 230 116 139 232 117 138 234 118 137 236 119 136 238 120 135 240 121 134 242 122 133 244 123 132 246 124 131 248 125 130 250 126 129 252 127 128 254 128 127 0 129 126 2 130 125 4 131 124 6 132 123 8 133 122 10 134 121 12 135 120 14 136 119 16 137 118 18 138 117 20 139 116 22 140 115 24 141 114 26 142 113 28 143 112 30 144 111 32 145 110 34 146 109 36 147 108 38 148 107 40 149 106 42 150 105 44 151 104 46 152 103 48 153 102 50 154 101 52 155 100 54 156 99 56 157 98 58 158 97 60 159 96 62 160 95 64 161 94 66 162 93 68 163 92 70 164 91 72 165 90 74 166 89 76 167 88 78 168 87 80 169 86 82 170 85 84 171 84 86 172 83 88 173 82 90 174 81 92 175 80 94 176 79 96 177 78 98 178 77 100 179 76 102 180 75 104 181 74 106 182 73 108 183 72 110 184 71 112 185 70 114 186 69 116 187 68 118 188 67 120 189 66 122 190 65 124 191 64 126 192 63 128 193 62 130 194 61 132 195 60 134 196 59 136 197 58 138 198 57 140 199 56 142 200 55 144 201 54 146 202 53 148 203 52 150 204 51 152 205 50 154 206 49 156 207 48 158 208 47 160 209 46 162 210 45 164 211 44 166 212 43 168 213 42 170 214 41 172 215 40 174 216 39 176 217 38 178 218 37 180 219 36 182 220 35 184 221 34 186 222 33 188 223 32 190 224 31 192 225 30 194 226 29 196
68 187 136 69 186 138 70 185 140 71 184 142 72 183 144 73 182 146 74 181 148 75 180 150 76 179 152 77 178 154 78 177 156 79 176 158 80 175 160 81 174 162 82 173 164 83 172 166 84 171 168 85 170 170 86 169 172 87 168 174 88 167 176 89 166 178 90 165 180 91 164 182 92 163 184 93 162 186 94 161 188 95 160 190 96 159 192 97 158 194 98 157 196 99 156 198 100 155 200 101 154 202 102 153 204 103 152 206 104 151 208 105 150 210 106 149 212 107 148 214 108 147 216 109 146 218 110 145 220 111 144 222 112 143 224 113 142 226 114 141 228 115 140 230 116 139 232 117 138 234 118 137 236 119 136 238 120 135 240 121 134 242 122 133 244 123 132 246 124 131 248 125 130 250 126 129 252 127 128 254 128 127 0 129 126 2 130 125 4 131 124 6 132 123 8 133 122 10 134 121 12 135 120 14 136 119 16 137 118 18 138 117 20 139 116 22 140 115 24 141 114 26 142 113 28 143 112 30 144 111 32 145 110 34 146 109 36 147 108 38 148 107 40 149 106 42 150 105 44 151 104 46 152 103 48 153 102 50 154 101 52 155 100 54 156 99 56 157 98 58 158 97 60 159 96 62 160 95 64 161 94 66 162 93 68 163 92 70 164 91 72 165 90 74 166 89 76 167 88 78 168 87 80 169 86 82 170 85 84 171 84 86 172 83 88 173 82 90 174 81 92 175 80 94 176 79 96 177 78 98 178 77 100 179 76 102 180 75 104 181 74 106 182 73 108 183 72 110 184 71 112 185 70 114 186 69 116 187 68 118 188 67 120 189 66 122 190 65 124 191 64 126 192 63 128 193 62 130 194 61 132 195 60 134 196 59 136 197 58 138 198 57 140 199 56 142 200 55 144 201 54 146 202 53 148 203 52 150 204 51 152 205 50 154 206 49 156 207 48 158 208 47 160 209 46 162 210 45 164 211 44 166 212 43 168 213 42 170 214 41 172 215 40 174 216 39 176 217 38 178 218 37 180 219 36 182 220 35 184 221 34 186 222 33 188 223 32 190 224 31 192 225 30 194 226 29 196 227 28 198
69 186 138 70 185 140 71 184 142 72 183 144 73 182 146 74 181 148 75 180 150 76 179 152 77 178 154 78 177 156 79 176 158 80 175 160 81 174 162 82 173 164 83 172 166 84 171 168 85 170 170 86 169 172 87 168 174 88 167 176 89 166 178 90 165 180 91 164 182 92 163 184 93 162 186 94 161 188 95 160 190 96 159 192 97 158 194 98 157 196 99 156 198 100 155 200 101 154 202 102 153 204 103 152 206 104 151 208 105 150 210 106 149 212 107 148 214 108 147 216 109 146 218 110 145 220 111 144 222 112 143 224 113 142 226 114 141 228 115 140 230 116 139 232 117 138 234 118 137 236 119 136 238 120 135 240 121 134 242 122 133 244 123 132 246 124 131 248 125 130 250 126 129 252 127 128 254 128 127 0 129 126 2 130 125 4 131 124 6 132 123 8 133 122 10 134 121 12 135 120 14 136 119 16 137 118 18 138 117 20 139 116 22 140 115 24 141 114 26 142 113 28 143 112 30 144 111 32 145 110 34 146 109 36 147 108 38 148 107 40 149 106 42 150 105 44 151 104 46 152 103 48 153 102 50 154 101 52 155 100 54 156 99 56 157 98 58 158 97 60 159 96 62 160 95 64 161 94 66 162 93 68 163 92 70 164 91 72 165 90 74 166 89 76 167 88 78 168 87 80 169 86 82 170 85 84 171 84 86 172 83 88 173 82 90 174 81 92 175 80 94 176 79 96 177 78 98 178 77 100 179 76 102 180 75 104 181 74 106 182 73 108 183 72 110 184 71 112 185 70 114 186 69 116 187 68 118 188 67 120 189 66 122 190 65 124 191 64 126 192 63 128 193 62 130 194 61 132 195 60 134 196 59 136 197 58 138 198 57 140 199 56 142 200 55 144 201 54 146 202 53 148 203 52 150 204 51 152 205 50 154 206 49 156 207 48 158 208 47 160 209 46 162 210 45 164 211 44 166 212 43 168 213 42 170 214 41 172 215 40 174 216 39 176 217 38 178 218 37 180 219 36 182 220 35 184 221 34 186 222 33 188 223 32 190 224 31 192 225 30 194 226 29 196 227 28 198 228 27 200
70 185 140 71 184 142 72 183 144 73 182 146 74 181 148 75 180 150 76 179 152 77 178 154 78 177 156 79 176 158 80 175 160 81 174 162 82 173 164 83 172 166 84 171 168 85 170 170 86 169 172 87 168 174 88 167 176 89 166 178 90 165 180 91 164 182 92 163 184 93 162 186 94 161 188 95 160 190 96 159 192 97 158 194 98 157 196 99 156 198 100 155 200 101 154 202 102 153 204 103 152 206 104 151 208 105 150 210 106 149 212 107 148 214 108 147 216 109 146 218 110 145 220 111 144 222 112 143 224 113 142 226 114 141 228 115 140 230 116 139 232 117 138 234 118 137 236 119 136 238 120 135 240 121 134 242 122 133 244 123 132 246 124 131 248 125 130 250 126 129 252 127 128 254 128 127 0 129 126 2 130 125 4 131 124 6 132 123 8 133 122 10 134 121 12 135 120 14 136 119 16 137 118 18 138 117 20 139 116 22 140 115 24 141 114 26 142 113 28 143 112 30 144 111 32 145 110 34 146 109 36 147 108 38 148 107 40 149 106 42 150 105 44 151 104 46 152 103 48 153 102 50 154 101 52 155 100 54 156 99 56 157 98 58 158 97 60 159 96 62 160 95 64 161 94 66 162 93 68 163 92 70 164 91 72 165 90 74 166 89 76 167 88 78 168 87 80 169 86 82 170 85 84 171 84 86 172 83 88 173 82 90 174 81 92 175 80 94 176 79 96 177 78 98 178 77 100 179 76 102 180 75 104 181 74 106 182 73 108 183 72 110 184 71 112 185 70 114 186 69 116 187 68 118 188 67 120 189 66 122 190 65 124 191 64 126 192 63 128 193 62 130 194 61 132 195 60 134 196 59 136 197 58 138 198 57 140 199 56 142 200 55 144 201 54 146 202 53 148 203 52 150 204 51 152 205 50 154 206 49 156 207 48 158 208 47 160 209 46 162 210 45 164 211 44 166 212 43 168 213 42 170 214 41 172 215 40 174 216 39 176 217 38 178 218 37 180 219 36 182 220 35 184 221 34 186 222 33 188 223 32 190 224 31 192 225 30 194 226 29 196 227 28 198 228 27 200 229 26 202
71 184 142 72 183 144 73 182 146 74 181 148 75 180 150 76 179 152 77 178 154 78 177 156 79 176 158 80 175 160 81 174 162 82 173 164 83 172 166 84 171 168 85 170 170 86 169 172 87 168 174 88 167 176 89 166 178 90 165 180 91 164 182 92 163 184 93 162 186 94 161 188 95 160 190 96 159 192 97 158 194 98 157 196 99 156 198 100 155 200 101 154 202 102 153 204 103 152 206 104 151 208 105 150 210 106 149 212 107 148 214 108 147 216 109 146 218 110 145 220 111 144 222 112 143 224 113 142 226 114 141 228 115 140 230 116 139 232 117 138 234 118 137 236 119 136 238 120 135 240 121 134 242 122 133 244 123 132 246 124 131 248 125 130 250 126 129 252 127 128 254 128 127 0 129 126 2 130 125 4 131 124 6 132 123 8 133 122 10 134 121 12 135 120 14 136 119 16 137 118 18 138 117 20 139 116 22 140 115 24 141 114 26 142 113 28 143 112 30 144 111 32 145 110 34 146 109 36 147 108 38 148 107 40 149 106 42 150 105 44 151 104 46 152 103 48 153 102 50 154 101 52 155 100 54 156 99 56 157 98 58 158 97 60 159 96 62 160 95 64 161 94 66 162 93 68 163 92 70 164 91 72 165 90 74 166 89 76 167 88 78 168 87 80 169 86 82 170 85 84 171 84 86 172 83 88 173 82 90 174 81 92 175 80 94 176 79 96 177 78 98 178 77 100 179 76 102 180 75 104 181 74 106 182 73 108 183 72 110 184 71 112 185 70 114 186 69 116 187 68 118 188 67 120 189 66 122 190 65 124 191 64 126 192 63 128 193 62 130 194 61 132 195 60 134 196 59 136 197 58 138 198 57 140 199 56 142 200 55 144 201 54 146 202 53 148 203 52 150 204 51 152 205 50 154 206 49 156 207 48 158 208 47 160 209 46 162 210 45 164 211 44 166 212 43 168 213 42 170 214 41 172 215 40 174 216 39 176 217 38 178 218 37 180 219 36 182 220 35 184 221 34 186 222 33 188 223 32 190 224 31 192 225 30 194 226 29 196 227 28 198 228 27 200 229 26 202 230 25 204
72 183 144 73 182 146 74 181 148 75 180 150 76 179 152 77 178 154 78 177 156 79 176 158 80 175 160 81 174 162 82 173 164 83 172 166 84 171 168 85 170 170 86 169 172 87 168 174 88 167 176 89 166 178 90 165 180 91 164 182 92 163 184 93 162 186 94 161 188 95 160 190 96 159 192 97 158 194 98 157 196 99 156 198 100 155 200 101 154 202 102 153 204 103 152 206 104 151 208 105 150 210 106 149 212 107 148 214 108 147 216 109 146 218 110 145 220 111 144 222 112 143 224 113 142 226 114 141 228 115 140 230 116 139 232 117 138 234 118 137 236 119 136 238 120 135 240 121 134 242 122 133 244 123 132 246 124 131 248 125 130 250 126 129 252 127 128 254 128 127 0 129 126 2 130 125 4 131 124 6 132 123 8 133 122 10 134 121 12 135 120 14 136 119 16 137 118 18 138 117 20 139 116 22 140 115 24 141 114 26 142 113 28 143 112 30 144 111 32 145 110 34 146 109 36 147 108 38 148 107 40 149 106 42 150 105 44 151 104 46 152 103 48 153 102 50 154 101 52 155 100 54 156 99 56 157 98 58 158 97 60 159 96 62 160 95 64 161 94 66 162 93 68 163 92 70 164 91 72 165 90 74 166 89 76 167 88 78 168 87 80 169 86 82 170 85 84 171 84 86 172 83 88 173 82 90 174 81 92 175 80 94 176 79 96 177 78 98 178 77 100 179 76 102 180 75 104 181 74 106 182 73 108 183 72 110 184 71 112 185 70 114 186 69 116 187 68 118 188 67 120 189 66 122 190 65 124 191 64 126 192 63 128 193 62 130 194 61 132 195 60 134 196 59 136 197 58 138 198 57 140 199 56 142 200 55 144 201 54 146 202 53 148 203 52 150 204 51 152 205 50 154 206 49 156 207 48 158 208 47 160 209 46 162 210 45 164 211 44 166 212 43 168 213 42 170 214 41 172 215 40 174 216 39 176 217 38 178 218 37 180 219 36 182 220 35 184 221 34 186 222 33 188 223 32 190 224 31 192 225 30 194 226 29 196 227 28 198 228 27 200 229 26 202 230 25 204 231 24 206
73 182 146 74 181 148 75 180 150 76 179 152 77 178 154 78 177 156 79 176 158 80 175 160 81 174 162 82 173 164 83 172 166 84 171 168 85 170 170 86 169 172 87 168 174 88 167 176 89 166 178 90 165 180 91 164 182 92 163 184 93 162 186 94 161 188 95 160 190 96 159 192 97 158 194 98 157 196 99 156 198 100 155 200 101 154 202 102 153 204 103 152 206 104 151 208 105 150 210 106 149 212 107 148 214 108 147 216 109 146 218 110 145 220 111 144 222 112 143 224 113 142 226 114 141 228 115 140 230 116 139 232 117 138 234 118 137 236 119 136 238 120 135 240 121 134 242 122 133 244 123 132 246 124 131 248 125 130 250 126 129 252 127 128 254 128 127 0 129 126 2 130 125 4 131 124 6 132 123 8 133 122 10 134 121 12 135 120 14 136 119 16 137 118 18 138 117 20 139 116 22 140 115 24 141 114 26 142 113 28 143 112 30 144 111 32 145 110 34 146 109 36 147 108 38 148 107 40 149 106 42 150 105 44 151 104 46 152 103 48 153 102 50 154 101 52 155 100 54 156 99 56 157 98 58 158 97 60 159 96 62 160 95 64 161 94 66 162 93 68 163 92 70 164 91 72 165 90 74 166 89 76 167 88 78 168 87 80 169 86 82 170 85 84 171 84 86 172 83 88 173 82 90 174 81 92 175 80 94 176 79 96 177 78 98 178 77 100 179 76 102 180 75 104 181 74 106 182 73 108 183 72 110 184 71 112 185 70 114 186 69 116 187 68 118 188 67 120 189 66 122 190 65 124 191 64 126 192 63 128 193 62 130 194 61 132 195 60 134 196 59 136 197 58 138 198 57 140 199 56 142 200 55 144 201 54 146 202 53 148 203 52 150 204 51 152 205 50 154 206 49 156 207 48 158 208 47 160 209 46 162 210 45 164 211 44 166 212 43 168 213 42 170 214 41 172 215 40 174 216 39 176 217 38 178 218 37 180 219 36 182 220 35 184 221 34 186 222 33 188 223 32 190 224 31 192 225 30 194 226 29 196 227 28 198 228 27 200 229 26 202 230 25 204 231 24 206 232 23 208
74 181 148 75 180 150 76 179 152 77 178 154 78 177 156 79 176 158 80 175 160 81 174 162 82 173 164 83 172 166 84 171 168 85 170 170 86 169 172 87 168 174 88 167 176 89 166 178 90 165 180 91 164 182 92 163 184 93 162 186 94 161 188 95 160 190 96 159 192 97 158 194 98 157 196 99 156 198 100 155 200 101 154 202 102 153 204 103 152 206 104 151 208 105 150 210 106 149 212 107 148 214 108 147 216 109 146 218 110 145 220 111 144 222 112 143 224 113 142 226 114 141 228 115 140 230 116 139 232 117 138 234 118 137 236 119 136 238 120 135 240 121 134 242 122 133 244 123 132 246 124 131 248 125 130 250 126 129 252 127 128 254 128 127 0 129 126 2 130 125 4 131 124 6 132 123 8 133 122 10 134 121 12 135 120 14 136 119 16 137 118 18 138 117 20 139 116 22 140 115 24 141 114 26 142 113 28 143 112 30 144 111 32 145 110 34 146 109 36 147 108 38 148 107 40 149 106 42 150 105 44 151 104 46 152 103 48 153 102 50 154 101 52 155 100 54 156 99 56 157 98 58 158 97 60 159 96 62 160 95 64 161 94 66 162 93 68 163 92 70 164 91 72 165 90 74 166 89 76 167 88 78 168 87 80 169 86 82 170 85 84 171 84 86 172 83 88 173 82 90 174 81 92 175 80 94 176 79 96 177 78 98 178 77 100 179 76 102 180 75 104 181 74 106 182 73 108 183 72 110 184 71 112 185 70 114 186 69 116 187 68 118 188 67 120 189 66 122 190 65 124 191 64 126 192 63 128 193 62 130 194 61 132 195 60 134 196 59 136 197 58 138 198 57 140 199 56 142 200 55 144 201 54 146 202 53 148 203 52 150 204 51 152 205 50 154 206 49 156 207 48 158 208 47 160 209 46 162 210 45 164 211 44 166 212 43 168 213 42 170 214 41 172 215 40 174 216 39 176 217 38 178 218 37 180 219 36 182 220 35 184 221 34 186 222 33 188 223 32 190 224 31 192 225 30 194 226 29 196 227 28 198 228 27 200 229 26 202 230 25 204 231 24 206 232 23 208 233 22 210
75 180 150 76 179 152 77 178 154 78 177 156 79 176 158 80 175 160 81 174 162 82 173 164 83 172 166 84 171 168 85 170 170 86 169 172 87 168 174 88 167 176 89 166 178 90 165 180 91 164 182 92 163 184 93 162 186 94 161 188 95 160 190 96 159 192 97 158 194 98 157 196 99 156 198 100 155 200 101 154 202 102 153 204 103 152 206 104 151 208 105 150 210 106 149 212 107 148 214 108 147 216 109 146 218 110 145 220 111 144 222 112 143 224 113 142 226 114 141 228 115 140 230 116 139 232 117 138 234 118 137 236 119 136 238 120 135 240 121 134 242 122 133 244 123 132 246 124 131 248 125 130 250 126 129 252 127 128 254 128 127 0 129 126 2 130 125 4 131 124 6 132 123 8 133 122 10 134 121 12 135 120 14 136 119 16 137 118 18 138 117 20 139 116 22 140 115 24 141 114 26 142 113 28 143 112 30 144 111 32 145 110 34 146 109 36 147 108 38 148 107 40 149 106 42 150 105 44 151 104 46 152 103 48 153 102 50 154 101 52 155 100 54 156 99 56 157 98 58 158 97 60 159 96 62 160 95 64 161 94 66 162 93 68 163 92 70 164 91 72 165 90 74 166 89 76 167 88 78 168 87 80 169 86 82 170 85 84 171 84 86 172 83 88 173 82 90 174 81 92 175 80 94 176 79 96 177 78 98 178 77 100 179 76 102 180 75 104 181 74 106 182 73 108 183 72 110 184 71 112 185 70 114 186 69 116 187 68 118 188 67 120 189 66 122 190 65 124 191 64 126 192 63 128 193 62 130 194 61 132 195 60 134 196 59 136 197 58 138 198 57 140 199 56 142 200 55 144 201 54 146 202 53 148 203 52 150 204 51 152 205 50 154 206 49 156 207 48 158 208 47 160 209 46 162 210 45 164 211 44 166 212 43 168 213 42 170 214 41 172 215 40 174 216 39 176 217 38 178 218 37 180 219 36 182 220 35 184 221 34 186 222 33 188 223 32 190 224 31 192 225 30 194 226 29 196 227 28 198 228 27 200 229 26 202 230 25 204 231 24 206 232 23 208 233 22 210 234 21 212
76 179 152 77 178 154 78 177 156 79 176 158 80 175 160 81 174 162 82 173 164 83 172 166 84 171 168 85 170 170 86 169 172 87 168 174 88 167 176 89 166 178 90 165 180 91 164 182 92 163 184 93 162 186 94 161 188 95 160 190 96 159 192 97 158 194 98 157 196 99 156 198 100 155 200 101 154 202 102 153 204 103 152 206 104 151 208 105 150 210 106 149 212 107 148 214 108 147 216 109 146 218 110 145 220 111 144 222 112 143 224 113 142 226 114 141 228 115 140 230 116 139 232 117 138 234 118 137 236 119 136 238 120 135 240 121 134 242 122 133 244 123 132 246 124 131 248 125 130 250 126 129 252 127 128 254 128 127 0 129 126 2 130 125 4 131 124 6 132 123 8 133 122 10 134 121 12 135 120 14 136 119 16 137 118 18 138 117 20 139 116 22 140 115 24 141 114 26 142 113 28 143 112 30 144 111 32 145 110 34 146 109 36 147 108 38 148 107 40 149 106 42 150 105 44 151 104 46 152 103 48 153 102 50 154 101 52 155 100 54 156 99 56 157 98 58 158 97 60 159 96 62 160 95 64 161 94 66 162 93 68 163 92 70 164 91 72 165 90 74 166 89 76 167 88 78 168 87 80 169 86 82 170 85 84 171 84 86 172 83 88 173 82 90 174 81 92 175 80 94 176 79 96 177 78 98 178 77 100 179 76 102 180 75 104 181 74 106 182 73 108 183 72 110 184 71 112 185 70 114 186 69 116 187 68 118 188 67 120 189 66 122 190 65 124 191 64 126 192 63 128 193 62 130 194 61 132 195 60 134 196 59 136 197 58 138 198 57 140 199 56 142 200 55 144 201 54 146 202 53 148 203 52 150 204 51 152 205 50 154 206 49 156 207 48 158 208 47 160 209 46 162 210 45 164 211 44 166 212 43 168 213 42 170 214 41 172 215 40 174 216 39 176 217 38 178 218 37 180 219 36 182 220 35 184 221 34 186 222 33 188 223 32 190 224 31 192 225 30 194 226 29 196 227 28 198 228 27 200 229 26 202 230 25 204 231 24 206 232 23 208 233 22 210 234 21 212 235 20 214
77 178 154 78 177 156 79 176 158 80 175 160 81 174 162 82 173 164 83 172 166 84 171 168 85 170 170 86 169 172 87 168 174 88 167 176 89 166 178 90 165 180 91 164 182 92 163 184 93 162 186 94 161 188 95 160 190 96 159 192 97 158 194 98 157 196 99 156 198 100 155 200 101 154 202 102 153 204 103 152 206 104 151 208 105 150 210 106 149 212 107 148 214 108 147 216 109 146 218 110 145 220 111 144 222 112 143 224 113 142 226 114 141 228 115 140 230 116 139 232 117 138 234 118 137 236 119 136 238 120 135 240 121 134 242 122 133 244 123 132 246 124 131 248 125 130 250 126 129 252 127 128 254 128 127 0 129 126 2 130 125 4 131 124 6 132 123 8 133 122 10 134 121 12 135 120 14 136 119 16 137 118 18 138 117 20 139 116 22 140 115 24 141 114 26 142 113 28 143 112 30 144 111 32 145 110 34 146 109 36 147 108 38 148 107 40 149 106 42 150 105 44 151 104 46 152 103 48 153 102 50 154 101 52 155 100 54 156 99 56 157 98 58 158 97 60 159 96 62 160 95 64 161 94 66 162 93 68 163 92 70 164 91 72 165 90 74 166 89 76 167 88 78 168 87 80 169 86 82 170 85 84 171 84 86 172 83 88 173 82 90 174 81 92 175 80 94 176 79 96 177 78 98 178 77 100 179 76 102 180 75 104 181 74 106 182 73 108 183 72 110 184 71 112 185 70 114 186 69 116 187 68 118 188 67 120 189 66 122 190 65 124 191 64 126 192 63 128 193 62 130 194 61 132 195 60 134 196 59 136 197 58 138 198 57 140 199 56 142 200 55 144 201 54 146 202 53 148 203 52 150 204 51 152 205 50 154 206 49 156 207 48 158 208 47 160 209 46 162 210 45 164 211 44 166 212 43 168 213 42 170 214 41 172 215 40 174 216 39 176 217 38 178 218 37 180 219 36 182 220 35 184 221 34 186 222 33 188 223 32 190 224 31 192 225 30 194 226 29 196 227 28 198 228 27 200 229 26 202 230 25 204 231 24 206 232 23 208 233 22 210 234 21 212 235 20 214 236 19 216
78 177 156 79 176 158 80 175 160 81 174 162 82 173 164 83 172 166 84 171 168 85 170 170 86 169 172 87 168 174 88 167 176 89 166 178 90 165 180 91 164 182 92 163 184 93 162 186 94 161 188 95 160 190 96 159 192 97 158 194 98 157 196 99 156 198 100 155 200 101 154 202 102 153 204 103 152 206 104 151 208 105 150 210 106 149 212 107 148 214 108 147 216 109 146 218 110 145 220 111 144 222 112 143 224 113 142 226 114 141 228 115 140 230 116 139 232 117 138 234 118 137 236 119 136 238 120 135 240 121 134 242 122 133 244 123 132 246 124 131 248 125 130 250 126 129 252 127 128 254 128 127 0 129 126 2 130 125 4 131 124 6 132 123 8 133 122 10 134 121 12 135 120 14 136 119 16 137 118 18 138 117 20 139 116 22 140 115 24 141 114 26 142 113 28 143 112 30 144 111 32 145 110 34 146 109 36 147 108 38 148 107 40 149 106 42 150 105 44 151 104 46 152 103 48 153 102 50 154 101 52 155 100 54 156 99 56 157 98 58 158 97 60 159 96 62 160 95 64 161 94 66 162 93 68 163 92 70 164 91 72 165 90 74 166 89 76 167 88 78 168 87 80 169 86 82 170 85 84 171 84 86 172 83 88 173 82 90 174 81 92 175 80 94 176 79 96 177 78 98 178 77 100 179 76 102 180 75 104 181 74 106 182 73 108 183 72 110 184 71 112 185 70 114 186 69 116 187 68 118 188 67 120 189 66 122 190 65 124 191 64 126 192 63 128 193 62 130 194 61 132 195 60 134 196 59 136 197 58 138 198 57 140 199 56 142 200 55 144 201 54 146 202 53 148 203 52 150 204 51 152 205 50 154 206 49 156 207 48 158 208 47 160 209 46 162 210 45 164 211 44 166 212 43 168 213 42 170 214 41 172 215 40 174 216 39 176 217 38 178 218 37 180 219 36 182 220 35 184 221 34 186 222 33 188 223 32 190 224 31 192 225 30 194 226 29 196 227 28 198 228 27 200 229 26 202 230 25 204 231 24 206 232 23 208 233 22 210 234 21 212 235 20 214 236 19 216 237 18 218
79 176 158 80 175 160 81 174 162 82 173 164 83 172 166 84 171 168 85 170 170 86 169 172 87 168 174 88 167 176 89 166 178 90 165 180 91 164 182 92 163 184 93 162 186 94 161 188 95 160 190 96 159 192 97 158 194 98 157 196 99 156 198 100 155 200 101 154 202 102 153 204 103 152 206 104 151 208 105 150 210 106 149 212 107 148 214 108 147 216 109 146 218 110 145 220 111 144 222 112 143 224 113 142 226 114 141 228 115 140 230 116 139 232 117 138 234 118 137 236 119 136 238 120 135 240 121 134 242 122 133 244 123 132 246 124 131 248 125 130 250 126 129 252 127 128 254 128 127 0 129 126 2 130 125 4 131 124 6 132 123 8 133 122 10 134 121 12 135 120 14 136 119 16 137 118 18 138 117 20 139 116 22 140 115 24 141 114 26 142 113 28 143 112 30 144 111 32 145 110 34 146 109 36 147 108 38 148 107 40 149 106 42 150 105 44 151 104 46 152 103 48 153 102 50 154 101 52 155 100 54 156 99 56 157 98 58 158 97 60 159 96 62 160 95 64 161 94 66 162 93 68 163 92 70 164 91 72 165 90 74 166 89 76 167 88 78 168 87 80 169 86 82 170 85 84 171 84 86 172 83 88 173 82 90 174 81 92 175 80 94 176 79 96 177 78 98 178 77 100 179 76 102 180 75 104 181 74 106 182 73 108 183 72 110 184 71 112 185 70 114 186 69 116 187 68 118 188 67 120 189 66 122 190 65 124 191 64 126 192 63 128 193 62 130 194 61 132 195 60 134 196 59 136 197 58 138 198 57 140 199 56 142 200 55 144 201 54 146 202 53 148 203 52 150 204 51 152 205 50 154 206 49 156 207 48 158 208 47 160 209 46 162 210 45 164 211 44 166 212 43 168 213 42 170 214 41 172 215 40 174 216 39 176 217 38 178 218 37 180 219 36 182 220 35 184 221 34 186 222 33 188 223 32 190 224 31 192 225 30 194 226 29 196 227 28 198 228 27 200 229 26 202 230 25 204 231 24 206 232 23 208 233 22 210 234 21 212 235 20 214 236 19 216 237 18 218 238 17 220
80 175 160 81 174 162 82 173 164 83 172 166 84 171 168 85 170 170 86 169 172 87 168 174 88 167 176 89 166 178 90 165 180 91 164 182 92 163 184 93 162 186 94 161 188 95 160 190 96 159 192 97 158 194 98 157 196 99 156 198 100 155 200 101 154 202 102 153 204 103 152 206 104 151 208 105 150 210 106 149 212 107 148 214 108 147 216 109 146 218 110 145 220 111 144 222 112 143 224 113 142 226 114 141 228 115 140 230 116 139 232 117 138 234 118 137 236 119 136 238 120 135 240 121 134 242 122 133 244 123 132 246 124 131 248 125 130 250 126 129 252 127 128 254 128 127 0 129 126 2 130 125 4 131 124 6 132 123 8 133 122 10 134 121 12 135 120 14 136 119 16 137 118 18 138 117 20 139 116 22 140 115 24 141 114 26 142 113 28 143 112 30 144 111 32 145 110 34 146 109 36 147 108 38 148 107 40 149 106 42 150 105 44 151 104 46 152 103 48 153 102 50 154 101 52 155 100 54 156 99 56 157 98 58 158 97 60 159 96 62 160 95 64 161 94 66 162 93 68 163 92 70 164 91 72 165 90 74 166 89 76 167 88 78 168 87 80 169 86 82 170 85 84 171 84 86 172 83 88 173 82 90 174 81 92 175 80 94 176 79 96 177 78 98 178 77 100 179 76 102 180 75 104 181 74 106 182 73 108 183 72 110 184 71 112 185 70 114 186 69 116 187 68 118 188 67 120 189 66 122 190 65 124 191 64 126 192 63 128 193 62 130 194 61 132 195 60 134 196 59 136 197 58 138 198 57 140 199 56 142 200 55 144 201 54 146 202 53 148 203 52 150 204 51 152 205 50 154 206 49 156 207 48 158 208 47 160 209 46 162 210 45 164 211 44 166 212 43 168 213 42 170 214 41 172 215 40 174 216 39 176 217 38 178 218 37 180 219 36 182 220 35 184 221 34 186 222 33 188 223 32 190 224 31 192 225 30 194 226 29 196 227 28 198 228 27 200 229 26 202 230 25 204 231 24 206 232 23 208 233 22 210 234 21 212 235 20 214 236 19 216 237 18 218 238 17 220 239 16 222
81 174 162 82 173 164 83 172 166 84 171 168 85 170 170 86 169 172 87 168 174 88 167 176 89 166 178 90 165 180 91 164 182 92 163 184 93 162 186 94 161 188 95 160 190 96 159 192 97 158 194 98 157 196 99 156 198 100 155 200 101 154 202 102 153 204 103 152 206 104 151 208 105 150 210 106 149 212 107 148 214 108 147 216 109 146 218 110 145 220 111 144 222 112 143 224 113 142 226 114 141 228 115 140 230 116 139 232 117 138 234 118 137 236 119 136 238 120 135 240 121 134 242 122 133 244 123 132 246 124 131 248 125 130 250 126 129 252 127 128 254 128 127 0 129 126 2 130 125 4 131 124 6 132 123 8 133 122 10 134 121 12 135 120 14 136 119 16 137 118 18 138 117 20 139 116 22 140 115 24 141 114 26 142 113 28 143 112 30 144 111 32 145 110 34 146 109 36 147 108 38 148 107 40 149 106 42 150 105 44 151 104 46 152 103 48 153 102 50 154 101 52 155 100 54 156 99 56 157 98 58 158 97 60 159 96 62 160 95 64 161 94 66 162 93 68 163 92 70 164 91 72 165 90 74 166 89 76 167 88 78 168 87 80 169 86 82 170 85 84 171 84 86 172 83 88 173 82 90 174 81 92 175 80 94 176 79 96 177 78 98 178 77 100 179 76 102 180 75 104 181 74 106 182 73 108 183 72 110 184 71 112 185 70 114 186 69 116 187 68 118 188 67 120 189 66 122 190 65 124 191 64 126 192 63 128 193 62 130 194 61 132 195 60 134 196 59 136 197 58 138 198 57 140 199 56 142 200 55 144 201 54 146 202 53 148 203 52 150 204 51 152 205 50 154 206 49 156 207 48 158 208 47 160 209 46 162 210 45 164 211 44 166 212 43 168 213 42 170 214 41 172 215 40 174 216 39 176 217 38 178 218 37 180 219 36 182 220 35 184 221 34 186 222 33 188 223 32 190 224 31 192 225 30 194 226 29 196 227 28 198 228 27 200 229 26 202 230 25 204 231 24 206 232 23 208 233 22 210 234 21 212 235 20 214 236 19 216 237 18 218 238 17 220 239 16 222 240 15 224
82 173 164 83 172 166 84 171 168 85 170 170 86 169 172 87 168 174 88 167 176 89 166 178 90 165 180 91 164 182 92 163 184 93 162 186 94 161 188 95 160 190 96 159 192 97 158 194 98 157 196 99 156 198 100 155 200 101 154 202 102 153 204 103 152 206 104 151 208 105 150 210 106 149 212 107 148 214 108 147 216 109 146 218 110 145 220 111 144 222 112 143 224 113 142 226 114 141 228 115 140 230 116 139 232 117 138 234 118 137 236 119 136 238 120 135 240 121 134 242 122 133 244 123 132 246 124 131 248 125 130 250 126 129 252 127 128 254 128 127 0 129 126 2 130 125 4 131 124 6 132 123 8 133 122 10 134 121 12 135 120 14 136 119 16 137 118 18 138 117 20 139 116 22 140 115 24 141 114 26 142 113 28 143 112 30 144 111 32 145 110 34 146 109 36 147 108 38 148 107 40 149 106 42 150 105 44 151 104 46 152 103 48 153 102 50 154 101 52 155 100 54 156 99 56 157 98 58 158 97 60 159 96 62 160 95 64 161 94 66 162 93 68 163 92 70 164 91 72 165 90 74 166 89 76 167 88 78 168 87 80 169 86 82 170 85 84 171 84 86 172 83 88 173 82 90 174 81 92 175 80 94 176 79 96 177 78 98 178 77 100 179 76 102 180 75 104 181 74 106 182 73 108 183 72 110 184 71 112 185 70 114 186 69 116 187 68 118 188 67 120 189 66 122 190 65 124 191 64 126 192 63 128 193 62 130 194 61 132 195 60 134 196 59 136 197 58 138 198 57 140 199 56 142 200 55 144 201 54 146 202 53 148 203 52 150 204 51 152 205 50 154 206 49 156 207 48 158 208 47 160 209 46 162 210 45 164 211 44 166 212 43 168 213 42 170 214 41 172 215 40 174 216 39 176 217 38 178 218 37 180 219 36 182 220 35 184 221 34 186 222 33 188 223 32 190 224 31 192 225 30 194 226 29 196 227 28 198 228 27 200 229 26 202 230 25 204 231 24 206 232 23 208 233 22 210 234 21 212 235 20 214 236 19 216 237 18 218 238 17 220 239 16 222 240 15 224 241 14 226
83 172 166 84 171 168 85 170 170 86 169 172 87 168 174 88 167 176 89 166 178 90 165 180 91 164 182 92 163 184 93 162 186 94 161 188 95 160 190 96 159 192 97 158 194 98 157 196 99 156 198 100 155 200 101 154 202 102 153 204 103 152 206 104 151 208 105 150 210 106 149 212 107 148 214 108 147 216 109 146 218 110 145 220 111 144 222 112 143 224 113 142 226 114 141 228 115 140 230 116 139 232 117 138 234 118 137 236 119 136 238 120 135 240 121 134 242 122 133 244 123 132 246 124 131 248 125 130 250 126 129 252 127 128 254 128 127 0 129 126 2 130 125 4 131 124 6 132 123 8 133 122 10 134 121 12 135 120 14 136 119 16 137 118 18 138 117 20 139 116 22 140 115 24 141 114 26 142 113 28 143 112 30 144 111 32 145 110 34 146 109 36 147 108 38 148 107 40 149 106 42 150 105 44 151 104 46 152 103 48 153 102 50 154 101 52 155 100 54 156 99 56 157 98 58 158 97 60 159 96 62 160 95 64 161 94 66 162 93 68 163 92 70 164 91 72 165 90 74 166 89 76 167 88 78 168 87 80 169 86 82 170 85 84 171 84 86 172 83 88 173 82 90 174 81 92 175 80 94 176 79 96 177 78 98 178 77 100 179 76 102 180 75 104 181 74 106 182 73 108 183 72 110 184 71 112 185 70 114 186 69 116 187 68 118 188 67 120 189 66 122 190 65 124 191 64 126 192 63 128 193 62 130 194 61 132 195 60 134 196 59 136 197 58 138 198 57 140 199 56 142 200 55 144 201 54 146 202 53 148 203 52 150 204 51 152 205 50 154 206 49 156 207 48 158 208 47 160 209 46 162 210 45 164 211 44 166 212 43 168 213 42 170 214 41 172 215 40 174 216 39 176 217 38 178 218 37 180 219 36 182 220 35 184 221 34 186 222 33 188 223 32 190 224 31 192 225 30 194 226 29 196 227 28 198 228 27 200 229 26 202 230 25 204 231 24 206 232 23 208 233 22 210 234 21 212 235 20 214 236 19 216 237 18 218 238 17 220 239 16 222 240 15 224 241 14 226 242 13 228
84 171 168 85 170 170 86 169 172 87 168 174 88 167 176 89 166 178 90 165 180 91 164 182 92 163 184 93 162 186 94 161 188 95 160 190 96 159 192 97 158 194 98 157 196 99 156 198 100 155 200 101 154 202 102 153 204 103 152 206 104 151 208 105 150 210 106 149 212 107 148 214 108 147 216 109 146 218 110 145 220 111 144 222 112 143 224 113 142 226 114 141 228 115 140 230 116 139 232 117 138 234 118 137 236 119 136 238 120 135 240 121 134 242 122 133 244 123 132 246 124 131 248 125 130 250 126 129 252 127 128 254 128 127 0 129 126 2 130 125 4 131 124 6 132 123 8 133 122 10 134 121 12 135 120 14 136 119 16 137 118 18 138 117 20 139 116 22 140 115 24 141 114 26 142 113 28 143 112 30 144 111 32 145 110 34 146 109 36 147 108 38 148 107 40 149 106 42 150 105 44 151 104 46 152 103 48 153 102 50 154 101 52 155 100 54 156 99 56 157 98 58 158 97 60 159 96 62 160 95 64 161 94 66 162 93 68 163 92 70 164 91 72 165 90 74 166 89 76 167 88 78 168 87 80 169 86 82 170 85 84 171 84 86 172 83 88 173 82 90 174 81 92 175 80 94 176 79 96 177 78 98 178 77 100 179 76 102 180 75 104 181 74 106 182 73 108 183 72 110 184 71 112 185 70 114 186 69 116 187 68 118 188 67 120 189 66 122 190 65 124 191 64 126 192 63 128 193 62 130 194 61 132 195 60 134 196 59 136 197 58 138 198 57 140 199 56 142 200 55 144 201 54 146 202 53 148 203 52 150 204 51 152 205 50 154 206 49 156 207 48 158 208 47 160 209 46 162 210 45 164 211 44 166 212 43 168 213 42 170 214 41 172 215 40 174 216 39 176 217 38 178 218 37 180 219 36 182 220 35 184 221 34 186 222 33 188 223 32 190 224 31 192 225 30 194 226 29 196 227 28 198 228 27 200 229 26 202 230 25 204 231 24 206 232 23 208 233 22 210 234 21 212 235 20 214 236 19 216 237 18 218 238 17 220 239 16 222 240 15 224 241 14 226 242 13 228 243 12 230
85 170 170 86 169 172 87 168 174 88 167 176 89 166 178 90 165 180 91 164 182 92 163 184 93 162 186 94 161 188 95 160 190 96 159 192 97 158 194 98 157 196 99 156 198 100 155 200 101 154 202 102 153 204 103 152 206 104 151 208 105 150 210 106 149 212 107 148 214 108 147 216 109 146 218 110 145 220 111 144 222 112 143 224 113 142 226 114 141 228 115 140 230 116 139 232 117 138 234 118 137 236 119 136 238 120 135 240 121 134 242 122 133 244 123 132 246 124 131 248 125 130 250 126 129 252 127 128 254 128 127 0 129 126 2 130 125 4 131 124 6 132 123 8 133 122 10 134 121 12 135 120 14 136 119 16 137 118 18 138 117 20 139 116 22 140 115 24 141 114 26 142 113 28 143 112 30 144 111 32 145 110 34 146 109 36 147 108 38 148 107 40 149 106 42 150 105 44 151 104 46 152 103 48 153 102 50 154 101 52 155 100 54 156 99 56 157 98 58 158 97 60 159 96 62 160 95 64 161 94 66 162 93 68 163 92 70 164 91 72 165 90 74 166 89 76 167 88 78 168 87 80 169 86 82 170 85 84 171 84 86 172 83 88 173 82 90 174 81 92 175 80 94 176 79 96 177 78 98 178 77 100 179 76 102 180 75 104 181 74 106 182 73 108 183 72 110 184 71 112 185 70 114 186 69 116 187 68 118 188 67 120 189 66 122 190 65 124 191 64 126 192 63 128 193 62 130 194 61 132 195 60 134 196 59 136 197 58 138 198 57 140 199 56 142 200 55 144 201 54 146 202 53 148 203 52 150 204 51 152 205 50 154 206 49 156 207 48 158 208 47 160 209 46 162 210 45 164 211 44 166 212 43 168 213 42 170 214 41 172 215 40 174 216 39 176 217 38 178 218 37 180 219 36 182 220 35 184 221 34 186 222 33 188 223 32 190 224 31 192 225 30 194 226 29 196 227 28 198 228 27 200 229 26 202 230 25 204 231 24 206 232 23 208 233 22 210 234 21 212 235 20 214 236 19 216 237 18 218 238 17 220 239 16 222 240 15 224 241 14 226 242 13 228 243 12 230 244 11 232
86 169 172 87 168 174 88 167 176 89 166 178 90 165 180 91 164 182 92 163 184 93 162 186 94 161 188 95 160 190 96 159 192 97 158 194 98 157 196 99 156 198 100 155 200 101 154 202 102 153 204 103 152 206 104 151 208 105 150 210 106 149 212 107 148 214 108 147 216 109 146 218 110 145 220 111 144 222 112 143 224 113 142 226 114 141 228 115 140 230 116 139 232 117 138 234 118 137 236 119 136 238 120 135 240 121 134 242 122 133 244 123 132 246 124 131 248 125 130 250 126 129 252 127 128 254 128 127 0 129 126 2 130 125 4 131 124 6 132 123 8 133 122 10 134 121 12 135 120 14 136 119 16 137 118 18 138 117 20 139 116 22 140 115 24 141 114 26 142 113 28 143 112 30 144 111 32 145 110 34 146 109 36 147 108 38 148 107 40 149 106 42 150 105 44 151 104 46 152 103 48 153 102 50 154 101 52 155 100 54 156 99 56 157 98 58 158 97 60 159 96 62 160 95 64 161 94 66 162 93 68 163 92 70 164 91 72 165 90 74 166 89 76 167 88 78 168 87 80 169 86 82 170 85 84 171 84 86 172 83 88 173 82 90 174 81 92 175 80 94 176 79 96 177 78 98 178 77 100 179 76 102 180 75 104 181 74 106 182 73 108 183 72 110 184 71 112 185 70 114 186 69 116 187 68 118 188 67 120 189 66 122 190 65 124 191 64 126 192 63 128 193 62 130 194 61 132 195 60 134 196 59 136 197 58 138 198 57 140 199 56 142 200 55 144 201 54 146 202 53 148 203 52 150 204 51 152 205 50 154 206 49 156 207 48 158 208 47 160 209 46 162 210 45 164 211 44 166 212 43 168 213 42 170 214 41 172 215 40 174 216 39 176 217 38 178 218 37 180 219 36 182 220 35 184 221 34 186 222 33 188 223 32 190 224 31 192 225 30 194 226 29 196 227 28 198 228 27 200 229 26 202 230 25 204 231 24 206 232 23 208 233 22 210 234 21 212 235 20 214 236 19 216 237 18 218 238 17 220 239 16 222 240 15 224 241 14 226 242 13 228 243 12 230 244 11 232 245 10 234
87 168 174 88 167 176 89 166 178 90 165 180 91 164 182 92 163 184 93 162 186 94 161 188 95 160 190 96 159 192 97 158 194 98 157 196 99 156 198 100 155 200 101 154 202 102 153 204 103 152 206 104 151 208 105 150 210 106 149 212 107 148 214 108 147 216 109 146 218 110 145 220 111 144 222 112 143 224 113 142 226 114 141 228 115 140 230 116 139 232 117 138 234 118 137 236 119 136 238 120 135 240 121 134 242 122 133 244 123 132 246 124 131 248 125 130 250 126 129 252 127 128 254 128 127 0 129 126 2 130 125 4 131 124 6 132 123 8 133 122 10 134 121 12 135 120 14 136 119 16 137 118 18 138 117 20 139 116 22 140 115 24 141 114 26 142 113 28 143 112 30 144 111 32 145 110 34 146 109 36 147 108 38 148 107 40 149 106 42 150 105 44 151 104 46 152 103 48 153 102 50 154 101 52 155 100 54 156 99 56 157 98 58 158 97 60 159 96 62 160 95 64 161 94 66 162 93 68 163 92 70 164 91 72 165 90 74 166 89 76 167 88 78 168 87 80 169 86 82 170 85 84 171 84 86 172 83 88 173 82 90 174 81 92 175 80 94 176 79 96 177 78 98 178 77 100 179 76 102 180 75 104 181 74 106 182 73 108 183 72 110 184 71 112 185 70 114 186 69 116 187 68 118 188 67 120 189 66 122 190 65 124 191 64 126 192 63 128 193 62 130 194 61 132 195 60 134 196 59 136 197 58 138 198 57 140 199 56 142 200 55 144 201 54 146 202 53 148 203 52 150 204 51 152 205 50 154 206 49 156 207 48 158 208 47 160 209 46 162 210 45 164 211 44 166 212 43 168 213 42 170 214 41 172 215 40 174 216 39 176 217 38 178 218 37 180 219 36 182 220 35 184 221 34 186 222 33 188 223 32 190 224 31 192 225 30 194 226 29 196 227 28 198 228 27 200 229 26 202 230 25 204 231 24 206 232 23 208 233 22 210 234 21 212 235 20 214 236 19 216 237 18 218 238 17 220 239 16 222 240 15 224 241 14 226 242 13 228 243 12 230 244 11 232 245 10 234 246 9 236
88 167 176 89 166 178 90 165 180 91 164 182 92 163 184 93 162 186 94 161 188 95 160 190 96 159 192 97 158 194 98 157 196 99 156 198 100 155 200 101 154 202 102 153 204 103 152 206 104 151 208 105 150 210 106 149 212 107 148 214 108 147 216 109 146 218 110 145 220 111 144 222 112 143 224 113 142 226 114 141 228 115 140 230 116 139 232 117 138 234 118 137 236 119 136 238 120 135 240 121 134 242 122 133 244 123 132 246 124 131 248 125 130 250 126 129 252 127 128 254 128 127 0 129 126 2 130 125 4 131 124 6 132 123 8 133 122 10 134 121 12 135 120 14 136 119 16 137 118 18 138 117 20 139 116 22 140 115 24 141 114 26 142 113 28 143 112 30 144 111 32 145 110 34 146 109 36 147 108 38 148 107 40 149 106 42 150 105 44 151 104 46 152 103 48 153 102 50 154 101 52 155 100 54 156 99 56 157 98 58 158 97 60 159 96 62 160 95 64 161 94 66 162 93 68 163 92 70 164 91 72 165 90 74 166 89 76 167 88 78 168 87 80 169 86 82 170 85 84 171 84 86 172 83 88 173 82 90 174 81 92 175 80 94 176 79 96 177 78 98 178 77 100 179 76 102 180 75 104 181 74 106 182 73 108 183 72 110 184 71 112 185 70 114 186 69 116 187 68 118 188 67 120 189 66 122 190 65 124 191 64 126 192 63 128 193 62 130 194 61 132 195 60 134 196 59 136 197 58 138 198 57 140 199 56 142 200 55 144 201 54 146 202 53 148 203 52 150 204 51 152 205 50 154 206 49 156 207 48 158 208 47 160 209 46 162 210 45 164 211 44 166 212 43 168 213 42 170 214 41 172 215 40 174 216 39 176 217 38 178 218 37 180 219 36 182 220 35 184 221 34 186 222 33 188 223 32 190 224 31 192 225 30 194 226 29 196 227 28 198 228 27 200 229 26 202 230 25 204 231 24 206 232 23 208 233 22 210 234 21 212 235 20 214 236 19 216 237 18 218 238 17 220 239 16 222 240 15 224 241 14 226 242 13 228 243 12 230 244 11 232 245 10 234 246 9 236 247 8 238
89 166 178 90 165 180 91 164 182 92 163 184 93 162 186 94 161 188 95 160 190 96 159 192 97 158 194 98 157 196 99 156 198 100 155 200 101 154 202 102 153 204 103 152 206 104 151 208 105 150 210 106 149 212 107 148 214 108 147 216 109 146 218 110 145 220 111 144 222 112 143 224 113 142 226 114 141 228 115 140 230 116 139 232 117 138 234 118 137 236 119 136 238 120 135 240 121 134 242 122 133 244 123 132 246 124 131 248 125 130 250 126 129 252 127 128 254 128 127 0 129 126 2 130 125 4 131 124 6 132 123 8 133 122 10 134 121 12 135 120 14 136 119 16 137 118 18 138 117 20 139 116 22 140 115 24 141 114 26 142 113 28 143 112 30 144 111 32 145 110 34 146 109 36 147 108 38 148 107 40 149 106 42 150 105 44 151 104 46 152 103 48 153 102 50 154 101 52 155 100 54 156 99 56 157 98 58 158 97 60 159 96 62 160 95 64 161 94 66 162 93 68 163 92 70 164 91 72 165 90 74 166 89 76 167 88 78 168 87 80 169 86 82 170 85 84 171 84 86 172 83 88 173 82 90 174 81 92 175 80 94 176 79 96 177 78 98 178 77 100 179 76 102 180 75 104 181 74 106 182 73 108 183 72 110 184 71 112 185 70 114 186 69 116 187 68 118 188 67 120 189 66 122 190 65 124 191 64 126 192 63 128 193 62 130 194 61 132 195 60 134 196 59 136 197 58 138 198 57 140 199 56 142 200 55 144 201 54 146 202 53 148 203 52 150 204 51 152 205 50 154 206 49 156 207 48 158 208 47 160 209 46 162 210 45 164 211 44 166 212 43 168 213 42 170 214 41 172 215 40 174 216 39 176 217 38 178 218 37 180 219 36 182 220 35 184 221 34 186 222 33 188 223 32 190 224 31 192 225 30 194 226 29 196 227 28 198 228 27 200 229 26 202 230 25 204 231 24 206 232 23 208 233 22 210 234 21 212 235 20 214 236 19 216 237 18 218 238 17 220 239 16 222 240 15 224 241 14 226 242 13 228 243 12 230 244 11 232 245 10 234 246 9 236 247 8 238 248 7 240
