P3
160 90
255
134 219 204 134 219 204 134 219 204 134 219 204 134 219 204 134 219 204 134 219 204 134 219 204 134 219 204 134 219 204 134 219 204 134 219 204 134 219 204 134 219 204 134 219 204 134 219 204 134 219 204 134 219 204 134 219 204 134 219 204 134 219 204 134 219 204 134 219 204 134 219 204 134 219 204 134 219 204 134 219 204 134 219 204 134 219 204 134 219 204 134 219 204 134 219 204 134 219 204 134 219 204 134 219 204 134 219 204 134 219 204 134 219 204 134 219 204 134 219 204 134 219 204 134 219 204 134 219 204 134 219 204 134 219 204 134 219 204 134 219 204 134 219 204 134 219 204 134 219 204 134 219 204 134 219 204 134 219 204 134 219 204 134 219 204 134 219 204 134 219 204 134 219 204 134 219 204 134 219 204 134 219 204 134 219 204 134 219 204 134 219 204 134 219 204 134 219 204 134 219 204 134 219 204 134 219 204 134 219 204 134 219 204 134 219 204 134 219 204 134 219 204 134 219 204 134 219 204 134 219 204 134 219 204 134 219 204 134 219 204 134 219 204 134 219 204 134 219 204 134 219 204 134 219 204 134 219 204 134 219 204 134 219 204 134 219 204 134 219 204 134 219 204 134 219 204 134 219 204 134 219 204 134 219 204 134 219 204 134 219 204 134 219 204 134 219 204 134 219 204 134 219 204 134 219 204 134 219 204 134 219 204 134 219 204 134 219 204 134 219 204 134 219 204 134 219 204 134 219 204 134 219 204 134 219 204 134 219 204 134 219 204 134 219 204 134 219 204 134 219 204 134 219 204 134 219 204 134 219 204 134 219 204 134 219 204 134 219 204 134 219 204 134 219 204 134 219 204 134 219 204 134 219 204 134 219 204 134 219 204 134 219 204 134 219 204 134 219 204 134 219 204 134 219 204 134 219 204 134 219 204 134 219 204 134 219 204 134 219 204 134 219 204 134 219 204 134 219 204 134 219 204 134 219 204 134 219 204 134 219 204 134 219 204 134 219 204 134 219 204 134 219 204 134 219 204 134 219 204 134 219 204 134 219 204 134 219 204 134 219 204 134 219 204 134 219 204 134 219 204
134 219 204 134 219 204 134 219 204 134 219 204 134 219 204 134 219 204 134 219 204 134 219 204 134 219 204 134 219 204 134 219 204 134 219 204 134 219 204 134 219 204 134 219 204 134 219 204 134 219 204 134 219 204 134 219 204 134 219 204 134 219 204 134 219 204 134 219 204 134 219 204 134 219 204 134 219 204 134 219 204 134 219 204 134 219 204 134 219 204 134 219 204 134 219 204 134 219 204 134 219 204 134 219 204 134 219 204 134 219 204 134 219 204 134 219 204 134 219 204 134 219 204 134 219 204 134 219 204 134 219 204 134 219 204 134 219 204 134 219 204 134 219 204 134 219 204 134 219 204 134 219 204 134 219 204 134 219 204 134 219 204 134 219 204 134 219 204 134 219 204 134 219 204 134 219 204 134 219 204 134 219 204 134 219 204 134 219 204 134 219 204 134 219 204 134 219 204 134 219 204 134 219 204 134 219 204 134 219 204 134 219 204 134 219 204 134 219 204 134 219 204 134 219 204 134 219 204 134 219 204 134 219 204 134 219 204 134 219 204 134 219 204 134 219 204 134 219 204 134 219 204 134 219 204 134 219 204 134 219 204 134 219 204 134 219 204 134 219 204 134 219 204 134 219 204 134 219 204 134 219 204 134 219 204 134 219 204 134 219 204 134 219 204 134 219 204 134 219 204 134 219 204 134 219 204 134 219 204 134 219 204 134 219 204 134 219 204 134 219 204 134 219 204 134 219 204 134 219 204 134 219 204 134 219 204 134 219 204 134 219 204 134 219 204 134 219 204 134 219 204 134 219 204 134 219 204 134 219 204 134 219 204 134 219 204 134 219 204 134 219 204 134 219 204 134 219 204 134 219 204 134 219 204 134 219 204 134 219 204 134 219 204 134 219 204 134 219 204 134 219 204 134 219 204 134 219 204 134 219 204 134 219 204 134 219 204 134 219 204 134 219 204 134 219 204 134 219 204 134 219 204 134 219 204 134 219 204 134 219 204 134 219 204 134 219 204 134 219 204 134 219 204 134 219 204 134 219 204 134 219 204 134 219 204 134 219 204 134 219 204 134 219 204 134 219 204 134 219 204
134 219 204 134 219 204 134 219 204 134 219 204 134 219 204 134 219 204 134 219 204 134 219 204 134 219 204 134 219 204 134 219 204 134 219 204 134 219 204 134 219 204 134 219 204 134 219 204 134 219 204 134 219 204 134 219 204 134 219 204 134 219 204 134 219 204 134 219 204 134 219 204 134 219 204 134 219 204 134 219 204 134 219 204 134 219 204 134 219 204 134 219 204 134 219 204 134 219 204 134 219 204 134 219 204 134 219 204 134 219 204 134 219 204 134 219 204 134 219 204 134 219 204 134 219 204 134 219 204 134 219 204 134 219 204 134 219 204 134 219 204 134 219 204 134 219 204 134 219 204 134 219 204 134 219 204 134 219 204 134 219 204 134 219 204 134 219 204 134 219 204 134 219 204 134 219 204 134 219 204 134 219 204 134 219 204 134 219 204 134 219 204 134 219 204 134 219 204 134 219 204 134 219 204 134 219 204 134 219 204 134 219 204 134 219 204 134 219 204 134 219 204 134 219 204 134 219 204 134 219 204 134 219 204 134 219 204 134 219 204 134 219 204 134 219 204 134 219 204 134 219 204 134 219 204 134 219 204 134 219 204 134 219 204 134 219 204 134 219 204 134 219 204 134 219 204 134 219 204 134 219 204 134 219 204 134 219 204 134 219 204 134 219 204 134 219 204 134 219 204 134 219 204 134 219 204 134 219 204 134 219 204 134 219 204 134 219 204 134 219 204 134 219 204 134 219 204 134 219 204 134 219 204 134 219 204 134 219 204 134 219 204 134 219 204 134 219 204 134 219 204 134 219 204 134 219 204 134 219 204 134 219 204 134 219 204 134 219 204 134 219 204 134 219 204 134 219 204 134 219 204 134 219 204 134 219 204 134 219 204 134 219 204 134 219 204 134 219 204 134 219 204 134 219 204 134 219 204 134 219 204 134 219 204 134 219 204 134 219 204 134 219 204 134 219 204 134 219 204 134 219 204 134 219 204 134 219 204 134 219 204 134 219 204 134 219 204 134 219 204 134 219 204 134 219 204 134 219 204 134 219 204 134 219 204 134 219 204 134 219 204 134 219 204 134 219 204 134 219 204
134 219 204 134 219 204 134 219 204 134 219 204 134 219 204 134 219 204 134 219 204 134 219 204 134 219 204 134 219 204 134 219 204 134 219 204 134 219 204 134 219 204 134 219 204 134 219 204 134 219 204 134 219 204 134 219 204 134 219 204 134 219 204 134 219 204 134 219 204 134 219 204 134 219 204 134 219 204 134 219 204 134 219 204 134 219 204 134 219 204 134 219 204 134 219 204 134 219 204 134 219 204 134 219 204 134 219 204 134 219 204 134 219 204 134 219 204 134 219 204 134 219 204 134 219 204 134 219 204 134 219 204 134 219 204 134 219 204 134 219 204 134 219 204 134 219 204 134 219 204 134 219 204 134 219 204 134 219 204 134 219 204 134 219 204 134 219 204 134 219 204 134 219 204 134 219 204 134 219 204 134 219 204 134 219 204 134 219 204 134 219 204 134 219 204 134 219 204 134 219 204 134 219 204 134 219 204 134 219 204 134 219 204 134 219 204 134 219 204 134 219 204 134 219 204 134 219 204 134 219 204 134 219 204 134 219 204 134 219 204 134 219 204 134 219 204 134 219 204 134 219 204 134 219 204 134 219 204 134 219 204 134 219 204 134 219 204 134 219 204 134 219 204 134 219 204 134 219 204 134 219 204 134 219 204 134 219 204 134 219 204 134 219 204 134 219 204 134 219 204 134 219 204 134 219 204 134 219 204 134 219 204 134 219 204 134 219 204 134 219 204 134 219 204 134 219 204 134 219 204 134 219 204 134 219 204 134 219 204 134 219 204 134 219 204 134 219 204 134 219 204 134 219 204 134 219 204 134 219 204 134 219 204 134 219 204 134 219 204 134 219 204 134 219 204 134 219 204 134 219 204 134 219 204 134 219 204 134 219 204 134 219 204 134 219 204 134 219 204 134 219 204 134 219 204 134 219 204 134 219 204 134 219 204 134 219 204 134 219 204 134 219 204 134 219 204 134 219 204 134 219 204 134 219 204 134 219 204 134 219 204 134 219 204 134 219 204 134 219 204 134 219 204 134 219 204 134 219 204 134 219 204 134 219 204 134 219 204 134 219 204 134 219 204 134 219 204 134 219 204
134 219 204 134 219 204 134 219 204 134 219 204 134 219 204 134 219 204 134 219 204 134 219 204 134 219 204 134 219 204 134 219 204 134 219 204 134 219 204 134 219 204 134 219 204 134 219 204 134 219 204 134 219 204 134 219 204 134 219 204 134 219 204 134 219 204 134 219 204 134 219 204 134 219 204 134 219 204 134 219 204 134 219 204 134 219 204 134 219 204 134 219 204 134 219 204 134 219 204 134 219 204 134 219 204 134 219 204 134 219 204 134 219 204 134 219 204 134 219 204 134 219 204 134 219 204 134 219 204 134 219 204 134 219 204 134 219 204 134 219 204 134 219 204 134 219 204 134 219 204 134 219 204 134 219 204 134 219 204 134 219 204 134 219 204 134 219 204 134 219 204 134 219 204 134 219 204 134 219 204 134 219 204 134 219 204 134 219 204 134 219 204 134 219 204 134 219 204 134 219 204 134 219 204 134 219 204 134 219 204 134 219 204 134 219 204 134 219 204 134 219 204 134 219 204 134 219 204 134 219 204 134 219 204 134 219 204 134 219 204 134 219 204 134 219 204 134 219 204 134 219 204 134 219 204 134 219 204 134 219 204 134 219 204 134 219 204 134 219 204 134 219 204 134 219 204 134 219 204 134 219 204 134 219 204 134 219 204 134 219 204 134 219 204 134 219 204 134 219 204 134 219 204 134 219 204 134 219 204 134 219 204 134 219 204 134 219 204 134 219 204 134 219 204 134 219 204 134 219 204 134 219 204 134 219 204 134 219 204 134 219 204 134 219 204 134 219 204 134 219 204 134 219 204 134 219 204 134 219 204 134 219 204 134 219 204 134 219 204 134 219 204 134 219 204 134 219 204 134 219 204 134 219 204 134 219 204 134 219 204 134 219 204 134 219 204 134 219 204 134 219 204 134 219 204 134 219 204 134 219 204 134 219 204 134 219 204 134 219 204 134 219 204 134 219 204 134 219 204 134 219 204 134 219 204 134 219 204 134 219 204 134 219 204 134 219 204 134 219 204 134 219 204 134 219 204 134 219 204 134 219 204 134 219 204 134 219 204 134 219 204 134 219 204 134 219 204 134 219 204
134 219 204 134 219 204 134 219 204 134 219 204 134 219 204 134 219 204 134 219 204 134 219 204 134 219 204 134 219 204 134 219 204 134 219 204 134 219 204 134 219 204 134 219 204 134 219 204 134 219 204 134 219 204 134 219 204 134 219 204 134 219 204 134 219 204 134 219 204 134 219 204 134 219 204 134 219 204 134 219 204 134 219 204 134 219 204 134 219 204 134 219 204 134 219 204 134 219 204 134 219 204 134 219 204 134 219 204 134 219 204 134 219 204 134 219 204 134 219 204 134 219 204 134 219 204 134 219 204 134 219 204 134 219 204 134 219 204 134 219 204 134 219 204 134 219 204 134 219 204 134 219 204 134 219 204 134 219 204 134 219 204 134 219 204 134 219 204 134 219 204 134 219 204 134 219 204 134 219 204 134 219 204 134 219 204 134 219 204 134 219 204 134 219 204 134 219 204 134 219 204 134 219 204 134 219 204 134 219 204 134 219 204 134 219 204 134 219 204 134 219 204 134 219 204 134 219 204 134 219 204 134 219 204 134 219 204 134 219 204 134 219 204 134 219 204 134 219 204 134 219 204 134 219 204 134 219 204 134 219 204 134 219 204 134 219 204 134 219 204 134 219 204 134 219 204 134 219 204 134 219 204 134 219 204 134 219 204 134 219 204 134 219 204 134 219 204 134 219 204 134 219 204 134 219 204 134 219 204 134 219 204 134 219 204 134 219 204 134 219 204 134 219 204 134 219 204 134 219 204 134 219 204 134 219 204 134 219 204 134 219 204 134 219 204 134 219 204 134 219 204 134 219 204 134 219 204 134 219 204 134 219 204 134 219 204 134 219 204 134 219 204 134 219 204 134 219 204 134 219 204 134 219 204 134 219 204 134 219 204 134 219 204 134 219 204 134 219 204 134 219 204 134 219 204 134 219 204 134 219 204 134 219 204 134 219 204 134 219 204 134 219 204 134 219 204 134 219 204 134 219 204 134 219 204 134 219 204 134 219 204 134 219 204 134 219 204 134 219 204 134 219 204 134 219 204 134 219 204 134 219 204 134 219 204 134 219 204 134 219 204 134 219 204 134 219 204 134 219 204
134 219 204 134 219 204 134 219 204 134 219 204 134 219 204 134 219 204 134 219 204 134 219 204 134 219 204 134 219 204 134 219 204 134 219 204 134 219 204 134 219 204 134 219 204 134 219 204 134 219 204 134 219 204 134 219 204 134 219 204 134 219 204 134 219 204 134 219 204 134 219 204 134 219 204 134 219 204 134 219 204 134 219 204 134 219 204 134 219 204 134 219 204 134 219 204 134 219 204 134 219 204 134 219 204 134 219 204 134 219 204 134 219 204 134 219 204 134 219 204 134 219 204 134 219 204 134 219 204 134 219 204 134 219 204 134 219 204 134 219 204 134 219 204 134 219 204 134 219 204 134 219 204 134 219 204 134 219 204 134 219 204 134 219 204 134 219 204 134 219 204 134 219 204 134 219 204 134 219 204 134 219 204 134 219 204 134 219 204 134 219 204 134 219 204 134 219 204 134 219 204 134 219 204 134 219 204 134 219 204 134 219 204 134 219 204 134 219 204 134 219 204 134 219 204 134 219 204 134 219 204 134 219 204 134 219 204 134 219 204 134 219 204 134 219 204 134 219 204 134 219 204 134 219 204 134 219 204 134 219 204 134 219 204 134 219 204 134 219 204 134 219 204 134 219 204 134 219 204 134 219 204 134 219 204 134 219 204 134 219 204 134 219 204 134 219 204 134 219 204 134 219 204 134 219 204 134 219 204 134 219 204 134 219 204 134 219 204 134 219 204 134 219 204 134 219 204 134 219 204 134 219 204 134 219 204 134 219 204 134 219 204 134 219 204 134 219 204 134 219 204 134 219 204 134 219 204 134 219 204 134 219 204 134 219 204 134 219 204 134 219 204 134 219 204 134 219 204 134 219 204 134 219 204 134 219 204 134 219 204 134 219 204 134 219 204 134 219 204 134 219 204 134 219 204 134 219 204 134 219 204 134 219 204 134 219 204 134 219 204 134 219 204 134 219 204 134 219 204 134 219 204 134 219 204 134 219 204 134 219 204 134 219 204 134 219 204 134 219 204 134 219 204 134 219 204 134 219 204 134 219 204 134 219 204 134 219 204 134 219 204 134 219 204 134 219 204 134 219 204
134 219 204 134 219 204 134 219 204 134 219 204 134 219 204 134 219 204 134 219 204 134 219 204 134 219 204 134 219 204 134 219 204 134 219 204 134 219 204 134 219 204 134 219 204 134 219 204 134 219 204 134 219 204 134 219 204 134 219 204 134 219 204 134 219 204 134 219 204 134 219 204 134 219 204 134 219 204 134 219 204 134 219 204 134 219 204 134 219 204 134 219 204 134 219 204 134 219 204 134 219 204 134 219 204 134 219 204 134 219 204 134 219 204 134 219 204 134 219 204 134 219 204 134 219 204 134 219 204 134 219 204 134 219 204 134 219 204 134 219 204 134 219 204 134 219 204 134 219 204 134 219 204 134 219 204 134 219 204 134 219 204 134 219 204 134 219 204 134 219 204 134 219 204 134 219 204 134 219 204 134 219 204 134 219 204 134 219 204 134 219 204 134 219 204 134 219 204 134 219 204 134 219 204 134 219 204 134 219 204 134 219 204 134 219 204 134 219 204 134 219 204 134 219 204 134 219 204 134 219 204 134 219 204 134 219 204 134 219 204 134 219 204 134 219 204 134 219 204 134 219 204 134 219 204 134 219 204 134 219 204 134 219 204 134 219 204 134 219 204 134 219 204 134 219 204 134 219 204 134 219 204 134 219 204 134 219 204 134 219 204 134 219 204 134 219 204 134 219 204 134 219 204 134 219 204 134 219 204 134 219 204 134 219 204 134 219 204 134 219 204 134 219 204 134 219 204 134 219 204 134 219 204 134 219 204 134 219 204 134 219 204 134 219 204 134 219 204 134 219 204 134 219 204 134 219 204 134 219 204 134 219 204 134 219 204 134 219 204 134 219 204 134 219 204 134 219 204 134 219 204 134 219 204 134 219 204 134 219 204 134 219 204 134 219 204 134 219 204 134 219 204 134 219 204 134 219 204 134 219 204 134 219 204 134 219 204 134 219 204 134 219 204 134 219 204 134 219 204 134 219 204 134 219 204 134 219 204 134 219 204 134 219 204 134 219 204 134 219 204 134 219 204 134 219 204 134 219 204 134 219 204 134 219 204 134 219 204 134 219 204 134 219 204 134 219 204 134 219 204
134 219 204 134 219 204 134 219 204 134 219 204 134 219 204 134 219 204 134 219 204 134 219 204 134 219 204 134 219 204 134 219 204 134 219 204 134 219 204 134 219 204 134 219 204 134 219 204 134 219 204 134 219 204 134 219 204 134 219 204 134 219 204 134 219 204 134 219 204 134 219 204 134 219 204 134 219 204 134 219 204 134 219 204 134 219 204 134 219 204 134 219 204 134 219 204 134 219 204 134 219 204 134 219 204 134 219 204 134 219 204 134 219 204 134 219 204 134 219 204 134 219 204 134 219 204 134 219 204 134 219 204 134 219 204 134 219 204 134 219 204 134 219 204 134 219 204 134 219 204 134 219 204 134 219 204 134 219 204 134 219 204 134 219 204 134 219 204 134 219 204 134 219 204 134 219 204 134 219 204 134 219 204 134 219 204 134 219 204 134 219 204 134 219 204 134 219 204 134 219 204 134 219 204 134 219 204 134 219 204 134 219 204 134 219 204 134 219 204 134 219 204 134 219 204 134 219 204 134 219 204 134 219 204 134 219 204 134 219 204 134 219 204 134 219 204 134 219 204 134 219 204 134 219 204 134 219 204 134 219 204 134 219 204 134 219 204 134 219 204 134 219 204 134 219 204 134 219 204 134 219 204 134 219 204 134 219 204 134 219 204 134 219 204 134 219 204 134 219 204 134 219 204 134 219 204 134 219 204 134 219 204 134 219 204 134 219 204 134 219 204 134 219 204 134 219 204 134 219 204 134 219 204 134 219 204 134 219 204 134 219 204 134 219 204 134 219 204 134 219 204 134 219 204 134 219 204 134 219 204 134 219 204 134 219 204 134 219 204 134 219 204 134 219 204 134 219 204 134 219 204 134 219 204 134 219 204 134 219 204 134 219 204 134 219 204 134 219 204 134 219 204 134 219 204 134 219 204 134 219 204 134 219 204 134 219 204 134 219 204 134 219 204 134 219 204 134 219 204 134 219 204 134 219 204 134 219 204 134 219 204 134 219 204 134 219 204 134 219 204 134 219 204 134 219 204 134 219 204 134 219 204 134 219 204 134 219 204 134 219 204 134 219 204 134 219 204 134 219 204
134 219 204 134 219 204 134 219 204 134 219 204 134 219 204 134 219 204 134 219 204 134 219 204 134 219 204 134 219 204 134 219 204 134 219 204 134 219 204 134 219 204 134 219 204 134 219 204 134 219 204 134 219 204 134 219 204 134 219 204 134 219 204 134 219 204 134 219 204 134 219 204 134 219 204 134 219 204 134 219 204 134 219 204 134 219 204 134 219 204 134 219 204 134 219 204 134 219 204 134 219 204 134 219 204 134 219 204 134 219 204 134 219 204 134 219 204 134 219 204 134 219 204 134 219 204 134 219 204 134 219 204 134 219 204 134 219 204 134 219 204 134 219 204 134 219 204 134 219 204 134 219 204 134 219 204 134 219 204 134 219 204 134 219 204 134 219 204 134 219 204 134 219 204 134 219 204 134 219 204 134 219 204 134 219 204 134 219 204 134 219 204 134 219 204 134 219 204 134 219 204 134 219 204 134 219 204 134 219 204 134 219 204 134 219 204 134 219 204 134 219 204 134 219 204 134 219 204 134 219 204 134 219 204 134 219 204 134 219 204 134 219 204 134 219 204 134 219 204 134 219 204 134 219 204 134 219 204 134 219 204 134 219 204 134 219 204 134 219 204 134 219 204 134 219 204 134 219 204 134 219 204 134 219 204 134 219 204 134 219 204 134 219 204 134 219 204 134 219 204 134 219 204 134 219 204 134 219 204 134 219 204 134 219 204 134 219 204 134 219 204 134 219 204 134 219 204 134 219 204 134 219 204 134 219 204 134 219 204 134 219 204 134 219 204 134 219 204 134 219 204 134 219 204 134 219 204 134 219 204 134 219 204 134 219 204 134 219 204 134 219 204 134 219 204 134 219 204 134 219 204 134 219 204 134 219 204 134 219 204 134 219 204 134 219 204 134 219 204 134 219 204 134 219 204 134 219 204 134 219 204 134 219 204 134 219 204 134 219 204 134 219 204 134 219 204 134 219 204 134 219 204 134 219 204 134 219 204 134 219 204 134 219 204 134 219 204 134 219 204 134 219 204 134 219 204 134 219 204 134 219 204 134 219 204 134 219 204 134 219 204 134 219 204 134 219 204 134 219 204
134 219 204 134 219 204 134 219 204 134 219 204 134 219 204 134 219 204 134 219 204 134 219 204 134 219 204 134 219 204 134 219 204 134 219 204 134 219 204 134 219 204 134 219 204 134 219 204 134 219 204 134 219 204 134 219 204 134 219 204 134 219 204 134 219 204 134 219 204 134 219 204 134 219 204 134 219 204 134 219 204 134 219 204 134 219 204 134 219 204 134 219 204 134 219 204 134 219 204 134 219 204 134 219 204 134 219 204 134 219 204 134 219 204 134 219 204 134 219 204 134 219 204 134 219 204 134 219 204 134 219 204 134 219 204 134 219 204 134 219 204 134 219 204 134 219 204 134 219 204 134 219 204 134 219 204 134 219 204 134 219 204 134 219 204 134 219 204 134 219 204 134 219 204 134 219 204 134 219 204 134 219 204 134 219 204 134 219 204 134 219 204 134 219 204 134 219 204 134 219 204 134 219 204 134 219 204 134 219 204 134 219 204 134 219 204 134 219 204 134 219 204 134 219 204 134 219 204 134 219 204 134 219 204 134 219 204 134 219 204 134 219 204 134 219 204 134 219 204 134 219 204 134 219 204 134 219 204 134 219 204 134 219 204 134 219 204 134 219 204 134 219 204 134 219 204 134 219 204 134 219 204 134 219 204 134 219 204 134 219 204 134 219 204 134 219 204 134 219 204 134 219 204 134 219 204 134 219 204 134 219 204 134 219 204 134 219 204 134 219 204 134 219 204 134 219 204 134 219 204 134 219 204 134 219 204 134 219 204 134 219 204 134 219 204 134 219 204 134 219 204 134 219 204 134 219 204 134 219 204 134 219 204 134 219 204 134 219 204 134 219 204 134 219 204 134 219 204 134 219 204 134 219 204 134 219 204 134 219 204 134 219 204 134 219 204 134 219 204 134 219 204 134 219 204 134 219 204 134 219 204 134 219 204 134 219 204 134 219 204 134 219 204 134 219 204 134 219 204 134 219 204 134 219 204 134 219 204 134 219 204 134 219 204 134 219 204 134 219 204 134 219 204 134 219 204 134 219 204 134 219 204 134 219 204 134 219 204 134 219 204 134 219 204 134 219 204 134 219 204
134 219 204 134 219 204 134 219 204 134 219 204 134 219 204 134 219 204 134 219 204 134 219 204 134 219 204 134 219 204 134 219 204 134 219 204 134 219 204 134 219 204 134 219 204 134 219 204 134 219 204 134 219 204 134 219 204 134 219 204 134 219 204 134 219 204 134 219 204 134 219 204 134 219 204 134 219 204 134 219 204 134 219 204 134 219 204 134 219 204 134 219 204 134 219 204 134 219 204 134 219 204 134 219 204 134 219 204 134 219 204 134 219 204 134 219 204 134 219 204 134 219 204 134 219 204 134 219 204 134 219 204 134 219 204 134 219 204 134 219 204 134 219 204 134 219 204 134 219 204 134 219 204 134 219 204 134 219 204 134 219 204 134 219 204 134 219 204 134 219 204 134 219 204 134 219 204 134 219 204 134 219 204 134 219 204 134 219 204 134 219 204 134 219 204 134 219 204 134 219 204 134 219 204 134 219 204 134 219 204 134 219 204 134 219 204 134 219 204 134 219 204 134 219 204 134 219 204 134 219 204 134 219 204 134 219 204 134 219 204 134 219 204 134 219 204 134 219 204 134 219 204 134 219 204 134 219 204 134 219 204 134 219 204 134 219 204 134 219 204 134 219 204 134 219 204 134 219 204 134 219 204 134 219 204 134 219 204 134 219 204 134 219 204 134 219 204 134 219 204 134 219 204 134 219 204 134 219 204 134 219 204 134 219 204 134 219 204 134 219 204 134 219 204 134 219 204 134 219 204 134 219 204 134 219 204 134 219 204 134 219 204 134 219 204 134 219 204 134 219 204 134 219 204 134 219 204 134 219 204 134 219 204 134 219 204 134 219 204 134 219 204 134 219 204 134 219 204 134 219 204 134 219 204 134 219 204 134 219 204 134 219 204 134 219 204 134 219 204 134 219 204 134 219 204 134 219 204 134 219 204 134 219 204 134 219 204 134 219 204 134 219 204 134 219 204 134 219 204 134 219 204 134 219 204 134 219 204 134 219 204 134 219 204 134 219 204 134 219 204 134 219 204 134 219 204 134 219 204 134 219 204 134 219 204 134 219 204 134 219 204 134 219 204 134 219 204 134 219 204
134 219 204 134 219 204 134 219 204 134 219 204 134 219 204 134 219 204 134 219 204 134 219 204 134 219 204 134 219 204 134 219 204 134 219 204 134 219 204 134 219 204 134 219 204 134 219 204 134 219 204 134 219 204 134 219 204 134 219 204 134 219 204 134 219 204 134 219 204 134 219 204 134 219 204 134 219 204 134 219 204 134 219 204 134 219 204 134 219 204 134 219 204 134 219 204 134 219 204 134 219 204 134 219 204 134 219 204 134 219 204 134 219 204 134 219 204 134 219 204 134 219 204 134 219 204 134 219 204 134 219 204 134 219 204 134 219 204 134 219 204 134 219 204 134 219 204 134 219 204 134 219 204 134 219 204 134 219 204 134 219 204 134 219 204 134 219 204 134 219 204 134 219 204 134 219 204 134 219 204 134 219 204 134 219 204 134 219 204 134 219 204 134 219 204 134 219 204 134 219 204 134 219 204 134 219 204 134 219 204 134 219 204 134 219 204 134 219 204 134 219 204 134 219 204 134 219 204 134 219 204 134 219 204 134 219 204 134 219 204 134 219 204 134 219 204 134 219 204 134 219 204 134 219 204 134 219 204 134 219 204 134 219 204 134 219 204 134 219 204 134 219 204 134 219 204 134 219 204 134 219 204 134 219 204 134 219 204 134 219 204 134 219 204 134 219 204 134 219 204 134 219 204 134 219 204 134 219 204 134 219 204 134 219 204 134 219 204 134 219 204 134 219 204 134 219 204 134 219 204 134 219 204 134 219 204 134 219 204 134 219 204 134 219 204 134 219 204 134 219 204 134 219 204 134 219 204 134 219 204 134 219 204 134 219 204 134 219 204 134 219 204 134 219 204 134 219 204 134 219 204 134 219 204 134 219 204 134 219 204 134 219 204 134 219 204 134 219 204 134 219 204 134 219 204 134 219 204 134 219 204 134 219 204 134 219 204 134 219 204 134 219 204 134 219 204 134 219 204 134 219 204 134 219 204 134 219 204 134 219 204 134 219 204 134 219 204 134 219 204 134 219 204 134 219 204 134 219 204 134 219 204 134 219 204 134 219 204 134 219 204 134 219 204 134 219 204 134 219 204
134 219 204 134 219 204 134 219 204 134 219 204 134 219 204 134 219 204 134 219 204 134 219 204 134 219 204 134 219 204 134 219 204 134 219 204 134 219 204 134 219 204 134 219 204 134 219 204 134 219 204 134 219 204 134 219 204 134 219 204 134 219 204 134 219 204 134 219 204 134 219 204 134 219 204 134 219 204 134 219 204 134 219 204 134 219 204 134 219 204 134 219 204 134 219 204 134 219 204 134 219 204 134 219 204 134 219 204 134 219 204 134 219 204 134 219 204 134 219 204 134 219 204 134 219 204 134 219 204 134 219 204 134 219 204 134 219 204 134 219 204 134 219 204 134 219 204 134 219 204 134 219 204 134 219 204 134 219 204 134 219 204 134 219 204 134 219 204 134 219 204 134 219 204 134 219 204 134 219 204 134 219 204 134 219 204 134 219 204 134 219 204 134 219 204 134 219 204 134 219 204 134 219 204 134 219 204 134 219 204 134 219 204 134 219 204 134 219 204 134 219 204 134 219 204 134 219 204 134 219 204 134 219 204 134 219 204 134 219 204 134 219 204 134 219 204 134 219 204 134 219 204 134 219 204 134 219 204 134 219 204 134 219 204 134 219 204 134 219 204 134 219 204 134 219 204 134 219 204 134 219 204 134 219 204 134 219 204 134 219 204 134 219 204 134 219 204 134 219 204 134 219 204 134 219 204 134 219 204 134 219 204 134 219 204 134 219 204 134 219 204 134 219 204 134 219 204 134 219 204 134 219 204 134 219 204 134 219 204 134 219 204 134 219 204 134 219 204 134 219 204 134 219 204 134 219 204 134 219 204 134 219 204 134 219 204 134 219 204 134 219 204 134 219 204 134 219 204 134 219 204 134 219 204 134 219 204 134 219 204 134 219 204 134 219 204 134 219 204 134 219 204 134 219 204 134 219 204 134 219 204 134 219 204 134 219 204 134 219 204 134 219 204 134 219 204 134 219 204 134 219 204 134 219 204 134 219 204 134 219 204 134 219 204 134 219 204 134 219 204 134 219 204 134 219 204 134 219 204 134 219 204 134 219 204 134 219 204 134 219 204 134 219 204 134 219 204 134 219 204
134 219 204 134 219 204 134 219 204 134 219 204 134 219 204 134 219 204 134 219 204 134 219 204 134 219 204 134 219 204 134 219 204 134 219 204 134 219 204 134 219 204 134 219 204 134 219 204 134 219 204 134 219 204 134 219 204 134 219 204 134 219 204 134 219 204 134 219 204 134 219 204 134 219 204 134 219 204 134 219 204 134 219 204 134 219 204 134 219 204 134 219 204 134 219 204 134 219 204 134 219 204 134 219 204 134 219 204 134 219 204 134 219 204 134 219 204 134 219 204 134 219 204 134 219 204 134 219 204 134 219 204 134 219 204 134 219 204 134 219 204 134 219 204 134 219 204 134 219 204 134 219 204 134 219 204 134 219 204 134 219 204 134 219 204 134 219 204 134 219 204 134 219 204 134 219 204 134 219 204 134 219 204 134 219 204 134 219 204 134 219 204 134 219 204 134 219 204 134 219 204 134 219 204 134 219 204 134 219 204 134 219 204 134 219 204 134 219 204 134 219 204 134 219 204 134 219 204 134 219 204 134 219 204 134 219 204 134 219 204 134 219 204 134 219 204 134 219 204 134 219 204 134 219 204 134 219 204 134 219 204 134 219 204 134 219 204 134 219 204 134 219 204 134 219 204 134 219 204 134 219 204 134 219 204 134 219 204 134 219 204 134 219 204 134 219 204 134 219 204 134 219 204 134 219 204 134 219 204 134 219 204 134 219 204 134 219 204 134 219 204 134 219 204 134 219 204 134 219 204 134 219 204 134 219 204 134 219 204 134 219 204 134 219 204 134 219 204 134 219 204 134 219 204 134 219 204 134 219 204 134 219 204 134 219 204 134 219 204 134 219 204 134 219 204 134 219 204 134 219 204 134 219 204 134 219 204 134 219 204 134 219 204 134 219 204 134 219 204 134 219 204 134 219 204 134 219 204 134 219 204 134 219 204 134 219 204 134 219 204 134 219 204 134 219 204 134 219 204 134 219 204 134 219 204 134 219 204 134 219 204 134 219 204 134 219 204 134 219 204 134 219 204 134 219 204 134 219 204 134 219 204 134 219 204 134 219 204 134 219 204 134 219 204 134 219 204 134 219 204
134 219 204 134 219 204 134 219 204 134 219 204 134 219 204 134 219 204 134 219 204 134 219 204 134 219 204 134 219 204 134 219 204 134 219 204 134 219 204 134 219 204 134 219 204 134 219 204 134 219 204 134 219 204 134 219 204 134 219 204 134 219 204 134 219 204 134 219 204 134 219 204 134 219 204 134 219 204 134 219 204 134 219 204 134 219 204 134 219 204 134 219 204 134 219 204 134 219 204 134 219 204 134 219 204 134 219 204 134 219 204 134 219 204 134 219 204 134 219 204 134 219 204 134 219 204 134 219 204 134 219 204 134 219 204 134 219 204 134 219 204 134 219 204 134 219 204 134 219 204 134 219 204 134 219 204 134 219 204 134 219 204 134 219 204 134 219 204 134 219 204 134 219 204 134 219 204 134 219 204 134 219 204 134 219 204 134 219 204 134 219 204 134 219 204 134 219 204 134 219 204 134 219 204 134 219 204 134 219 204 134 219 204 134 219 204 134 219 204 134 219 204 134 219 204 134 219 204 134 219 204 134 219 204 134 219 204 134 219 204 134 219 204 134 219 204 134 219 204 134 219 204 134 219 204 134 219 204 134 219 204 134 219 204 134 219 204 134 219 204 134 219 204 134 219 204 134 219 204 134 219 204 134 219 204 134 219 204 134 219 204 134 219 204 134 219 204 134 219 204 134 219 204 134 219 204 134 219 204 134 219 204 134 219 204 134 219 204 134 219 204 134 219 204 134 219 204 134 219 204 134 219 204 134 219 204 134 219 204 134 219 204 134 219 204 134 219 204 134 219 204 134 219 204 134 219 204 134 219 204 134 219 204 134 219 204 134 219 204 134 219 204 134 219 204 134 219 204 134 219 204 134 219 204 134 219 204 134 219 204 134 219 204 134 219 204 134 219 204 134 219 204 134 219 204 134 219 204 134 219 204 134 219 204 134 219 204 134 219 204 134 219 204 134 219 204 134 219 204 134 219 204 134 219 204 134 219 204 134 219 204 134 219 204 134 219 204 134 219 204 134 219 204 134 219 204 134 219 204 134 219 204 134 219 204 134 219 204 134 219 204 134 219 204 134 219 204 134 219 204
134 219 204 134 219 204 134 219 204 134 219 204 134 219 204 134 219 204 134 219 204 134 219 204 134 219 204 134 219 204 134 219 204 134 219 204 134 219 204 134 219 204 134 219 204 134 219 204 134 219 204 134 219 204 134 219 204 134 219 204 134 219 204 134 219 204 134 219 204 134 219 204 134 219 204 134 219 204 134 219 204 134 219 204 134 219 204 134 219 204 134 219 204 134 219 204 134 219 204 134 219 204 134 219 204 134 219 204 134 219 204 134 219 204 134 219 204 134 219 204 134 219 204 134 219 204 134 219 204 134 219 204 134 219 204 134 219 204 134 219 204 134 219 204 134 219 204 134 219 204 134 219 204 134 219 204 134 219 204 134 219 204 134 219 204 134 219 204 134 219 204 134 219 204 134 219 204 134 219 204 134 219 204 134 219 204 134 219 204 134 219 204 134 219 204 134 219 204 134 219 204 134 219 204 134 219 204 134 219 204 134 219 204 134 219 204 134 219 204 134 219 204 134 219 204 134 219 204 134 219 204 134 219 204 134 219 204 134 219 204 134 219 204 134 219 204 134 219 204 134 219 204 134 219 204 134 219 204 134 219 204 134 219 204 134 219 204 134 219 204 134 219 204 134 219 204 134 219 204 134 219 204 134 219 204 134 219 204 134 219 204 134 219 204 134 219 204 134 219 204 134 219 204 134 219 204 134 219 204 134 219 204 134 219 204 134 219 204 134 219 204 134 219 204 134 219 204 134 219 204 134 219 204 134 219 204 134 219 204 134 219 204 134 219 204 134 219 204 134 219 204 134 219 204 134 219 204 134 219 204 134 219 204 134 219 204 134 219 204 134 219 204 134 219 204 134 219 204 134 219 204 134 219 204 134 219 204 134 219 204 134 219 204 134 219 204 134 219 204 134 219 204 134 219 204 134 219 204 134 219 204 134 219 204 134 219 204 134 219 204 134 219 204 134 219 204 134 219 204 134 219 204 134 219 204 134 219 204 134 219 204 134 219 204 134 219 204 134 219 204 134 219 204 134 219 204 134 219 204 134 219 204 134 219 204 134 219 204 134 219 204 134 219 204 134 219 204 134 219 204
134 219 204 134 219 204 134 219 204 134 219 204 134 219 204 134 219 204 134 219 204 134 219 204 134 219 204 134 219 204 134 219 204 134 219 204 134 219 204 134 219 204 134 219 204 134 219 204 134 219 204 134 219 204 134 219 204 134 219 204 134 219 204 134 219 204 134 219 204 134 219 204 134 219 204 134 219 204 134 219 204 134 219 204 134 219 204 134 219 204 134 219 204 134 219 204 134 219 204 134 219 204 134 219 204 134 219 204 134 219 204 134 219 204 134 219 204 134 219 204 134 219 204 134 219 204 134 219 204 134 219 204 134 219 204 134 219 204 134 219 204 134 219 204 134 219 204 134 219 204 134 219 204 134 219 204 134 219 204 134 219 204 134 219 204 134 219 204 134 219 204 134 219 204 134 219 204 134 219 204 134 219 204 134 219 204 134 219 204 134 219 204 134 219 204 134 219 204 134 219 204 134 219 204 134 219 204 134 219 204 134 219 204 134 219 204 134 219 204 134 219 204 134 219 204 134 219 204 134 219 204 134 219 204 134 219 204 134 219 204 134 219 204 134 219 204 134 219 204 134 219 204 134 219 204 134 219 204 134 219 204 134 219 204 134 219 204 134 219 204 134 219 204 134 219 204 134 219 204 134 219 204 134 219 204 134 219 204 134 219 204 134 219 204 134 219 204 134 219 204 134 219 204 134 219 204 134 219 204 134 219 204 134 219 204 134 219 204 134 219 204 134 219 204 134 219 204 134 219 204 134 219 204 134 219 204 134 219 204 134 219 204 134 219 204 134 219 204 134 219 204 134 219 204 134 219 204 134 219 204 134 219 204 134 219 204 134 219 204 134 219 204 134 219 204 134 219 204 134 219 204 134 219 204 134 219 204 134 219 204 134 219 204 134 219 204 134 219 204 134 219 204 134 219 204 134 219 204 134 219 204 134 219 204 134 219 204 134 219 204 134 219 204 134 219 204 134 219 204 134 219 204 134 219 204 134 219 204 134 219 204 134 219 204 134 219 204 134 219 204 134 219 204 134 219 204 134 219 204 134 219 204 134 219 204 134 219 204 134 219 204 134 219 204 134 219 204 134 219 204
134 219 204 134 219 204 134 219 204 134 219 204 134 219 204 134 219 204 134 219 204 134 219 204 134 219 204 134 219 204 134 219 204 134 219 204 134 219 204 134 219 204 134 219 204 134 219 204 134 219 204 134 219 204 134 219 204 134 219 204 134 219 204 134 219 204 134 219 204 134 219 204 134 219 204 134 219 204 134 219 204 134 219 204 134 219 204 134 219 204 134 219 204 134 219 204 134 219 204 134 219 204 134 219 204 134 219 204 134 219 204 134 219 204 134 219 204 134 219 204 134 219 204 134 219 204 134 219 204 134 219 204 134 219 204 134 219 204 134 219 204 134 219 204 134 219 204 134 219 204 134 219 204 134 219 204 134 219 204 134 219 204 134 219 204 134 219 204 134 219 204 134 219 204 134 219 204 134 219 204 134 219 204 134 219 204 134 219 204 134 219 204 134 219 204 134 219 204 134 219 204 134 219 204 134 219 204 134 219 204 134 219 204 134 219 204 134 219 204 134 219 204 134 219 204 134 219 204 134 219 204 134 219 204 134 219 204 134 219 204 134 219 204 134 219 204 134 219 204 134 219 204 134 219 204 134 219 204 134 219 204 134 219 204 134 219 204 134 219 204 134 219 204 134 219 204 134 219 204 134 219 204 134 219 204 134 219 204 134 219 204 134 219 204 134 219 204 134 219 204 134 219 204 134 219 204 134 219 204 134 219 204 134 219 204 134 219 204 134 219 204 134 219 204 134 219 204 134 219 204 134 219 204 134 219 204 134 219 204 134 219 204 134 219 204 134 219 204 134 219 204 134 219 204 134 219 204 134 219 204 134 219 204 134 219 204 134 219 204 134 219 204 134 219 204 134 219 204 134 219 204 134 219 204 134 219 204 134 219 204 134 219 204 134 219 204 134 219 204 134 219 204 134 219 204 134 219 204 134 219 204 134 219 204 134 219 204 134 219 204 134 219 204 134 219 204 134 219 204 134 219 204 134 219 204 134 219 204 134 219 204 134 219 204 134 219 204 134 219 204 134 219 204 134 219 204 134 219 204 134 219 204 134 219 204 134 219 204 134 219 204 134 219 204 134 219 204 134 219 204
134 219 204 134 219 204 134 219 204 134 219 204 134 219 204 134 219 204 134 219 204 134 219 204 134 219 204 134 219 204 134 219 204 134 219 204 134 219 204 134 219 204 134 219 204 134 219 204 134 219 204 134 219 204 134 219 204 134 219 204 134 219 204 134 219 204 134 219 204 134 219 204 134 219 204 134 219 204 134 219 204 134 219 204 134 219 204 134 219 204 134 219 204 134 219 204 134 219 204 134 219 204 134 219 204 134 219 204 134 219 204 134 219 204 134 219 204 134 219 204 134 219 204 134 219 204 134 219 204 134 219 204 134 219 204 134 219 204 134 219 204 134 219 204 134 219 204 134 219 204 134 219 204 134 219 204 134 219 204 134 219 204 134 219 204 134 219 204 134 219 204 134 219 204 134 219 204 134 219 204 134 219 204 134 219 204 134 219 204 134 219 204 134 219 204 134 219 204 134 219 204 134 219 204 134 219 204 134 219 204 134 219 204 134 219 204 134 219 204 134 219 204 134 219 204 134 219 204 134 219 204 134 219 204 134 219 204 134 219 204 134 219 204 134 219 204 134 219 204 134 219 204 134 219 204 134 219 204 134 219 204 134 219 204 134 219 204 134 219 204 134 219 204 134 219 204 134 219 204 134 219 204 134 219 204 134 219 204 134 219 204 134 219 204 134 219 204 134 219 204 134 219 204 134 219 204 134 219 204 134 219 204 134 219 204 134 219 204 134 219 204 134 219 204 134 219 204 134 219 204 134 219 204 134 219 204 134 219 204 134 219 204 134 219 204 134 219 204 134 219 204 134 219 204 134 219 204 134 219 204 134 219 204 134 219 204 134 219 204 134 219 204 134 219 204 134 219 204 134 219 204 134 219 204 134 219 204 134 219 204 134 219 204 134 219 204 134 219 204 134 219 204 134 219 204 134 219 204 134 219 204 134 219 204 134 219 204 134 219 204 134 219 204 134 219 204 134 219 204 134 219 204 134 219 204 134 219 204 134 219 204 134 219 204 134 219 204 134 219 204 134 219 204 134 219 204 134 219 204 134 219 204 134 219 204 134 219 204 134 219 204 134 219 204 134 219 204 134 219 204
134 219 204 134 219 204 134 219 204 134 219 204 134 219 204 134 219 204 134 219 204 134 219 204 134 219 204 134 219 204 134 219 204 134 219 204 134 219 204 134 219 204 134 219 204 134 219 204 134 219 204 134 219 204 134 219 204 134 219 204 134 219 204 134 219 204 134 219 204 134 219 204 134 219 204 134 219 204 134 219 204 134 219 204 134 219 204 134 219 204 134 219 204 134 219 204 134 219 204 134 219 204 134 219 204 134 219 204 134 219 204 134 219 204 134 219 204 134 219 204 134 219 204 134 219 204 134 219 204 134 219 204 134 219 204 134 219 204 134 219 204 134 219 204 134 219 204 134 219 204 134 219 204 134 219 204 134 219 204 134 219 204 134 219 204 134 219 204 134 219 204 134 219 204 134 219 204 134 219 204 134 219 204 134 219 204 134 219 204 134 219 204 134 219 204 134 219 204 134 219 204 134 219 204 134 219 204 134 219 204 134 219 204 134 219 204 134 219 204 134 219 204 134 219 204 134 219 204 134 219 204 134 219 204 134 219 204 134 219 204 134 219 204 134 219 204 134 219 204 134 219 204 134 219 204 134 219 204 134 219 204 134 219 204 134 219 204 134 219 204 134 219 204 134 219 204 134 219 204 134 219 204 134 219 204 134 219 204 134 219 204 134 219 204 134 219 204 134 219 204 134 219 204 134 219 204 134 219 204 134 219 204 134 219 204 134 219 204 134 219 204 134 219 204 134 219 204 134 219 204 134 219 204 134 219 204 134 219 204 134 219 204 134 219 204 134 219 204 134 219 204 134 219 204 134 219 204 134 219 204 134 219 204 134 219 204 134 219 204 134 219 204 134 219 204 134 219 204 134 219 204 134 219 204 134 219 204 134 219 204 134 219 204 134 219 204 134 219 204 134 219 204 134 219 204 134 219 204 134 219 204 134 219 204 134 219 204 134 219 204 134 219 204 134 219 204 134 219 204 134 219 204 134 219 204 134 219 204 134 219 204 134 219 204 134 219 204 134 219 204 134 219 204 134 219 204 134 219 204 134 219 204 134 219 204 134 219 204 134 219 204 134 219 204 134 219 204 134 219 204
134 219 204 134 219 204 134 219 204 134 219 204 134 219 204 134 219 204 134 219 204 134 219 204 134 219 204 134 219 204 134 219 204 134 219 204 134 219 204 134 219 204 134 219 204 134 219 204 134 219 204 134 219 204 134 219 204 134 219 204 134 219 204 134 219 204 134 219 204 134 219 204 134 219 204 134 219 204 134 219 204 134 219 204 134 219 204 134 219 204 134 219 204 134 219 204 134 219 204 134 219 204 134 219 204 134 219 204 134 219 204 134 219 204 134 219 204 134 219 204 134 219 204 134 219 204 134 219 204 134 219 204 134 219 204 134 219 204 134 219 204 134 219 204 134 219 204 134 219 204 134 219 204 134 219 204 134 219 204 134 219 204 134 219 204 134 219 204 134 219 204 134 219 204 134 219 204 134 219 204 134 219 204 134 219 204 134 219 204 134 219 204 134 219 204 134 219 204 134 219 204 134 219 204 134 219 204 134 219 204 134 219 204 134 219 204 134 219 204 134 219 204 134 219 204 134 219 204 134 219 204 134 219 204 134 219 204 134 219 204 134 219 204 134 219 204 134 219 204 134 219 204 134 219 204 134 219 204 134 219 204 134 219 204 134 219 204 134 219 204 134 219 204 134 219 204 134 219 204 134 219 204 134 219 204 134 219 204 134 219 204 134 219 204 134 219 204 134 219 204 134 219 204 134 219 204 134 219 204 134 219 204 134 219 204 134 219 204 134 219 204 134 219 204 134 219 204 134 219 204 134 219 204 134 219 204 134 219 204 134 219 204 134 219 204 134 219 204 134 219 204 134 219 204 134 219 204 134 219 204 134 219 204 134 219 204 134 219 204 134 219 204 134 219 204 134 219 204 134 219 204 134 219 204 134 219 204 134 219 204 134 219 204 134 219 204 134 219 204 134 219 204 134 219 204 134 219 204 134 219 204 134 219 204 134 219 204 134 219 204 134 219 204 134 219 204 134 219 204 134 219 204 134 219 204 134 219 204 134 219 204 134 219 204 134 219 204 134 219 204 134 219 204 134 219 204 134 219 204 134 219 204 134 219 204 134 219 204 134 219 204 134 219 204 134 219 204 134 219 204
134 219 204 134 219 204 134 219 204 134 219 204 134 219 204 134 219 204 134 219 204 134 219 204 134 219 204 134 219 204 134 219 204 134 219 204 134 219 204 134 219 204 134 219 204 134 219 204 134 219 204 134 219 204 134 219 204 134 219 204 134 219 204 134 219 204 134 219 204 134 219 204 134 219 204 134 219 204 134 219 204 134 219 204 134 219 204 134 219 204 134 219 204 134 219 204 134 219 204 134 219 204 134 219 204 134 219 204 134 219 204 134 219 204 134 219 204 134 219 204 134 219 204 134 219 204 134 219 204 134 219 204 134 219 204 134 219 204 134 219 204 134 219 204 134 219 204 134 219 204 134 219 204 134 219 204 134 219 204 134 219 204 134 219 204 134 219 204 134 219 204 134 219 204 134 219 204 134 219 204 134 219 204 134 219 204 134 219 204 134 219 204 134 219 204 134 219 204 134 219 204 134 219 204 134 219 204 134 219 204 134 219 204 134 219 204 134 219 204 134 219 204 134 219 204 134 219 204 134 219 204 134 219 204 134 219 204 134 219 204 134 219 204 134 219 204 134 219 204 134 219 204 134 219 204 134 219 204 134 219 204 134 219 204 134 219 204 134 219 204 134 219 204 134 219 204 134 219 204 134 219 204 134 219 204 134 219 204 134 219 204 134 219 204 134 219 204 134 219 204 134 219 204 134 219 204 134 219 204 134 219 204 134 219 204 134 219 204 134 219 204 134 219 204 134 219 204 134 219 204 134 219 204 134 219 204 134 219 204 134 219 204 134 219 204 134 219 204 134 219 204 134 219 204 134 219 204 134 219 204 134 219 204 134 219 204 134 219 204 134 219 204 134 219 204 134 219 204 134 219 204 134 219 204 134 219 204 134 219 204 134 219 204 134 219 204 134 219 204 134 219 204 134 219 204 134 219 204 134 219 204 134 219 204 134 219 204 134 219 204 134 219 204 134 219 204 134 219 204 134 219 204 134 219 204 134 219 204 134 219 204 134 219 204 134 219 204 134 219 204 134 219 204 134 219 204 134 219 204 134 219 204 134 219 204 134 219 204 134 219 204 134 219 204 134 219 204 134 219 204
134 219 204 134 219 204 134 219 204 134 219 204 134 219 204 134 219 204 134 219 204 134 219 204 134 219 204 134 219 204 134 219 204 134 219 204 134 219 204 134 219 204 134 219 204 134 219 204 134 219 204 134 219 204 134 219 204 134 219 204 134 219 204 134 219 204 134 219 204 134 219 204 134 219 204 134 219 204 134 219 204 134 219 204 134 219 204 134 219 204 134 219 204 134 219 204 134 219 204 134 219 204 134 219 204 134 219 204 134 219 204 134 219 204 134 219 204 134 219 204 134 219 204 134 219 204 134 219 204 134 219 204 134 219 204 134 219 204 134 219 204 134 219 204 134 219 204 134 219 204 134 219 204 134 219 204 134 219 204 134 219 204 134 219 204 134 219 204 134 219 204 134 219 204 134 219 204 134 219 204 134 219 204 134 219 204 134 219 204 134 219 204 134 219 204 134 219 204 134 219 204 134 219 204 134 219 204 134 219 204 134 219 204 134 219 204 134 219 204 134 219 204 134 219 204 134 219 204 134 219 204 134 219 204 134 219 204 134 219 204 134 219 204 134 219 204 134 219 204 134 219 204 134 219 204 134 219 204 134 219 204 134 219 204 134 219 204 134 219 204 134 219 204 134 219 204 134 219 204 134 219 204 134 219 204 134 219 204 134 219 204 134 219 204 134 219 204 134 219 204 134 219 204 134 219 204 134 219 204 134 219 204 134 219 204 134 219 204 134 219 204 134 219 204 134 219 204 134 219 204 134 219 204 134 219 204 134 219 204 134 219 204 134 219 204 134 219 204 134 219 204 134 219 204 134 219 204 134 219 204 134 219 204 134 219 204 134 219 204 134 219 204 134 219 204 134 219 204 134 219 204 134 219 204 134 219 204 134 219 204 134 219 204 134 219 204 134 219 204 134 219 204 134 219 204 134 219 204 134 219 204 134 219 204 134 219 204 134 219 204 134 219 204 134 219 204 134 219 204 134 219 204 134 219 204 134 219 204 134 219 204 134 219 204 134 219 204 134 219 204 134 219 204 134 219 204 134 219 204 134 219 204 134 219 204 134 219 204 134 219 204 134 219 204 134 219 204 134 219 204
134 219 204 134 219 204 134 219 204 134 219 204 134 219 204 134 219 204 134 219 204 134 219 204 134 219 204 134 219 204 134 219 204 134 219 204 134 219 204 134 219 204 134 219 204 134 219 204 134 219 204 134 219 204 134 219 204 134 219 204 134 219 204 134 219 204 134 219 204 134 219 204 134 219 204 134 219 204 134 219 204 134 219 204 134 219 204 134 219 204 134 219 204 134 219 204 134 219 204 134 219 204 134 219 204 134 219 204 134 219 204 134 219 204 134 219 204 134 219 204 134 219 204 134 219 204 134 219 204 134 219 204 134 219 204 134 219 204 134 219 204 134 219 204 134 219 204 134 219 204 134 219 204 134 219 204 134 219 204 134 219 204 134 219 204 134 219 204 134 219 204 134 219 204 134 219 204 134 219 204 134 219 204 134 219 204 134 219 204 134 219 204 134 219 204 134 219 204 134 219 204 134 219 204 134 219 204 134 219 204 134 219 204 134 219 204 134 219 204 134 219 204 134 219 204 134 219 204 134 219 204 134 219 204 134 219 204 134 219 204 134 219 204 134 219 204 134 219 204 134 219 204 134 219 204 134 219 204 134 219 204 134 219 204 134 219 204 134 219 204 134 219 204 134 219 204 134 219 204 134 219 204 134 219 204 134 219 204 134 219 204 134 219 204 134 219 204 134 219 204 134 219 204 134 219 204 134 219 204 134 219 204 134 219 204 134 219 204 134 219 204 134 219 204 134 219 204 134 219 204 134 219 204 134 219 204 134 219 204 134 219 204 134 219 204 134 219 204 134 219 204 134 219 204 134 219 204 134 219 204 134 219 204 134 219 204 134 219 204 134 219 204 134 219 204 134 219 204 134 219 204 134 219 204 134 219 204 134 219 204 134 219 204 134 219 204 134 219 204 134 219 204 134 219 204 134 219 204 134 219 204 134 219 204 134 219 204 134 219 204 134 219 204 134 219 204 134 219 204 134 219 204 134 219 204 134 219 204 134 219 204 134 219 204 134 219 204 134 219 204 134 219 204 134 219 204 134 219 204 134 219 204 134 219 204 134 219 204 134 219 204 134 219 204 134 219 204 134 219 204
134 219 204 134 219 204 134 219 204 134 219 204 134 219 204 134 219 204 134 219 204 134 219 204 134 219 204 134 219 204 134 219 204 134 219 204 134 219 204 134 219 204 134 219 204 134 219 204 134 219 204 134 219 204 134 219 204 134 219 204 134 219 204 134 219 204 134 219 204 134 219 204 134 219 204 134 219 204 134 219 204 134 219 204 134 219 204 134 219 204 134 219 204 134 219 204 134 219 204 134 219 204 134 219 204 134 219 204 134 219 204 134 219 204 134 219 204 134 219 204 134 219 204 134 219 204 134 219 204 134 219 204 134 219 204 134 219 204 134 219 204 134 219 204 134 219 204 134 219 204 134 219 204 134 219 204 134 219 204 134 219 204 134 219 204 134 219 204 134 219 204 134 219 204 134 219 204 134 219 204 134 219 204 134 219 204 134 219 204 134 219 204 134 219 204 134 219 204 134 219 204 134 219 204 134 219 204 134 219 204 134 219 204 134 219 204 134 219 204 134 219 204 134 219 204 134 219 204 134 219 204 134 219 204 134 219 204 134 219 204 134 219 204 134 219 204 134 219 204 134 219 204 134 219 204 134 219 204 134 219 204 134 219 204 134 219 204 134 219 204 134 219 204 134 219 204 134 219 204 134 219 204 134 219 204 134 219 204 134 219 204 134 219 204 134 219 204 134 219 204 134 219 204 134 219 204 134 219 204 134 219 204 134 219 204 134 219 204 134 219 204 134 219 204 134 219 204 134 219 204 134 219 204 134 219 204 134 219 204 134 219 204 134 219 204 134 219 204 134 219 204 134 219 204 134 219 204 134 219 204 134 219 204 134 219 204 134 219 204 134 219 204 134 219 204 134 219 204 134 219 204 134 219 204 134 219 204 134 219 204 134 219 204 134 219 204 134 219 204 134 219 204 134 219 204 134 219 204 134 219 204 134 219 204 134 219 204 134 219 204 134 219 204 134 219 204 134 219 204 134 219 204 134 219 204 134 219 204 134 219 204 134 219 204 134 219 204 134 219 204 134 219 204 134 219 204 134 219 204 134 219 204 134 219 204 134 219 204 134 219 204 134 219 204 134 219 204 134 219 204
134 219 204 134 219 204 134 219 204 134 219 204 134 219 204 134 219 204 134 219 204 134 219 204 134 219 204 134 219 204 134 219 204 134 219 204 134 219 204 134 219 204 134 219 204 134 219 204 134 219 204 134 219 204 134 219 204 134 219 204 134 219 204 134 219 204 134 219 204 134 219 204 134 219 204 134 219 204 134 219 204 134 219 204 134 219 204 134 219 204 134 219 204 134 219 204 134 219 204 134 219 204 134 219 204 134 219 204 134 219 204 134 219 204 134 219 204 134 219 204 134 219 204 134 219 204 134 219 204 134 219 204 134 219 204 134 219 204 134 219 204 134 219 204 134 219 204 134 219 204 134 219 204 134 219 204 134 219 204 134 219 204 134 219 204 134 219 204 134 219 204 134 219 204 134 219 204 134 219 204 134 219 204 134 219 204 134 219 204 134 219 204 134 219 204 134 219 204 134 219 204 134 219 204 134 219 204 134 219 204 134 219 204 134 219 204 134 219 204 134 219 204 134 219 204 134 219 204 134 219 204 134 219 204 134 219 204 134 219 204 134 219 204 134 219 204 134 219 204 134 219 204 134 219 204 134 219 204 134 219 204 134 219 204 134 219 204 134 219 204 134 219 204 134 219 204 134 219 204 134 219 204 134 219 204 134 219 204 134 219 204 134 219 204 134 219 204 134 219 204 134 219 204 134 219 204 134 219 204 134 219 204 134 219 204 134 219 204 134 219 204 134 219 204 134 219 204 134 219 204 134 219 204 134 219 204 134 219 204 134 219 204 134 219 204 134 219 204 134 219 204 134 219 204 134 219 204 134 219 204 134 219 204 134 219 204 134 219 204 134 219 204 134 219 204 134 219 204 134 219 204 134 219 204 134 219 204 134 219 204 134 219 204 134 219 204 134 219 204 134 219 204 134 219 204 134 219 204 134 219 204 134 219 204 134 219 204 134 219 204 134 219 204 134 219 204 134 219 204 134 219 204 134 219 204 134 219 204 134 219 204 134 219 204 134 219 204 134 219 204 134 219 204 134 219 204 134 219 204 134 219 204 134 219 204 134 219 204 134 219 204 134 219 204 134 219 204 134 219 204
134 219 204 134 219 204 134 219 204 134 219 204 134 219 204 134 219 204 134 219 204 134 219 204 134 219 204 134 219 204 134 219 204 134 219 204 134 219 204 134 219 204 134 219 204 134 219 204 134 219 204 134 219 204 134 219 204 134 219 204 134 219 204 134 219 204 134 219 204 134 219 204 134 219 204 134 219 204 134 219 204 134 219 204 134 219 204 134 219 204 134 219 204 134 219 204 134 219 204 134 219 204 134 219 204 134 219 204 134 219 204 134 219 204 134 219 204 134 219 204 134 219 204 134 219 204 134 219 204 134 219 204 134 219 204 134 219 204 134 219 204 134 219 204 134 219 204 134 219 204 134 219 204 134 219 204 134 219 204 134 219 204 134 219 204 134 219 204 134 219 204 134 219 204 134 219 204 134 219 204 134 219 204 134 219 204 134 219 204 134 219 204 134 219 204 134 219 204 134 219 204 134 219 204 134 219 204 134 219 204 134 219 204 134 219 204 134 219 204 134 219 204 134 219 204 134 219 204 134 219 204 134 219 204 134 219 204 134 219 204 134 219 204 134 219 204 134 219 204 134 219 204 134 219 204 134 219 204 134 219 204 134 219 204 134 219 204 134 219 204 134 219 204 134 219 204 134 219 204 134 219 204 134 219 204 134 219 204 134 219 204 134 219 204 134 219 204 134 219 204 134 219 204 134 219 204 134 219 204 134 219 204 134 219 204 134 219 204 134 219 204 134 219 204 134 219 204 134 219 204 134 219 204 134 219 204 134 219 204 134 219 204 134 219 204 134 219 204 134 219 204 134 219 204 134 219 204 134 219 204 134 219 204 134 219 204 134 219 204 134 219 204 134 219 204 134 219 204 134 219 204 134 219 204 134 219 204 134 219 204 134 219 204 134 219 204 134 219 204 134 219 204 134 219 204 134 219 204 134 219 204 134 219 204 134 219 204 134 219 204 134 219 204 134 219 204 134 219 204 134 219 204 134 219 204 134 219 204 134 219 204 134 219 204 134 219 204 134 219 204 134 219 204 134 219 204 134 219 204 134 219 204 134 219 204 134 219 204 134 219 204 134 219 204 134 219 204 134 219 204
134 219 204 134 219 204 134 219 204 134 219 204 134 219 204 134 219 204 134 219 204 134 219 204 134 219 204 134 219 204 134 219 204 134 219 204 134 219 204 134 219 204 134 219 204 134 219 204 134 219 204 134 219 204 134 219 204 134 219 204 134 219 204 134 219 204 134 219 204 134 219 204 134 219 204 134 219 204 134 219 204 134 219 204 134 219 204 134 219 204 134 219 204 134 219 204 134 219 204 134 219 204 134 219 204 134 219 204 134 219 204 134 219 204 134 219 204 134 219 204 134 219 204 134 219 204 134 219 204 134 219 204 134 219 204 134 219 204 134 219 204 134 219 204 134 219 204 134 219 204 134 219 204 134 219 204 134 219 204 134 219 204 134 219 204 134 219 204 134 219 204 134 219 204 134 219 204 134 219 204 134 219 204 134 219 204 134 219 204 134 219 204 134 219 204 134 219 204 134 219 204 134 219 204 134 219 204 134 219 204 134 219 204 134 219 204 134 219 204 134 219 204 134 219 204 134 219 204 134 219 204 134 219 204 134 219 204 134 219 204 134 219 204 134 219 204 134 219 204 134 219 204 134 219 204 134 219 204 134 219 204 134 219 204 134 219 204 134 219 204 134 219 204 134 219 204 134 219 204 134 219 204 134 219 204 134 219 204 134 219 204 134 219 204 134 219 204 134 219 204 134 219 204 134 219 204 134 219 204 134 219 204 134 219 204 134 219 204 134 219 204 134 219 204 134 219 204 134 219 204 134 219 204 134 219 204 134 219 204 134 219 204 134 219 204 134 219 204 134 219 204 134 219 204 134 219 204 134 219 204 134 219 204 134 219 204 134 219 204 134 219 204 134 219 204 134 219 204 134 219 204 134 219 204 134 219 204 134 219 204 134 219 204 134 219 204 134 219 204 134 219 204 134 219 204 134 219 204 134 219 204 134 219 204 134 219 204 134 219 204 134 219 204 134 219 204 134 219 204 134 219 204 134 219 204 134 219 204 134 219 204 134 219 204 134 219 204 134 219 204 134 219 204 134 219 204 134 219 204 134 219 204 134 219 204 134 219 204 134 219 204 134 219 204 134 219 204 134 219 204
134 219 204 134 219 204 134 219 204 134 219 204 134 219 204 134 219 204 134 219 204 134 219 204 134 219 204 134 219 204 134 219 204 134 219 204 134 219 204 134 219 204 134 219 204 134 219 204 134 219 204 134 219 204 134 219 204 134 219 204 134 219 204 134 219 204 134 219 204 134 219 204 134 219 204 134 219 204 134 219 204 134 219 204 134 219 204 134 219 204 134 219 204 134 219 204 134 219 204 134 219 204 134 219 204 134 219 204 134 219 204 134 219 204 134 219 204 134 219 204 134 219 204 134 219 204 134 219 204 134 219 204 134 219 204 134 219 204 134 219 204 134 219 204 134 219 204 134 219 204 134 219 204 134 219 204 134 219 204 134 219 204 134 219 204 134 219 204 134 219 204 134 219 204 134 219 204 134 219 204 134 219 204 134 219 204 134 219 204 134 219 204 134 219 204 134 219 204 134 219 204 134 219 204 134 219 204 134 219 204 134 219 204 134 219 204 134 219 204 134 219 204 134 219 204 134 219 204 134 219 204 134 219 204 134 219 204 134 219 204 134 219 204 134 219 204 134 219 204 134 219 204 134 219 204 134 219 204 134 219 204 134 219 204 134 219 204 134 219 204 134 219 204 134 219 204 134 219 204 134 219 204 134 219 204 134 219 204 134 219 204 134 219 204 134 219 204 134 219 204 134 219 204 134 219 204 134 219 204 134 219 204 134 219 204 134 219 204 134 219 204 134 219 204 134 219 204 134 219 204 134 219 204 134 219 204 134 219 204 134 219 204 134 219 204 134 219 204 134 219 204 134 219 204 134 219 204 134 219 204 134 219 204 134 219 204 134 219 204 134 219 204 134 219 204 134 219 204 134 219 204 134 219 204 134 219 204 134 219 204 134 219 204 134 219 204 134 219 204 134 219 204 134 219 204 134 219 204 134 219 204 134 219 204 134 219 204 134 219 204 134 219 204 134 219 204 134 219 204 134 219 204 134 219 204 134 219 204 134 219 204 134 219 204 134 219 204 134 219 204 134 219 204 134 219 204 134 219 204 134 219 204 134 219 204 134 219 204 134 219 204 134 219 204 134 219 204 134 219 204
134 219 204 134 219 204 134 219 204 134 219 204 134 219 204 134 219 204 134 219 204 134 219 204 134 219 204 134 219 204 134 219 204 134 219 204 134 219 204 134 219 204 134 219 204 134 219 204 134 219 204 134 219 204 134 219 204 134 219 204 134 219 204 134 219 204 134 219 204 134 219 204 134 219 204 134 219 204 134 219 204 134 219 204 134 219 204 134 219 204 134 219 204 134 219 204 134 219 204 134 219 204 134 219 204 134 219 204 134 219 204 134 219 204 134 219 204 134 219 204 134 219 204 134 219 204 134 219 204 134 219 204 134 219 204 134 219 204 134 219 204 134 219 204 134 219 204 134 219 204 134 219 204 134 219 204 134 219 204 134 219 204 134 219 204 134 219 204 134 219 204 134 219 204 134 219 204 134 219 204 134 219 204 134 219 204 134 219 204 134 219 204 134 219 204 134 219 204 134 219 204 134 219 204 134 219 204 134 219 204 134 219 204 134 219 204 134 219 204 134 219 204 134 219 204 134 219 204 134 219 204 134 219 204 134 219 204 134 219 204 134 219 204 134 219 204 134 219 204 134 219 204 134 219 204 134 219 204 134 219 204 134 219 204 134 219 204 134 219 204 134 219 204 134 219 204 134 219 204 134 219 204 134 219 204 134 219 204 134 219 204 134 219 204 134 219 204 134 219 204 134 219 204 134 219 204 134 219 204 134 219 204 134 219 204 134 219 204 134 219 204 134 219 204 134 219 204 134 219 204 134 219 204 134 219 204 134 219 204 134 219 204 134 219 204 134 219 204 134 219 204 134 219 204 134 219 204 134 219 204 134 219 204 134 219 204 134 219 204 134 219 204 134 219 204 134 219 204 134 219 204 134 219 204 134 219 204 134 219 204 134 219 204 134 219 204 134 219 204 134 219 204 134 219 204 134 219 204 134 219 204 134 219 204 134 219 204 134 219 204 134 219 204 134 219 204 134 219 204 134 219 204 134 219 204 134 219 204 134 219 204 134 219 204 134 219 204 134 219 204 134 219 204 134 219 204 134 219 204 134 219 204 134 219 204 134 219 204 134 219 204 134 219 204 134 219 204 134 219 204
134 219 204 134 219 204 134 219 204 134 219 204 134 219 204 134 219 204 134 219 204 134 219 204 134 219 204 134 219 204 134 219 204 134 219 204 134 219 204 134 219 204 134 219 204 134 219 204 134 219 204 134 219 204 134 219 204 134 219 204 134 219 204 134 219 204 134 219 204 134 219 204 134 219 204 134 219 204 134 219 204 134 219 204 134 219 204 134 219 204 134 219 204 134 219 204 134 219 204 134 219 204 134 219 204 134 219 204 134 219 204 134 219 204 134 219 204 134 219 204 134 219 204 134 219 204 134 219 204 134 219 204 134 219 204 134 219 204 134 219 204 134 219 204 134 219 204 134 219 204 134 219 204 134 219 204 134 219 204 134 219 204 134 219 204 134 219 204 134 219 204 134 219 204 134 219 204 134 219 204 134 219 204 134 219 204 134 219 204 134 219 204 134 219 204 134 219 204 134 219 204 134 219 204 134 219 204 134 219 204 134 219 204 134 219 204 134 219 204 134 219 204 134 219 204 134 219 204 134 219 204 134 219 204 134 219 204 134 219 204 134 219 204 134 219 204 134 219 204 134 219 204 134 219 204 134 219 204 134 219 204 134 219 204 134 219 204 134 219 204 134 219 204 134 219 204 134 219 204 134 219 204 134 219 204 134 219 204 134 219 204 134 219 204 134 219 204 134 219 204 134 219 204 134 219 204 134 219 204 134 219 204 134 219 204 134 219 204 134 219 204 134 219 204 134 219 204 134 219 204 134 219 204 134 219 204 134 219 204 134 219 204 134 219 204 134 219 204 134 219 204 134 219 204 134 219 204 134 219 204 134 219 204 134 219 204 134 219 204 134 219 204 134 219 204 134 219 204 134 219 204 134 219 204 134 219 204 134 219 204 134 219 204 134 219 204 134 219 204 134 219 204 134 219 204 134 219 204 134 219 204 134 219 204 134 219 204 134 219 204 134 219 204 134 219 204 134 219 204 134 219 204 134 219 204 134 219 204 134 219 204 134 219 204 134 219 204 134 219 204 134 219 204 134 219 204 134 219 204 134 219 204 134 219 204 134 219 204 134 219 204 134 219 204 134 219 204 134 219 204
134 219 204 134 219 204 134 219 204 134 219 204 134 219 204 134 219 204 134 219 204 134 219 204 134 219 204 134 219 204 134 219 204 134 219 204 134 219 204 134 219 204 134 219 204 134 219 204 134 219 204 134 219 204 134 219 204 134 219 204 134 219 204 134 219 204 134 219 204 134 219 204 134 219 204 134 219 204 134 219 204 134 219 204 134 219 204 134 219 204 134 219 204 134 219 204 134 219 204 134 219 204 134 219 204 134 219 204 134 219 204 134 219 204 134 219 204 134 219 204 134 219 204 134 219 204 134 219 204 134 219 204 134 219 204 134 219 204 134 219 204 134 219 204 134 219 204 134 219 204 134 219 204 134 219 204 134 219 204 134 219 204 134 219 204 134 219 204 134 219 204 134 219 204 134 219 204 134 219 204 134 219 204 134 219 204 134 219 204 134 219 204 134 219 204 134 219 204 134 219 204 134 219 204 134 219 204 134 219 204 134 219 204 134 219 204 134 219 204 134 219 204 134 219 204 134 219 204 134 219 204 134 219 204 134 219 204 134 219 204 134 219 204 134 219 204 134 219 204 134 219 204 134 219 204 134 219 204 134 219 204 134 219 204 134 219 204 134 219 204 134 219 204 134 219 204 134 219 204 134 219 204 134 219 204 134 219 204 134 219 204 134 219 204 134 219 204 134 219 204 134 219 204 134 219 204 134 219 204 134 219 204 134 219 204 134 219 204 134 219 204 134 219 204 134 219 204 134 219 204 134 219 204 134 219 204 134 219 204 134 219 204 134 219 204 134 219 204 134 219 204 134 219 204 134 219 204 134 219 204 134 219 204 134 219 204 134 219 204 134 219 204 134 219 204 134 219 204 134 219 204 134 219 204 134 219 204 134 219 204 134 219 204 134 219 204 134 219 204 134 219 204 134 219 204 134 219 204 134 219 204 134 219 204 134 219 204 134 219 204 134 219 204 134 219 204 134 219 204 134 219 204 134 219 204 134 219 204 134 219 204 134 219 204 134 219 204 134 219 204 134 219 204 134 219 204 134 219 204 134 219 204 134 219 204 134 219 204 134 219 204 134 219 204 134 219 204 134 219 204
134 219 204 134 219 204 134 219 204 134 219 204 134 219 204 134 219 204 134 219 204 134 219 204 134 219 204 134 219 204 134 219 204 134 219 204 134 219 204 134 219 204 134 219 204 134 219 204 134 219 204 134 219 204 134 219 204 134 219 204 134 219 204 134 219 204 134 219 204 134 219 204 134 219 204 134 219 204 134 219 204 134 219 204 134 219 204 134 219 204 134 219 204 134 219 204 134 219 204 134 219 204 134 219 204 134 219 204 134 219 204 134 219 204 134 219 204 134 219 204 134 219 204 134 219 204 134 219 204 134 219 204 134 219 204 134 219 204 134 219 204 134 219 204 134 219 204 134 219 204 134 219 204 134 219 204 134 219 204 134 219 204 134 219 204 134 219 204 134 219 204 134 219 204 134 219 204 134 219 204 134 219 204 134 219 204 134 219 204 134 219 204 134 219 204 134 219 204 134 219 204 134 219 204 134 219 204 134 219 204 134 219 204 134 219 204 134 219 204 134 219 204 134 219 204 134 219 204 134 219 204 134 219 204 134 219 204 134 219 204 134 219 204 134 219 204 134 219 204 134 219 204 134 219 204 134 219 204 134 219 204 134 219 204 134 219 204 134 219 204 134 219 204 134 219 204 134 219 204 134 219 204 134 219 204 134 219 204 134 219 204 134 219 204 134 219 204 134 219 204 134 219 204 134 219 204 134 219 204 134 219 204 134 219 204 134 219 204 134 219 204 134 219 204 134 219 204 134 219 204 134 219 204 134 219 204 134 219 204 134 219 204 134 219 204 134 219 204 134 219 204 134 219 204 134 219 204 134 219 204 134 219 204 134 219 204 134 219 204 134 219 204 134 219 204 134 219 204 134 219 204 134 219 204 134 219 204 134 219 204 134 219 204 134 219 204 134 219 204 134 219 204 134 219 204 134 219 204 134 219 204 134 219 204 134 219 204 134 219 204 134 219 204 134 219 204 134 219 204 134 219 204 134 219 204 134 219 204 134 219 204 134 219 204 134 219 204 134 219 204 134 219 204 134 219 204 134 219 204 134 219 204 134 219 204 134 219 204 134 219 204 134 219 204 134 219 204 134 219 204
134 219 204 134 219 204 134 219 204 134 219 204 134 219 204 134 219 204 134 219 204 134 219 204 134 219 204 134 219 204 134 219 204 134 219 204 134 219 204 134 219 204 134 219 204 134 219 204 134 219 204 134 219 204 134 219 204 134 219 204 134 219 204 134 219 204 134 219 204 134 219 204 134 219 204 134 219 204 134 219 204 134 219 204 134 219 204 134 219 204 134 219 204 134 219 204 134 219 204 134 219 204 134 219 204 134 219 204 134 219 204 134 219 204 134 219 204 134 219 204 134 219 204 134 219 204 134 219 204 134 219 204 134 219 204 134 219 204 134 219 204 134 219 204 134 219 204 134 219 204 134 219 204 134 219 204 134 219 204 134 219 204 134 219 204 134 219 204 134 219 204 134 219 204 134 219 204 134 219 204 134 219 204 134 219 204 134 219 204 134 219 204 134 219 204 134 219 204 134 219 204 134 219 204 134 219 204 134 219 204 134 219 204 134 219 204 134 219 204 134 219 204 134 219 204 134 219 204 134 219 204 134 219 204 134 219 204 134 219 204 134 219 204 134 219 204 134 219 204 134 219 204 134 219 204 134 219 204 134 219 204 134 219 204 134 219 204 134 219 204 134 219 204 134 219 204 134 219 204 134 219 204 134 219 204 134 219 204 134 219 204 134 219 204 134 219 204 134 219 204 134 219 204 134 219 204 134 219 204 134 219 204 134 219 204 134 219 204 134 219 204 134 219 204 134 219 204 134 219 204 134 219 204 134 219 204 134 219 204 134 219 204 134 219 204 134 219 204 134 219 204 134 219 204 134 219 204 134 219 204 134 219 204 134 219 204 134 219 204 134 219 204 134 219 204 134 219 204 134 219 204 134 219 204 134 219 204 134 219 204 134 219 204 134 219 204 134 219 204 134 219 204 134 219 204 134 219 204 134 219 204 134 219 204 134 219 204 134 219 204 134 219 204 134 219 204 134 219 204 134 219 204 134 219 204 134 219 204 134 219 204 134 219 204 134 219 204 134 219 204 134 219 204 134 219 204 134 219 204 134 219 204 134 219 204 134 219 204 134 219 204 134 219 204 134 219 204 134 219 204
134 219 204 134 219 204 134 219 204 134 219 204 134 219 204 134 219 204 134 219 204 134 219 204 134 219 204 134 219 204 134 219 204 134 219 204 134 219 204 134 219 204 134 219 204 134 219 204 134 219 204 134 219 204 134 219 204 134 219 204 134 219 204 134 219 204 134 219 204 134 219 204 134 219 204 134 219 204 134 219 204 134 219 204 134 219 204 134 219 204 134 219 204 134 219 204 134 219 204 134 219 204 134 219 204 134 219 204 134 219 204 134 219 204 134 219 204 134 219 204 134 219 204 134 219 204 134 219 204 134 219 204 134 219 204 134 219 204 134 219 204 134 219 204 134 219 204 134 219 204 134 219 204 134 219 204 134 219 204 134 219 204 134 219 204 134 219 204 134 219 204 134 219 204 134 219 204 134 219 204 134 219 204 134 219 204 134 219 204 134 219 204 134 219 204 134 219 204 134 219 204 134 219 204 134 219 204 134 219 204 134 219 204 134 219 204 134 219 204 134 219 204 134 219 204 134 219 204 134 219 204 134 219 204 134 219 204 134 219 204 134 219 204 134 219 204 134 219 204 134 219 204 134 219 204 134 219 204 134 219 204 134 219 204 134 219 204 134 219 204 134 219 204 134 219 204 134 219 204 134 219 204 134 219 204 134 219 204 134 219 204 134 219 204 134 219 204 134 219 204 134 219 204 134 219 204 134 219 204 134 219 204 134 219 204 134 219 204 134 219 204 134 219 204 134 219 204 134 219 204 134 219 204 134 219 204 134 219 204 134 219 204 134 219 204 134 219 204 134 219 204 134 219 204 134 219 204 134 219 204 134 219 204 134 219 204 134 219 204 134 219 204 134 219 204 134 219 204 134 219 204 134 219 204 134 219 204 134 219 204 134 219 204 134 219 204 134 219 204 134 219 204 134 219 204 134 219 204 134 219 204 134 219 204 134 219 204 134 219 204 134 219 204 134 219 204 134 219 204 134 219 204 134 219 204 134 219 204 134 219 204 134 219 204 134 219 204 134 219 204 134 219 204 134 219 204 134 219 204 134 219 204 134 219 204 134 219 204 134 219 204 134 219 204 134 219 204 134 219 204
134 219 204 134 219 204 134 219 204 134 219 204 134 219 204 134 219 204 134 219 204 134 219 204 134 219 204 134 219 204 134 219 204 134 219 204 134 219 204 134 219 204 134 219 204 134 219 204 134 219 204 134 219 204 134 219 204 134 219 204 134 219 204 134 219 204 134 219 204 134 219 204 134 219 204 134 219 204 134 219 204 134 219 204 134 219 204 134 219 204 134 219 204 134 219 204 134 219 204 134 219 204 134 219 204 134 219 204 134 219 204 134 219 204 134 219 204 134 219 204 134 219 204 134 219 204 134 219 204 134 219 204 134 219 204 134 219 204 134 219 204 134 219 204 134 219 204 134 219 204 134 219 204 134 219 204 134 219 204 134 219 204 134 219 204 134 219 204 134 219 204 134 219 204 134 219 204 134 219 204 134 219 204 134 219 204 134 219 204 134 219 204 134 219 204 134 219 204 134 219 204 134 219 204 134 219 204 134 219 204 134 219 204 134 219 204 134 219 204 134 219 204 134 219 204 134 219 204 134 219 204 134 219 204 134 219 204 134 219 204 134 219 204 134 219 204 134 219 204 134 219 204 134 219 204 134 219 204 134 219 204 134 219 204 134 219 204 134 219 204 134 219 204 134 219 204 134 219 204 134 219 204 134 219 204 134 219 204 134 219 204 134 219 204 134 219 204 134 219 204 134 219 204 134 219 204 134 219 204 134 219 204 134 219 204 134 219 204 134 219 204 134 219 204 134 219 204 134 219 204 134 219 204 134 219 204 134 219 204 134 219 204 134 219 204 134 219 204 134 219 204 134 219 204 134 219 204 134 219 204 134 219 204 134 219 204 134 219 204 134 219 204 134 219 204 134 219 204 134 219 204 134 219 204 134 219 204 134 219 204 134 219 204 134 219 204 134 219 204 134 219 204 134 219 204 134 219 204 134 219 204 134 219 204 134 219 204 134 219 204 134 219 204 134 219 204 134 219 204 134 219 204 134 219 204 134 219 204 134 219 204 134 219 204 134 219 204 134 219 204 134 219 204 134 219 204 134 219 204 134 219 204 134 219 204 134 219 204 134 219 204 134 219 204 134 219 204 134 219 204
134 219 204 134 219 204 134 219 204 134 219 204 134 219 204 134 219 204 134 219 204 134 219 204 134 219 204 134 219 204 134 219 204 134 219 204 134 219 204 134 219 204 134 219 204 134 219 204 134 219 204 134 219 204 134 219 204 134 219 204 134 219 204 134 219 204 134 219 204 134 219 204 134 219 204 134 219 204 134 219 204 134 219 204 134 219 204 134 219 204 134 219 204 134 219 204 134 219 204 134 219 204 134 219 204 134 219 204 134 219 204 134 219 204 134 219 204 134 219 204 134 219 204 134 219 204 134 219 204 134 219 204 134 219 204 134 219 204 134 219 204 134 219 204 134 219 204 134 219 204 134 219 204 134 219 204 134 219 204 134 219 204 134 219 204 134 219 204 134 219 204 134 219 204 134 219 204 134 219 204 134 219 204 134 219 204 134 219 204 134 219 204 134 219 204 134 219 204 134 219 204 134 219 204 134 219 204 134 219 204 134 219 204 134 219 204 134 219 204 134 219 204 134 219 204 134 219 204 134 219 204 134 219 204 134 219 204 134 219 204 134 219 204 134 219 204 134 219 204 134 219 204 134 219 204 134 219 204 134 219 204 134 219 204 134 219 204 134 219 204 134 219 204 134 219 204 134 219 204 134 219 204 134 219 204 134 219 204 134 219 204 134 219 204 134 219 204 134 219 204 134 219 204 134 219 204 134 219 204 134 219 204 134 219 204 134 219 204 134 219 204 134 219 204 134 219 204 134 219 204 134 219 204 134 219 204 134 219 204 134 219 204 134 219 204 134 219 204 134 219 204 134 219 204 134 219 204 134 219 204 134 219 204 134 219 204 134 219 204 134 219 204 134 219 204 134 219 204 134 219 204 134 219 204 134 219 204 134 219 204 134 219 204 134 219 204 134 219 204 134 219 204 134 219 204 134 219 204 134 219 204 134 219 204 134 219 204 134 219 204 134 219 204 134 219 204 134 219 204 134 219 204 134 219 204 134 219 204 134 219 204 134 219 204 134 219 204 134 219 204 134 219 204 134 219 204 134 219 204 134 219 204 134 219 204 134 219 204 134 219 204 134 219 204 134 219 204 134 219 204
134 219 204 134 219 204 134 219 204 134 219 204 134 219 204 134 219 204 134 219 204 134 219 204 134 219 204 134 219 204 134 219 204 134 219 204 134 219 204 134 219 204 134 219 204 134 219 204 134 219 204 134 219 204 134 219 204 134 219 204 134 219 204 134 219 204 134 219 204 134 219 204 134 219 204 134 219 204 134 219 204 134 219 204 134 219 204 134 219 204 134 219 204 134 219 204 134 219 204 134 219 204 134 219 204 134 219 204 134 219 204 134 219 204 134 219 204 134 219 204 134 219 204 134 219 204 134 219 204 134 219 204 134 219 204 134 219 204 134 219 204 134 219 204 134 219 204 134 219 204 134 219 204 134 219 204 134 219 204 134 219 204 134 219 204 134 219 204 134 219 204 134 219 204 134 219 204 134 219 204 134 219 204 134 219 204 134 219 204 134 219 204 134 219 204 134 219 204 134 219 204 134 219 204 134 219 204 134 219 204 134 219 204 134 219 204 134 219 204 134 219 204 134 219 204 134 219 204 134 219 204 134 219 204 134 219 204 134 219 204 134 219 204 134 219 204 134 219 204 134 219 204 134 219 204 134 219 204 134 219 204 134 219 204 134 219 204 134 219 204 134 219 204 134 219 204 134 219 204 134 219 204 134 219 204 134 219 204 134 219 204 134 219 204 134 219 204 134 219 204 134 219 204 134 219 204 134 219 204 134 219 204 134 219 204 134 219 204 134 219 204 134 219 204 134 219 204 134 219 204 134 219 204 134 219 204 134 219 204 134 219 204 134 219 204 134 219 204 134 219 204 134 219 204 134 219 204 134 219 204 134 219 204 134 219 204 134 219 204 134 219 204 134 219 204 134 219 204 134 219 204 134 219 204 134 219 204 134 219 204 134 219 204 134 219 204 134 219 204 134 219 204 134 219 204 134 219 204 134 219 204 134 219 204 134 219 204 134 219 204 134 219 204 134 219 204 134 219 204 134 219 204 134 219 204 134 219 204 134 219 204 134 219 204 134 219 204 134 219 204 134 219 204 134 219 204 134 219 204 134 219 204 134 219 204 134 219 204 134 219 204 134 219 204 134 219 204 134 219 204
134 219 204 134 219 204 134 219 204 134 219 204 134 219 204 134 219 204 134 219 204 134 219 204 134 219 204 134 219 204 134 219 204 134 219 204 134 219 204 134 219 204 134 219 204 134 219 204 134 219 204 134 219 204 134 219 204 134 219 204 134 219 204 134 219 204 134 219 204 134 219 204 134 219 204 134 219 204 134 219 204 134 219 204 134 219 204 134 219 204 134 219 204 134 219 204 134 219 204 134 219 204 134 219 204 134 219 204 134 219 204 134 219 204 134 219 204 134 219 204 134 219 204 134 219 204 134 219 204 134 219 204 134 219 204 134 219 204 134 219 204 134 219 204 134 219 204 134 219 204 134 219 204 134 219 204 134 219 204 134 219 204 134 219 204 134 219 204 134 219 204 134 219 204 134 219 204 134 219 204 134 219 204 134 219 204 134 219 204 134 219 204 134 219 204 134 219 204 134 219 204 134 219 204 134 219 204 134 219 204 134 219 204 134 219 204 134 219 204 134 219 204 134 219 204 134 219 204 134 219 204 134 219 204 134 219 204 134 219 204 134 219 204 134 219 204 134 219 204 134 219 204 134 219 204 134 219 204 134 219 204 134 219 204 134 219 204 134 219 204 134 219 204 134 219 204 134 219 204 134 219 204 134 219 204 134 219 204 134 219 204 134 219 204 134 219 204 134 219 204 134 219 204 134 219 204 134 219 204 134 219 204 134 219 204 134 219 204 134 219 204 134 219 204 134 219 204 134 219 204 134 219 204 134 219 204 134 219 204 134 219 204 134 219 204 134 219 204 134 219 204 134 219 204 134 219 204 134 219 204 134 219 204 134 219 204 134 219 204 134 219 204 134 219 204 134 219 204 134 219 204 134 219 204 134 219 204 134 219 204 134 219 204 134 219 204 134 219 204 134 219 204 134 219 204 134 219 204 134 219 204 134 219 204 134 219 204 134 219 204 134 219 204 134 219 204 134 219 204 134 219 204 134 219 204 134 219 204 134 219 204 134 219 204 134 219 204 134 219 204 134 219 204 134 219 204 134 219 204 134 219 204 134 219 204 134 219 204 134 219 204 134 219 204 134 219 204 134 219 204
134 219 204 134 219 204 134 219 204 134 219 204 134 219 204 134 219 204 134 219 204 134 219 204 134 219 204 134 219 204 134 219 204 134 219 204 134 219 204 134 219 204 134 219 204 134 219 204 134 219 204 134 219 204 134 219 204 134 219 204 134 219 204 134 219 204 134 219 204 134 219 204 134 219 204 134 219 204 134 219 204 134 219 204 134 219 204 134 219 204 134 219 204 134 219 204 134 219 204 134 219 204 134 219 204 134 219 204 134 219 204 134 219 204 134 219 204 134 219 204 134 219 204 134 219 204 134 219 204 134 219 204 134 219 204 134 219 204 134 219 204 134 219 204 134 219 204 134 219 204 134 219 204 134 219 204 134 219 204 134 219 204 134 219 204 134 219 204 134 219 204 134 219 204 134 219 204 134 219 204 134 219 204 134 219 204 134 219 204 134 219 204 134 219 204 134 219 204 134 219 204 134 219 204 134 219 204 134 219 204 134 219 204 134 219 204 134 219 204 134 219 204 134 219 204 134 219 204 134 219 204 134 219 204 134 219 204 134 219 204 134 219 204 134 219 204 134 219 204 134 219 204 134 219 204 134 219 204 134 219 204 134 219 204 134 219 204 134 219 204 134 219 204 134 219 204 134 219 204 134 219 204 134 219 204 134 219 204 134 219 204 134 219 204 134 219 204 134 219 204 134 219 204 134 219 204 134 219 204 134 219 204 134 219 204 134 219 204 134 219 204 134 219 204 134 219 204 134 219 204 134 219 204 134 219 204 134 219 204 134 219 204 134 219 204 134 219 204 134 219 204 134 219 204 134 219 204 134 219 204 134 219 204 134 219 204 134 219 204 134 219 204 134 219 204 134 219 204 134 219 204 134 219 204 134 219 204 134 219 204 134 219 204 134 219 204 134 219 204 134 219 204 134 219 204 134 219 204 134 219 204 134 219 204 134 219 204 134 219 204 134 219 204 134 219 204 134 219 204 134 219 204 134 219 204 134 219 204 134 219 204 134 219 204 134 219 204 134 219 204 134 219 204 134 219 204 134 219 204 134 219 204 134 219 204 134 219 204 134 219 204 134 219 204 134 219 204 134 219 204
134 219 204 134 219 204 134 219 204 134 219 204 134 219 204 134 219 204 134 219 204 134 219 204 134 219 204 134 219 204 134 219 204 134 219 204 134 219 204 134 219 204 134 219 204 134 219 204 134 219 204 134 219 204 134 219 204 134 219 204 134 219 204 134 219 204 134 219 204 134 219 204 134 219 204 134 219 204 134 219 204 134 219 204 134 219 204 134 219 204 134 219 204 134 219 204 134 219 204 134 219 204 134 219 204 134 219 204 134 219 204 134 219 204 134 219 204 134 219 204 134 219 204 134 219 204 134 219 204 134 219 204 134 219 204 134 219 204 134 219 204 134 219 204 134 219 204 134 219 204 134 219 204 134 219 204 134 219 204 134 219 204 134 219 204 134 219 204 134 219 204 134 219 204 134 219 204 134 219 204 134 219 204 134 219 204 134 219 204 134 219 204 134 219 204 134 219 204 134 219 204 134 219 204 134 219 204 134 219 204 134 219 204 134 219 204 134 219 204 134 219 204 134 219 204 134 219 204 134 219 204 134 219 204 134 219 204 134 219 204 134 219 204 134 219 204 134 219 204 134 219 204 134 219 204 134 219 204 134 219 204 134 219 204 134 219 204 134 219 204 134 219 204 134 219 204 134 219 204 134 219 204 134 219 204 134 219 204 134 219 204 134 219 204 134 219 204 134 219 204 134 219 204 134 219 204 134 219 204 134 219 204 134 219 204 134 219 204 134 219 204 134 219 204 134 219 204 134 219 204 134 219 204 134 219 204 134 219 204 134 219 204 134 219 204 134 219 204 134 219 204 134 219 204 134 219 204 134 219 204 134 219 204 134 219 204 134 219 204 134 219 204 134 219 204 134 219 204 134 219 204 134 219 204 134 219 204 134 219 204 134 219 204 134 219 204 134 219 204 134 219 204 134 219 204 134 219 204 134 219 204 134 219 204 134 219 204 134 219 204 134 219 204 134 219 204 134 219 204 134 219 204 134 219 204 134 219 204 134 219 204 134 219 204 134 219 204 134 219 204 134 219 204 134 219 204 134 219 204 134 219 204 134 219 204 134 219 204 134 219 204 134 219 204 134 219 204 134 219 204
134 219 204 134 219 204 134 219 204 134 219 204 134 219 204 134 219 204 134 219 204 134 219 204 134 219 204 134 219 204 134 219 204 134 219 204 134 219 204 134 219 204 134 219 204 134 219 204 134 219 204 134 219 204 134 219 204 134 219 204 134 219 204 134 219 204 134 219 204 134 219 204 134 219 204 134 219 204 134 219 204 134 219 204 134 219 204 134 219 204 134 219 204 134 219 204 134 219 204 134 219 204 134 219 204 134 219 204 134 219 204 134 219 204 134 219 204 134 219 204 134 219 204 134 219 204 134 219 204 134 219 204 134 219 204 134 219 204 134 219 204 134 219 204 134 219 204 134 219 204 134 219 204 134 219 204 134 219 204 134 219 204 134 219 204 134 219 204 134 219 204 134 219 204 134 219 204 134 219 204 134 219 204 134 219 204 134 219 204 134 219 204 134 219 204 134 219 204 134 219 204 134 219 204 134 219 204 134 219 204 134 219 204 134 219 204 134 219 204 134 219 204 134 219 204 134 219 204 134 219 204 134 219 204 134 219 204 134 219 204 134 219 204 134 219 204 134 219 204 134 219 204 134 219 204 134 219 204 134 219 204 134 219 204 134 219 204 134 219 204 134 219 204 134 219 204 134 219 204 134 219 204 134 219 204 134 219 204 134 219 204 134 219 204 134 219 204 134 219 204 134 219 204 134 219 204 134 219 204 134 219 204 134 219 204 134 219 204 134 219 204 134 219 204 134 219 204 134 219 204 134 219 204 134 219 204 134 219 204 134 219 204 134 219 204 134 219 204 134 219 204 134 219 204 134 219 204 134 219 204 134 219 204 134 219 204 134 219 204 134 219 204 134 219 204 134 219 204 134 219 204 134 219 204 134 219 204 134 219 204 134 219 204 134 219 204 134 219 204 134 219 204 134 219 204 134 219 204 134 219 204 134 219 204 134 219 204 134 219 204 134 219 204 134 219 204 134 219 204 134 219 204 134 219 204 134 219 204 134 219 204 134 219 204 134 219 204 134 219 204 134 219 204 134 219 204 134 219 204 134 219 204 134 219 204 134 219 204 134 219 204 134 219 204 134 219 204 134 219 204
134 219 204 134 219 204 134 219 204 134 219 204 134 219 204 134 219 204 134 219 204 134 219 204 134 219 204 134 219 204 134 219 204 134 219 204 134 219 204 134 219 204 134 219 204 134 219 204 134 219 204 134 219 204 134 219 204 134 219 204 134 219 204 134 219 204 134 219 204 134 219 204 134 219 204 134 219 204 134 219 204 134 219 204 134 219 204 134 219 204 134 219 204 134 219 204 134 219 204 134 219 204 134 219 204 134 219 204 134 219 204 134 219 204 134 219 204 134 219 204 134 219 204 134 219 204 134 219 204 134 219 204 134 219 204 134 219 204 134 219 204 134 219 204 134 219 204 134 219 204 134 219 204 134 219 204 134 219 204 134 219 204 134 219 204 134 219 204 134 219 204 134 219 204 134 219 204 134 219 204 134 219 204 134 219 204 134 219 204 134 219 204 134 219 204 134 219 204 134 219 204 134 219 204 134 219 204 134 219 204 134 219 204 134 219 204 134 219 204 134 219 204 134 219 204 134 219 204 134 219 204 134 219 204 134 219 204 134 219 204 134 219 204 134 219 204 134 219 204 134 219 204 134 219 204 134 219 204 134 219 204 134 219 204 134 219 204 134 219 204 134 219 204 134 219 204 134 219 204 134 219 204 134 219 204 134 219 204 134 219 204 134 219 204 134 219 204 134 219 204 134 219 204 134 219 204 134 219 204 134 219 204 134 219 204 134 219 204 134 219 204 134 219 204 134 219 204 134 219 204 134 219 204 134 219 204 134 219 204 134 219 204 134 219 204 134 219 204 134 219 204 134 219 204 134 219 204 134 219 204 134 219 204 134 219 204 134 219 204 134 219 204 134 219 204 134 219 204 134 219 204 134 219 204 134 219 204 134 219 204 134 219 204 134 219 204 134 219 204 134 219 204 134 219 204 134 219 204 134 219 204 134 219 204 134 219 204 134 219 204 134 219 204 134 219 204 134 219 204 134 219 204 134 219 204 134 219 204 134 219 204 134 219 204 134 219 204 134 219 204 134 219 204 134 219 204 134 219 204 134 219 204 134 219 204 134 219 204 134 219 204 134 219 204 134 219 204 134 219 204
134 219 204 134 219 204 134 219 204 134 219 204 134 219 204 134 219 204 134 219 204 134 219 204 134 219 204 134 219 204 134 219 204 134 219 204 134 219 204 134 219 204 134 219 204 134 219 204 134 219 204 134 219 204 134 219 204 134 219 204 134 219 204 134 219 204 134 219 204 134 219 204 134 219 204 134 219 204 134 219 204 134 219 204 134 219 204 134 219 204 134 219 204 134 219 204 134 219 204 134 219 204 134 219 204 134 219 204 134 219 204 134 219 204 134 219 204 134 219 204 134 219 204 134 219 204 134 219 204 134 219 204 134 219 204 134 219 204 134 219 204 134 219 204 134 219 204 134 219 204 134 219 204 134 219 204 134 219 204 134 219 204 134 219 204 134 219 204 134 219 204 134 219 204 134 219 204 134 219 204 134 219 204 134 219 204 134 219 204 134 219 204 134 219 204 134 219 204 134 219 204 134 219 204 134 219 204 134 219 204 134 219 204 134 219 204 134 219 204 134 219 204 134 219 204 134 219 204 134 219 204 134 219 204 134 219 204 134 219 204 134 219 204 134 219 204 134 219 204 134 219 204 134 219 204 134 219 204 134 219 204 134 219 204 134 219 204 134 219 204 134 219 204 134 219 204 134 219 204 134 219 204 134 219 204 134 219 204 134 219 204 134 219 204 134 219 204 134 219 204 134 219 204 134 219 204 134 219 204 134 219 204 134 219 204 134 219 204 134 219 204 134 219 204 134 219 204 134 219 204 134 219 204 134 219 204 134 219 204 134 219 204 134 219 204 134 219 204 134 219 204 134 219 204 134 219 204 134 219 204 134 219 204 134 219 204 134 219 204 134 219 204 134 219 204 134 219 204 134 219 204 134 219 204 134 219 204 134 219 204 134 219 204 134 219 204 134 219 204 134 219 204 134 219 204 134 219 204 134 219 204 134 219 204 134 219 204 134 219 204 134 219 204 134 219 204 134 219 204 134 219 204 134 219 204 134 219 204 134 219 204 134 219 204 134 219 204 134 219 204 134 219 204 134 219 204 134 219 204 134 219 204 134 219 204 134 219 204 134 219 204 134 219 204 134 219 204 134 219 204
134 219 204 134 219 204 134 219 204 134 219 204 134 219 204 134 219 204 134 219 204 134 219 204 134 219 204 134 219 204 134 219 204 134 219 204 134 219 204 134 219 204 134 219 204 134 219 204 134 219 204 134 219 204 134 219 204 134 219 204 134 219 204 134 219 204 134 219 204 134 219 204 134 219 204 134 219 204 134 219 204 134 219 204 134 219 204 134 219 204 134 219 204 134 219 204 134 219 204 134 219 204 134 219 204 134 219 204 134 219 204 134 219 204 134 219 204 134 219 204 134 219 204 134 219 204 134 219 204 134 219 204 134 219 204 134 219 204 134 219 204 134 219 204 134 219 204 134 219 204 134 219 204 134 219 204 134 219 204 134 219 204 134 219 204 134 219 204 134 219 204 134 219 204 134 219 204 134 219 204 134 219 204 134 219 204 134 219 204 134 219 204 134 219 204 134 219 204 134 219 204 134 219 204 134 219 204 134 219 204 134 219 204 134 219 204 134 219 204 134 219 204 134 219 204 134 219 204 134 219 204 134 219 204 134 219 204 134 219 204 134 219 204 134 219 204 134 219 204 134 219 204 134 219 204 134 219 204 134 219 204 134 219 204 134 219 204 134 219 204 134 219 204 134 219 204 134 219 204 134 219 204 134 219 204 134 219 204 134 219 204 134 219 204 134 219 204 134 219 204 134 219 204 134 219 204 134 219 204 134 219 204 134 219 204 134 219 204 134 219 204 134 219 204 134 219 204 134 219 204 134 219 204 134 219 204 134 219 204 134 219 204 134 219 204 134 219 204 134 219 204 134 219 204 134 219 204 134 219 204 134 219 204 134 219 204 134 219 204 134 219 204 134 219 204 134 219 204 134 219 204 134 219 204 134 219 204 134 219 204 134 219 204 134 219 204 134 219 204 134 219 204 134 219 204 134 219 204 134 219 204 134 219 204 134 219 204 134 219 204 134 219 204 134 219 204 134 219 204 134 219 204 134 219 204 134 219 204 134 219 204 134 219 204 134 219 204 134 219 204 134 219 204 134 219 204 134 219 204 134 219 204 134 219 204 134 219 204 134 219 204 134 219 204 134 219 204 134 219 204
134 219 204 134 219 204 134 219 204 134 219 204 134 219 204 134 219 204 134 219 204 134 219 204 134 219 204 134 219 204 134 219 204 134 219 204 134 219 204 134 219 204 134 219 204 134 219 204 134 219 204 134 219 204 134 219 204 134 219 204 134 219 204 134 219 204 134 219 204 134 219 204 134 219 204 134 219 204 134 219 204 134 219 204 134 219 204 134 219 204 134 219 204 134 219 204 134 219 204 134 219 204 134 219 204 134 219 204 134 219 204 134 219 204 134 219 204 134 219 204 134 219 204 134 219 204 134 219 204 134 219 204 134 219 204 134 219 204 134 219 204 134 219 204 134 219 204 134 219 204 134 219 204 134 219 204 134 219 204 134 219 204 134 219 204 134 219 204 134 219 204 134 219 204 134 219 204 134 219 204 134 219 204 134 219 204 134 219 204 134 219 204 134 219 204 134 219 204 134 219 204 134 219 204 134 219 204 134 219 204 134 219 204 134 219 204 134 219 204 134 219 204 134 219 204 134 219 204 134 219 204 134 219 204 134 219 204 134 219 204 134 219 204 134 219 204 134 219 204 134 219 204 134 219 204 134 219 204 134 219 204 134 219 204 134 219 204 134 219 204 134 219 204 134 219 204 134 219 204 134 219 204 134 219 204 134 219 204 134 219 204 134 219 204 134 219 204 134 219 204 134 219 204 134 219 204 134 219 204 134 219 204 134 219 204 134 219 204 134 219 204 134 219 204 134 219 204 134 219 204 134 219 204 134 219 204 134 219 204 134 219 204 134 219 204 134 219 204 134 219 204 134 219 204 134 219 204 134 219 204 134 219 204 134 219 204 134 219 204 134 219 204 134 219 204 134 219 204 134 219 204 134 219 204 134 219 204 134 219 204 134 219 204 134 219 204 134 219 204 134 219 204 134 219 204 134 219 204 134 219 204 134 219 204 134 219 204 134 219 204 134 219 204 134 219 204 134 219 204 134 219 204 134 219 204 134 219 204 134 219 204 134 219 204 134 219 204 134 219 204 134 219 204 134 219 204 134 219 204 134 219 204 134 219 204 134 219 204 134 219 204 134 219 204 134 219 204 134 219 204
134 219 204 134 219 204 134 219 204 134 219 204 134 219 204 134 219 204 134 219 204 134 219 204 134 219 204 134 219 204 134 219 204 134 219 204 134 219 204 134 219 204 134 219 204 134 219 204 134 219 204 134 219 204 134 219 204 134 219 204 134 219 204 134 219 204 134 219 204 134 219 204 134 219 204 134 219 204 134 219 204 134 219 204 134 219 204 134 219 204 134 219 204 134 219 204 134 219 204 134 219 204 134 219 204 134 219 204 134 219 204 134 219 204 134 219 204 134 219 204 134 219 204 134 219 204 134 219 204 134 219 204 134 219 204 134 219 204 134 219 204 134 219 204 134 219 204 134 219 204 134 219 204 134 219 204 134 219 204 134 219 204 134 219 204 134 219 204 134 219 204 134 219 204 134 219 204 134 219 204 134 219 204 134 219 204 134 219 204 134 219 204 134 219 204 134 219 204 134 219 204 134 219 204 134 219 204 134 219 204 134 219 204 134 219 204 134 219 204 134 219 204 134 219 204 134 219 204 134 219 204 134 219 204 134 219 204 134 219 204 134 219 204 134 219 204 134 219 204 134 219 204 134 219 204 134 219 204 134 219 204 134 219 204 134 219 204 134 219 204 134 219 204 134 219 204 134 219 204 134 219 204 134 219 204 134 219 204 134 219 204 134 219 204 134 219 204 134 219 204 134 219 204 134 219 204 134 219 204 134 219 204 134 219 204 134 219 204 134 219 204 134 219 204 134 219 204 134 219 204 134 219 204 134 219 204 134 219 204 134 219 204 134 219 204 134 219 204 134 219 204 134 219 204 134 219 204 134 219 204 134 219 204 134 219 204 134 219 204 134 219 204 134 219 204 134 219 204 134 219 204 134 219 204 134 219 204 134 219 204 134 219 204 134 219 204 134 219 204 134 219 204 134 219 204 134 219 204 134 219 204 134 219 204 134 219 204 134 219 204 134 219 204 134 219 204 134 219 204 134 219 204 134 219 204 134 219 204 134 219 204 134 219 204 134 219 204 134 219 204 134 219 204 134 219 204 134 219 204 134 219 204 134 219 204 134 219 204 134 219 204 134 219 204 134 219 204 134 219 204
134 219 204 134 219 204 134 219 204 134 219 204 134 219 204 134 219 204 134 219 204 134 219 204 134 219 204 134 219 204 134 219 204 134 219 204 134 219 204 134 219 204 134 219 204 134 219 204 134 219 204 134 219 204 134 219 204 134 219 204 134 219 204 134 219 204 134 219 204 134 219 204 134 219 204 134 219 204 134 219 204 134 219 204 134 219 204 134 219 204 134 219 204 134 219 204 134 219 204 134 219 204 134 219 204 134 219 204 134 219 204 134 219 204 134 219 204 134 219 204 134 219 204 134 219 204 134 219 204 134 219 204 134 219 204 134 219 204 134 219 204 134 219 204 134 219 204 134 219 204 134 219 204 134 219 204 134 219 204 134 219 204 134 219 204 134 219 204 134 219 204 134 219 204 134 219 204 134 219 204 134 219 204 134 219 204 134 219 204 134 219 204 134 219 204 134 219 204 134 219 204 134 219 204 134 219 204 134 219 204 134 219 204 134 219 204 134 219 204 134 219 204 134 219 204 134 219 204 134 219 204 134 219 204 134 219 204 134 219 204 134 219 204 134 219 204 134 219 204 134 219 204 134 219 204 134 219 204 134 219 204 134 219 204 134 219 204 134 219 204 134 219 204 134 219 204 134 219 204 134 219 204 134 219 204 134 219 204 134 219 204 134 219 204 134 219 204 134 219 204 134 219 204 134 219 204 134 219 204 134 219 204 134 219 204 134 219 204 134 219 204 134 219 204 134 219 204 134 219 204 134 219 204 134 219 204 134 219 204 134 219 204 134 219 204 134 219 204 134 219 204 134 219 204 134 219 204 134 219 204 134 219 204 134 219 204 134 219 204 134 219 204 134 219 204 134 219 204 134 219 204 134 219 204 134 219 204 134 219 204 134 219 204 134 219 204 134 219 204 134 219 204 134 219 204 134 219 204 134 219 204 134 219 204 134 219 204 134 219 204 134 219 204 134 219 204 134 219 204 134 219 204 134 219 204 134 219 204 134 219 204 134 219 204 134 219 204 134 219 204 134 219 204 134 219 204 134 219 204 134 219 204 134 219 204 134 219 204 134 219 204 134 219 204 134 219 204 134 219 204
134 219 204 134 219 204 134 219 204 134 219 204 134 219 204 134 219 204 134 219 204 134 219 204 134 219 204 134 219 204 134 219 204 134 219 204 134 219 204 134 219 204 134 219 204 134 219 204 134 219 204 134 219 204 134 219 204 134 219 204 134 219 204 134 219 204 134 219 204 134 219 204 134 219 204 134 219 204 134 219 204 134 219 204 134 219 204 134 219 204 134 219 204 134 219 204 134 219 204 134 219 204 134 219 204 134 219 204 134 219 204 134 219 204 134 219 204 134 219 204 134 219 204 134 219 204 134 219 204 134 219 204 134 219 204 134 219 204 134 219 204 134 219 204 134 219 204 134 219 204 134 219 204 134 219 204 134 219 204 134 219 204 134 219 204 134 219 204 134 219 204 134 219 204 134 219 204 134 219 204 134 219 204 134 219 204 134 219 204 134 219 204 134 219 204 134 219 204 134 219 204 134 219 204 134 219 204 134 219 204 134 219 204 134 219 204 134 219 204 134 219 204 134 219 204 134 219 204 134 219 204 134 219 204 134 219 204 134 219 204 134 219 204 134 219 204 134 219 204 134 219 204 134 219 204 134 219 204 134 219 204 134 219 204 134 219 204 134 219 204 134 219 204 134 219 204 134 219 204 134 219 204 134 219 204 134 219 204 134 219 204 134 219 204 134 219 204 134 219 204 134 219 204 134 219 204 134 219 204 134 219 204 134 219 204 134 219 204 134 219 204 134 219 204 134 219 204 134 219 204 134 219 204 134 219 204 134 219 204 134 219 204 134 219 204 134 219 204 134 219 204 134 219 204 134 219 204 134 219 204 134 219 204 134 219 204 134 219 204 134 219 204 134 219 204 134 219 204 134 219 204 134 219 204 134 219 204 134 219 204 134 219 204 134 219 204 134 219 204 134 219 204 134 219 204 134 219 204 134 219 204 134 219 204 134 219 204 134 219 204 134 219 204 134 219 204 134 219 204 134 219 204 134 219 204 134 219 204 134 219 204 134 219 204 134 219 204 134 219 204 134 219 204 134 219 204 134 219 204 134 219 204 134 219 204 134 219 204 134 219 204 134 219 204 134 219 204 134 219 204
134 219 204 134 219 204 134 219 204 134 219 204 134 219 204 134 219 204 134 219 204 134 219 204 134 219 204 134 219 204 134 219 204 134 219 204 134 219 204 134 219 204 134 219 204 134 219 204 134 219 204 134 219 204 134 219 204 134 219 204 134 219 204 134 219 204 134 219 204 134 219 204 134 219 204 134 219 204 134 219 204 134 219 204 134 219 204 134 219 204 134 219 204 134 219 204 134 219 204 134 219 204 134 219 204 134 219 204 134 219 204 134 219 204 134 219 204 134 219 204 134 219 204 134 219 204 134 219 204 134 219 204 134 219 204 134 219 204 134 219 204 134 219 204 134 219 204 134 219 204 134 219 204 134 219 204 134 219 204 134 219 204 134 219 204 134 219 204 134 219 204 134 219 204 134 219 204 134 219 204 134 219 204 134 219 204 134 219 204 134 219 204 134 219 204 134 219 204 134 219 204 134 219 204 134 219 204 134 219 204 134 219 204 134 219 204 134 219 204 134 219 204 134 219 204 134 219 204 134 219 204 134 219 204 134 219 204 134 219 204 134 219 204 134 219 204 134 219 204 134 219 204 134 219 204 134 219 204 134 219 204 134 219 204 134 219 204 134 219 204 134 219 204 134 219 204 134 219 204 134 219 204 134 219 204 134 219 204 134 219 204 134 219 204 134 219 204 134 219 204 134 219 204 134 219 204 134 219 204 134 219 204 134 219 204 134 219 204 134 219 204 134 219 204 134 219 204 134 219 204 134 219 204 134 219 204 134 219 204 134 219 204 134 219 204 134 219 204 134 219 204 134 219 204 134 219 204 134 219 204 134 219 204 134 219 204 134 219 204 134 219 204 134 219 204 134 219 204 134 219 204 134 219 204 134 219 204 134 219 204 134 219 204 134 219 204 134 219 204 134 219 204 134 219 204 134 219 204 134 219 204 134 219 204 134 219 204 134 219 204 134 219 204 134 219 204 134 219 204 134 219 204 134 219 204 134 219 204 134 219 204 134 219 204 134 219 204 134 219 204 134 219 204 134 219 204 134 219 204 134 219 204 134 219 204 134 219 204 134 219 204 134 219 204 134 219 204 134 219 204
134 219 204 134 219 204 134 219 204 134 219 204 134 219 204 134 219 204 134 219 204 134 219 204 134 219 204 134 219 204 134 219 204 134 219 204 134 219 204 134 219 204 134 219 204 134 219 204 134 219 204 134 219 204 134 219 204 134 219 204 134 219 204 134 219 204 134 219 204 134 219 204 134 219 204 134 219 204 134 219 204 134 219 204 134 219 204 134 219 204 134 219 204 134 219 204 134 219 204 134 219 204 134 219 204 134 219 204 134 219 204 134 219 204 134 219 204 134 219 204 134 219 204 134 219 204 134 219 204 134 219 204 134 219 204 134 219 204 134 219 204 134 219 204 134 219 204 134 219 204 134 219 204 134 219 204 134 219 204 134 219 204 134 219 204 134 219 204 134 219 204 134 219 204 134 219 204 134 219 204 134 219 204 134 219 204 134 219 204 134 219 204 134 219 204 134 219 204 134 219 204 134 219 204 134 219 204 134 219 204 134 219 204 134 219 204 134 219 204 134 219 204 134 219 204 134 219 204 134 219 204 134 219 204 134 219 204 134 219 204 134 219 204 134 219 204 134 219 204 134 219 204 134 219 204 134 219 204 134 219 204 134 219 204 134 219 204 134 219 204 134 219 204 134 219 204 134 219 204 134 219 204 134 219 204 134 219 204 134 219 204 134 219 204 134 219 204 134 219 204 134 219 204 134 219 204 134 219 204 134 219 204 134 219 204 134 219 204 134 219 204 134 219 204 134 219 204 134 219 204 134 219 204 134 219 204 134 219 204 134 219 204 134 219 204 134 219 204 134 219 204 134 219 204 134 219 204 134 219 204 134 219 204 134 219 204 134 219 204 134 219 204 134 219 204 134 219 204 134 219 204 134 219 204 134 219 204 134 219 204 134 219 204 134 219 204 134 219 204 134 219 204 134 219 204 134 219 204 134 219 204 134 219 204 134 219 204 134 219 204 134 219 204 134 219 204 134 219 204 134 219 204 134 219 204 134 219 204 134 219 204 134 219 204 134 219 204 134 219 204 134 219 204 134 219 204 134 219 204 134 219 204 134 219 204 134 219 204 134 219 204 134 219 204 134 219 204 134 219 204
134 219 204 134 219 204 134 219 204 134 219 204 134 219 204 134 219 204 134 219 204 134 219 204 134 219 204 134 219 204 134 219 204 134 219 204 134 219 204 134 219 204 134 219 204 134 219 204 134 219 204 134 219 204 134 219 204 134 219 204 134 219 204 134 219 204 134 219 204 134 219 204 134 219 204 134 219 204 134 219 204 134 219 204 134 219 204 134 219 204 134 219 204 134 219 204 134 219 204 134 219 204 134 219 204 134 219 204 134 219 204 134 219 204 134 219 204 134 219 204 134 219 204 134 219 204 134 219 204 134 219 204 134 219 204 134 219 204 134 219 204 134 219 204 134 219 204 134 219 204 134 219 204 134 219 204 134 219 204 134 219 204 134 219 204 134 219 204 134 219 204 134 219 204 134 219 204 134 219 204 134 219 204 134 219 204 134 219 204 134 219 204 134 219 204 134 219 204 134 219 204 134 219 204 134 219 204 134 219 204 134 219 204 134 219 204 134 219 204 134 219 204 134 219 204 134 219 204 134 219 204 134 219 204 134 219 204 134 219 204 134 219 204 134 219 204 134 219 204 134 219 204 134 219 204 134 219 204 134 219 204 134 219 204 134 219 204 134 219 204 134 219 204 134 219 204 134 219 204 134 219 204 134 219 204 134 219 204 134 219 204 134 219 204 134 219 204 134 219 204 134 219 204 134 219 204 134 219 204 134 219 204 134 219 204 134 219 204 134 219 204 134 219 204 134 219 204 134 219 204 134 219 204 134 219 204 134 219 204 134 219 204 134 219 204 134 219 204 134 219 204 134 219 204 134 219 204 134 219 204 134 219 204 134 219 204 134 219 204 134 219 204 134 219 204 134 219 204 134 219 204 134 219 204 134 219 204 134 219 204 134 219 204 134 219 204 134 219 204 134 219 204 134 219 204 134 219 204 134 219 204 134 219 204 134 219 204 134 219 204 134 219 204 134 219 204 134 219 204 134 219 204 134 219 204 134 219 204 134 219 204 134 219 204 134 219 204 134 219 204 134 219 204 134 219 204 134 219 204 134 219 204 134 219 204 134 219 204 134 219 204 134 219 204 134 219 204 134 219 204
134 219 204 134 219 204 134 219 204 134 219 204 134 219 204 134 219 204 134 219 204 134 219 204 134 219 204 134 219 204 134 219 204 134 219 204 134 219 204 134 219 204 134 219 204 134 219 204 134 219 204 134 219 204 134 219 204 134 219 204 134 219 204 134 219 204 134 219 204 134 219 204 134 219 204 134 219 204 134 219 204 134 219 204 134 219 204 134 219 204 134 219 204 134 219 204 134 219 204 134 219 204 134 219 204 134 219 204 134 219 204 134 219 204 134 219 204 134 219 204 134 219 204 134 219 204 134 219 204 134 219 204 134 219 204 134 219 204 134 219 204 134 219 204 134 219 204 134 219 204 134 219 204 134 219 204 134 219 204 134 219 204 134 219 204 134 219 204 134 219 204 134 219 204 134 219 204 134 219 204 134 219 204 134 219 204 134 219 204 134 219 204 134 219 204 134 219 204 134 219 204 134 219 204 134 219 204 134 219 204 134 219 204 134 219 204 134 219 204 134 219 204 134 219 204 134 219 204 134 219 204 134 219 204 134 219 204 134 219 204 134 219 204 134 219 204 134 219 204 134 219 204 134 219 204 134 219 204 134 219 204 134 219 204 134 219 204 134 219 204 134 219 204 134 219 204 134 219 204 134 219 204 134 219 204 134 219 204 134 219 204 134 219 204 134 219 204 134 219 204 134 219 204 134 219 204 134 219 204 134 219 204 134 219 204 134 219 204 134 219 204 134 219 204 134 219 204 134 219 204 134 219 204 134 219 204 134 219 204 134 219 204 134 219 204 134 219 204 134 219 204 134 219 204 134 219 204 134 219 204 134 219 204 134 219 204 134 219 204 134 219 204 134 219 204 134 219 204 134 219 204 134 219 204 134 219 204 134 219 204 134 219 204 134 219 204 134 219 204 134 219 204 134 219 204 134 219 204 134 219 204 134 219 204 134 219 204 134 219 204 134 219 204 134 219 204 134 219 204 134 219 204 134 219 204 134 219 204 134 219 204 134 219 204 134 219 204 134 219 204 134 219 204 134 219 204 134 219 204 134 219 204 134 219 204 134 219 204 134 219 204 134 219 204 134 219 204 134 219 204
134 219 204 134 219 204 134 219 204 134 219 204 134 219 204 134 219 204 134 219 204 134 219 204 134 219 204 134 219 204 134 219 204 134 219 204 134 219 204 134 219 204 134 219 204 134 219 204 134 219 204 134 219 204 134 219 204 134 219 204 134 219 204 134 219 204 134 219 204 134 219 204 134 219 204 134 219 204 134 219 204 134 219 204 134 219 204 134 219 204 134 219 204 134 219 204 134 219 204 134 219 204 134 219 204 134 219 204 134 219 204 134 219 204 134 219 204 134 219 204 134 219 204 134 219 204 134 219 204 134 219 204 134 219 204 134 219 204 134 219 204 134 219 204 134 219 204 134 219 204 134 219 204 134 219 204 134 219 204 134 219 204 134 219 204 134 219 204 134 219 204 134 219 204 134 219 204 134 219 204 134 219 204 134 219 204 134 219 204 134 219 204 134 219 204 134 219 204 134 219 204 134 219 204 134 219 204 134 219 204 134 219 204 134 219 204 134 219 204 134 219 204 134 219 204 134 219 204 134 219 204 134 219 204 134 219 204 134 219 204 134 219 204 134 219 204 134 219 204 134 219 204 134 219 204 134 219 204 134 219 204 134 219 204 134 219 204 134 219 204 134 219 204 134 219 204 134 219 204 134 219 204 134 219 204 134 219 204 134 219 204 134 219 204 134 219 204 134 219 204 134 219 204 134 219 204 134 219 204 134 219 204 134 219 204 134 219 204 134 219 204 134 219 204 134 219 204 134 219 204 134 219 204 134 219 204 134 219 204 134 219 204 134 219 204 134 219 204 134 219 204 134 219 204 134 219 204 134 219 204 134 219 204 134 219 204 134 219 204 134 219 204 134 219 204 134 219 204 134 219 204 134 219 204 134 219 204 134 219 204 134 219 204 134 219 204 134 219 204 134 219 204 134 219 204 134 219 204 134 219 204 134 219 204 134 219 204 134 219 204 134 219 204 134 219 204 134 219 204 134 219 204 134 219 204 134 219 204 134 219 204 134 219 204 134 219 204 134 219 204 134 219 204 134 219 204 134 219 204 134 219 204 134 219 204 134 219 204 134 219 204 134 219 204 134 219 204 134 219 204
134 219 204 134 219 204 134 219 204 134 219 204 134 219 204 134 219 204 134 219 204 134 219 204 134 219 204 134 219 204 134 219 204 134 219 204 134 219 204 134 219 204 134 219 204 134 219 204 134 219 204 134 219 204 134 219 204 134 219 204 134 219 204 134 219 204 134 219 204 134 219 204 134 219 204 134 219 204 134 219 204 134 219 204 134 219 204 134 219 204 134 219 204 134 219 204 134 219 204 134 219 204 134 219 204 134 219 204 134 219 204 134 219 204 134 219 204 134 219 204 134 219 204 134 219 204 134 219 204 134 219 204 134 219 204 134 219 204 134 219 204 134 219 204 134 219 204 134 219 204 134 219 204 134 219 204 134 219 204 134 219 204 134 219 204 134 219 204 134 219 204 134 219 204 134 219 204 134 219 204 134 219 204 134 219 204 134 219 204 134 219 204 134 219 204 134 219 204 134 219 204 134 219 204 134 219 204 134 219 204 134 219 204 134 219 204 134 219 204 134 219 204 134 219 204 134 219 204 134 219 204 134 219 204 134 219 204 134 219 204 134 219 204 134 219 204 134 219 204 134 219 204 134 219 204 134 219 204 134 219 204 134 219 204 134 219 204 134 219 204 134 219 204 134 219 204 134 219 204 134 219 204 134 219 204 134 219 204 134 219 204 134 219 204 134 219 204 134 219 204 134 219 204 134 219 204 134 219 204 134 219 204 134 219 204 134 219 204 134 219 204 134 219 204 134 219 204 134 219 204 134 219 204 134 219 204 134 219 204 134 219 204 134 219 204 134 219 204 134 219 204 134 219 204 134 219 204 134 219 204 134 219 204 134 219 204 134 219 204 134 219 204 134 219 204 134 219 204 134 219 204 134 219 204 134 219 204 134 219 204 134 219 204 134 219 204 134 219 204 134 219 204 134 219 204 134 219 204 134 219 204 134 219 204 134 219 204 134 219 204 134 219 204 134 219 204 134 219 204 134 219 204 134 219 204 134 219 204 134 219 204 134 219 204 134 219 204 134 219 204 134 219 204 134 219 204 134 219 204 134 219 204 134 219 204 134 219 204 134 219 204 134 219 204 134 219 204 134 219 204
134 219 204 134 219 204 134 219 204 134 219 204 134 219 204 134 219 204 134 219 204 134 219 204 134 219 204 134 219 204 134 219 204 134 219 204 134 219 204 134 219 204 134 219 204 134 219 204 134 219 204 134 219 204 134 219 204 134 219 204 134 219 204 134 219 204 134 219 204 134 219 204 134 219 204 134 219 204 134 219 204 134 219 204 134 219 204 134 219 204 134 219 204 134 219 204 134 219 204 134 219 204 134 219 204 134 219 204 134 219 204 134 219 204 134 219 204 134 219 204 134 219 204 134 219 204 134 219 204 134 219 204 134 219 204 134 219 204 134 219 204 134 219 204 134 219 204 134 219 204 134 219 204 134 219 204 134 219 204 134 219 204 134 219 204 134 219 204 134 219 204 134 219 204 134 219 204 134 219 204 134 219 204 134 219 204 134 219 204 134 219 204 134 219 204 134 219 204 134 219 204 134 219 204 134 219 204 134 219 204 134 219 204 134 219 204 134 219 204 134 219 204 134 219 204 134 219 204 134 219 204 134 219 204 134 219 204 134 219 204 134 219 204 134 219 204 134 219 204 134 219 204 134 219 204 134 219 204 134 219 204 134 219 204 134 219 204 134 219 204 134 219 204 134 219 204 134 219 204 134 219 204 134 219 204 134 219 204 134 219 204 134 219 204 134 219 204 134 219 204 134 219 204 134 219 204 134 219 204 134 219 204 134 219 204 134 219 204 134 219 204 134 219 204 134 219 204 134 219 204 134 219 204 134 219 204 134 219 204 134 219 204 134 219 204 134 219 204 134 219 204 134 219 204 134 219 204 134 219 204 134 219 204 134 219 204 134 219 204 134 219 204 134 219 204 134 219 204 134 219 204 134 219 204 134 219 204 134 219 204 134 219 204 134 219 204 134 219 204 134 219 204 134 219 204 134 219 204 134 219 204 134 219 204 134 219 204 134 219 204 134 219 204 134 219 204 134 219 204 134 219 204 134 219 204 134 219 204 134 219 204 134 219 204 134 219 204 134 219 204 134 219 204 134 219 204 134 219 204 134 219 204 134 219 204 134 219 204 134 219 204 134 219 204 134 219 204 134 219 204
134 219 204 134 219 204 134 219 204 134 219 204 134 219 204 134 219 204 134 219 204 134 219 204 134 219 204 134 219 204 134 219 204 134 219 204 134 219 204 134 219 204 134 219 204 134 219 204 134 219 204 134 219 204 134 219 204 134 219 204 134 219 204 134 219 204 134 219 204 134 219 204 134 219 204 134 219 204 134 219 204 134 219 204 134 219 204 134 219 204 134 219 204 134 219 204 134 219 204 134 219 204 134 219 204 134 219 204 134 219 204 134 219 204 134 219 204 134 219 204 134 219 204 134 219 204 134 219 204 134 219 204 134 219 204 134 219 204 134 219 204 134 219 204 134 219 204 134 219 204 134 219 204 134 219 204 134 219 204 134 219 204 134 219 204 134 219 204 134 219 204 134 219 204 134 219 204 134 219 204 134 219 204 134 219 204 134 219 204 134 219 204 134 219 204 134 219 204 134 219 204 134 219 204 134 219 204 134 219 204 134 219 204 134 219 204 134 219 204 134 219 204 134 219 204 134 219 204 134 219 204 134 219 204 134 219 204 134 219 204 134 219 204 134 219 204 134 219 204 134 219 204 134 219 204 134 219 204 134 219 204 134 219 204 134 219 204 134 219 204 134 219 204 134 219 204 134 219 204 134 219 204 134 219 204 134 219 204 134 219 204 134 219 204 134 219 204 134 219 204 134 219 204 134 219 204 134 219 204 134 219 204 134 219 204 134 219 204 134 219 204 134 219 204 134 219 204 134 219 204 134 219 204 134 219 204 134 219 204 134 219 204 134 219 204 134 219 204 134 219 204 134 219 204 134 219 204 134 219 204 134 219 204 134 219 204 134 219 204 134 219 204 134 219 204 134 219 204 134 219 204 134 219 204 134 219 204 134 219 204 134 219 204 134 219 204 134 219 204 134 219 204 134 219 204 134 219 204 134 219 204 134 219 204 134 219 204 134 219 204 134 219 204 134 219 204 134 219 204 134 219 204 134 219 204 134 219 204 134 219 204 134 219 204 134 219 204 134 219 204 134 219 204 134 219 204 134 219 204 134 219 204 134 219 204 134 219 204 134 219 204 134 219 204 134 219 204 134 219 204
134 219 204 134 219 204 134 219 204 134 219 204 134 219 204 134 219 204 134 219 204 134 219 204 134 219 204 134 219 204 134 219 204 134 219 204 134 219 204 134 219 204 134 219 204 134 219 204 134 219 204 134 219 204 134 219 204 134 219 204 134 219 204 134 219 204 134 219 204 134 219 204 134 219 204 134 219 204 134 219 204 134 219 204 134 219 204 134 219 204 134 219 204 134 219 204 134 219 204 134 219 204 134 219 204 134 219 204 134 219 204 134 219 204 134 219 204 134 219 204 134 219 204 134 219 204 134 219 204 134 219 204 134 219 204 134 219 204 134 219 204 134 219 204 134 219 204 134 219 204 134 219 204 134 219 204 134 219 204 134 219 204 134 219 204 134 219 204 134 219 204 134 219 204 134 219 204 134 219 204 134 219 204 134 219 204 134 219 204 134 219 204 134 219 204 134 219 204 134 219 204 134 219 204 134 219 204 134 219 204 134 219 204 134 219 204 134 219 204 134 219 204 134 219 204 134 219 204 134 219 204 134 219 204 134 219 204 134 219 204 134 219 204 134 219 204 134 219 204 134 219 204 134 219 204 134 219 204 134 219 204 134 219 204 134 219 204 134 219 204 134 219 204 134 219 204 134 219 204 134 219 204 134 219 204 134 219 204 134 219 204 134 219 204 134 219 204 134 219 204 134 219 204 134 219 204 134 219 204 134 219 204 134 219 204 134 219 204 134 219 204 134 219 204 134 219 204 134 219 204 134 219 204 134 219 204 134 219 204 134 219 204 134 219 204 134 219 204 134 219 204 134 219 204 134 219 204 134 219 204 134 219 204 134 219 204 134 219 204 134 219 204 134 219 204 134 219 204 134 219 204 134 219 204 134 219 204 134 219 204 134 219 204 134 219 204 134 219 204 134 219 204 134 219 204 134 219 204 134 219 204 134 219 204 134 219 204 134 219 204 134 219 204 134 219 204 134 219 204 134 219 204 134 219 204 134 219 204 134 219 204 134 219 204 134 219 204 134 219 204 134 219 204 134 219 204 134 219 204 134 219 204 134 219 204 134 219 204 134 219 204 134 219 204 134 219 204 134 219 204
134 219 204 134 219 204 134 219 204 134 219 204 134 219 204 134 219 204 134 219 204 134 219 204 134 219 204 134 219 204 134 219 204 134 219 204 134 219 204 134 219 204 134 219 204 134 219 204 134 219 204 134 219 204 134 219 204 134 219 204 134 219 204 134 219 204 134 219 204 134 219 204 134 219 204 134 219 204 134 219 204 134 219 204 134 219 204 134 219 204 134 219 204 134 219 204 134 219 204 134 219 204 134 219 204 134 219 204 134 219 204 134 219 204 134 219 204 134 219 204 134 219 204 134 219 204 134 219 204 134 219 204 134 219 204 134 219 204 134 219 204 134 219 204 134 219 204 134 219 204 134 219 204 134 219 204 134 219 204 134 219 204 134 219 204 134 219 204 134 219 204 134 219 204 134 219 204 134 219 204 134 219 204 134 219 204 134 219 204 134 219 204 134 219 204 134 219 204 134 219 204 134 219 204 134 219 204 134 219 204 134 219 204 134 219 204 134 219 204 134 219 204 134 219 204 134 219 204 134 219 204 134 219 204 134 219 204 134 219 204 134 219 204 134 219 204 134 219 204 134 219 204 134 219 204 134 219 204 134 219 204 134 219 204 134 219 204 134 219 204 134 219 204 134 219 204 134 219 204 134 219 204 134 219 204 134 219 204 134 219 204 134 219 204 134 219 204 134 219 204 134 219 204 134 219 204 134 219 204 134 219 204 134 219 204 134 219 204 134 219 204 134 219 204 134 219 204 134 219 204 134 219 204 134 219 204 134 219 204 134 219 204 134 219 204 134 219 204 134 219 204 134 219 204 134 219 204 134 219 204 134 219 204 134 219 204 134 219 204 134 219 204 134 219 204 134 219 204 134 219 204 134 219 204 134 219 204 134 219 204 134 219 204 134 219 204 134 219 204 134 219 204 134 219 204 134 219 204 134 219 204 134 219 204 134 219 204 134 219 204 134 219 204 134 219 204 134 219 204 134 219 204 134 219 204 134 219 204 134 219 204 134 219 204 134 219 204 134 219 204 134 219 204 134 219 204 134 219 204 134 219 204 134 219 204 134 219 204 134 219 204 134 219 204 134 219 204 134 219 204
134 219 204 134 219 204 134 219 204 134 219 204 134 219 204 134 219 204 134 219 204 134 219 204 134 219 204 134 219 204 134 219 204 134 219 204 134 219 204 134 219 204 134 219 204 134 219 204 134 219 204 134 219 204 134 219 204 134 219 204 134 219 204 134 219 204 134 219 204 134 219 204 134 219 204 134 219 204 134 219 204 134 219 204 134 219 204 134 219 204 134 219 204 134 219 204 134 219 204 134 219 204 134 219 204 134 219 204 134 219 204 134 219 204 134 219 204 134 219 204 134 219 204 134 219 204 134 219 204 134 219 204 134 219 204 134 219 204 134 219 204 134 219 204 134 219 204 134 219 204 134 219 204 134 219 204 134 219 204 134 219 204 134 219 204 134 219 204 134 219 204 134 219 204 134 219 204 134 219 204 134 219 204 134 219 204 134 219 204 134 219 204 134 219 204 134 219 204 134 219 204 134 219 204 134 219 204 134 219 204 134 219 204 134 219 204 134 219 204 134 219 204 134 219 204 134 219 204 134 219 204 134 219 204 134 219 204 134 219 204 134 219 204 134 219 204 134 219 204 134 219 204 134 219 204 134 219 204 134 219 204 134 219 204 134 219 204 134 219 204 134 219 204 134 219 204 134 219 204 134 219 204 134 219 204 134 219 204 134 219 204 134 219 204 134 219 204 134 219 204 134 219 204 134 219 204 134 219 204 134 219 204 134 219 204 134 219 204 134 219 204 134 219 204 134 219 204 134 219 204 134 219 204 134 219 204 134 219 204 134 219 204 134 219 204 134 219 204 134 219 204 134 219 204 134 219 204 134 219 204 134 219 204 134 219 204 134 219 204 134 219 204 134 219 204 134 219 204 134 219 204 134 219 204 134 219 204 134 219 204 134 219 204 134 219 204 134 219 204 134 219 204 134 219 204 134 219 204 134 219 204 134 219 204 134 219 204 134 219 204 134 219 204 134 219 204 134 219 204 134 219 204 134 219 204 134 219 204 134 219 204 134 219 204 134 219 204 134 219 204 134 219 204 134 219 204 134 219 204 134 219 204 134 219 204 134 219 204 134 219 204 134 219 204 134 219 204 134 219 204
134 219 204 134 219 204 134 219 204 134 219 204 134 219 204 134 219 204 134 219 204 134 219 204 134 219 204 134 219 204 134 219 204 134 219 204 134 219 204 134 219 204 134 219 204 134 219 204 134 219 204 134 219 204 134 219 204 134 219 204 134 219 204 134 219 204 134 219 204 134 219 204 134 219 204 134 219 204 134 219 204 134 219 204 134 219 204 134 219 204 134 219 204 134 219 204 134 219 204 134 219 204 134 219 204 134 219 204 134 219 204 134 219 204 134 219 204 134 219 204 134 219 204 134 219 204 134 219 204 134 219 204 134 219 204 134 219 204 134 219 204 134 219 204 134 219 204 134 219 204 134 219 204 134 219 204 134 219 204 134 219 204 134 219 204 134 219 204 134 219 204 134 219 204 134 219 204 134 219 204 134 219 204 134 219 204 134 219 204 134 219 204 134 219 204 134 219 204 134 219 204 134 219 204 134 219 204 134 219 204 134 219 204 134 219 204 134 219 204 134 219 204 134 219 204 134 219 204 134 219 204 134 219 204 134 219 204 134 219 204 134 219 204 134 219 204 134 219 204 134 219 204 134 219 204 134 219 204 134 219 204 134 219 204 134 219 204 134 219 204 134 219 204 134 219 204 134 219 204 134 219 204 134 219 204 134 219 204 134 219 204 134 219 204 134 219 204 134 219 204 134 219 204 134 219 204 134 219 204 134 219 204 134 219 204 134 219 204 134 219 204 134 219 204 134 219 204 134 219 204 134 219 204 134 219 204 134 219 204 134 219 204 134 219 204 134 219 204 134 219 204 134 219 204 134 219 204 134 219 204 134 219 204 134 219 204 134 219 204 134 219 204 134 219 204 134 219 204 134 219 204 134 219 204 134 219 204 134 219 204 134 219 204 134 219 204 134 219 204 134 219 204 134 219 204 134 219 204 134 219 204 134 219 204 134 219 204 134 219 204 134 219 204 134 219 204 134 219 204 134 219 204 134 219 204 134 219 204 134 219 204 134 219 204 134 219 204 134 219 204 134 219 204 134 219 204 134 219 204 134 219 204 134 219 204 134 219 204 134 219 204 134 219 204 134 219 204 134 219 204
134 219 204 134 219 204 134 219 204 134 219 204 134 219 204 134 219 204 134 219 204 134 219 204 134 219 204 134 219 204 134 219 204 134 219 204 134 219 204 134 219 204 134 219 204 134 219 204 134 219 204 134 219 204 134 219 204 134 219 204 134 219 204 134 219 204 134 219 204 134 219 204 134 219 204 134 219 204 134 219 204 134 219 204 134 219 204 134 219 204 134 219 204 134 219 204 134 219 204 134 219 204 134 219 204 134 219 204 134 219 204 134 219 204 134 219 204 134 219 204 134 219 204 134 219 204 134 219 204 134 219 204 134 219 204 134 219 204 134 219 204 134 219 204 134 219 204 134 219 204 134 219 204 134 219 204 134 219 204 134 219 204 134 219 204 134 219 204 134 219 204 134 219 204 134 219 204 134 219 204 134 219 204 134 219 204 134 219 204 134 219 204 134 219 204 134 219 204 134 219 204 134 219 204 134 219 204 134 219 204 134 219 204 134 219 204 134 219 204 134 219 204 134 219 204 134 219 204 134 219 204 134 219 204 134 219 204 134 219 204 134 219 204 134 219 204 134 219 204 134 219 204 134 219 204 134 219 204 134 219 204 134 219 204 134 219 204 134 219 204 134 219 204 134 219 204 134 219 204 134 219 204 134 219 204 134 219 204 134 219 204 134 219 204 134 219 204 134 219 204 134 219 204 134 219 204 134 219 204 134 219 204 134 219 204 134 219 204 134 219 204 134 219 204 134 219 204 134 219 204 134 219 204 134 219 204 134 219 204 134 219 204 134 219 204 134 219 204 134 219 204 134 219 204 134 219 204 134 219 204 134 219 204 134 219 204 134 219 204 134 219 204 134 219 204 134 219 204 134 219 204 134 219 204 134 219 204 134 219 204 134 219 204 134 219 204 134 219 204 134 219 204 134 219 204 134 219 204 134 219 204 134 219 204 134 219 204 134 219 204 134 219 204 134 219 204 134 219 204 134 219 204 134 219 204 134 219 204 134 219 204 134 219 204 134 219 204 134 219 204 134 219 204 134 219 204 134 219 204 134 219 204 134 219 204 134 219 204 134 219 204 134 219 204 134 219 204 134 219 204
134 219 204 134 219 204 134 219 204 134 219 204 134 219 204 134 219 204 134 219 204 134 219 204 134 219 204 134 219 204 134 219 204 134 219 204 134 219 204 134 219 204 134 219 204 134 219 204 134 219 204 134 219 204 134 219 204 134 219 204 134 219 204 134 219 204 134 219 204 134 219 204 134 219 204 134 219 204 134 219 204 134 219 204 134 219 204 134 219 204 134 219 204 134 219 204 134 219 204 134 219 204 134 219 204 134 219 204 134 219 204 134 219 204 134 219 204 134 219 204 134 219 204 134 219 204 134 219 204 134 219 204 134 219 204 134 219 204 134 219 204 134 219 204 134 219 204 134 219 204 134 219 204 134 219 204 134 219 204 134 219 204 134 219 204 134 219 204 134 219 204 134 219 204 134 219 204 134 219 204 134 219 204 134 219 204 134 219 204 134 219 204 134 219 204 134 219 204 134 219 204 134 219 204 134 219 204 134 219 204 134 219 204 134 219 204 134 219 204 134 219 204 134 219 204 134 219 204 134 219 204 134 219 204 134 219 204 134 219 204 134 219 204 134 219 204 134 219 204 134 219 204 134 219 204 134 219 204 134 219 204 134 219 204 134 219 204 134 219 204 134 219 204 134 219 204 134 219 204 134 219 204 134 219 204 134 219 204 134 219 204 134 219 204 134 219 204 134 219 204 134 219 204 134 219 204 134 219 204 134 219 204 134 219 204 134 219 204 134 219 204 134 219 204 134 219 204 134 219 204 134 219 204 134 219 204 134 219 204 134 219 204 134 219 204 134 219 204 134 219 204 134 219 204 134 219 204 134 219 204 134 219 204 134 219 204 134 219 204 134 219 204 134 219 204 134 219 204 134 219 204 134 219 204 134 219 204 134 219 204 134 219 204 134 219 204 134 219 204 134 219 204 134 219 204 134 219 204 134 219 204 134 219 204 134 219 204 134 219 204 134 219 204 134 219 204 134 219 204 134 219 204 134 219 204 134 219 204 134 219 204 134 219 204 134 219 204 134 219 204 134 219 204 134 219 204 134 219 204 134 219 204 134 219 204 134 219 204 134 219 204 134 219 204 134 219 204 134 219 204
134 219 204 134 219 204 134 219 204 134 219 204 134 219 204 134 219 204 134 219 204 134 219 204 134 219 204 134 219 204 134 219 204 134 219 204 134 219 204 134 219 204 134 219 204 134 219 204 134 219 204 134 219 204 134 219 204 134 219 204 134 219 204 134 219 204 134 219 204 134 219 204 134 219 204 134 219 204 134 219 204 134 219 204 134 219 204 134 219 204 134 219 204 134 219 204 134 219 204 134 219 204 134 219 204 134 219 204 134 219 204 134 219 204 134 219 204 134 219 204 134 219 204 134 219 204 134 219 204 134 219 204 134 219 204 134 219 204 134 219 204 134 219 204 134 219 204 134 219 204 134 219 204 134 219 204 134 219 204 134 219 204 134 219 204 134 219 204 134 219 204 134 219 204 134 219 204 134 219 204 134 219 204 134 219 204 134 219 204 134 219 204 134 219 204 134 219 204 134 219 204 134 219 204 134 219 204 134 219 204 134 219 204 134 219 204 134 219 204 134 219 204 134 219 204 134 219 204 134 219 204 134 219 204 134 219 204 134 219 204 134 219 204 134 219 204 134 219 204 134 219 204 134 219 204 134 219 204 134 219 204 134 219 204 134 219 204 134 219 204 134 219 204 134 219 204 134 219 204 134 219 204 134 219 204 134 219 204 134 219 204 134 219 204 134 219 204 134 219 204 134 219 204 134 219 204 134 219 204 134 219 204 134 219 204 134 219 204 134 219 204 134 219 204 134 219 204 134 219 204 134 219 204 134 219 204 134 219 204 134 219 204 134 219 204 134 219 204 134 219 204 134 219 204 134 219 204 134 219 204 134 219 204 134 219 204 134 219 204 134 219 204 134 219 204 134 219 204 134 219 204 134 219 204 134 219 204 134 219 204 134 219 204 134 219 204 134 219 204 134 219 204 134 219 204 134 219 204 134 219 204 134 219 204 134 219 204 134 219 204 134 219 204 134 219 204 134 219 204 134 219 204 134 219 204 134 219 204 134 219 204 134 219 204 134 219 204 134 219 204 134 219 204 134 219 204 134 219 204 134 219 204 134 219 204 134 219 204 134 219 204 134 219 204 134 219 204 134 219 204
134 219 204 134 219 204 134 219 204 134 219 204 134 219 204 134 219 204 134 219 204 134 219 204 134 219 204 134 219 204 134 219 204 134 219 204 134 219 204 134 219 204 134 219 204 134 219 204 134 219 204 134 219 204 134 219 204 134 219 204 134 219 204 134 219 204 134 219 204 134 219 204 134 219 204 134 219 204 134 219 204 134 219 204 134 219 204 134 219 204 134 219 204 134 219 204 134 219 204 134 219 204 134 219 204 134 219 204 134 219 204 134 219 204 134 219 204 134 219 204 134 219 204 134 219 204 134 219 204 134 219 204 134 219 204 134 219 204 134 219 204 134 219 204 134 219 204 134 219 204 134 219 204 134 219 204 134 219 204 134 219 204 134 219 204 134 219 204 134 219 204 134 219 204 134 219 204 134 219 204 134 219 204 134 219 204 134 219 204 134 219 204 134 219 204 134 219 204 134 219 204 134 219 204 134 219 204 134 219 204 134 219 204 134 219 204 134 219 204 134 219 204 134 219 204 134 219 204 134 219 204 134 219 204 134 219 204 134 219 204 134 219 204 134 219 204 134 219 204 134 219 204 134 219 204 134 219 204 134 219 204 134 219 204 134 219 204 134 219 204 134 219 204 134 219 204 134 219 204 134 219 204 134 219 204 134 219 204 134 219 204 134 219 204 134 219 204 134 219 204 134 219 204 134 219 204 134 219 204 134 219 204 134 219 204 134 219 204 134 219 204 134 219 204 134 219 204 134 219 204 134 219 204 134 219 204 134 219 204 134 219 204 134 219 204 134 219 204 134 219 204 134 219 204 134 219 204 134 219 204 134 219 204 134 219 204 134 219 204 134 219 204 134 219 204 134 219 204 134 219 204 134 219 204 134 219 204 134 219 204 134 219 204 134 219 204 134 219 204 134 219 204 134 219 204 134 219 204 134 219 204 134 219 204 134 219 204 134 219 204 134 219 204 134 219 204 134 219 204 134 219 204 134 219 204 134 219 204 134 219 204 134 219 204 134 219 204 134 219 204 134 219 204 134 219 204 134 219 204 134 219 204 134 219 204 134 219 204 134 219 204 134 219 204 134 219 204 134 219 204
134 219 204 134 219 204 134 219 204 134 219 204 134 219 204 134 219 204 134 219 204 134 219 204 134 219 204 134 219 204 134 219 204 134 219 204 134 219 204 134 219 204 134 219 204 134 219 204 134 219 204 134 219 204 134 219 204 134 219 204 134 219 204 134 219 204 134 219 204 134 219 204 134 219 204 134 219 204 134 219 204 134 219 204 134 219 204 134 219 204 134 219 204 134 219 204 134 219 204 134 219 204 134 219 204 134 219 204 134 219 204 134 219 204 134 219 204 134 219 204 134 219 204 134 219 204 134 219 204 134 219 204 134 219 204 134 219 204 134 219 204 134 219 204 134 219 204 134 219 204 134 219 204 134 219 204 134 219 204 134 219 204 134 219 204 134 219 204 134 219 204 134 219 204 134 219 204 134 219 204 134 219 204 134 219 204 134 219 204 134 219 204 134 219 204 134 219 204 134 219 204 134 219 204 134 219 204 134 219 204 134 219 204 134 219 204 134 219 204 134 219 204 134 219 204 134 219 204 134 219 204 134 219 204 134 219 204 134 219 204 134 219 204 134 219 204 134 219 204 134 219 204 134 219 204 134 219 204 134 219 204 134 219 204 134 219 204 134 219 204 134 219 204 134 219 204 134 219 204 134 219 204 134 219 204 134 219 204 134 219 204 134 219 204 134 219 204 134 219 204 134 219 204 134 219 204 134 219 204 134 219 204 134 219 204 134 219 204 134 219 204 134 219 204 134 219 204 134 219 204 134 219 204 134 219 204 134 219 204 134 219 204 134 219 204 134 219 204 134 219 204 134 219 204 134 219 204 134 219 204 134 219 204 134 219 204 134 219 204 134 219 204 134 219 204 134 219 204 134 219 204 134 219 204 134 219 204 134 219 204 134 219 204 134 219 204 134 219 204 134 219 204 134 219 204 134 219 204 134 219 204 134 219 204 134 219 204 134 219 204 134 219 204 134 219 204 134 219 204 134 219 204 134 219 204 134 219 204 134 219 204 134 219 204 134 219 204 134 219 204 134 219 204 134 219 204 134 219 204 134 219 204 134 219 204 134 219 204 134 219 204 134 219 204 134 219 204 134 219 204
134 219 204 134 219 204 134 219 204 134 219 204 134 219 204 134 219 204 134 219 204 134 219 204 134 219 204 134 219 204 134 219 204 134 219 204 134 219 204 134 219 204 134 219 204 134 219 204 134 219 204 134 219 204 134 219 204 134 219 204 134 219 204 134 219 204 134 219 204 134 219 204 134 219 204 134 219 204 134 219 204 134 219 204 134 219 204 134 219 204 134 219 204 134 219 204 134 219 204 134 219 204 134 219 204 134 219 204 134 219 204 134 219 204 134 219 204 134 219 204 134 219 204 134 219 204 134 219 204 134 219 204 134 219 204 134 219 204 134 219 204 134 219 204 134 219 204 134 219 204 134 219 204 134 219 204 134 219 204 134 219 204 134 219 204 134 219 204 134 219 204 134 219 204 134 219 204 134 219 204 134 219 204 134 219 204 134 219 204 134 219 204 134 219 204 134 219 204 134 219 204 134 219 204 134 219 204 134 219 204 134 219 204 134 219 204 134 219 204 134 219 204 134 219 204 134 219 204 134 219 204 134 219 204 134 219 204 134 219 204 134 219 204 134 219 204 134 219 204 134 219 204 134 219 204 134 219 204 134 219 204 134 219 204 134 219 204 134 219 204 134 219 204 134 219 204 134 219 204 134 219 204 134 219 204 134 219 204 134 219 204 134 219 204 134 219 204 134 219 204 134 219 204 134 219 204 134 219 204 134 219 204 134 219 204 134 219 204 134 219 204 134 219 204 134 219 204 134 219 204 134 219 204 134 219 204 134 219 204 134 219 204 134 219 204 134 219 204 134 219 204 134 219 204 134 219 204 134 219 204 134 219 204 134 219 204 134 219 204 134 219 204 134 219 204 134 219 204 134 219 204 134 219 204 134 219 204 134 219 204 134 219 204 134 219 204 134 219 204 134 219 204 134 219 204 134 219 204 134 219 204 134 219 204 134 219 204 134 219 204 134 219 204 134 219 204 134 219 204 134 219 204 134 219 204 134 219 204 134 219 204 134 219 204 134 219 204 134 219 204 134 219 204 134 219 204 134 219 204 134 219 204 134 219 204 134 219 204 134 219 204 134 219 204 134 219 204 134 219 204
134 219 204 134 219 204 134 219 204 134 219 204 134 219 204 134 219 204 134 219 204 134 219 204 134 219 204 134 219 204 134 219 204 134 219 204 134 219 204 134 219 204 134 219 204 134 219 204 134 219 204 134 219 204 134 219 204 134 219 204 134 219 204 134 219 204 134 219 204 134 219 204 134 219 204 134 219 204 134 219 204 134 219 204 134 219 204 134 219 204 134 219 204 134 219 204 134 219 204 134 219 204 134 219 204 134 219 204 134 219 204 134 219 204 134 219 204 134 219 204 134 219 204 134 219 204 134 219 204 134 219 204 134 219 204 134 219 204 134 219 204 134 219 204 134 219 204 134 219 204 134 219 204 134 219 204 134 219 204 134 219 204 134 219 204 134 219 204 134 219 204 134 219 204 134 219 204 134 219 204 134 219 204 134 219 204 134 219 204 134 219 204 134 219 204 134 219 204 134 219 204 134 219 204 134 219 204 134 219 204 134 219 204 134 219 204 134 219 204 134 219 204 134 219 204 134 219 204 134 219 204 134 219 204 134 219 204 134 219 204 134 219 204 134 219 204 134 219 204 134 219 204 134 219 204 134 219 204 134 219 204 134 219 204 134 219 204 134 219 204 134 219 204 134 219 204 134 219 204 134 219 204 134 219 204 134 219 204 134 219 204 134 219 204 134 219 204 134 219 204 134 219 204 134 219 204 134 219 204 134 219 204 134 219 204 134 219 204 134 219 204 134 219 204 134 219 204 134 219 204 134 219 204 134 219 204 134 219 204 134 219 204 134 219 204 134 219 204 134 219 204 134 219 204 134 219 204 134 219 204 134 219 204 134 219 204 134 219 204 134 219 204 134 219 204 134 219 204 134 219 204 134 219 204 134 219 204 134 219 204 134 219 204 134 219 204 134 219 204 134 219 204 134 219 204 134 219 204 134 219 204 134 219 204 134 219 204 134 219 204 134 219 204 134 219 204 134 219 204 134 219 204 134 219 204 134 219 204 134 219 204 134 219 204 134 219 204 134 219 204 134 219 204 134 219 204 134 219 204 134 219 204 134 219 204 134 219 204 134 219 204 134 219 204 134 219 204 134 219 204
134 219 204 134 219 204 134 219 204 134 219 204 134 219 204 134 219 204 134 219 204 134 219 204 134 219 204 134 219 204 134 219 204 134 219 204 134 219 204 134 219 204 134 219 204 134 219 204 134 219 204 134 219 204 134 219 204 134 219 204 134 219 204 134 219 204 134 219 204 134 219 204 134 219 204 134 219 204 134 219 204 134 219 204 134 219 204 134 219 204 134 219 204 134 219 204 134 219 204 134 219 204 134 219 204 134 219 204 134 219 204 134 219 204 134 219 204 134 219 204 134 219 204 134 219 204 134 219 204 134 219 204 134 219 204 134 219 204 134 219 204 134 219 204 134 219 204 134 219 204 134 219 204 134 219 204 134 219 204 134 219 204 134 219 204 134 219 204 134 219 204 134 219 204 134 219 204 134 219 204 134 219 204 134 219 204 134 219 204 134 219 204 134 219 204 134 219 204 134 219 204 134 219 204 134 219 204 134 219 204 134 219 204 134 219 204 134 219 204 134 219 204 134 219 204 134 219 204 134 219 204 134 219 204 134 219 204 134 219 204 134 219 204 134 219 204 134 219 204 134 219 204 134 219 204 134 219 204 134 219 204 134 219 204 134 219 204 134 219 204 134 219 204 134 219 204 134 219 204 134 219 204 134 219 204 134 219 204 134 219 204 134 219 204 134 219 204 134 219 204 134 219 204 134 219 204 134 219 204 134 219 204 134 219 204 134 219 204 134 219 204 134 219 204 134 219 204 134 219 204 134 219 204 134 219 204 134 219 204 134 219 204 134 219 204 134 219 204 134 219 204 134 219 204 134 219 204 134 219 204 134 219 204 134 219 204 134 219 204 134 219 204 134 219 204 134 219 204 134 219 204 134 219 204 134 219 204 134 219 204 134 219 204 134 219 204 134 219 204 134 219 204 134 219 204 134 219 204 134 219 204 134 219 204 134 219 204 134 219 204 134 219 204 134 219 204 134 219 204 134 219 204 134 219 204 134 219 204 134 219 204 134 219 204 134 219 204 134 219 204 134 219 204 134 219 204 134 219 204 134 219 204 134 219 204 134 219 204 134 219 204 134 219 204 134 219 204 134 219 204
134 219 204 134 219 204 134 219 204 134 219 204 134 219 204 134 219 204 134 219 204 134 219 204 134 219 204 134 219 204 134 219 204 134 219 204 134 219 204 134 219 204 134 219 204 134 219 204 134 219 204 134 219 204 134 219 204 134 219 204 134 219 204 134 219 204 134 219 204 134 219 204 134 219 204 134 219 204 134 219 204 134 219 204 134 219 204 134 219 204 134 219 204 134 219 204 134 219 204 134 219 204 134 219 204 134 219 204 134 219 204 134 219 204 134 219 204 134 219 204 134 219 204 134 219 204 134 219 204 134 219 204 134 219 204 134 219 204 134 219 204 134 219 204 134 219 204 134 219 204 134 219 204 134 219 204 134 219 204 134 219 204 134 219 204 134 219 204 134 219 204 134 219 204 134 219 204 134 219 204 134 219 204 134 219 204 134 219 204 134 219 204 134 219 204 134 219 204 134 219 204 134 219 204 134 219 204 134 219 204 134 219 204 134 219 204 134 219 204 134 219 204 134 219 204 134 219 204 134 219 204 134 219 204 134 219 204 134 219 204 134 219 204 134 219 204 134 219 204 134 219 204 134 219 204 134 219 204 134 219 204 134 219 204 134 219 204 134 219 204 134 219 204 134 219 204 134 219 204 134 219 204 134 219 204 134 219 204 134 219 204 134 219 204 134 219 204 134 219 204 134 219 204 134 219 204 134 219 204 134 219 204 134 219 204 134 219 204 134 219 204 134 219 204 134 219 204 134 219 204 134 219 204 134 219 204 134 219 204 134 219 204 134 219 204 134 219 204 134 219 204 134 219 204 134 219 204 134 219 204 134 219 204 134 219 204 134 219 204 134 219 204 134 219 204 134 219 204 134 219 204 134 219 204 134 219 204 134 219 204 134 219 204 134 219 204 134 219 204 134 219 204 134 219 204 134 219 204 134 219 204 134 219 204 134 219 204 134 219 204 134 219 204 134 219 204 134 219 204 134 219 204 134 219 204 134 219 204 134 219 204 134 219 204 134 219 204 134 219 204 134 219 204 134 219 204 134 219 204 134 219 204 134 219 204 134 219 204 134 219 204 134 219 204 134 219 204 134 219 204
134 219 204 134 219 204 134 219 204 134 219 204 134 219 204 134 219 204 134 219 204 134 219 204 134 219 204 134 219 204 134 219 204 134 219 204 134 219 204 134 219 204 134 219 204 134 219 204 134 219 204 134 219 204 134 219 204 134 219 204 134 219 204 134 219 204 134 219 204 134 219 204 134 219 204 134 219 204 134 219 204 134 219 204 134 219 204 134 219 204 134 219 204 134 219 204 134 219 204 134 219 204 134 219 204 134 219 204 134 219 204 134 219 204 134 219 204 134 219 204 134 219 204 134 219 204 134 219 204 134 219 204 134 219 204 134 219 204 134 219 204 134 219 204 134 219 204 134 219 204 134 219 204 134 219 204 134 219 204 134 219 204 134 219 204 134 219 204 134 219 204 134 219 204 134 219 204 134 219 204 134 219 204 134 219 204 134 219 204 134 219 204 134 219 204 134 219 204 134 219 204 134 219 204 134 219 204 134 219 204 134 219 204 134 219 204 134 219 204 134 219 204 134 219 204 134 219 204 134 219 204 134 219 204 134 219 204 134 219 204 134 219 204 134 219 204 134 219 204 134 219 204 134 219 204 134 219 204 134 219 204 134 219 204 134 219 204 134 219 204 134 219 204 134 219 204 134 219 204 134 219 204 134 219 204 134 219 204 134 219 204 134 219 204 134 219 204 134 219 204 134 219 204 134 219 204 134 219 204 134 219 204 134 219 204 134 219 204 134 219 204 134 219 204 134 219 204 134 219 204 134 219 204 134 219 204 134 219 204 134 219 204 134 219 204 134 219 204 134 219 204 134 219 204 134 219 204 134 219 204 134 219 204 134 219 204 134 219 204 134 219 204 134 219 204 134 219 204 134 219 204 134 219 204 134 219 204 134 219 204 134 219 204 134 219 204 134 219 204 134 219 204 134 219 204 134 219 204 134 219 204 134 219 204 134 219 204 134 219 204 134 219 204 134 219 204 134 219 204 134 219 204 134 219 204 134 219 204 134 219 204 134 219 204 134 219 204 134 219 204 134 219 204 134 219 204 134 219 204 134 219 204 134 219 204 134 219 204 134 219 204 134 219 204 134 219 204 134 219 204
134 219 204 134 219 204 134 219 204 134 219 204 134 219 204 134 219 204 134 219 204 134 219 204 134 219 204 134 219 204 134 219 204 134 219 204 134 219 204 134 219 204 134 219 204 134 219 204 134 219 204 134 219 204 134 219 204 134 219 204 134 219 204 134 219 204 134 219 204 134 219 204 134 219 204 134 219 204 134 219 204 134 219 204 134 219 204 134 219 204 134 219 204 134 219 204 134 219 204 134 219 204 134 219 204 134 219 204 134 219 204 134 219 204 134 219 204 134 219 204 134 219 204 134 219 204 134 219 204 134 219 204 134 219 204 134 219 204 134 219 204 134 219 204 134 219 204 134 219 204 134 219 204 134 219 204 134 219 204 134 219 204 134 219 204 134 219 204 134 219 204 134 219 204 134 219 204 134 219 204 134 219 204 134 219 204 134 219 204 134 219 204 134 219 204 134 219 204 134 219 204 134 219 204 134 219 204 134 219 204 134 219 204 134 219 204 134 219 204 134 219 204 134 219 204 134 219 204 134 219 204 134 219 204 134 219 204 134 219 204 134 219 204 134 219 204 134 219 204 134 219 204 134 219 204 134 219 204 134 219 204 134 219 204 134 219 204 134 219 204 134 219 204 134 219 204 134 219 204 134 219 204 134 219 204 134 219 204 134 219 204 134 219 204 134 219 204 134 219 204 134 219 204 134 219 204 134 219 204 134 219 204 134 219 204 134 219 204 134 219 204 134 219 204 134 219 204 134 219 204 134 219 204 134 219 204 134 219 204 134 219 204 134 219 204 134 219 204 134 219 204 134 219 204 134 219 204 134 219 204 134 219 204 134 219 204 134 219 204 134 219 204 134 219 204 134 219 204 134 219 204 134 219 204 134 219 204 134 219 204 134 219 204 134 219 204 134 219 204 134 219 204 134 219 204 134 219 204 134 219 204 134 219 204 134 219 204 134 219 204 134 219 204 134 219 204 134 219 204 134 219 204 134 219 204 134 219 204 134 219 204 134 219 204 134 219 204 134 219 204 134 219 204 134 219 204 134 219 204 134 219 204 134 219 204 134 219 204 134 219 204 134 219 204 134 219 204 134 219 204
134 219 204 134 219 204 134 219 204 134 219 204 134 219 204 134 219 204 134 219 204 134 219 204 134 219 204 134 219 204 134 219 204 134 219 204 134 219 204 134 219 204 134 219 204 134 219 204 134 219 204 134 219 204 134 219 204 134 219 204 134 219 204 134 219 204 134 219 204 134 219 204 134 219 204 134 219 204 134 219 204 134 219 204 134 219 204 134 219 204 134 219 204 134 219 204 134 219 204 134 219 204 134 219 204 134 219 204 134 219 204 134 219 204 134 219 204 134 219 204 134 219 204 134 219 204 134 219 204 134 219 204 134 219 204 134 219 204 134 219 204 134 219 204 134 219 204 134 219 204 134 219 204 134 219 204 134 219 204 134 219 204 134 219 204 134 219 204 134 219 204 134 219 204 134 219 204 134 219 204 134 219 204 134 219 204 134 219 204 134 219 204 134 219 204 134 219 204 134 219 204 134 219 204 134 219 204 134 219 204 134 219 204 134 219 204 134 219 204 134 219 204 134 219 204 134 219 204 134 219 204 134 219 204 134 219 204 134 219 204 134 219 204 134 219 204 134 219 204 134 219 204 134 219 204 134 219 204 134 219 204 134 219 204 134 219 204 134 219 204 134 219 204 134 219 204 134 219 204 134 219 204 134 219 204 134 219 204 134 219 204 134 219 204 134 219 204 134 219 204 134 219 204 134 219 204 134 219 204 134 219 204 134 219 204 134 219 204 134 219 204 134 219 204 134 219 204 134 219 204 134 219 204 134 219 204 134 219 204 134 219 204 134 219 204 134 219 204 134 219 204 134 219 204 134 219 204 134 219 204 134 219 204 134 219 204 134 219 204 134 219 204 134 219 204 134 219 204 134 219 204 134 219 204 134 219 204 134 219 204 134 219 204 134 219 204 134 219 204 134 219 204 134 219 204 134 219 204 134 219 204 134 219 204 134 219 204 134 219 204 134 219 204 134 219 204 134 219 204 134 219 204 134 219 204 134 219 204 134 219 204 134 219 204 134 219 204 134 219 204 134 219 204 134 219 204 134 219 204 134 219 204 134 219 204 134 219 204 134 219 204 134 219 204 134 219 204 134 219 204
134 219 204 134 219 204 134 219 204 134 219 204 134 219 204 134 219 204 134 219 204 134 219 204 134 219 204 134 219 204 134 219 204 134 219 204 134 219 204 134 219 204 134 219 204 134 219 204 134 219 204 134 219 204 134 219 204 134 219 204 134 219 204 134 219 204 134 219 204 134 219 204 134 219 204 134 219 204 134 219 204 134 219 204 134 219 204 134 219 204 134 219 204 134 219 204 134 219 204 134 219 204 134 219 204 134 219 204 134 219 204 134 219 204 134 219 204 134 219 204 134 219 204 134 219 204 134 219 204 134 219 204 134 219 204 134 219 204 134 219 204 134 219 204 134 219 204 134 219 204 134 219 204 134 219 204 134 219 204 134 219 204 134 219 204 134 219 204 134 219 204 134 219 204 134 219 204 134 219 204 134 219 204 134 219 204 134 219 204 134 219 204 134 219 204 134 219 204 134 219 204 134 219 204 134 219 204 134 219 204 134 219 204 134 219 204 134 219 204 134 219 204 134 219 204 134 219 204 134 219 204 134 219 204 134 219 204 134 219 204 134 219 204 134 219 204 134 219 204 134 219 204 134 219 204 134 219 204 134 219 204 134 219 204 134 219 204 134 219 204 134 219 204 134 219 204 134 219 204 134 219 204 134 219 204 134 219 204 134 219 204 134 219 204 134 219 204 134 219 204 134 219 204 134 219 204 134 219 204 134 219 204 134 219 204 134 219 204 134 219 204 134 219 204 134 219 204 134 219 204 134 219 204 134 219 204 134 219 204 134 219 204 134 219 204 134 219 204 134 219 204 134 219 204 134 219 204 134 219 204 134 219 204 134 219 204 134 219 204 134 219 204 134 219 204 134 219 204 134 219 204 134 219 204 134 219 204 134 219 204 134 219 204 134 219 204 134 219 204 134 219 204 134 219 204 134 219 204 134 219 204 134 219 204 134 219 204 134 219 204 134 219 204 134 219 204 134 219 204 134 219 204 134 219 204 134 219 204 134 219 204 134 219 204 134 219 204 134 219 204 134 219 204 134 219 204 134 219 204 134 219 204 134 219 204 134 219 204 134 219 204 134 219 204 134 219 204 134 219 204
134 219 204 134 219 204 134 219 204 134 219 204 134 219 204 134 219 204 134 219 204 134 219 204 134 219 204 134 219 204 134 219 204 134 219 204 134 219 204 134 219 204 134 219 204 134 219 204 134 219 204 134 219 204 134 219 204 134 219 204 134 219 204 134 219 204 134 219 204 134 219 204 134 219 204 134 219 204 134 219 204 134 219 204 134 219 204 134 219 204 134 219 204 134 219 204 134 219 204 134 219 204 134 219 204 134 219 204 134 219 204 134 219 204 134 219 204 134 219 204 134 219 204 134 219 204 134 219 204 134 219 204 134 219 204 134 219 204 134 219 204 134 219 204 134 219 204 134 219 204 134 219 204 134 219 204 134 219 204 134 219 204 134 219 204 134 219 204 134 219 204 134 219 204 134 219 204 134 219 204 134 219 204 134 219 204 134 219 204 134 219 204 134 219 204 134 219 204 134 219 204 134 219 204 134 219 204 134 219 204 134 219 204 134 219 204 134 219 204 134 219 204 134 219 204 134 219 204 134 219 204 134 219 204 134 219 204 134 219 204 134 219 204 134 219 204 134 219 204 134 219 204 134 219 204 134 219 204 134 219 204 134 219 204 134 219 204 134 219 204 134 219 204 134 219 204 134 219 204 134 219 204 134 219 204 134 219 204 134 219 204 134 219 204 134 219 204 134 219 204 134 219 204 134 219 204 134 219 204 134 219 204 134 219 204 134 219 204 134 219 204 134 219 204 134 219 204 134 219 204 134 219 204 134 219 204 134 219 204 134 219 204 134 219 204 134 219 204 134 219 204 134 219 204 134 219 204 134 219 204 134 219 204 134 219 204 134 219 204 134 219 204 134 219 204 134 219 204 134 219 204 134 219 204 134 219 204 134 219 204 134 219 204 134 219 204 134 219 204 134 219 204 134 219 204 134 219 204 134 219 204 134 219 204 134 219 204 134 219 204 134 219 204 134 219 204 134 219 204 134 219 204 134 219 204 134 219 204 134 219 204 134 219 204 134 219 204 134 219 204 134 219 204 134 219 204 134 219 204 134 219 204 134 219 204 134 219 204 134 219 204 134 219 204 134 219 204 134 219 204
134 219 204 134 219 204 134 219 204 134 219 204 134 219 204 134 219 204 134 219 204 134 219 204 134 219 204 134 219 204 134 219 204 134 219 204 134 219 204 134 219 204 134 219 204 134 219 204 134 219 204 134 219 204 134 219 204 134 219 204 134 219 204 134 219 204 134 219 204 134 219 204 134 219 204 134 219 204 134 219 204 134 219 204 134 219 204 134 219 204 134 219 204 134 219 204 134 219 204 134 219 204 134 219 204 134 219 204 134 219 204 134 219 204 134 219 204 134 219 204 134 219 204 134 219 204 134 219 204 134 219 204 134 219 204 134 219 204 134 219 204 134 219 204 134 219 204 134 219 204 134 219 204 134 219 204 134 219 204 134 219 204 134 219 204 134 219 204 134 219 204 134 219 204 134 219 204 134 219 204 134 219 204 134 219 204 134 219 204 134 219 204 134 219 204 134 219 204 134 219 204 134 219 204 134 219 204 134 219 204 134 219 204 134 219 204 134 219 204 134 219 204 134 219 204 134 219 204 134 219 204 134 219 204 134 219 204 134 219 204 134 219 204 134 219 204 134 219 204 134 219 204 134 219 204 134 219 204 134 219 204 134 219 204 134 219 204 134 219 204 134 219 204 134 219 204 134 219 204 134 219 204 134 219 204 134 219 204 134 219 204 134 219 204 134 219 204 134 219 204 134 219 204 134 219 204 134 219 204 134 219 204 134 219 204 134 219 204 134 219 204 134 219 204 134 219 204 134 219 204 134 219 204 134 219 204 134 219 204 134 219 204 134 219 204 134 219 204 134 219 204 134 219 204 134 219 204 134 219 204 134 219 204 134 219 204 134 219 204 134 219 204 134 219 204 134 219 204 134 219 204 134 219 204 134 219 204 134 219 204 134 219 204 134 219 204 134 219 204 134 219 204 134 219 204 134 219 204 134 219 204 134 219 204 134 219 204 134 219 204 134 219 204 134 219 204 134 219 204 134 219 204 134 219 204 134 219 204 134 219 204 134 219 204 134 219 204 134 219 204 134 219 204 134 219 204 134 219 204 134 219 204 134 219 204 134 219 204 134 219 204 134 219 204 134 219 204 134 219 204
134 219 204 134 219 204 134 219 204 134 219 204 134 219 204 134 219 204 134 219 204 134 219 204 134 219 204 134 219 204 134 219 204 134 219 204 134 219 204 134 219 204 134 219 204 134 219 204 134 219 204 134 219 204 134 219 204 134 219 204 134 219 204 134 219 204 134 219 204 134 219 204 134 219 204 134 219 204 134 219 204 134 219 204 134 219 204 134 219 204 134 219 204 134 219 204 134 219 204 134 219 204 134 219 204 134 219 204 134 219 204 134 219 204 134 219 204 134 219 204 134 219 204 134 219 204 134 219 204 134 219 204 134 219 204 134 219 204 134 219 204 134 219 204 134 219 204 134 219 204 134 219 204 134 219 204 134 219 204 134 219 204 134 219 204 134 219 204 134 219 204 134 219 204 134 219 204 134 219 204 134 219 204 134 219 204 134 219 204 134 219 204 134 219 204 134 219 204 134 219 204 134 219 204 134 219 204 134 219 204 134 219 204 134 219 204 134 219 204 134 219 204 134 219 204 134 219 204 134 219 204 134 219 204 134 219 204 134 219 204 134 219 204 134 219 204 134 219 204 134 219 204 134 219 204 134 219 204 134 219 204 134 219 204 134 219 204 134 219 204 134 219 204 134 219 204 134 219 204 134 219 204 134 219 204 134 219 204 134 219 204 134 219 204 134 219 204 134 219 204 134 219 204 134 219 204 134 219 204 134 219 204 134 219 204 134 219 204 134 219 204 134 219 204 134 219 204 134 219 204 134 219 204 134 219 204 134 219 204 134 219 204 134 219 204 134 219 204 134 219 204 134 219 204 134 219 204 134 219 204 134 219 204 134 219 204 134 219 204 134 219 204 134 219 204 134 219 204 134 219 204 134 219 204 134 219 204 134 219 204 134 219 204 134 219 204 134 219 204 134 219 204 134 219 204 134 219 204 134 219 204 134 219 204 134 219 204 134 219 204 134 219 204 134 219 204 134 219 204 134 219 204 134 219 204 134 219 204 134 219 204 134 219 204 134 219 204 134 219 204 134 219 204 134 219 204 134 219 204 134 219 204 134 219 204 134 219 204 134 219 204 134 219 204 134 219 204 134 219 204
134 219 204 134 219 204 134 219 204 134 219 204 134 219 204 134 219 204 134 219 204 134 219 204 134 219 204 134 219 204 134 219 204 134 219 204 134 219 204 134 219 204 134 219 204 134 219 204 134 219 204 134 219 204 134 219 204 134 219 204 134 219 204 134 219 204 134 219 204 134 219 204 134 219 204 134 219 204 134 219 204 134 219 204 134 219 204 134 219 204 134 219 204 134 219 204 134 219 204 134 219 204 134 219 204 134 219 204 134 219 204 134 219 204 134 219 204 134 219 204 134 219 204 134 219 204 134 219 204 134 219 204 134 219 204 134 219 204 134 219 204 134 219 204 134 219 204 134 219 204 134 219 204 134 219 204 134 219 204 134 219 204 134 219 204 134 219 204 134 219 204 134 219 204 134 219 204 134 219 204 134 219 204 134 219 204 134 219 204 134 219 204 134 219 204 134 219 204 134 219 204 134 219 204 134 219 204 134 219 204 134 219 204 134 219 204 134 219 204 134 219 204 134 219 204 134 219 204 134 219 204 134 219 204 134 219 204 134 219 204 134 219 204 134 219 204 134 219 204 134 219 204 134 219 204 134 219 204 134 219 204 134 219 204 134 219 204 134 219 204 134 219 204 134 219 204 134 219 204 134 219 204 134 219 204 134 219 204 134 219 204 134 219 204 134 219 204 134 219 204 134 219 204 134 219 204 134 219 204 134 219 204 134 219 204 134 219 204 134 219 204 134 219 204 134 219 204 134 219 204 134 219 204 134 219 204 134 219 204 134 219 204 134 219 204 134 219 204 134 219 204 134 219 204 134 219 204 134 219 204 134 219 204 134 219 204 134 219 204 134 219 204 134 219 204 134 219 204 134 219 204 134 219 204 134 219 204 134 219 204 134 219 204 134 219 204 134 219 204 134 219 204 134 219 204 134 219 204 134 219 204 134 219 204 134 219 204 134 219 204 134 219 204 134 219 204 134 219 204 134 219 204 134 219 204 134 219 204 134 219 204 134 219 204 134 219 204 134 219 204 134 219 204 134 219 204 134 219 204 134 219 204 134 219 204 134 219 204 134 219 204 134 219 204 134 219 204 134 219 204
134 219 204 134 219 204 134 219 204 134 219 204 134 219 204 134 219 204 134 219 204 134 219 204 134 219 204 134 219 204 134 219 204 134 219 204 134 219 204 134 219 204 134 219 204 134 219 204 134 219 204 134 219 204 134 219 204 134 219 204 134 219 204 134 219 204 134 219 204 134 219 204 134 219 204 134 219 204 134 219 204 134 219 204 134 219 204 134 219 204 134 219 204 134 219 204 134 219 204 134 219 204 134 219 204 134 219 204 134 219 204 134 219 204 134 219 204 134 219 204 134 219 204 134 219 204 134 219 204 134 219 204 134 219 204 134 219 204 134 219 204 134 219 204 134 219 204 134 219 204 134 219 204 134 219 204 134 219 204 134 219 204 134 219 204 134 219 204 134 219 204 134 219 204 134 219 204 134 219 204 134 219 204 134 219 204 134 219 204 134 219 204 134 219 204 134 219 204 134 219 204 134 219 204 134 219 204 134 219 204 134 219 204 134 219 204 134 219 204 134 219 204 134 219 204 134 219 204 134 219 204 134 219 204 134 219 204 134 219 204 134 219 204 134 219 204 134 219 204 134 219 204 134 219 204 134 219 204 134 219 204 134 219 204 134 219 204 134 219 204 134 219 204 134 219 204 134 219 204 134 219 204 134 219 204 134 219 204 134 219 204 134 219 204 134 219 204 134 219 204 134 219 204 134 219 204 134 219 204 134 219 204 134 219 204 134 219 204 134 219 204 134 219 204 134 219 204 134 219 204 134 219 204 134 219 204 134 219 204 134 219 204 134 219 204 134 219 204 134 219 204 134 219 204 134 219 204 134 219 204 134 219 204 134 219 204 134 219 204 134 219 204 134 219 204 134 219 204 134 219 204 134 219 204 134 219 204 134 219 204 134 219 204 134 219 204 134 219 204 134 219 204 134 219 204 134 219 204 134 219 204 134 219 204 134 219 204 134 219 204 134 219 204 134 219 204 134 219 204 134 219 204 134 219 204 134 219 204 134 219 204 134 219 204 134 219 204 134 219 204 134 219 204 134 219 204 134 219 204 134 219 204 134 219 204 134 219 204 134 219 204 134 219 204 134 219 204 134 219 204
134 219 204 134 219 204 134 219 204 134 219 204 134 219 204 134 219 204 134 219 204 134 219 204 134 219 204 134 219 204 134 219 204 134 219 204 134 219 204 134 219 204 134 219 204 134 219 204 134 219 204 134 219 204 134 219 204 134 219 204 134 219 204 134 219 204 134 219 204 134 219 204 134 219 204 134 219 204 134 219 204 134 219 204 134 219 204 134 219 204 134 219 204 134 219 204 134 219 204 134 219 204 134 219 204 134 219 204 134 219 204 134 219 204 134 219 204 134 219 204 134 219 204 134 219 204 134 219 204 134 219 204 134 219 204 134 219 204 134 219 204 134 219 204 134 219 204 134 219 204 134 219 204 134 219 204 134 219 204 134 219 204 134 219 204 134 219 204 134 219 204 134 219 204 134 219 204 134 219 204 134 219 204 134 219 204 134 219 204 134 219 204 134 219 204 134 219 204 134 219 204 134 219 204 134 219 204 134 219 204 134 219 204 134 219 204 134 219 204 134 219 204 134 219 204 134 219 204 134 219 204 134 219 204 134 219 204 134 219 204 134 219 204 134 219 204 134 219 204 134 219 204 134 219 204 134 219 204 134 219 204 134 219 204 134 219 204 134 219 204 134 219 204 134 219 204 134 219 204 134 219 204 134 219 204 134 219 204 134 219 204 134 219 204 134 219 204 134 219 204 134 219 204 134 219 204 134 219 204 134 219 204 134 219 204 134 219 204 134 219 204 134 219 204 134 219 204 134 219 204 134 219 204 134 219 204 134 219 204 134 219 204 134 219 204 134 219 204 134 219 204 134 219 204 134 219 204 134 219 204 134 219 204 134 219 204 134 219 204 134 219 204 134 219 204 134 219 204 134 219 204 134 219 204 134 219 204 134 219 204 134 219 204 134 219 204 134 219 204 134 219 204 134 219 204 134 219 204 134 219 204 134 219 204 134 219 204 134 219 204 134 219 204 134 219 204 134 219 204 134 219 204 134 219 204 134 219 204 134 219 204 134 219 204 134 219 204 134 219 204 134 219 204 134 219 204 134 219 204 134 219 204 134 219 204 134 219 204 134 219 204 134 219 204 134 219 204 134 219 204
134 219 204 134 219 204 134 219 204 134 219 204 134 219 204 134 219 204 134 219 204 134 219 204 134 219 204 134 219 204 134 219 204 134 219 204 134 219 204 134 219 204 134 219 204 134 219 204 134 219 204 134 219 204 134 219 204 134 219 204 134 219 204 134 219 204 134 219 204 134 219 204 134 219 204 134 219 204 134 219 204 134 219 204 134 219 204 134 219 204 134 219 204 134 219 204 134 219 204 134 219 204 134 219 204 134 219 204 134 219 204 134 219 204 134 219 204 134 219 204 134 219 204 134 219 204 134 219 204 134 219 204 134 219 204 134 219 204 134 219 204 134 219 204 134 219 204 134 219 204 134 219 204 134 219 204 134 219 204 134 219 204 134 219 204 134 219 204 134 219 204 134 219 204 134 219 204 134 219 204 134 219 204 134 219 204 134 219 204 134 219 204 134 219 204 134 219 204 134 219 204 134 219 204 134 219 204 134 219 204 134 219 204 134 219 204 134 219 204 134 219 204 134 219 204 134 219 204 134 219 204 134 219 204 134 219 204 134 219 204 134 219 204 134 219 204 134 219 204 134 219 204 134 219 204 134 219 204 134 219 204 134 219 204 134 219 204 134 219 204 134 219 204 134 219 204 134 219 204 134 219 204 134 219 204 134 219 204 134 219 204 134 219 204 134 219 204 134 219 204 134 219 204 134 219 204 134 219 204 134 219 204 134 219 204 134 219 204 134 219 204 134 219 204 134 219 204 134 219 204 134 219 204 134 219 204 134 219 204 134 219 204 134 219 204 134 219 204 134 219 204 134 219 204 134 219 204 134 219 204 134 219 204 134 219 204 134 219 204 134 219 204 134 219 204 134 219 204 134 219 204 134 219 204 134 219 204 134 219 204 134 219 204 134 219 204 134 219 204 134 219 204 134 219 204 134 219 204 134 219 204 134 219 204 134 219 204 134 219 204 134 219 204 134 219 204 134 219 204 134 219 204 134 219 204 134 219 204 134 219 204 134 219 204 134 219 204 134 219 204 134 219 204 134 219 204 134 219 204 134 219 204 134 219 204 134 219 204 134 219 204 134 219 204 134 219 204 134 219 204
134 219 204 134 219 204 134 219 204 134 219 204 134 219 204 134 219 204 134 219 204 134 219 204 134 219 204 134 219 204 134 219 204 134 219 204 134 219 204 134 219 204 134 219 204 134 219 204 134 219 204 134 219 204 134 219 204 134 219 204 134 219 204 134 219 204 134 219 204 134 219 204 134 219 204 134 219 204 134 219 204 134 219 204 134 219 204 134 219 204 134 219 204 134 219 204 134 219 204 134 219 204 134 219 204 134 219 204 134 219 204 134 219 204 134 219 204 134 219 204 134 219 204 134 219 204 134 219 204 134 219 204 134 219 204 134 219 204 134 219 204 134 219 204 134 219 204 134 219 204 134 219 204 134 219 204 134 219 204 134 219 204 134 219 204 134 219 204 134 219 204 134 219 204 134 219 204 134 219 204 134 219 204 134 219 204 134 219 204 134 219 204 134 219 204 134 219 204 134 219 204 134 219 204 134 219 204 134 219 204 134 219 204 134 219 204 134 219 204 134 219 204 134 219 204 134 219 204 134 219 204 134 219 204 134 219 204 134 219 204 134 219 204 134 219 204 134 219 204 134 219 204 134 219 204 134 219 204 134 219 204 134 219 204 134 219 204 134 219 204 134 219 204 134 219 204 134 219 204 134 219 204 134 219 204 134 219 204 134 219 204 134 219 204 134 219 204 134 219 204 134 219 204 134 219 204 134 219 204 134 219 204 134 219 204 134 219 204 134 219 204 134 219 204 134 219 204 134 219 204 134 219 204 134 219 204 134 219 204 134 219 204 134 219 204 134 219 204 134 219 204 134 219 204 134 219 204 134 219 204 134 219 204 134 219 204 134 219 204 134 219 204 134 219 204 134 219 204 134 219 204 134 219 204 134 219 204 134 219 204 134 219 204 134 219 204 134 219 204 134 219 204 134 219 204 134 219 204 134 219 204 134 219 204 134 219 204 134 219 204 134 219 204 134 219 204 134 219 204 134 219 204 134 219 204 134 219 204 134 219 204 134 219 204 134 219 204 134 219 204 134 219 204 134 219 204 134 219 204 134 219 204 134 219 204 134 219 204 134 219 204 134 219 204 134 219 204 134 219 204
134 219 204 134 219 204 134 219 204 134 219 204 134 219 204 134 219 204 134 219 204 134 219 204 134 219 204 134 219 204 134 219 204 134 219 204 134 219 204 134 219 204 134 219 204 134 219 204 134 219 204 134 219 204 134 219 204 134 219 204 134 219 204 134 219 204 134 219 204 134 219 204 134 219 204 134 219 204 134 219 204 134 219 204 134 219 204 134 219 204 134 219 204 134 219 204 134 219 204 134 219 204 134 219 204 134 219 204 134 219 204 134 219 204 134 219 204 134 219 204 134 219 204 134 219 204 134 219 204 134 219 204 134 219 204 134 219 204 134 219 204 134 219 204 134 219 204 134 219 204 134 219 204 134 219 204 134 219 204 134 219 204 134 219 204 134 219 204 134 219 204 134 219 204 134 219 204 134 219 204 134 219 204 134 219 204 134 219 204 134 219 204 134 219 204 134 219 204 134 219 204 134 219 204 134 219 204 134 219 204 134 219 204 134 219 204 134 219 204 134 219 204 134 219 204 134 219 204 134 219 204 134 219 204 134 219 204 134 219 204 134 219 204 134 219 204 134 219 204 134 219 204 134 219 204 134 219 204 134 219 204 134 219 204 134 219 204 134 219 204 134 219 204 134 219 204 134 219 204 134 219 204 134 219 204 134 219 204 134 219 204 134 219 204 134 219 204 134 219 204 134 219 204 134 219 204 134 219 204 134 219 204 134 219 204 134 219 204 134 219 204 134 219 204 134 219 204 134 219 204 134 219 204 134 219 204 134 219 204 134 219 204 134 219 204 134 219 204 134 219 204 134 219 204 134 219 204 134 219 204 134 219 204 134 219 204 134 219 204 134 219 204 134 219 204 134 219 204 134 219 204 134 219 204 134 219 204 134 219 204 134 219 204 134 219 204 134 219 204 134 219 204 134 219 204 134 219 204 134 219 204 134 219 204 134 219 204 134 219 204 134 219 204 134 219 204 134 219 204 134 219 204 134 219 204 134 219 204 134 219 204 134 219 204 134 219 204 134 219 204 134 219 204 134 219 204 134 219 204 134 219 204 134 219 204 134 219 204 134 219 204 134 219 204 134 219 204 134 219 204
134 219 204 134 219 204 134 219 204 134 219 204 134 219 204 134 219 204 134 219 204 134 219 204 134 219 204 134 219 204 134 219 204 134 219 204 134 219 204 134 219 204 134 219 204 134 219 204 134 219 204 134 219 204 134 219 204 134 219 204 134 219 204 134 219 204 134 219 204 134 219 204 134 219 204 134 219 204 134 219 204 134 219 204 134 219 204 134 219 204 134 219 204 134 219 204 134 219 204 134 219 204 134 219 204 134 219 204 134 219 204 134 219 204 134 219 204 134 219 204 134 219 204 134 219 204 134 219 204 134 219 204 134 219 204 134 219 204 134 219 204 134 219 204 134 219 204 134 219 204 134 219 204 134 219 204 134 219 204 134 219 204 134 219 204 134 219 204 134 219 204 134 219 204 134 219 204 134 219 204 134 219 204 134 219 204 134 219 204 134 219 204 134 219 204 134 219 204 134 219 204 134 219 204 134 219 204 134 219 204 134 219 204 134 219 204 134 219 204 134 219 204 134 219 204 134 219 204 134 219 204 134 219 204 134 219 204 134 219 204 134 219 204 134 219 204 134 219 204 134 219 204 134 219 204 134 219 204 134 219 204 134 219 204 134 219 204 134 219 204 134 219 204 134 219 204 134 219 204 134 219 204 134 219 204 134 219 204 134 219 204 134 219 204 134 219 204 134 219 204 134 219 204 134 219 204 134 219 204 134 219 204 134 219 204 134 219 204 134 219 204 134 219 204 134 219 204 134 219 204 134 219 204 134 219 204 134 219 204 134 219 204 134 219 204 134 219 204 134 219 204 134 219 204 134 219 204 134 219 204 134 219 204 134 219 204 134 219 204 134 219 204 134 219 204 134 219 204 134 219 204 134 219 204 134 219 204 134 219 204 134 219 204 134 219 204 134 219 204 134 219 204 134 219 204 134 219 204 134 219 204 134 219 204 134 219 204 134 219 204 134 219 204 134 219 204 134 219 204 134 219 204 134 219 204 134 219 204 134 219 204 134 219 204 134 219 204 134 219 204 134 219 204 134 219 204 134 219 204 134 219 204 134 219 204 134 219 204 134 219 204 134 219 204 134 219 204 134 219 204
134 219 204 134 219 204 134 219 204 134 219 204 134 219 204 134 219 204 134 219 204 134 219 204 134 219 204 134 219 204 134 219 204 134 219 204 134 219 204 134 219 204 134 219 204 134 219 204 134 219 204 134 219 204 134 219 204 134 219 204 134 219 204 134 219 204 134 219 204 134 219 204 134 219 204 134 219 204 134 219 204 134 219 204 134 219 204 134 219 204 134 219 204 134 219 204 134 219 204 134 219 204 134 219 204 134 219 204 134 219 204 134 219 204 134 219 204 134 219 204 134 219 204 134 219 204 134 219 204 134 219 204 134 219 204 134 219 204 134 219 204 134 219 204 134 219 204 134 219 204 134 219 204 134 219 204 134 219 204 134 219 204 134 219 204 134 219 204 134 219 204 134 219 204 134 219 204 134 219 204 134 219 204 134 219 204 134 219 204 134 219 204 134 219 204 134 219 204 134 219 204 134 219 204 134 219 204 134 219 204 134 219 204 134 219 204 134 219 204 134 219 204 134 219 204 134 219 204 134 219 204 134 219 204 134 219 204 134 219 204 134 219 204 134 219 204 134 219 204 134 219 204 134 219 204 134 219 204 134 219 204 134 219 204 134 219 204 134 219 204 134 219 204 134 219 204 134 219 204 134 219 204 134 219 204 134 219 204 134 219 204 134 219 204 134 219 204 134 219 204 134 219 204 134 219 204 134 219 204 134 219 204 134 219 204 134 219 204 134 219 204 134 219 204 134 219 204 134 219 204 134 219 204 134 219 204 134 219 204 134 219 204 134 219 204 134 219 204 134 219 204 134 219 204 134 219 204 134 219 204 134 219 204 134 219 204 134 219 204 134 219 204 134 219 204 134 219 204 134 219 204 134 219 204 134 219 204 134 219 204 134 219 204 134 219 204 134 219 204 134 219 204 134 219 204 134 219 204 134 219 204 134 219 204 134 219 204 134 219 204 134 219 204 134 219 204 134 219 204 134 219 204 134 219 204 134 219 204 134 219 204 134 219 204 134 219 204 134 219 204 134 219 204 134 219 204 134 219 204 134 219 204 134 219 204 134 219 204 134 219 204 134 219 204 134 219 204 134 219 204
134 219 204 134 219 204 134 219 204 134 219 204 134 219 204 134 219 204 134 219 204 134 219 204 134 219 204 134 219 204 134 219 204 134 219 204 134 219 204 134 219 204 134 219 204 134 219 204 134 219 204 134 219 204 134 219 204 134 219 204 134 219 204 134 219 204 134 219 204 134 219 204 134 219 204 134 219 204 134 219 204 134 219 204 134 219 204 134 219 204 134 219 204 134 219 204 134 219 204 134 219 204 134 219 204 134 219 204 134 219 204 134 219 204 134 219 204 134 219 204 134 219 204 134 219 204 134 219 204 134 219 204 134 219 204 134 219 204 134 219 204 134 219 204 134 219 204 134 219 204 134 219 204 134 219 204 134 219 204 134 219 204 134 219 204 134 219 204 134 219 204 134 219 204 134 219 204 134 219 204 134 219 204 134 219 204 134 219 204 134 219 204 134 219 204 134 219 204 134 219 204 134 219 204 134 219 204 134 219 204 134 219 204 134 219 204 134 219 204 134 219 204 134 219 204 134 219 204 134 219 204 134 219 204 134 219 204 134 219 204 134 219 204 134 219 204 134 219 204 134 219 204 134 219 204 134 219 204 134 219 204 134 219 204 134 219 204 134 219 204 134 219 204 134 219 204 134 219 204 134 219 204 134 219 204 134 219 204 134 219 204 134 219 204 134 219 204 134 219 204 134 219 204 134 219 204 134 219 204 134 219 204 134 219 204 134 219 204 134 219 204 134 219 204 134 219 204 134 219 204 134 219 204 134 219 204 134 219 204 134 219 204 134 219 204 134 219 204 134 219 204 134 219 204 134 219 204 134 219 204 134 219 204 134 219 204 134 219 204 134 219 204 134 219 204 134 219 204 134 219 204 134 219 204 134 219 204 134 219 204 134 219 204 134 219 204 134 219 204 134 219 204 134 219 204 134 219 204 134 219 204 134 219 204 134 219 204 134 219 204 134 219 204 134 219 204 134 219 204 134 219 204 134 219 204 134 219 204 134 219 204 134 219 204 134 219 204 134 219 204 134 219 204 134 219 204 134 219 204 134 219 204 134 219 204 134 219 204 134 219 204 134 219 204 134 219 204 134 219 204
134 219 204 134 219 204 134 219 204 134 219 204 134 219 204 134 219 204 134 219 204 134 219 204 134 219 204 134 219 204 134 219 204 134 219 204 134 219 204 134 219 204 134 219 204 134 219 204 134 219 204 134 219 204 134 219 204 134 219 204 134 219 204 134 219 204 134 219 204 134 219 204 134 219 204 134 219 204 134 219 204 134 219 204 134 219 204 134 219 204 134 219 204 134 219 204 134 219 204 134 219 204 134 219 204 134 219 204 134 219 204 134 219 204 134 219 204 134 219 204 134 219 204 134 219 204 134 219 204 134 219 204 134 219 204 134 219 204 134 219 204 134 219 204 134 219 204 134 219 204 134 219 204 134 219 204 134 219 204 134 219 204 134 219 204 134 219 204 134 219 204 134 219 204 134 219 204 134 219 204 134 219 204 134 219 204 134 219 204 134 219 204 134 219 204 134 219 204 134 219 204 134 219 204 134 219 204 134 219 204 134 219 204 134 219 204 134 219 204 134 219 204 134 219 204 134 219 204 134 219 204 134 219 204 134 219 204 134 219 204 134 219 204 134 219 204 134 219 204 134 219 204 134 219 204 134 219 204 134 219 204 134 219 204 134 219 204 134 219 204 134 219 204 134 219 204 134 219 204 134 219 204 134 219 204 134 219 204 134 219 204 134 219 204 134 219 204 134 219 204 134 219 204 134 219 204 134 219 204 134 219 204 134 219 204 134 219 204 134 219 204 134 219 204 134 219 204 134 219 204 134 219 204 134 219 204 134 219 204 134 219 204 134 219 204 134 219 204 134 219 204 134 219 204 134 219 204 134 219 204 134 219 204 134 219 204 134 219 204 134 219 204 134 219 204 134 219 204 134 219 204 134 219 204 134 219 204 134 219 204 134 219 204 134 219 204 134 219 204 134 219 204 134 219 204 134 219 204 134 219 204 134 219 204 134 219 204 134 219 204 134 219 204 134 219 204 134 219 204 134 219 204 134 219 204 134 219 204 134 219 204 134 219 204 134 219 204 134 219 204 134 219 204 134 219 204 134 219 204 134 219 204 134 219 204 134 219 204 134 219 204 134 219 204 134 219 204 134 219 204
134 219 204 134 219 204 134 219 204 134 219 204 134 219 204 134 219 204 134 219 204 134 219 204 134 219 204 134 219 204 134 219 204 134 219 204 134 219 204 134 219 204 134 219 204 134 219 204 134 219 204 134 219 204 134 219 204 134 219 204 134 219 204 134 219 204 134 219 204 134 219 204 134 219 204 134 219 204 134 219 204 134 219 204 134 219 204 134 219 204 134 219 204 134 219 204 134 219 204 134 219 204 134 219 204 134 219 204 134 219 204 134 219 204 134 219 204 134 219 204 134 219 204 134 219 204 134 219 204 134 219 204 134 219 204 134 219 204 134 219 204 134 219 204 134 219 204 134 219 204 134 219 204 134 219 204 134 219 204 134 219 204 134 219 204 134 219 204 134 219 204 134 219 204 134 219 204 134 219 204 134 219 204 134 219 204 134 219 204 134 219 204 134 219 204 134 219 204 134 219 204 134 219 204 134 219 204 134 219 204 134 219 204 134 219 204 134 219 204 134 219 204 134 219 204 134 219 204 134 219 204 134 219 204 134 219 204 134 219 204 134 219 204 134 219 204 134 219 204 134 219 204 134 219 204 134 219 204 134 219 204 134 219 204 134 219 204 134 219 204 134 219 204 134 219 204 134 219 204 134 219 204 134 219 204 134 219 204 134 219 204 134 219 204 134 219 204 134 219 204 134 219 204 134 219 204 134 219 204 134 219 204 134 219 204 134 219 204 134 219 204 134 219 204 134 219 204 134 219 204 134 219 204 134 219 204 134 219 204 134 219 204 134 219 204 134 219 204 134 219 204 134 219 204 134 219 204 134 219 204 134 219 204 134 219 204 134 219 204 134 219 204 134 219 204 134 219 204 134 219 204 134 219 204 134 219 204 134 219 204 134 219 204 134 219 204 134 219 204 134 219 204 134 219 204 134 219 204 134 219 204 134 219 204 134 219 204 134 219 204 134 219 204 134 219 204 134 219 204 134 219 204 134 219 204 134 219 204 134 219 204 134 219 204 134 219 204 134 219 204 134 219 204 134 219 204 134 219 204 134 219 204 134 219 204 134 219 204 134 219 204 134 219 204 134 219 204 134 219 204
134 219 204 134 219 204 134 219 204 134 219 204 134 219 204 134 219 204 134 219 204 134 219 204 134 219 204 134 219 204 134 219 204 134 219 204 134 219 204 134 219 204 134 219 204 134 219 204 134 219 204 134 219 204 134 219 204 134 219 204 134 219 204 134 219 204 134 219 204 134 219 204 134 219 204 134 219 204 134 219 204 134 219 204 134 219 204 134 219 204 134 219 204 134 219 204 134 219 204 134 219 204 134 219 204 134 219 204 134 219 204 134 219 204 134 219 204 134 219 204 134 219 204 134 219 204 134 219 204 134 219 204 134 219 204 134 219 204 134 219 204 134 219 204 134 219 204 134 219 204 134 219 204 134 219 204 134 219 204 134 219 204 134 219 204 134 219 204 134 219 204 134 219 204 134 219 204 134 219 204 134 219 204 134 219 204 134 219 204 134 219 204 134 219 204 134 219 204 134 219 204 134 219 204 134 219 204 134 219 204 134 219 204 134 219 204 134 219 204 134 219 204 134 219 204 134 219 204 134 219 204 134 219 204 134 219 204 134 219 204 134 219 204 134 219 204 134 219 204 134 219 204 134 219 204 134 219 204 134 219 204 134 219 204 134 219 204 134 219 204 134 219 204 134 219 204 134 219 204 134 219 204 134 219 204 134 219 204 134 219 204 134 219 204 134 219 204 134 219 204 134 219 204 134 219 204 134 219 204 134 219 204 134 219 204 134 219 204 134 219 204 134 219 204 134 219 204 134 219 204 134 219 204 134 219 204 134 219 204 134 219 204 134 219 204 134 219 204 134 219 204 134 219 204 134 219 204 134 219 204 134 219 204 134 219 204 134 219 204 134 219 204 134 219 204 134 219 204 134 219 204 134 219 204 134 219 204 134 219 204 134 219 204 134 219 204 134 219 204 134 219 204 134 219 204 134 219 204 134 219 204 134 219 204 134 219 204 134 219 204 134 219 204 134 219 204 134 219 204 134 219 204 134 219 204 134 219 204 134 219 204 134 219 204 134 219 204 134 219 204 134 219 204 134 219 204 134 219 204 134 219 204 134 219 204 134 219 204 134 219 204 134 219 204 134 219 204 134 219 204
