P3
24 24
255
0 255 0 1 254 2 2 253 4 3 252 6 4 251 8 5 250 10 6 249 12 7 248 14 8 247 16 9 246 18 10 245 20 11 244 22 12 243 24 13 242 26 14 241 28 15 240 30 16 239 32 17 238 34 18 237 36 19 236 38 20 235 40 21 234 42 22 233 44 23 232 46
1 254 2 2 253 4 3 252 6 4 251 8 5 250 10 6 249 12 7 248 14 8 247 16 9 246 18 10 245 20 11 244 22 12 243 24 13 242 26 14 241 28 15 240 30 16 239 32 17 238 34 18 237 36 19 236 38 20 235 40 21 234 42 22 233 44 23 232 46 24 231 48
2 253 4 3 252 6 4 251 8 5 250 10 6 249 12 7 248 14 8 247 16 9 246 18 10 245 20 11 244 22 12 243 24 13 242 26 14 241 28 15 240 30 16 239 32 17 238 34 18 237 36 19 236 38 20 235 40 21 234 42 22 233 44 23 232 46 24 231 48 25 230 50
3 252 6 4 251 8 5 250 10 6 249 12 7 248 14 8 247 16 9 246 18 10 245 20 11 244 22 12 243 24 13 242 26 14 241 28 15 240 30 16 239 32 17 238 34 18 237 36 19 236 38 20 235 40 21 234 42 22 233 44 23 232 46 24 231 48 25 230 50 26 229 52
4 251 8 5 250 10 6 249 12 7 248 14 8 247 16 9 246 18 10 245 20 11 244 22 12 243 24 13 242 26 14 241 28 15 240 30 16 239 32 17 238 34 18 237 36 19 236 38 20 235 40 21 234 42 22 233 44 23 232 46 24 231 48 25 230 50 26 229 52 27 228 54
5 250 10 6 249 12 7 248 14 8 247 16 9 246 18 10 245 20 11 244 22 12 243 24 13 242 26 14 241 28 15 240 30 16 239 32 17 238 34 18 237 36 19 236 38 20 235 40 21 234 42 22 233 44 23 232 46 24 231 48 25 230 50 26 229 52 27 228 54 28 227 56
6 249 12 7 248 14 8 247 16 9 246 18 10 245 20 11 244 22 12 243 24 13 242 26 14 241 28 15 240 30 16 239 32 17 238 34 18 237 36 19 236 38 20 235 40 21 234 42 22 233 44 23 232 46 24 231 48 25 230 50 26 229 52 27 228 54 28 227 56 29 226 58
7 248 14 8 247 16 9 246 18 10 245 20 11 244 22 12 243 24 13 242 26 14 241 28 15 240 30 16 239 32 17 238 34 18 237 36 19 236 38 20 235 40 21 234 42 22 233 44 23 232 46 24 231 48 25 230 50 26 229 52 27 228 54 28 227 56 29 226 58 30 225 60
8 247 16 9 246 18 10 245 20 11 244 22 12 243 24 13 242 26 14 241 28 15 240 30 16 239 32 17 238 34 18 237 36 19 236 38 20 235 40 21 234 42 22 233 44 23 232 46 24 231 48 25 230 50 26 229 52 27 228 54 28 227 56 29 226 58 30 225 60 31 224 62
9 246 18 10 245 20 11 244 22 12 243 24 13 242 26 14 241 28 15 240 30 16 239 32 17 238 34 18 237 36 19 236 38 20 235 40 21 234 42 22 233 44 23 232 46 24 231 48 25 230 50 26 229 52 27 228 54 28 227 56 29 226 58 30 225 60 31 224 62 32 223 64
10 245 20 11 244 22 12 243 24 13 242 26 14 241 28 15 240 30 16 239 32 17 238 34 18 237 36 19 236 38 20 235 40 21 234 42 22 233 44 23 232 46 24 231 48 25 230 50 26 229 52 27 228 54 28 227 56 29 226 58 30 225 60 31 224 62 32 223 64 33 222 66
11 244 22 12 243 24 13 242 26 14 241 28 15 240 30 16 239 32 17 238 34 18 237 36 19 236 38 20 235 40 21 234 42 22 233 44 23 232 46 24 231 48 25 230 50 26 229 52 27 228 54 28 227 56 29 226 58 30 225 60 31 224 62 32 223 64 33 222 66 34 221 68
12 243 24 13 242 26 14 241 28 15 240 30 16 239 32 17 238 34 18 237 36 19 236 38 20 235 40 21 234 42 22 233 44 23 232 46 24 231 48 25 230 50 26 229 52 27 228 54 28 227 56 29 226 58 30 225 60 31 224 62 32 223 64 33 222 66 34 221 68 35 220 70
13 242 26 14 241 28 15 240 30 16 239 32 17 238 34 18 237 36 19 236 38 20 235 40 21 234 42 22 233 44 23 232 46 24 231 48 25 230 50 26 229 52 27 228 54 28 227 56 29 226 58 30 225 60 31 224 62 32 223 64 33 222 66 34 221 68 35 220 70 36 219 72
14 241 28 15 240 30 16 239 32 17 238 34 18 237 36 19 236 38 20 235 40 21 234 42 22 233 44 23 232 46 24 231 48 25 230 50 26 229 52 27 228 54 28 227 56 29 226 58 30 225 60 31 224 62 32 223 64 33 222 66 34 221 68 35 220 70 36 219 72 37 218 74
15 240 30 16 239 32 17 238 34 18 237 36 19 236 38 20 235 40 21 234 42 22 233 44 23 232 46 24 231 48 25 230 50 26 229 52 27 228 54 28 227 56 29 226 58 30 225 60 31 224 62 32 223 64 33 222 66 34 221 68 35 220 70 36 219 72 37 218 74 38 217 76
16 239 32 17 238 34 18 237 36 19 236 38 20 235 40 21 234 42 22 233 44 23 232 46 24 231 48 25 230 50 26 229 52 27 228 54 28 227 56 29 226 58 30 225 60 31 224 62 32 223 64 33 222 66 34 221 68 35 220 70 36 219 72 37 218 74 38 217 76 39 216 78
17 238 34 18 237 36 19 236 38 20 235 40 21 234 42 22 233 44 23 232 46 24 231 48 25 230 50 26 229 52 27 228 54 28 227 56 29 226 58 30 225 60 31 224 62 32 223 64 33 222 66 34 221 68 35 220 70 36 219 72 37 218 74 38 217 76 39 216 78 40 215 80
18 237 36 19 236 38 20 235 40 21 234 42 22 233 44 23 232 46 24 231 48 25 230 50 26 229 52 27 228 54 28 227 56 29 226 58 30 225 60 31 224 62 32 223 64 33 222 66 34 221 68 35 220 70 36 219 72 37 218 74 38 217 76 39 216 78 40 215 80 41 214 82
19 236 38 20 235 40 21 234 42 22 233 44 23 232 46 24 231 48 25 230 50 26 229 52 27 228 54 28 227 56 29 226 58 30 225 60 31 224 62 32 223 64 33 222 66 34 221 68 35 220 70 36 219 72 37 218 74 38 217 76 39 216 78 40 215 80 41 214 82 42 213 84
20 235 40 21 234 42 22 233 44 23 232 46 24 231 48 25 230 50 26 229 52 27 228 54 28 227 56 29 226 58 30 225 60 31 224 62 32 223 64 33 222 66 34 221 68 35 220 70 36 219 72 37 218 74 38 217 76 39 216 78 40 215 80 41 214 82 42 213 84 43 212 86
21 234 42 22 233 44 23 232 46 24 231 48 25 230 50 26 229 52 27 228 54 28 227 56 29 226 58 30 225 60 31 224 62 32 223 64 33 222 66 34 221 68 35 220 70 36 219 72 37 218 74 38 217 76 39 216 78 40 215 80 41 214 82 42 213 84 43 212 86 44 211 88
22 233 44 23 232 46 24 231 48 25 230 50 26 229 52 27 228 54 28 227 56 29 226 58 30 225 60 31 224 62 32 223 64 33 222 66 34 221 68 35 220 70 36 219 72 37 218 74 38 217 76 39 216 78 40 215 80 41 214 82 42 213 84 43 212 86 44 211 88 45 210 90
23 232 46 24 231 48 25 230 50 26 229 52 27 228 54 28 227 56 29 226 58 30 225 60 31 224 62 32 223 64 33 222 66 34 221 68 35 220 70 36 219 72 37 218 74 38 217 76 39 216 78 40 215 80 41 214 82 42 213 84 43 212 86 44 211 88 45 210 90 46 209 92
