P3
32 16
255
120 157 209 156 38 158 129 39 27 182 170 223 2 67 254 43 83 76 86 185 197 233 75 163 154 234 220 30 116 242 176 189 1 46 7 231 92 134 173 135 165 118 2 17 130 129 58 212 143 23 178 136 93 109 195 253 39 25 99 36 1 89 236 209 80 52 255 2 168 207 227 177 253 111 10 108 11 113 81 136 162 201 135 75 234 8 232 114 64 135 106 124 54 189 154 21
44 95 195 147 206 7 61 102 217 123 50 11 100 149 254 232 212 36 125 31 61 146 218 206 48 48 3 143 126 36 79 55 222 208 217 87 152 155 115 119 22 29 171 186 151 197 20 209 248 149 252 166 37 29 64 17 27 135 121 216 20 41 44 99 181 53 71 177 106 68 18 218 145 246 15 110 163 217 101 103 98 138 71 172 172 141 222 19 118 97 127 70 72 136 227 138
180 143 106 78 229 39 155 220 121 238 250 201 29 244 28 151 187 140 72 114 107 109 237 57 97 167 98 204 31 135 93 98 194 69 138 210 194 72 59 115 155 52 137 219 171 204 74 148 78 155 168 234 40 212 100 194 62 12 85 110 22 200 79 25 103 65 161 81 74 60 192 227 47 250 10 149 159 186 38 3 249 39 5 95 250 191 187 94 56 255 223 153 117 4 5 7
99 70 161 180 123 245 153 100 160 79 59 176 151 167 155 134 166 178 226 95 33 141 253 130 183 89 183 42 155 158 102 42 164 43 55 110 6 64 79 165 195 12 129 36 164 153 118 11 55 102 221 227 64 83 12 195 192 108 139 88 46 74 87 242 147 172 138 39 18 23 251 86 156 190 131 6 201 204 105 132 187 157 84 165 145 67 0 97 219 7 12 163 162 197 183 1
170 213 49 87 238 171 200 98 222 181 91 18 218 45 174 202 125 112 221 104 138 185 146 152 48 243 171 79 112 43 236 25 37 199 87 173 63 34 222 216 68 89 20 155 135 53 245 135 161 3 86 93 175 46 123 215 115 206 199 55 183 101 137 148 203 236 239 252 229 189 71 143 64 115 57 116 30 68 242 26 131 189 50 176 112 22 216 42 108 71 251 35 177 165 214 248
68 155 79 124 157 27 126 58 119 165 12 7 87 77 58 250 186 129 101 129 66 110 43 136 74 216 201 246 44 18 195 34 3 95 91 98 153 222 107 25 154 164 251 9 173 29 120 53 245 183 236 7 106 145 246 236 191 25 83 99 218 191 5 106 233 100 247 40 50 46 59 101 49 103 250 5 5 73 46 80 58 55 151 193 124 216 165 37 142 195 97 117 244 208 227 124
29 242 11 74 169 207 74 33 228 217 107 230 121 8 226 213 124 72 187 29 36 86 210 94 169 24 183 244 123 32 243 95 100 31 96 80 34 124 88 121 86 108 110 227 133 90 178 113 195 118 90 154 17 3 175 254 251 23 163 211 200 24 158 139 112 73 232 251 28 99 148 22 76 240 212 73 58 80 92 155 174 249 12 246 125 58 206 38 243 21 181 99 144 135 235 7
108 232 176 98 223 142 130 248 239 155 35 87 21 165 6 198 67 176 153 138 68 108 232 250 164 12 118 39 232 61 86 122 48 9 192 141 140 7 66 136 161 42 173 138 108 33 24 43 85 255 11 195 52 83 53 63 122 21 106 213 86 41 171 214 178 195 192 112 130 251 46 91 41 182 101 77 97 37 170 211 159 197 99 66 108 236 129 181 50 222 210 49 249 18 91 45
240 253 193 14 84 1 232 129 173 171 170 87 126 65 105 173 235 243 46 69 20 102 43 60 43 33 103 247 138 0 168 212 102 1 198 142 67 211 121 139 242 37 231 88 128 77 77 42 91 134 153 148 190 119 62 149 23 101 162 35 124 62 237 255 226 217 172 113 140 147 136 38 110 228 80 160 97 251 22 209 138 104 40 125 227 51 18 53 178 249 218 102 252 153 74 200
16 217 108 254 98 76 13 188 251 78 92 225 81 223 236 76 103 136 151 159 213 36 105 83 248 182 194 145 151 174 226 202 249 154 227 158 18 75 33 118 164 48 137 51 230 227 22 187 84 191 39 101 7 74 226 37 27 5 26 10 4 58 65 218 144 98 189 121 100 138 252 181 163 168 3 139 117 103 45 232 146 206 77 58 254 39 227 33 63 152 202 246 90 204 207 151
116 4 210 232 97 247 95 153 10 97 222 184 53 103 124 90 172 6 140 136 46 14 94 117 139 76 182 222 245 40 185 9 148 110 114 33 245 174 240 190 138 217 94 202 230 101 160 140 219 65 244 31 4 30 200 14 208 99 81 203 183 4 70 174 19 180 152 70 168 7 127 119 45 2 137 224 249 115 210 8 11 190 172 241 69 54 56 248 16 126 23 38 114 3 249 242
146 232 113 118 153 146 77 131 47 253 33 251 107 234 250 23 235 150 192 123 51 219 46 193 95 115 17 221 69 50 239 125 254 27 183 150 182 50 109 77 249 158 21 96 227 148 205 125 101 28 41 73 74 230 190 133 160 109 6 52 189 223 13 144 215 52 5 195 150 9 244 112 142 81 244 98 154 199 18 155 202 242 226 130 191 50 50 235 248 10 9 126 242 153 189 92
241 142 200 147 208 141 200 185 178 118 150 221 180 215 250 228 205 187 17 251 218 14 187 116 81 112 87 104 91 82 134 113 178 71 216 211 174 86 36 154 254 23 184 195 238 110 102 151 3 203 210 146 134 163 124 206 108 129 191 244 162 208 250 121 47 76 82 51 254 233 1 255 72 189 248 27 71 135 57 15 115 64 157 218 172 155 207 0 80 31 108 112 80 9 228 163
112 243 210 216 224 58 102 76 95 143 161 228 71 179 137 61 146 56 253 15 62 158 216 79 37 191 42 226 66 85 140 65 186 9 197 114 68 219 225 7 12 180 171 130 174 99 182 248 237 93 104 160 188 198 130 56 30 105 39 237 246 95 233 187 207 202 228 4 113 132 57 195 223 105 18 122 21 208 227 237 92 141 14 176 213 22 210 7 170 82 3 185 66 143 62 223
53 206 73 177 137 75 248 134 41 87 106 34 63 105 238 161 125 48 165 76 20 1 252 164 207 199 212 91 203 68 222 209 193 152 239 205 168 46 90 85 151 206 92 71 34 62 169 187 183 194 240 53 29 229 80 135 56 80 27 245 221 222 27 203 46 221 68 2 162 108 148 253 18 48 113 255 113 221 93 51 7 41 68 173 25 75 161 254 112 144 22 212 231 237 253 22
70 45 108 75 29 226 151 0 134 42 170 3 66 50 78 11 64 4 229 188 35 13 127 87 24 128 138 213 36 38 6 162 0 216 143 189 142 235 171 17 36 214 145 36 140 80 115 1 231 166 224 192 135 50 229 239 132 31 216 196 187 200 105 210 127 28 150 168 200 160 38 207 126 44 32 196 0 161 105 226 163 78 142 216 34 114 53 179 193 40 21 157 190 58 186 26
