P3
48 48
255
33 66 222 33 66 222 32 64 223 31 62 224 31 62 224 30 60 225 30 60 225 29 58 226 28 56 227 28 56 227 27 54 228 27 54 228 26 52 229 26 52 229 26 52 229 25 50 230 25 50 230 25 50 230 24 48 231 24 48 231 24 48 231 24 48 231 24 48 231 24 48 231 24 48 231 24 48 231 24 48 231 24 48 231 24 48 231 24 48 231 24 48 231 25 50 230 25 50 230 25 50 230 26 52 229 26 52 229 26 52 229 27 54 228 27 54 228 28 56 227 28 56 227 29 58 226 30 60 225 30 60 225 31 62 224 31 62 224 32 64 223 33 66 222
33 66 222 32 64 223 31 62 224 31 62 224 30 60 225 29 58 226 29 58 226 28 56 227 28 56 227 27 54 228 26 52 229 26 52 229 25 50 230 25 50 230 25 50 230 24 48 231 24 48 231 24 48 231 23 46 232 23 46 232 23 46 232 23 46 232 23 46 232 23 46 232 23 46 232 23 46 232 23 46 232 23 46 232 23 46 232 23 46 232 23 46 232 24 48 231 24 48 231 24 48 231 25 50 230 25 50 230 25 50 230 26 52 229 26 52 229 27 54 228 28 56 227 28 56 227 29 58 226 29 58 226 30 60 225 31 62 224 31 62 224 32 64 223
32 64 223 31 62 224 31 62 224 30 60 225 29 58 226 29 58 226 28 56 227 27 54 228 27 54 228 26 52 229 26 52 229 25 50 230 25 50 230 24 48 231 24 48 231 23 46 232 23 46 232 23 46 232 22 44 233 22 44 233 22 44 233 22 44 233 22 44 233 22 44 233 22 44 233 22 44 233 22 44 233 22 44 233 22 44 233 22 44 233 22 44 233 23 46 232 23 46 232 23 46 232 24 48 231 24 48 231 25 50 230 25 50 230 26 52 229 26 52 229 27 54 228 27 54 228 28 56 227 29 58 226 29 58 226 30 60 225 31 62 224 31 62 224
31 62 224 31 62 224 30 60 225 29 58 226 29 58 226 28 56 227 27 54 228 27 54 228 26 52 229 25 50 230 25 50 230 24 48 231 24 48 231 23 46 232 23 46 232 22 44 233 22 44 233 22 44 233 21 42 234 21 42 234 21 42 234 21 42 234 21 42 234 21 42 234 21 42 234 21 42 234 21 42 234 21 42 234 21 42 234 21 42 234 21 42 234 22 44 233 22 44 233 22 44 233 23 46 232 23 46 232 24 48 231 24 48 231 25 50 230 25 50 230 26 52 229 27 54 228 27 54 228 28 56 227 29 58 226 29 58 226 30 60 225 31 62 224
31 62 224 30 60 225 29 58 226 29 58 226 28 56 227 27 54 228 26 52 229 26 52 229 25 50 230 25 50 230 24 48 231 23 46 232 23 46 232 22 44 233 22 44 233 21 42 234 21 42 234 21 42 234 20 40 235 20 40 235 20 40 235 20 40 235 20 40 235 20 40 235 20 40 235 20 40 235 20 40 235 20 40 235 20 40 235 20 40 235 20 40 235 21 42 234 21 42 234 21 42 234 22 44 233 22 44 233 23 46 232 23 46 232 24 48 231 25 50 230 25 50 230 26 52 229 26 52 229 27 54 228 28 56 227 29 58 226 29 58 226 30 60 225
30 60 225 29 58 226 29 58 226 28 56 227 27 54 228 26 52 229 26 52 229 25 50 230 24 48 231 24 48 231 23 46 232 23 46 232 22 44 233 21 42 234 21 42 234 21 42 234 20 40 235 20 40 235 19 38 236 19 38 236 19 38 236 19 38 236 19 38 236 19 38 236 19 38 236 19 38 236 19 38 236 19 38 236 19 38 236 19 38 236 19 38 236 20 40 235 20 40 235 21 42 234 21 42 234 21 42 234 22 44 233 23 46 232 23 46 232 24 48 231 24 48 231 25 50 230 26 52 229 26 52 229 27 54 228 28 56 227 29 58 226 29 58 226
30 60 225 29 58 226 28 56 227 27 54 228 26 52 229 26 52 229 25 50 230 24 48 231 24 48 231 23 46 232 22 44 233 22 44 233 21 42 234 21 42 234 20 40 235 20 40 235 19 38 236 19 38 236 18 36 237 18 36 237 18 36 237 18 36 237 18 36 237 18 36 237 18 36 237 18 36 237 18 36 237 18 36 237 18 36 237 18 36 237 18 36 237 19 38 236 19 38 236 20 40 235 20 40 235 21 42 234 21 42 234 22 44 233 22 44 233 23 46 232 24 48 231 24 48 231 25 50 230 26 52 229 26 52 229 27 54 228 28 56 227 29 58 226
29 58 226 28 56 227 27 54 228 27 54 228 26 52 229 25 50 230 24 48 231 24 48 231 23 46 232 22 44 233 22 44 233 21 42 234 20 40 235 20 40 235 19 38 236 19 38 236 18 36 237 18 36 237 18 36 237 17 34 238 17 34 238 17 34 238 17 34 238 17 34 238 17 34 238 17 34 238 17 34 238 17 34 238 17 34 238 17 34 238 18 36 237 18 36 237 18 36 237 19 38 236 19 38 236 20 40 235 20 40 235 21 42 234 22 44 233 22 44 233 23 46 232 24 48 231 24 48 231 25 50 230 26 52 229 27 54 228 27 54 228 28 56 227
28 56 227 28 56 227 27 54 228 26 52 229 25 50 230 24 48 231 24 48 231 23 46 232 22 44 233 21 42 234 21 42 234 20 40 235 20 40 235 19 38 236 18 36 237 18 36 237 17 34 238 17 34 238 17 34 238 16 32 239 16 32 239 16 32 239 16 32 239 16 32 239 16 32 239 16 32 239 16 32 239 16 32 239 16 32 239 16 32 239 17 34 238 17 34 238 17 34 238 18 36 237 18 36 237 19 38 236 20 40 235 20 40 235 21 42 234 21 42 234 22 44 233 23 46 232 24 48 231 24 48 231 25 50 230 26 52 229 27 54 228 28 56 227
28 56 227 27 54 228 26 52 229 25 50 230 25 50 230 24 48 231 23 46 232 22 44 233 21 42 234 21 42 234 20 40 235 19 38 236 19 38 236 18 36 237 18 36 237 17 34 238 17 34 238 16 32 239 16 32 239 15 30 240 15 30 240 15 30 240 15 30 240 15 30 240 15 30 240 15 30 240 15 30 240 15 30 240 15 30 240 15 30 240 16 32 239 16 32 239 17 34 238 17 34 238 18 36 237 18 36 237 19 38 236 19 38 236 20 40 235 21 42 234 21 42 234 22 44 233 23 46 232 24 48 231 25 50 230 25 50 230 26 52 229 27 54 228
27 54 228 26 52 229 26 52 229 25 50 230 24 48 231 23 46 232 22 44 233 22 44 233 21 42 234 20 40 235 19 38 236 19 38 236 18 36 237 17 34 238 17 34 238 16 32 239 16 32 239 15 30 240 15 30 240 14 28 241 14 28 241 14 28 241 14 28 241 14 28 241 14 28 241 14 28 241 14 28 241 14 28 241 14 28 241 14 28 241 15 30 240 15 30 240 16 32 239 16 32 239 17 34 238 17 34 238 18 36 237 19 38 236 19 38 236 20 40 235 21 42 234 22 44 233 22 44 233 23 46 232 24 48 231 25 50 230 26 52 229 26 52 229
27 54 228 26 52 229 25 50 230 24 48 231 23 46 232 23 46 232 22 44 233 21 42 234 20 40 235 19 38 236 19 38 236 18 36 237 17 34 238 17 34 238 16 32 239 15 30 240 15 30 240 14 28 241 14 28 241 13 26 242 13 26 242 13 26 242 13 26 242 13 26 242 13 26 242 13 26 242 13 26 242 13 26 242 13 26 242 13 26 242 14 28 241 14 28 241 15 30 240 15 30 240 16 32 239 17 34 238 17 34 238 18 36 237 19 38 236 19 38 236 20 40 235 21 42 234 22 44 233 23 46 232 23 46 232 24 48 231 25 50 230 26 52 229
26 52 229 25 50 230 25 50 230 24 48 231 23 46 232 22 44 233 21 42 234 20 40 235 20 40 235 19 38 236 18 36 237 17 34 238 16 32 239 16 32 239 15 30 240 15 30 240 14 28 241 13 26 242 13 26 242 13 26 242 12 24 243 12 24 243 12 24 243 12 24 243 12 24 243 12 24 243 12 24 243 12 24 243 12 24 243 13 26 242 13 26 242 13 26 242 14 28 241 15 30 240 15 30 240 16 32 239 16 32 239 17 34 238 18 36 237 19 38 236 20 40 235 20 40 235 21 42 234 22 44 233 23 46 232 24 48 231 25 50 230 25 50 230
26 52 229 25 50 230 24 48 231 23 46 232 22 44 233 21 42 234 21 42 234 20 40 235 19 38 236 18 36 237 17 34 238 17 34 238 16 32 239 15 30 240 14 28 241 14 28 241 13 26 242 13 26 242 12 24 243 12 24 243 11 22 244 11 22 244 11 22 244 11 22 244 11 22 244 11 22 244 11 22 244 11 22 244 11 22 244 12 24 243 12 24 243 13 26 242 13 26 242 14 28 241 14 28 241 15 30 240 16 32 239 17 34 238 17 34 238 18 36 237 19 38 236 20 40 235 21 42 234 21 42 234 22 44 233 23 46 232 24 48 231 25 50 230
26 52 229 25 50 230 24 48 231 23 46 232 22 44 233 21 42 234 20 40 235 19 38 236 18 36 237 18 36 237 17 34 238 16 32 239 15 30 240 14 28 241 14 28 241 13 26 242 12 24 243 12 24 243 11 22 244 11 22 244 10 20 245 10 20 245 10 20 245 10 20 245 10 20 245 10 20 245 10 20 245 10 20 245 10 20 245 11 22 244 11 22 244 12 24 243 12 24 243 13 26 242 14 28 241 14 28 241 15 30 240 16 32 239 17 34 238 18 36 237 18 36 237 19 38 236 20 40 235 21 42 234 22 44 233 23 46 232 24 48 231 25 50 230
25 50 230 24 48 231 23 46 232 22 44 233 21 42 234 21 42 234 20 40 235 19 38 236 18 36 237 17 34 238 16 32 239 15 30 240 15 30 240 14 28 241 13 26 242 12 24 243 12 24 243 11 22 244 10 20 245 10 20 245 9 18 246 9 18 246 9 18 246 9 18 246 9 18 246 9 18 246 9 18 246 9 18 246 9 18 246 10 20 245 10 20 245 11 22 244 12 24 243 12 24 243 13 26 242 14 28 241 15 30 240 15 30 240 16 32 239 17 34 238 18 36 237 19 38 236 20 40 235 21 42 234 21 42 234 22 44 233 23 46 232 24 48 231
25 50 230 24 48 231 23 46 232 22 44 233 21 42 234 20 40 235 19 38 236 18 36 237 17 34 238 17 34 238 16 32 239 15 30 240 14 28 241 13 26 242 12 24 243 12 24 243 11 22 244 10 20 245 10 20 245 9 18 246 8 16 247 8 16 247 8 16 247 8 16 247 8 16 247 8 16 247 8 16 247 8 16 247 8 16 247 9 18 246 10 20 245 10 20 245 11 22 244 12 24 243 12 24 243 13 26 242 14 28 241 15 30 240 16 32 239 17 34 238 17 34 238 18 36 237 19 38 236 20 40 235 21 42 234 22 44 233 23 46 232 24 48 231
25 50 230 24 48 231 23 46 232 22 44 233 21 42 234 20 40 235 19 38 236 18 36 237 17 34 238 16 32 239 15 30 240 14 28 241 13 26 242 13 26 242 12 24 243 11 22 244 10 20 245 9 18 246 9 18 246 8 16 247 8 16 247 7 14 248 7 14 248 7 14 248 7 14 248 7 14 248 7 14 248 7 14 248 8 16 247 8 16 247 9 18 246 9 18 246 10 20 245 11 22 244 12 24 243 13 26 242 13 26 242 14 28 241 15 30 240 16 32 239 17 34 238 18 36 237 19 38 236 20 40 235 21 42 234 22 44 233 23 46 232 24 48 231
24 48 231 23 46 232 22 44 233 21 42 234 20 40 235 19 38 236 18 36 237 18 36 237 17 34 238 16 32 239 15 30 240 14 28 241 13 26 242 12 24 243 11 22 244 10 20 245 10 20 245 9 18 246 8 16 247 7 14 248 7 14 248 6 12 249 6 12 249 6 12 249 6 12 249 6 12 249 6 12 249 6 12 249 7 14 248 7 14 248 8 16 247 9 18 246 10 20 245 10 20 245 11 22 244 12 24 243 13 26 242 14 28 241 15 30 240 16 32 239 17 34 238 18 36 237 18 36 237 19 38 236 20 40 235 21 42 234 22 44 233 23 46 232
24 48 231 23 46 232 22 44 233 21 42 234 20 40 235 19 38 236 18 36 237 17 34 238 16 32 239 15 30 240 14 28 241 13 26 242 13 26 242 12 24 243 11 22 244 10 20 245 9 18 246 8 16 247 7 14 248 7 14 248 6 12 249 5 10 250 5 10 250 5 10 250 5 10 250 5 10 250 5 10 250 5 10 250 6 12 249 7 14 248 7 14 248 8 16 247 9 18 246 10 20 245 11 22 244 12 24 243 13 26 242 13 26 242 14 28 241 15 30 240 16 32 239 17 34 238 18 36 237 19 38 236 20 40 235 21 42 234 22 44 233 23 46 232
24 48 231 23 46 232 22 44 233 21 42 234 20 40 235 19 38 236 18 36 237 17 34 238 16 32 239 15 30 240 14 28 241 13 26 242 12 24 243 11 22 244 10 20 245 9 18 246 8 16 247 8 16 247 7 14 248 6 12 249 5 10 250 5 10 250 4 8 251 4 8 251 4 8 251 4 8 251 4 8 251 5 10 250 5 10 250 6 12 249 7 14 248 8 16 247 8 16 247 9 18 246 10 20 245 11 22 244 12 24 243 13 26 242 14 28 241 15 30 240 16 32 239 17 34 238 18 36 237 19 38 236 20 40 235 21 42 234 22 44 233 23 46 232
24 48 231 23 46 232 22 44 233 21 42 234 20 40 235 19 38 236 18 36 237 17 34 238 16 32 239 15 30 240 14 28 241 13 26 242 12 24 243 11 22 244 10 20 245 9 18 246 8 16 247 7 14 248 6 12 249 5 10 250 5 10 250 4 8 251 3 6 252 3 6 252 3 6 252 3 6 252 3 6 252 4 8 251 5 10 250 5 10 250 6 12 249 7 14 248 8 16 247 9 18 246 10 20 245 11 22 244 12 24 243 13 26 242 14 28 241 15 30 240 16 32 239 17 34 238 18 36 237 19 38 236 20 40 235 21 42 234 22 44 233 23 46 232
24 48 231 23 46 232 22 44 233 21 42 234 20 40 235 19 38 236 18 36 237 17 34 238 16 32 239 15 30 240 14 28 241 13 26 242 12 24 243 11 22 244 10 20 245 9 18 246 8 16 247 7 14 248 6 12 249 5 10 250 4 8 251 3 6 252 2 4 253 2 4 253 2 4 253 2 4 253 2 4 253 3 6 252 4 8 251 5 10 250 6 12 249 7 14 248 8 16 247 9 18 246 10 20 245 11 22 244 12 24 243 13 26 242 14 28 241 15 30 240 16 32 239 17 34 238 18 36 237 19 38 236 20 40 235 21 42 234 22 44 233 23 46 232
24 48 231 23 46 232 22 44 233 21 42 234 20 40 235 19 38 236 18 36 237 17 34 238 16 32 239 15 30 240 14 28 241 13 26 242 12 24 243 11 22 244 10 20 245 9 18 246 8 16 247 7 14 248 6 12 249 5 10 250 4 8 251 3 6 252 2 4 253 1 2 254 1 2 254 1 2 254 2 4 253 3 6 252 4 8 251 5 10 250 6 12 249 7 14 248 8 16 247 9 18 246 10 20 245 11 22 244 12 24 243 13 26 242 14 28 241 15 30 240 16 32 239 17 34 238 18 36 237 19 38 236 20 40 235 21 42 234 22 44 233 23 46 232
24 48 231 23 46 232 22 44 233 21 42 234 20 40 235 19 38 236 18 36 237 17 34 238 16 32 239 15 30 240 14 28 241 13 26 242 12 24 243 11 22 244 10 20 245 9 18 246 8 16 247 7 14 248 6 12 249 5 10 250 4 8 251 3 6 252 2 4 253 1 2 254 0 0 255 1 2 254 2 4 253 3 6 252 4 8 251 5 10 250 6 12 249 7 14 248 8 16 247 9 18 246 10 20 245 11 22 244 12 24 243 13 26 242 14 28 241 15 30 240 16 32 239 17 34 238 18 36 237 19 38 236 20 40 235 21 42 234 22 44 233 23 46 232
24 48 231 23 46 232 22 44 233 21 42 234 20 40 235 19 38 236 18 36 237 17 34 238 16 32 239 15 30 240 14 28 241 13 26 242 12 24 243 11 22 244 10 20 245 9 18 246 8 16 247 7 14 248 6 12 249 5 10 250 4 8 251 3 6 252 2 4 253 1 2 254 1 2 254 1 2 254 2 4 253 3 6 252 4 8 251 5 10 250 6 12 249 7 14 248 8 16 247 9 18 246 10 20 245 11 22 244 12 24 243 13 26 242 14 28 241 15 30 240 16 32 239 17 34 238 18 36 237 19 38 236 20 40 235 21 42 234 22 44 233 23 46 232
24 48 231 23 46 232 22 44 233 21 42 234 20 40 235 19 38 236 18 36 237 17 34 238 16 32 239 15 30 240 14 28 241 13 26 242 12 24 243 11 22 244 10 20 245 9 18 246 8 16 247 7 14 248 6 12 249 5 10 250 4 8 251 3 6 252 2 4 253 2 4 253 2 4 253 2 4 253 2 4 253 3 6 252 4 8 251 5 10 250 6 12 249 7 14 248 8 16 247 9 18 246 10 20 245 11 22 244 12 24 243 13 26 242 14 28 241 15 30 240 16 32 239 17 34 238 18 36 237 19 38 236 20 40 235 21 42 234 22 44 233 23 46 232
24 48 231 23 46 232 22 44 233 21 42 234 20 40 235 19 38 236 18 36 237 17 34 238 16 32 239 15 30 240 14 28 241 13 26 242 12 24 243 11 22 244 10 20 245 9 18 246 8 16 247 7 14 248 6 12 249 5 10 250 5 10 250 4 8 251 3 6 252 3 6 252 3 6 252 3 6 252 3 6 252 4 8 251 5 10 250 5 10 250 6 12 249 7 14 248 8 16 247 9 18 246 10 20 245 11 22 244 12 24 243 13 26 242 14 28 241 15 30 240 16 32 239 17 34 238 18 36 237 19 38 236 20 40 235 21 42 234 22 44 233 23 46 232
24 48 231 23 46 232 22 44 233 21 42 234 20 40 235 19 38 236 18 36 237 17 34 238 16 32 239 15 30 240 14 28 241 13 26 242 12 24 243 11 22 244 10 20 245 9 18 246 8 16 247 8 16 247 7 14 248 6 12 249 5 10 250 5 10 250 4 8 251 4 8 251 4 8 251 4 8 251 4 8 251 5 10 250 5 10 250 6 12 249 7 14 248 8 16 247 8 16 247 9 18 246 10 20 245 11 22 244 12 24 243 13 26 242 14 28 241 15 30 240 16 32 239 17 34 238 18 36 237 19 38 236 20 40 235 21 42 234 22 44 233 23 46 232
24 48 231 23 46 232 22 44 233 21 42 234 20 40 235 19 38 236 18 36 237 17 34 238 16 32 239 15 30 240 14 28 241 13 26 242 13 26 242 12 24 243 11 22 244 10 20 245 9 18 246 8 16 247 7 14 248 7 14 248 6 12 249 5 10 250 5 10 250 5 10 250 5 10 250 5 10 250 5 10 250 5 10 250 6 12 249 7 14 248 7 14 248 8 16 247 9 18 246 10 20 245 11 22 244 12 24 243 13 26 242 13 26 242 14 28 241 15 30 240 16 32 239 17 34 238 18 36 237 19 38 236 20 40 235 21 42 234 22 44 233 23 46 232
24 48 231 23 46 232 22 44 233 21 42 234 20 40 235 19 38 236 18 36 237 18 36 237 17 34 238 16 32 239 15 30 240 14 28 241 13 26 242 12 24 243 11 22 244 10 20 245 10 20 245 9 18 246 8 16 247 7 14 248 7 14 248 6 12 249 6 12 249 6 12 249 6 12 249 6 12 249 6 12 249 6 12 249 7 14 248 7 14 248 8 16 247 9 18 246 10 20 245 10 20 245 11 22 244 12 24 243 13 26 242 14 28 241 15 30 240 16 32 239 17 34 238 18 36 237 18 36 237 19 38 236 20 40 235 21 42 234 22 44 233 23 46 232
25 50 230 24 48 231 23 46 232 22 44 233 21 42 234 20 40 235 19 38 236 18 36 237 17 34 238 16 32 239 15 30 240 14 28 241 13 26 242 13 26 242 12 24 243 11 22 244 10 20 245 9 18 246 9 18 246 8 16 247 8 16 247 7 14 248 7 14 248 7 14 248 7 14 248 7 14 248 7 14 248 7 14 248 8 16 247 8 16 247 9 18 246 9 18 246 10 20 245 11 22 244 12 24 243 13 26 242 13 26 242 14 28 241 15 30 240 16 32 239 17 34 238 18 36 237 19 38 236 20 40 235 21 42 234 22 44 233 23 46 232 24 48 231
25 50 230 24 48 231 23 46 232 22 44 233 21 42 234 20 40 235 19 38 236 18 36 237 17 34 238 17 34 238 16 32 239 15 30 240 14 28 241 13 26 242 12 24 243 12 24 243 11 22 244 10 20 245 10 20 245 9 18 246 8 16 247 8 16 247 8 16 247 8 16 247 8 16 247 8 16 247 8 16 247 8 16 247 8 16 247 9 18 246 10 20 245 10 20 245 11 22 244 12 24 243 12 24 243 13 26 242 14 28 241 15 30 240 16 32 239 17 34 238 17 34 238 18 36 237 19 38 236 20 40 235 21 42 234 22 44 233 23 46 232 24 48 231
25 50 230 24 48 231 23 46 232 22 44 233 21 42 234 21 42 234 20 40 235 19 38 236 18 36 237 17 34 238 16 32 239 15 30 240 15 30 240 14 28 241 13 26 242 12 24 243 12 24 243 11 22 244 10 20 245 10 20 245 9 18 246 9 18 246 9 18 246 9 18 246 9 18 246 9 18 246 9 18 246 9 18 246 9 18 246 10 20 245 10 20 245 11 22 244 12 24 243 12 24 243 13 26 242 14 28 241 15 30 240 15 30 240 16 32 239 17 34 238 18 36 237 19 38 236 20 40 235 21 42 234 21 42 234 22 44 233 23 46 232 24 48 231
26 52 229 25 50 230 24 48 231 23 46 232 22 44 233 21 42 234 20 40 235 19 38 236 18 36 237 18 36 237 17 34 238 16 32 239 15 30 240 14 28 241 14 28 241 13 26 242 12 24 243 12 24 243 11 22 244 11 22 244 10 20 245 10 20 245 10 20 245 10 20 245 10 20 245 10 20 245 10 20 245 10 20 245 10 20 245 11 22 244 11 22 244 12 24 243 12 24 243 13 26 242 14 28 241 14 28 241 15 30 240 16 32 239 17 34 238 18 36 237 18 36 237 19 38 236 20 40 235 21 42 234 22 44 233 23 46 232 24 48 231 25 50 230
26 52 229 25 50 230 24 48 231 23 46 232 22 44 233 21 42 234 21 42 234 20 40 235 19 38 236 18 36 237 17 34 238 17 34 238 16 32 239 15 30 240 14 28 241 14 28 241 13 26 242 13 26 242 12 24 243 12 24 243 11 22 244 11 22 244 11 22 244 11 22 244 11 22 244 11 22 244 11 22 244 11 22 244 11 22 244 12 24 243 12 24 243 13 26 242 13 26 242 14 28 241 14 28 241 15 30 240 16 32 239 17 34 238 17 34 238 18 36 237 19 38 236 20 40 235 21 42 234 21 42 234 22 44 233 23 46 232 24 48 231 25 50 230
26 52 229 25 50 230 25 50 230 24 48 231 23 46 232 22 44 233 21 42 234 20 40 235 20 40 235 19 38 236 18 36 237 17 34 238 16 32 239 16 32 239 15 30 240 15 30 240 14 28 241 13 26 242 13 26 242 13 26 242 12 24 243 12 24 243 12 24 243 12 24 243 12 24 243 12 24 243 12 24 243 12 24 243 12 24 243 13 26 242 13 26 242 13 26 242 14 28 241 15 30 240 15 30 240 16 32 239 16 32 239 17 34 238 18 36 237 19 38 236 20 40 235 20 40 235 21 42 234 22 44 233 23 46 232 24 48 231 25 50 230 25 50 230
27 54 228 26 52 229 25 50 230 24 48 231 23 46 232 23 46 232 22 44 233 21 42 234 20 40 235 19 38 236 19 38 236 18 36 237 17 34 238 17 34 238 16 32 239 15 30 240 15 30 240 14 28 241 14 28 241 13 26 242 13 26 242 13 26 242 13 26 242 13 26 242 13 26 242 13 26 242 13 26 242 13 26 242 13 26 242 13 26 242 14 28 241 14 28 241 15 30 240 15 30 240 16 32 239 17 34 238 17 34 238 18 36 237 19 38 236 19 38 236 20 40 235 21 42 234 22 44 233 23 46 232 23 46 232 24 48 231 25 50 230 26 52 229
27 54 228 26 52 229 26 52 229 25 50 230 24 48 231 23 46 232 22 44 233 22 44 233 21 42 234 20 40 235 19 38 236 19 38 236 18 36 237 17 34 238 17 34 238 16 32 239 16 32 239 15 30 240 15 30 240 14 28 241 14 28 241 14 28 241 14 28 241 14 28 241 14 28 241 14 28 241 14 28 241 14 28 241 14 28 241 14 28 241 15 30 240 15 30 240 16 32 239 16 32 239 17 34 238 17 34 238 18 36 237 19 38 236 19 38 236 20 40 235 21 42 234 22 44 233 22 44 233 23 46 232 24 48 231 25 50 230 26 52 229 26 52 229
28 56 227 27 54 228 26 52 229 25 50 230 25 50 230 24 48 231 23 46 232 22 44 233 21 42 234 21 42 234 20 40 235 19 38 236 19 38 236 18 36 237 18 36 237 17 34 238 17 34 238 16 32 239 16 32 239 15 30 240 15 30 240 15 30 240 15 30 240 15 30 240 15 30 240 15 30 240 15 30 240 15 30 240 15 30 240 15 30 240 16 32 239 16 32 239 17 34 238 17 34 238 18 36 237 18 36 237 19 38 236 19 38 236 20 40 235 21 42 234 21 42 234 22 44 233 23 46 232 24 48 231 25 50 230 25 50 230 26 52 229 27 54 228
28 56 227 28 56 227 27 54 228 26 52 229 25 50 230 24 48 231 24 48 231 23 46 232 22 44 233 21 42 234 21 42 234 20 40 235 20 40 235 19 38 236 18 36 237 18 36 237 17 34 238 17 34 238 17 34 238 16 32 239 16 32 239 16 32 239 16 32 239 16 32 239 16 32 239 16 32 239 16 32 239 16 32 239 16 32 239 16 32 239 17 34 238 17 34 238 17 34 238 18 36 237 18 36 237 19 38 236 20 40 235 20 40 235 21 42 234 21 42 234 22 44 233 23 46 232 24 48 231 24 48 231 25 50 230 26 52 229 27 54 228 28 56 227
29 58 226 28 56 227 27 54 228 27 54 228 26 52 229 25 50 230 24 48 231 24 48 231 23 46 232 22 44 233 22 44 233 21 42 234 20 40 235 20 40 235 19 38 236 19 38 236 18 36 237 18 36 237 18 36 237 17 34 238 17 34 238 17 34 238 17 34 238 17 34 238 17 34 238 17 34 238 17 34 238 17 34 238 17 34 238 17 34 238 18 36 237 18 36 237 18 36 237 19 38 236 19 38 236 20 40 235 20 40 235 21 42 234 22 44 233 22 44 233 23 46 232 24 48 231 24 48 231 25 50 230 26 52 229 27 54 228 27 54 228 28 56 227
30 60 225 29 58 226 28 56 227 27 54 228 26 52 229 26 52 229 25 50 230 24 48 231 24 48 231 23 46 232 22 44 233 22 44 233 21 42 234 21 42 234 20 40 235 20 40 235 19 38 236 19 38 236 18 36 237 18 36 237 18 36 237 18 36 237 18 36 237 18 36 237 18 36 237 18 36 237 18 36 237 18 36 237 18 36 237 18 36 237 18 36 237 19 38 236 19 38 236 20 40 235 20 40 235 21 42 234 21 42 234 22 44 233 22 44 233 23 46 232 24 48 231 24 48 231 25 50 230 26 52 229 26 52 229 27 54 228 28 56 227 29 58 226
30 60 225 29 58 226 29 58 226 28 56 227 27 54 228 26 52 229 26 52 229 25 50 230 24 48 231 24 48 231 23 46 232 23 46 232 22 44 233 21 42 234 21 42 234 21 42 234 20 40 235 20 40 235 19 38 236 19 38 236 19 38 236 19 38 236 19 38 236 19 38 236 19 38 236 19 38 236 19 38 236 19 38 236 19 38 236 19 38 236 19 38 236 20 40 235 20 40 235 21 42 234 21 42 234 21 42 234 22 44 233 23 46 232 23 46 232 24 48 231 24 48 231 25 50 230 26 52 229 26 52 229 27 54 228 28 56 227 29 58 226 29 58 226
31 62 224 30 60 225 29 58 226 29 58 226 28 56 227 27 54 228 26 52 229 26 52 229 25 50 230 25 50 230 24 48 231 23 46 232 23 46 232 22 44 233 22 44 233 21 42 234 21 42 234 21 42 234 20 40 235 20 40 235 20 40 235 20 40 235 20 40 235 20 40 235 20 40 235 20 40 235 20 40 235 20 40 235 20 40 235 20 40 235 20 40 235 21 42 234 21 42 234 21 42 234 22 44 233 22 44 233 23 46 232 23 46 232 24 48 231 25 50 230 25 50 230 26 52 229 26 52 229 27 54 228 28 56 227 29 58 226 29 58 226 30 60 225
31 62 224 31 62 224 30 60 225 29 58 226 29 58 226 28 56 227 27 54 228 27 54 228 26 52 229 25 50 230 25 50 230 24 48 231 24 48 231 23 46 232 23 46 232 22 44 233 22 44 233 22 44 233 21 42 234 21 42 234 21 42 234 21 42 234 21 42 234 21 42 234 21 42 234 21 42 234 21 42 234 21 42 234 21 42 234 21 42 234 21 42 234 22 44 233 22 44 233 22 44 233 23 46 232 23 46 232 24 48 231 24 48 231 25 50 230 25 50 230 26 52 229 27 54 228 27 54 228 28 56 227 29 58 226 29 58 226 30 60 225 31 62 224
32 64 223 31 62 224 31 62 224 30 60 225 29 58 226 29 58 226 28 56 227 27 54 228 27 54 228 26 52 229 26 52 229 25 50 230 25 50 230 24 48 231 24 48 231 23 46 232 23 46 232 23 46 232 22 44 233 22 44 233 22 44 233 22 44 233 22 44 233 22 44 233 22 44 233 22 44 233 22 44 233 22 44 233 22 44 233 22 44 233 22 44 233 23 46 232 23 46 232 23 46 232 24 48 231 24 48 231 25 50 230 25 50 230 26 52 229 26 52 229 27 54 228 27 54 228 28 56 227 29 58 226 29 58 226 30 60 225 31 62 224 31 62 224
33 66 222 32 64 223 31 62 224 31 62 224 30 60 225 29 58 226 29 58 226 28 56 227 28 56 227 27 54 228 26 52 229 26 52 229 25 50 230 25 50 230 25 50 230 24 48 231 24 48 231 24 48 231 23 46 232 23 46 232 23 46 232 23 46 232 23 46 232 23 46 232 23 46 232 23 46 232 23 46 232 23 46 232 23 46 232 23 46 232 23 46 232 24 48 231 24 48 231 24 48 231 25 50 230 25 50 230 25 50 230 26 52 229 26 52 229 27 54 228 28 56 227 28 56 227 29 58 226 29 58 226 30 60 225 31 62 224 31 62 224 32 64 223
