P3
32 32
255
0 128 255 0 128 255 0 128 255 0 128 255 0 128 255 0 128 255 0 128 255 0 128 255 0 128 255 0 128 255 0 128 255 0 128 255 0 128 255 0 128 255 0 128 255 0 128 255 0 128 255 0 128 255 0 128 255 0 128 255 0 128 255 0 128 255 0 128 255 0 128 255 0 128 255 0 128 255 0 128 255 0 128 255 0 128 255 0 128 255 0 128 255 0 128 255
8 128 247 8 128 247 8 128 247 8 128 247 8 128 247 8 128 247 8 128 247 8 128 247 8 128 247 8 128 247 8 128 247 8 128 247 8 128 247 8 128 247 8 128 247 8 128 247 8 128 247 8 128 247 8 128 247 8 128 247 8 128 247 8 128 247 8 128 247 8 128 247 8 128 247 8 128 247 8 128 247 8 128 247 8 128 247 8 128 247 8 128 247 8 128 247
16 128 239 16 128 239 16 128 239 16 128 239 16 128 239 16 128 239 16 128 239 16 128 239 16 128 239 16 128 239 16 128 239 16 128 239 16 128 239 16 128 239 16 128 239 16 128 239 16 128 239 16 128 239 16 128 239 16 128 239 16 128 239 16 128 239 16 128 239 16 128 239 16 128 239 16 128 239 16 128 239 16 128 239 16 128 239 16 128 239 16 128 239 16 128 239
24 128 231 24 128 231 24 128 231 24 128 231 24 128 231 24 128 231 24 128 231 24 128 231 24 128 231 24 128 231 24 128 231 24 128 231 24 128 231 24 128 231 24 128 231 24 128 231 24 128 231 24 128 231 24 128 231 24 128 231 24 128 231 24 128 231 24 128 231 24 128 231 24 128 231 24 128 231 24 128 231 24 128 231 24 128 231 24 128 231 24 128 231 24 128 231
32 128 223 32 128 223 32 128 223 32 128 223 32 128 223 32 128 223 32 128 223 32 128 223 32 128 223 32 128 223 32 128 223 32 128 223 32 128 223 32 128 223 32 128 223 32 128 223 32 128 223 32 128 223 32 128 223 32 128 223 32 128 223 32 128 223 32 128 223 32 128 223 32 128 223 32 128 223 32 128 223 32 128 223 32 128 223 32 128 223 32 128 223 32 128 223
41 128 214 41 128 214 41 128 214 41 128 214 41 128 214 41 128 214 41 128 214 41 128 214 41 128 214 41 128 214 41 128 214 41 128 214 41 128 214 41 128 214 41 128 214 41 128 214 41 128 214 41 128 214 41 128 214 41 128 214 41 128 214 41 128 214 41 128 214 41 128 214 41 128 214 41 128 214 41 128 214 41 128 214 41 128 214 41 128 214 41 128 214 41 128 214
49 128 206 49 128 206 49 128 206 49 128 206 49 128 206 49 128 206 49 128 206 49 128 206 49 128 206 49 128 206 49 128 206 49 128 206 49 128 206 49 128 206 49 128 206 49 128 206 49 128 206 49 128 206 49 128 206 49 128 206 49 128 206 49 128 206 49 128 206 49 128 206 49 128 206 49 128 206 49 128 206 49 128 206 49 128 206 49 128 206 49 128 206 49 128 206
57 128 198 57 128 198 57 128 198 57 128 198 57 128 198 57 128 198 57 128 198 57 128 198 57 128 198 57 128 198 57 128 198 57 128 198 57 128 198 57 128 198 57 128 198 57 128 198 57 128 198 57 128 198 57 128 198 57 128 198 57 128 198 57 128 198 57 128 198 57 128 198 57 128 198 57 128 198 57 128 198 57 128 198 57 128 198 57 128 198 57 128 198 57 128 198
65 128 190 65 128 190 65 128 190 65 128 190 65 128 190 65 128 190 65 128 190 65 128 190 65 128 190 65 128 190 65 128 190 65 128 190 65 128 190 65 128 190 65 128 190 65 128 190 65 128 190 65 128 190 65 128 190 65 128 190 65 128 190 65 128 190 65 128 190 65 128 190 65 128 190 65 128 190 65 128 190 65 128 190 65 128 190 65 128 190 65 128 190 65 128 190
74 128 181 74 128 181 74 128 181 74 128 181 74 128 181 74 128 181 74 128 181 74 128 181 74 128 181 74 128 181 74 128 181 74 128 181 74 128 181 74 128 181 74 128 181 74 128 181 74 128 181 74 128 181 74 128 181 74 128 181 74 128 181 74 128 181 74 128 181 74 128 181 74 128 181 74 128 181 74 128 181 74 128 181 74 128 181 74 128 181 74 128 181 74 128 181
82 128 173 82 128 173 82 128 173 82 128 173 82 128 173 82 128 173 82 128 173 82 128 173 82 128 173 82 128 173 82 128 173 82 128 173 82 128 173 82 128 173 82 128 173 82 128 173 82 128 173 82 128 173 82 128 173 82 128 173 82 128 173 82 128 173 82 128 173 82 128 173 82 128 173 82 128 173 82 128 173 82 128 173 82 128 173 82 128 173 82 128 173 82 128 173
90 128 165 90 128 165 90 128 165 90 128 165 90 128 165 90 128 165 90 128 165 90 128 165 90 128 165 90 128 165 90 128 165 90 128 165 90 128 165 90 128 165 90 128 165 90 128 165 90 128 165 90 128 165 90 128 165 90 128 165 90 128 165 90 128 165 90 128 165 90 128 165 90 128 165 90 128 165 90 128 165 90 128 165 90 128 165 90 128 165 90 128 165 90 128 165
98 128 157 98 128 157 98 128 157 98 128 157 98 128 157 98 128 157 98 128 157 98 128 157 98 128 157 98 128 157 98 128 157 98 128 157 98 128 157 98 128 157 98 128 157 98 128 157 98 128 157 98 128 157 98 128 157 98 128 157 98 128 157 98 128 157 98 128 157 98 128 157 98 128 157 98 128 157 98 128 157 98 128 157 98 128 157 98 128 157 98 128 157 98 128 157
106 128 149 106 128 149 106 128 149 106 128 149 106 128 149 106 128 149 106 128 149 106 128 149 106 128 149 106 128 149 106 128 149 106 128 149 106 128 149 106 128 149 106 128 149 106 128 149 106 128 149 106 128 149 106 128 149 106 128 149 106 128 149 106 128 149 106 128 149 106 128 149 106 128 149 106 128 149 106 128 149 106 128 149 106 128 149 106 128 149 106 128 149 106 128 149
115 128 140 115 128 140 115 128 140 115 128 140 115 128 140 115 128 140 115 128 140 115 128 140 115 128 140 115 128 140 115 128 140 115 128 140 115 128 140 115 128 140 115 128 140 115 128 140 115 128 140 115 128 140 115 128 140 115 128 140 115 128 140 115 128 140 115 128 140 115 128 140 115 128 140 115 128 140 115 128 140 115 128 140 115 128 140 115 128 140 115 128 140 115 128 140
123 128 132 123 128 132 123 128 132 123 128 132 123 128 132 123 128 132 123 128 132 123 128 132 123 128 132 123 128 132 123 128 132 123 128 132 123 128 132 123 128 132 123 128 132 123 128 132 123 128 132 123 128 132 123 128 132 123 128 132 123 128 132 123 128 132 123 128 132 123 128 132 123 128 132 123 128 132 123 128 132 123 128 132 123 128 132 123 128 132 123 128 132 123 128 132
131 128 124 131 128 124 131 128 124 131 128 124 131 128 124 131 128 124 131 128 124 131 128 124 131 128 124 131 128 124 131 128 124 131 128 124 131 128 124 131 128 124 131 128 124 131 128 124 131 128 124 131 128 124 131 128 124 131 128 124 131 128 124 131 128 124 131 128 124 131 128 124 131 128 124 131 128 124 131 128 124 131 128 124 131 128 124 131 128 124 131 128 124 131 128 124
139 128 116 139 128 116 139 128 116 139 128 116 139 128 116 139 128 116 139 128 116 139 128 116 139 128 116 139 128 116 139 128 116 139 128 116 139 128 116 139 128 116 139 128 116 139 128 116 139 128 116 139 128 116 139 128 116 139 128 116 139 128 116 139 128 116 139 128 116 139 128 116 139 128 116 139 128 116 139 128 116 139 128 116 139 128 116 139 128 116 139 128 116 139 128 116
148 128 107 148 128 107 148 128 107 148 128 107 148 128 107 148 128 107 148 128 107 148 128 107 148 128 107 148 128 107 148 128 107 148 128 107 148 128 107 148 128 107 148 128 107 148 128 107 148 128 107 148 128 107 148 128 107 148 128 107 148 128 107 148 128 107 148 128 107 148 128 107 148 128 107 148 128 107 148 128 107 148 128 107 148 128 107 148 128 107 148 128 107 148 128 107
156 128 99 156 128 99 156 128 99 156 128 99 156 128 99 156 128 99 156 128 99 156 128 99 156 128 99 156 128 99 156 128 99 156 128 99 156 128 99 156 128 99 156 128 99 156 128 99 156 128 99 156 128 99 156 128 99 156 128 99 156 128 99 156 128 99 156 128 99 156 128 99 156 128 99 156 128 99 156 128 99 156 128 99 156 128 99 156 128 99 156 128 99 156 128 99
164 128 91 164 128 91 164 128 91 164 128 91 164 128 91 164 128 91 164 128 91 164 128 91 164 128 91 164 128 91 164 128 91 164 128 91 164 128 91 164 128 91 164 128 91 164 128 91 164 128 91 164 128 91 164 128 91 164 128 91 164 128 91 164 128 91 164 128 91 164 128 91 164 128 91 164 128 91 164 128 91 164 128 91 164 128 91 164 128 91 164 128 91 164 128 91
172 128 83 172 128 83 172 128 83 172 128 83 172 128 83 172 128 83 172 128 83 172 128 83 172 128 83 172 128 83 172 128 83 172 128 83 172 128 83 172 128 83 172 128 83 172 128 83 172 128 83 172 128 83 172 128 83 172 128 83 172 128 83 172 128 83 172 128 83 172 128 83 172 128 83 172 128 83 172 128 83 172 128 83 172 128 83 172 128 83 172 128 83 172 128 83
180 128 75 180 128 75 180 128 75 180 128 75 180 128 75 180 128 75 180 128 75 180 128 75 180 128 75 180 128 75 180 128 75 180 128 75 180 128 75 180 128 75 180 128 75 180 128 75 180 128 75 180 128 75 180 128 75 180 128 75 180 128 75 180 128 75 180 128 75 180 128 75 180 128 75 180 128 75 180 128 75 180 128 75 180 128 75 180 128 75 180 128 75 180 128 75
189 128 66 189 128 66 189 128 66 189 128 66 189 128 66 189 128 66 189 128 66 189 128 66 189 128 66 189 128 66 189 128 66 189 128 66 189 128 66 189 128 66 189 128 66 189 128 66 189 128 66 189 128 66 189 128 66 189 128 66 189 128 66 189 128 66 189 128 66 189 128 66 189 128 66 189 128 66 189 128 66 189 128 66 189 128 66 189 128 66 189 128 66 189 128 66
197 128 58 197 128 58 197 128 58 197 128 58 197 128 58 197 128 58 197 128 58 197 128 58 197 128 58 197 128 58 197 128 58 197 128 58 197 128 58 197 128 58 197 128 58 197 128 58 197 128 58 197 128 58 197 128 58 197 128 58 197 128 58 197 128 58 197 128 58 197 128 58 197 128 58 197 128 58 197 128 58 197 128 58 197 128 58 197 128 58 197 128 58 197 128 58
205 128 50 205 128 50 205 128 50 205 128 50 205 128 50 205 128 50 205 128 50 205 128 50 205 128 50 205 128 50 205 128 50 205 128 50 205 128 50 205 128 50 205 128 50 205 128 50 205 128 50 205 128 50 205 128 50 205 128 50 205 128 50 205 128 50 205 128 50 205 128 50 205 128 50 205 128 50 205 128 50 205 128 50 205 128 50 205 128 50 205 128 50 205 128 50
213 128 42 213 128 42 213 128 42 213 128 42 213 128 42 213 128 42 213 128 42 213 128 42 213 128 42 213 128 42 213 128 42 213 128 42 213 128 42 213 128 42 213 128 42 213 128 42 213 128 42 213 128 42 213 128 42 213 128 42 213 128 42 213 128 42 213 128 42 213 128 42 213 128 42 213 128 42 213 128 42 213 128 42 213 128 42 213 128 42 213 128 42 213 128 42
222 128 33 222 128 33 222 128 33 222 128 33 222 128 33 222 128 33 222 128 33 222 128 33 222 128 33 222 128 33 222 128 33 222 128 33 222 128 33 222 128 33 222 128 33 222 128 33 222 128 33 222 128 33 222 128 33 222 128 33 222 128 33 222 128 33 222 128 33 222 128 33 222 128 33 222 128 33 222 128 33 222 128 33 222 128 33 222 128 33 222 128 33 222 128 33
230 128 25 230 128 25 230 128 25 230 128 25 230 128 25 230 128 25 230 128 25 230 128 25 230 128 25 230 128 25 230 128 25 230 128 25 230 128 25 230 128 25 230 128 25 230 128 25 230 128 25 230 128 25 230 128 25 230 128 25 230 128 25 230 128 25 230 128 25 230 128 25 230 128 25 230 128 25 230 128 25 230 128 25 230 128 25 230 128 25 230 128 25 230 128 25
238 128 17 238 128 17 238 128 17 238 128 17 238 128 17 238 128 17 238 128 17 238 128 17 238 128 17 238 128 17 238 128 17 238 128 17 238 128 17 238 128 17 238 128 17 238 128 17 238 128 17 238 128 17 238 128 17 238 128 17 238 128 17 238 128 17 238 128 17 238 128 17 238 128 17 238 128 17 238 128 17 238 128 17 238 128 17 238 128 17 238 128 17 238 128 17
246 128 9 246 128 9 246 128 9 246 128 9 246 128 9 246 128 9 246 128 9 246 128 9 246 128 9 246 128 9 246 128 9 246 128 9 246 128 9 246 128 9 246 128 9 246 128 9 246 128 9 246 128 9 246 128 9 246 128 9 246 128 9 246 128 9 246 128 9 246 128 9 246 128 9 246 128 9 246 128 9 246 128 9 246 128 9 246 128 9 246 128 9 246 128 9
255 128 0 255 128 0 255 128 0 255 128 0 255 128 0 255 128 0 255 128 0 255 128 0 255 128 0 255 128 0 255 128 0 255 128 0 255 128 0 255 128 0 255 128 0 255 128 0 255 128 0 255 128 0 255 128 0 255 128 0 255 128 0 255 128 0 255 128 0 255 128 0 255 128 0 255 128 0 255 128 0 255 128 0 255 128 0 255 128 0 255 128 0 255 128 0
