P3
24 24
255
0 0 0 11 0 5 22 0 11 33 0 16 44 0 22 55 0 27 66 0 33 77 0 38 88 0 44 99 0 49 110 0 55 121 0 60 133 0 66 144 0 72 155 0 77 166 0 83 177 0 88 188 0 94 199 0 99 210 0 105 221 0 110 232 0 116 243 0 121 255 0 127
0 11 5 11 11 11 22 11 16 33 11 22 44 11 27 55 11 33 66 11 38 77 11 44 88 11 49 99 11 55 110 11 60 121 11 66 133 11 72 144 11 77 155 11 83 166 11 88 177 11 94 188 11 99 199 11 105 210 11 110 221 11 116 232 11 121 243 11 127 255 11 133
0 22 11 11 22 16 22 22 22 33 22 27 44 22 33 55 22 38 66 22 44 77 22 49 88 22 55 99 22 60 110 22 66 121 22 72 133 22 77 144 22 83 155 22 88 166 22 94 177 22 99 188 22 105 199 22 110 210 22 116 221 22 121 232 22 127 243 22 133 255 22 138
0 33 16 11 33 22 22 33 27 33 33 33 44 33 38 55 33 44 66 33 49 77 33 55 88 33 60 99 33 66 110 33 72 121 33 77 133 33 83 144 33 88 155 33 94 166 33 99 177 33 105 188 33 110 199 33 116 210 33 121 221 33 127 232 33 133 243 33 138 255 33 144
0 44 22 11 44 27 22 44 33 33 44 38 44 44 44 55 44 49 66 44 55 77 44 60 88 44 66 99 44 72 110 44 77 121 44 83 133 44 88 144 44 94 155 44 99 166 44 105 177 44 110 188 44 116 199 44 121 210 44 127 221 44 133 232 44 138 243 44 144 255 44 149
0 55 27 11 55 33 22 55 38 33 55 44 44 55 49 55 55 55 66 55 60 77 55 66 88 55 72 99 55 77 110 55 83 121 55 88 133 55 94 144 55 99 155 55 105 166 55 110 177 55 116 188 55 121 199 55 127 210 55 133 221 55 138 232 55 144 243 55 149 255 55 155
0 66 33 11 66 38 22 66 44 33 66 49 44 66 55 55 66 60 66 66 66 77 66 72 88 66 77 99 66 83 110 66 88 121 66 94 133 66 99 144 66 105 155 66 110 166 66 116 177 66 121 188 66 127 199 66 133 210 66 138 221 66 144 232 66 149 243 66 155 255 66 160
0 77 38 11 77 44 22 77 49 33 77 55 44 77 60 55 77 66 66 77 72 77 77 77 88 77 83 99 77 88 110 77 94 121 77 99 133 77 105 144 77 110 155 77 116 166 77 121 177 77 127 188 77 133 199 77 138 210 77 144 221 77 149 232 77 155 243 77 160 255 77 166
0 88 44 11 88 49 22 88 55 33 88 60 44 88 66 55 88 72 66 88 77 77 88 83 88 88 88 99 88 94 110 88 99 121 88 105 133 88 110 144 88 116 155 88 121 166 88 127 177 88 133 188 88 138 199 88 144 210 88 149 221 88 155 232 88 160 243 88 166 255 88 171
0 99 49 11 99 55 22 99 60 33 99 66 44 99 72 55 99 77 66 99 83 77 99 88 88 99 94 99 99 99 110 99 105 121 99 110 133 99 116 144 99 121 155 99 127 166 99 133 177 99 138 188 99 144 199 99 149 210 99 155 221 99 160 232 99 166 243 99 171 255 99 177
0 110 55 11 110 60 22 110 66 33 110 72 44 110 77 55 110 83 66 110 88 77 110 94 88 110 99 99 110 105 110 110 110 121 110 116 133 110 121 144 110 127 155 110 133 166 110 138 177 110 144 188 110 149 199 110 155 210 110 160 221 110 166 232 110 171 243 110 177 255 110 182
0 121 60 11 121 66 22 121 72 33 121 77 44 121 83 55 121 88 66 121 94 77 121 99 88 121 105 99 121 110 110 121 116 121 121 121 133 121 127 144 121 133 155 121 138 166 121 144 177 121 149 188 121 155 199 121 160 210 121 166 221 121 171 232 121 177 243 121 182 255 121 188
0 133 66 11 133 72 22 133 77 33 133 83 44 133 88 55 133 94 66 133 99 77 133 105 88 133 110 99 133 116 110 133 121 121 133 127 133 133 133 144 133 138 155 133 144 166 133 149 177 133 155 188 133 160 199 133 166 210 133 171 221 133 177 232 133 182 243 133 188 255 133 194
0 144 72 11 144 77 22 144 83 33 144 88 44 144 94 55 144 99 66 144 105 77 144 110 88 144 116 99 144 121 110 144 127 121 144 133 133 144 138 144 144 144 155 144 149 166 144 155 177 144 160 188 144 166 199 144 171 210 144 177 221 144 182 232 144 188 243 144 194 255 144 199
0 155 77 11 155 83 22 155 88 33 155 94 44 155 99 55 155 105 66 155 110 77 155 116 88 155 121 99 155 127 110 155 133 121 155 138 133 155 144 144 155 149 155 155 155 166 155 160 177 155 166 188 155 171 199 155 177 210 155 182 221 155 188 232 155 194 243 155 199 255 155 205
0 166 83 11 166 88 22 166 94 33 166 99 44 166 105 55 166 110 66 166 116 77 166 121 88 166 127 99 166 133 110 166 138 121 166 144 133 166 149 144 166 155 155 166 160 166 166 166 177 166 171 188 166 177 199 166 182 210 166 188 221 166 194 232 166 199 243 166 205 255 166 210
0 177 88 11 177 94 22 177 99 33 177 105 44 177 110 55 177 116 66 177 121 77 177 127 88 177 133 99 177 138 110 177 144 121 177 149 133 177 155 144 177 160 155 177 166 166 177 171 177 177 177 188 177 182 199 177 188 210 177 194 221 177 199 232 177 205 243 177 210 255 177 216
0 188 94 11 188 99 22 188 105 33 188 110 44 188 116 55 188 121 66 188 127 77 188 133 88 188 138 99 188 144 110 188 149 121 188 155 133 188 160 144 188 166 155 188 171 166 188 177 177 188 182 188 188 188 199 188 194 210 188 199 221 188 205 232 188 210 243 188 216 255 188 221
0 199 99 11 199 105 22 199 110 33 199 116 44 199 121 55 199 127 66 199 133 77 199 138 88 199 144 99 199 149 110 199 155 121 199 160 133 199 166 144 199 171 155 199 177 166 199 182 177 199 188 188 199 194 199 199 199 210 199 205 221 199 210 232 199 216 243 199 221 255 199 227
0 210 105 11 210 110 22 210 116 33 210 121 44 210 127 55 210 133 66 210 138 77 210 144 88 210 149 99 210 155 110 210 160 121 210 166 133 210 171 144 210 177 155 210 182 166 210 188 177 210 194 188 210 199 199 210 205 210 210 210 221 210 216 232 210 221 243 210 227 255 210 232
0 221 110 11 221 116 22 221 121 33 221 127 44 221 133 55 221 138 66 221 144 77 221 149 88 221 155 99 221 160 110 221 166 121 221 171 133 221 177 144 221 182 155 221 188 166 221 194 177 221 199 188 221 205 199 221 210 210 221 216 221 221 221 232 221 227 243 221 232 255 221 238
0 232 116 11 232 121 22 232 127 33 232 133 44 232 138 55 232 144 66 232 149 77 232 155 88 232 160 99 232 166 110 232 171 121 232 177 133 232 182 144 232 188 155 232 194 166 232 199 177 232 205 188 232 210 199 232 216 210 232 221 221 232 227 232 232 232 243 232 238 255 232 243
0 243 121 11 243 127 22 243 133 33 243 138 44 243 144 55 243 149 66 243 155 77 243 160 88 243 166 99 243 171 110 243 177 121 243 182 133 243 188 144 243 194 155 243 199 166 243 205 177 243 210 188 243 216 199 243 221 210 243 227 221 243 232 232 243 238 243 243 243 255 243 249
0 255 127 11 255 133 22 255 138 33 255 144 44 255 149 55 255 155 66 255 160 77 255 166 88 255 171 99 255 177 110 255 182 121 255 188 133 255 194 144 255 199 155 255 205 166 255 210 177 255 216 188 255 221 199 255 227 210 255 232 221 255 238 232 255 243 243 255 249 255 255 255
