P3
8 8
255
102 220 225 95 179 61 234 203 92 3 98 243 14 149 245 46 106 244 99 187 71 212 153 199
188 174 65 153 20 44 203 152 102 214 240 39 121 24 34 114 210 65 239 39 214 244 151 25
74 145 222 14 202 85 145 117 87 184 189 221 116 237 109 85 99 172 226 153 103 235 146 36
151 62 68 181 130 160 160 166 149 6 69 5 52 253 112 14 1 3 76 248 87 233 212 184
235 245 26 213 157 253 68 240 37 219 91 54 129 9 51 0 191 20 140 46 187 147 1 254
20 153 243 46 160 68 19 158 203 209 226 77 57 77 149 156 21 112 86 134 252 24 207 1
235 242 147 110 88 107 231 5 48 254 141 74 218 161 87 134 58 100 162 156 254 73 93 102
169 222 181 35 255 71 242 11 219 253 201 74 187 10 72 249 207 227 201 93 14 231 150 59
