P3
256 128
255
0 0 0 1 0 0 2 0 1 3 0 2 4 0 2 5 0 3 6 0 4 7 0 4 8 0 5 9 0 6 10 0 6 11 0 7 12 0 8 13 0 8 14 0 9 15 0 10 16 0 10 17 0 11 18 0 12 19 0 12 20 0 13 21 0 14 22 0 14 23 0 15 24 0 16 25 0 16 26 0 17 27 0 18 28 0 18 29 0 19 30 0 20 31 0 20 32 0 21 33 0 22 34 0 22 35 0 23 36 0 24 37 0 24 38 0 25 39 0 26 40 0 26 41 0 27 42 0 28 43 0 28 44 0 29 45 0 30 46 0 30 47 0 31 48 0 32 49 0 32 50 0 33 51 0 34 52 0 34 53 0 35 54 0 36 55 0 36 56 0 37 57 0 38 58 0 38 59 0 39 60 0 40 61 0 40 62 0 41 63 0 42 64 0 42 65 0 43 66 0 44 67 0 44 68 0 45 69 0 46 70 0 46 71 0 47 72 0 48 73 0 48 74 0 49 75 0 50 76 0 50 77 0 51 78 0 52 79 0 52 80 0 53 81 0 54 82 0 54 83 0 55 84 0 56 85 0 56 86 0 57 87 0 58 88 0 58 89 0 59 90 0 60 91 0 60 92 0 61 93 0 62 94 0 62 95 0 63 96 0 64 97 0 64 98 0 65 99 0 66 100 0 66 101 0 67 102 0 68 103 0 68 104 0 69 105 0 70 106 0 70 107 0 71 108 0 72 109 0 72 110 0 73 111 0 74 112 0 74 113 0 75 114 0 76 115 0 76 116 0 77 117 0 78 118 0 78 119 0 79 120 0 80 121 0 80 122 0 81 123 0 82 124 0 82 125 0 83 126 0 84 127 0 84 128 0 85 129 0 86 130 0 86 131 0 87 132 0 88 133 0 88 134 0 89 135 0 90 136 0 90 137 0 91 138 0 92 139 0 92 140 0 93 141 0 94 142 0 94 143 0 95 144 0 96 145 0 96 146 0 97 147 0 98 148 0 98 149 0 99 150 0 100 151 0 100 152 0 101 153 0 102 154 0 102 155 0 103 156 0 104 157 0 104 158 0 105 159 0 106 160 0 106 161 0 107 162 0 108 163 0 108 164 0 109 165 0 110 166 0 110 167 0 111 168 0 112 169 0 112 170 0 113 171 0 114 172 0 114 173 0 115 174 0 116 175 0 116 176 0 117 177 0 118 178 0 118 179 0 119 180 0 120 181 0 120 182 0 121 183 0 122 184 0 122 185 0 123 186 0 124 187 0 124 188 0 125 189 0 126 190 0 126 191 0 127 192 0 128 193 0 128 194 0 129 195 0 130 196 0 130 197 0 131 198 0 132 199 0 132 200 0 133 201 0 134 202 0 134 203 0 135 204 0 136 205 0 136 206 0 137 207 0 138 208 0 138 209 0 139 210 0 140 211 0 140 212 0 141 213 0 142 214 0 142 215 0 143 216 0 144 217 0 144 218 0 145 219 0 146 220 0 146 221 0 147 222 0 148 223 0 148 224 0 149 225 0 150 226 0 150 227 0 151 228 0 152 229 0 152 230 0 153 231 0 154 232 0 154 233 0 155 234 0 156 235 0 156 236 0 157 237 0 158 238 0 158 239 0 159 240 0 160 241 0 160 242 0 161 243 0 162 244 0 162 245 0 163 246 0 164 247 0 164 248 0 165 249 0 166 250 0 166 251 0 167 252 0 168 253 0 168 254 0 169 255 0 170
0 2 0 1 2 1 2 2 2 3 2 2 4 2 3 5 2 4 6 2 4 7 2 5 8 2 6 9 2 6 10 2 7 11 2 8 12 2 8 13 2 9 14 2 10 15 2 10 16 2 11 17 2 12 18 2 12 19 2 13 20 2 14 21 2 14 22 2 15 23 2 16 24 2 16 25 2 17 26 2 18 27 2 18 28 2 19 29 2 20 30 2 20 31 2 21 32 2 22 33 2 22 34 2 23 35 2 24 36 2 24 37 2 25 38 2 26 39 2 26 40 2 27 41 2 28 42 2 28 43 2 29 44 2 30 45 2 30 46 2 31 47 2 32 48 2 32 49 2 33 50 2 34 51 2 34 52 2 35 53 2 36 54 2 36 55 2 37 56 2 38 57 2 38 58 2 39 59 2 40 60 2 40 61 2 41 62 2 42 63 2 42 64 2 43 65 2 44 66 2 44 67 2 45 68 2 46 69 2 46 70 2 47 71 2 48 72 2 48 73 2 49 74 2 50 75 2 50 76 2 51 77 2 52 78 2 52 79 2 53 80 2 54 81 2 54 82 2 55 83 2 56 84 2 56 85 2 57 86 2 58 87 2 58 88 2 59 89 2 60 90 2 60 91 2 61 92 2 62 93 2 62 94 2 63 95 2 64 96 2 64 97 2 65 98 2 66 99 2 66 100 2 67 101 2 68 102 2 68 103 2 69 104 2 70 105 2 70 106 2 71 107 2 72 108 2 72 109 2 73 110 2 74 111 2 74 112 2 75 113 2 76 114 2 76 115 2 77 116 2 78 117 2 78 118 2 79 119 2 80 120 2 80 121 2 81 122 2 82 123 2 82 124 2 83 125 2 84 126 2 84 127 2 85 128 2 86 129 2 86 130 2 87 131 2 88 132 2 88 133 2 89 134 2 90 135 2 90 136 2 91 137 2 92 138 2 92 139 2 93 140 2 94 141 2 94 142 2 95 143 2 96 144 2 96 145 2 97 146 2 98 147 2 98 148 2 99 149 2 100 150 2 100 151 2 101 152 2 102 153 2 102 154 2 103 155 2 104 156 2 104 157 2 105 158 2 106 159 2 106 160 2 107 161 2 108 162 2 108 163 2 109 164 2 110 165 2 110 166 2 111 167 2 112 168 2 112 169 2 113 170 2 114 171 2 114 172 2 115 173 2 116 174 2 116 175 2 117 176 2 118 177 2 118 178 2 119 179 2 120 180 2 120 181 2 121 182 2 122 183 2 122 184 2 123 185 2 124 186 2 124 187 2 125 188 2 126 189 2 126 190 2 127 191 2 128 192 2 128 193 2 129 194 2 130 195 2 130 196 2 131 197 2 132 198 2 132 199 2 133 200 2 134 201 2 134 202 2 135 203 2 136 204 2 136 205 2 137 206 2 138 207 2 138 208 2 139 209 2 140 210 2 140 211 2 141 212 2 142 213 2 142 214 2 143 215 2 144 216 2 144 217 2 145 218 2 146 219 2 146 220 2 147 221 2 148 222 2 148 223 2 149 224 2 150 225 2 150 226 2 151 227 2 152 228 2 152 229 2 153 230 2 154 231 2 154 232 2 155 233 2 156 234 2 156 235 2 157 236 2 158 237 2 158 238 2 159 239 2 160 240 2 160 241 2 161 242 2 162 243 2 162 244 2 163 245 2 164 246 2 164 247 2 165 248 2 166 249 2 166 250 2 167 251 2 168 252 2 168 253 2 169 254 2 170 255 2 170
0 4 1 1 4 2 2 4 2 3 4 3 4 4 4 5 4 4 6 4 5 7 4 6 8 4 6 9 4 7 10 4 8 11 4 8 12 4 9 13 4 10 14 4 10 15 4 11 16 4 12 17 4 12 18 4 13 19 4 14 20 4 14 21 4 15 22 4 16 23 4 16 24 4 17 25 4 18 26 4 18 27 4 19 28 4 20 29 4 20 30 4 21 31 4 22 32 4 22 33 4 23 34 4 24 35 4 24 36 4 25 37 4 26 38 4 26 39 4 27 40 4 28 41 4 28 42 4 29 43 4 30 44 4 30 45 4 31 46 4 32 47 4 32 48 4 33 49 4 34 50 4 34 51 4 35 52 4 36 53 4 36 54 4 37 55 4 38 56 4 38 57 4 39 58 4 40 59 4 40 60 4 41 61 4 42 62 4 42 63 4 43 64 4 44 65 4 44 66 4 45 67 4 46 68 4 46 69 4 47 70 4 48 71 4 48 72 4 49 73 4 50 74 4 50 75 4 51 76 4 52 77 4 52 78 4 53 79 4 54 80 4 54 81 4 55 82 4 56 83 4 56 84 4 57 85 4 58 86 4 58 87 4 59 88 4 60 89 4 60 90 4 61 91 4 62 92 4 62 93 4 63 94 4 64 95 4 64 96 4 65 97 4 66 98 4 66 99 4 67 100 4 68 101 4 68 102 4 69 103 4 70 104 4 70 105 4 71 106 4 72 107 4 72 108 4 73 109 4 74 110 4 74 111 4 75 112 4 76 113 4 76 114 4 77 115 4 78 116 4 78 117 4 79 118 4 80 119 4 80 120 4 81 121 4 82 122 4 82 123 4 83 124 4 84 125 4 84 126 4 85 127 4 86 128 4 86 129 4 87 130 4 88 131 4 88 132 4 89 133 4 90 134 4 90 135 4 91 136 4 92 137 4 92 138 4 93 139 4 94 140 4 94 141 4 95 142 4 96 143 4 96 144 4 97 145 4 98 146 4 98 147 4 99 148 4 100 149 4 100 150 4 101 151 4 102 152 4 102 153 4 103 154 4 104 155 4 104 156 4 105 157 4 106 158 4 106 159 4 107 160 4 108 161 4 108 162 4 109 163 4 110 164 4 110 165 4 111 166 4 112 167 4 112 168 4 113 169 4 114 170 4 114 171 4 115 172 4 116 173 4 116 174 4 117 175 4 118 176 4 118 177 4 119 178 4 120 179 4 120 180 4 121 181 4 122 182 4 122 183 4 123 184 4 124 185 4 124 186 4 125 187 4 126 188 4 126 189 4 127 190 4 128 191 4 128 192 4 129 193 4 130 194 4 130 195 4 131 196 4 132 197 4 132 198 4 133 199 4 134 200 4 134 201 4 135 202 4 136 203 4 136 204 4 137 205 4 138 206 4 138 207 4 139 208 4 140 209 4 140 210 4 141 211 4 142 212 4 142 213 4 143 214 4 144 215 4 144 216 4 145 217 4 146 218 4 146 219 4 147 220 4 148 221 4 148 222 4 149 223 4 150 224 4 150 225 4 151 226 4 152 227 4 152 228 4 153 229 4 154 230 4 154 231 4 155 232 4 156 233 4 156 234 4 157 235 4 158 236 4 158 237 4 159 238 4 160 239 4 160 240 4 161 241 4 162 242 4 162 243 4 163 244 4 164 245 4 164 246 4 165 247 4 166 248 4 166 249 4 167 250 4 168 251 4 168 252 4 169 253 4 170 254 4 170 255 4 171
0 6 2 1 6 2 2 6 3 3 6 4 4 6 4 5 6 5 6 6 6 7 6 6 8 6 7 9 6 8 10 6 8 11 6 9 12 6 10 13 6 10 14 6 11 15 6 12 16 6 12 17 6 13 18 6 14 19 6 14 20 6 15 21 6 16 22 6 16 23 6 17 24 6 18 25 6 18 26 6 19 27 6 20 28 6 20 29 6 21 30 6 22 31 6 22 32 6 23 33 6 24 34 6 24 35 6 25 36 6 26 37 6 26 38 6 27 39 6 28 40 6 28 41 6 29 42 6 30 43 6 30 44 6 31 45 6 32 46 6 32 47 6 33 48 6 34 49 6 34 50 6 35 51 6 36 52 6 36 53 6 37 54 6 38 55 6 38 56 6 39 57 6 40 58 6 40 59 6 41 60 6 42 61 6 42 62 6 43 63 6 44 64 6 44 65 6 45 66 6 46 67 6 46 68 6 47 69 6 48 70 6 48 71 6 49 72 6 50 73 6 50 74 6 51 75 6 52 76 6 52 77 6 53 78 6 54 79 6 54 80 6 55 81 6 56 82 6 56 83 6 57 84 6 58 85 6 58 86 6 59 87 6 60 88 6 60 89 6 61 90 6 62 91 6 62 92 6 63 93 6 64 94 6 64 95 6 65 96 6 66 97 6 66 98 6 67 99 6 68 100 6 68 101 6 69 102 6 70 103 6 70 104 6 71 105 6 72 106 6 72 107 6 73 108 6 74 109 6 74 110 6 75 111 6 76 112 6 76 113 6 77 114 6 78 115 6 78 116 6 79 117 6 80 118 6 80 119 6 81 120 6 82 121 6 82 122 6 83 123 6 84 124 6 84 125 6 85 126 6 86 127 6 86 128 6 87 129 6 88 130 6 88 131 6 89 132 6 90 133 6 90 134 6 91 135 6 92 136 6 92 137 6 93 138 6 94 139 6 94 140 6 95 141 6 96 142 6 96 143 6 97 144 6 98 145 6 98 146 6 99 147 6 100 148 6 100 149 6 101 150 6 102 151 6 102 152 6 103 153 6 104 154 6 104 155 6 105 156 6 106 157 6 106 158 6 107 159 6 108 160 6 108 161 6 109 162 6 110 163 6 110 164 6 111 165 6 112 166 6 112 167 6 113 168 6 114 169 6 114 170 6 115 171 6 116 172 6 116 173 6 117 174 6 118 175 6 118 176 6 119 177 6 120 178 6 120 179 6 121 180 6 122 181 6 122 182 6 123 183 6 124 184 6 124 185 6 125 186 6 126 187 6 126 188 6 127 189 6 128 190 6 128 191 6 129 192 6 130 193 6 130 194 6 131 195 6 132 196 6 132 197 6 133 198 6 134 199 6 134 200 6 135 201 6 136 202 6 136 203 6 137 204 6 138 205 6 138 206 6 139 207 6 140 208 6 140 209 6 141 210 6 142 211 6 142 212 6 143 213 6 144 214 6 144 215 6 145 216 6 146 217 6 146 218 6 147 219 6 148 220 6 148 221 6 149 222 6 150 223 6 150 224 6 151 225 6 152 226 6 152 227 6 153 228 6 154 229 6 154 230 6 155 231 6 156 232 6 156 233 6 157 234 6 158 235 6 158 236 6 159 237 6 160 238 6 160 239 6 161 240 6 162 241 6 162 242 6 163 243 6 164 244 6 164 245 6 165 246 6 166 247 6 166 248 6 167 249 6 168 250 6 168 251 6 169 252 6 170 253 6 170 254 6 171 255 6 172
0 8 2 1 8 3 2 8 4 3 8 4 4 8 5 5 8 6 6 8 6 7 8 7 8 8 8 9 8 8 10 8 9 11 8 10 12 8 10 13 8 11 14 8 12 15 8 12 16 8 13 17 8 14 18 8 14 19 8 15 20 8 16 21 8 16 22 8 17 23 8 18 24 8 18 25 8 19 26 8 20 27 8 20 28 8 21 29 8 22 30 8 22 31 8 23 32 8 24 33 8 24 34 8 25 35 8 26 36 8 26 37 8 27 38 8 28 39 8 28 40 8 29 41 8 30 42 8 30 43 8 31 44 8 32 45 8 32 46 8 33 47 8 34 48 8 34 49 8 35 50 8 36 51 8 36 52 8 37 53 8 38 54 8 38 55 8 39 56 8 40 57 8 40 58 8 41 59 8 42 60 8 42 61 8 43 62 8 44 63 8 44 64 8 45 65 8 46 66 8 46 67 8 47 68 8 48 69 8 48 70 8 49 71 8 50 72 8 50 73 8 51 74 8 52 75 8 52 76 8 53 77 8 54 78 8 54 79 8 55 80 8 56 81 8 56 82 8 57 83 8 58 84 8 58 85 8 59 86 8 60 87 8 60 88 8 61 89 8 62 90 8 62 91 8 63 92 8 64 93 8 64 94 8 65 95 8 66 96 8 66 97 8 67 98 8 68 99 8 68 100 8 69 101 8 70 102 8 70 103 8 71 104 8 72 105 8 72 106 8 73 107 8 74 108 8 74 109 8 75 110 8 76 111 8 76 112 8 77 113 8 78 114 8 78 115 8 79 116 8 80 117 8 80 118 8 81 119 8 82 120 8 82 121 8 83 122 8 84 123 8 84 124 8 85 125 8 86 126 8 86 127 8 87 128 8 88 129 8 88 130 8 89 131 8 90 132 8 90 133 8 91 134 8 92 135 8 92 136 8 93 137 8 94 138 8 94 139 8 95 140 8 96 141 8 96 142 8 97 143 8 98 144 8 98 145 8 99 146 8 100 147 8 100 148 8 101 149 8 102 150 8 102 151 8 103 152 8 104 153 8 104 154 8 105 155 8 106 156 8 106 157 8 107 158 8 108 159 8 108 160 8 109 161 8 110 162 8 110 163 8 111 164 8 112 165 8 112 166 8 113 167 8 114 168 8 114 169 8 115 170 8 116 171 8 116 172 8 117 173 8 118 174 8 118 175 8 119 176 8 120 177 8 120 178 8 121 179 8 122 180 8 122 181 8 123 182 8 124 183 8 124 184 8 125 185 8 126 186 8 126 187 8 127 188 8 128 189 8 128 190 8 129 191 8 130 192 8 130 193 8 131 194 8 132 195 8 132 196 8 133 197 8 134 198 8 134 199 8 135 200 8 136 201 8 136 202 8 137 203 8 138 204 8 138 205 8 139 206 8 140 207 8 140 208 8 141 209 8 142 210 8 142 211 8 143 212 8 144 213 8 144 214 8 145 215 8 146 216 8 146 217 8 147 218 8 148 219 8 148 220 8 149 221 8 150 222 8 150 223 8 151 224 8 152 225 8 152 226 8 153 227 8 154 228 8 154 229 8 155 230 8 156 231 8 156 232 8 157 233 8 158 234 8 158 235 8 159 236 8 160 237 8 160 238 8 161 239 8 162 240 8 162 241 8 163 242 8 164 243 8 164 244 8 165 245 8 166 246 8 166 247 8 167 248 8 168 249 8 168 250 8 169 251 8 170 252 8 170 253 8 171 254 8 172 255 8 172
0 10 3 1 10 4 2 10 4 3 10 5 4 10 6 5 10 6 6 10 7 7 10 8 8 10 8 9 10 9 10 10 10 11 10 10 12 10 11 13 10 12 14 10 12 15 10 13 16 10 14 17 10 14 18 10 15 19 10 16 20 10 16 21 10 17 22 10 18 23 10 18 24 10 19 25 10 20 26 10 20 27 10 21 28 10 22 29 10 22 30 10 23 31 10 24 32 10 24 33 10 25 34 10 26 35 10 26 36 10 27 37 10 28 38 10 28 39 10 29 40 10 30 41 10 30 42 10 31 43 10 32 44 10 32 45 10 33 46 10 34 47 10 34 48 10 35 49 10 36 50 10 36 51 10 37 52 10 38 53 10 38 54 10 39 55 10 40 56 10 40 57 10 41 58 10 42 59 10 42 60 10 43 61 10 44 62 10 44 63 10 45 64 10 46 65 10 46 66 10 47 67 10 48 68 10 48 69 10 49 70 10 50 71 10 50 72 10 51 73 10 52 74 10 52 75 10 53 76 10 54 77 10 54 78 10 55 79 10 56 80 10 56 81 10 57 82 10 58 83 10 58 84 10 59 85 10 60 86 10 60 87 10 61 88 10 62 89 10 62 90 10 63 91 10 64 92 10 64 93 10 65 94 10 66 95 10 66 96 10 67 97 10 68 98 10 68 99 10 69 100 10 70 101 10 70 102 10 71 103 10 72 104 10 72 105 10 73 106 10 74 107 10 74 108 10 75 109 10 76 110 10 76 111 10 77 112 10 78 113 10 78 114 10 79 115 10 80 116 10 80 117 10 81 118 10 82 119 10 82 120 10 83 121 10 84 122 10 84 123 10 85 124 10 86 125 10 86 126 10 87 127 10 88 128 10 88 129 10 89 130 10 90 131 10 90 132 10 91 133 10 92 134 10 92 135 10 93 136 10 94 137 10 94 138 10 95 139 10 96 140 10 96 141 10 97 142 10 98 143 10 98 144 10 99 145 10 100 146 10 100 147 10 101 148 10 102 149 10 102 150 10 103 151 10 104 152 10 104 153 10 105 154 10 106 155 10 106 156 10 107 157 10 108 158 10 108 159 10 109 160 10 110 161 10 110 162 10 111 163 10 112 164 10 112 165 10 113 166 10 114 167 10 114 168 10 115 169 10 116 170 10 116 171 10 117 172 10 118 173 10 118 174 10 119 175 10 120 176 10 120 177 10 121 178 10 122 179 10 122 180 10 123 181 10 124 182 10 124 183 10 125 184 10 126 185 10 126 186 10 127 187 10 128 188 10 128 189 10 129 190 10 130 191 10 130 192 10 131 193 10 132 194 10 132 195 10 133 196 10 134 197 10 134 198 10 135 199 10 136 200 10 136 201 10 137 202 10 138 203 10 138 204 10 139 205 10 140 206 10 140 207 10 141 208 10 142 209 10 142 210 10 143 211 10 144 212 10 144 213 10 145 214 10 146 215 10 146 216 10 147 217 10 148 218 10 148 219 10 149 220 10 150 221 10 150 222 10 151 223 10 152 224 10 152 225 10 153 226 10 154 227 10 154 228 10 155 229 10 156 230 10 156 231 10 157 232 10 158 233 10 158 234 10 159 235 10 160 236 10 160 237 10 161 238 10 162 239 10 162 240 10 163 241 10 164 242 10 164 243 10 165 244 10 166 245 10 166 246 10 167 247 10 168 248 10 168 249 10 169 250 10 170 251 10 170 252 10 171 253 10 172 254 10 172 255 10 173
0 12 4 1 12 4 2 12 5 3 12 6 4 12 6 5 12 7 6 12 8 7 12 8 8 12 9 9 12 10 10 12 10 11 12 11 12 12 12 13 12 12 14 12 13 15 12 14 16 12 14 17 12 15 18 12 16 19 12 16 20 12 17 21 12 18 22 12 18 23 12 19 24 12 20 25 12 20 26 12 21 27 12 22 28 12 22 29 12 23 30 12 24 31 12 24 32 12 25 33 12 26 34 12 26 35 12 27 36 12 28 37 12 28 38 12 29 39 12 30 40 12 30 41 12 31 42 12 32 43 12 32 44 12 33 45 12 34 46 12 34 47 12 35 48 12 36 49 12 36 50 12 37 51 12 38 52 12 38 53 12 39 54 12 40 55 12 40 56 12 41 57 12 42 58 12 42 59 12 43 60 12 44 61 12 44 62 12 45 63 12 46 64 12 46 65 12 47 66 12 48 67 12 48 68 12 49 69 12 50 70 12 50 71 12 51 72 12 52 73 12 52 74 12 53 75 12 54 76 12 54 77 12 55 78 12 56 79 12 56 80 12 57 81 12 58 82 12 58 83 12 59 84 12 60 85 12 60 86 12 61 87 12 62 88 12 62 89 12 63 90 12 64 91 12 64 92 12 65 93 12 66 94 12 66 95 12 67 96 12 68 97 12 68 98 12 69 99 12 70 100 12 70 101 12 71 102 12 72 103 12 72 104 12 73 105 12 74 106 12 74 107 12 75 108 12 76 109 12 76 110 12 77 111 12 78 112 12 78 113 12 79 114 12 80 115 12 80 116 12 81 117 12 82 118 12 82 119 12 83 120 12 84 121 12 84 122 12 85 123 12 86 124 12 86 125 12 87 126 12 88 127 12 88 128 12 89 129 12 90 130 12 90 131 12 91 132 12 92 133 12 92 134 12 93 135 12 94 136 12 94 137 12 95 138 12 96 139 12 96 140 12 97 141 12 98 142 12 98 143 12 99 144 12 100 145 12 100 146 12 101 147 12 102 148 12 102 149 12 103 150 12 104 151 12 104 152 12 105 153 12 106 154 12 106 155 12 107 156 12 108 157 12 108 158 12 109 159 12 110 160 12 110 161 12 111 162 12 112 163 12 112 164 12 113 165 12 114 166 12 114 167 12 115 168 12 116 169 12 116 170 12 117 171 12 118 172 12 118 173 12 119 174 12 120 175 12 120 176 12 121 177 12 122 178 12 122 179 12 123 180 12 124 181 12 124 182 12 125 183 12 126 184 12 126 185 12 127 186 12 128 187 12 128 188 12 129 189 12 130 190 12 130 191 12 131 192 12 132 193 12 132 194 12 133 195 12 134 196 12 134 197 12 135 198 12 136 199 12 136 200 12 137 201 12 138 202 12 138 203 12 139 204 12 140 205 12 140 206 12 141 207 12 142 208 12 142 209 12 143 210 12 144 211 12 144 212 12 145 213 12 146 214 12 146 215 12 147 216 12 148 217 12 148 218 12 149 219 12 150 220 12 150 221 12 151 222 12 152 223 12 152 224 12 153 225 12 154 226 12 154 227 12 155 228 12 156 229 12 156 230 12 157 231 12 158 232 12 158 233 12 159 234 12 160 235 12 160 236 12 161 237 12 162 238 12 162 239 12 163 240 12 164 241 12 164 242 12 165 243 12 166 244 12 166 245 12 167 246 12 168 247 12 168 248 12 169 249 12 170 250 12 170 251 12 171 252 12 172 253 12 172 254 12 173 255 12 174
0 14 4 1 14 5 2 14 6 3 14 6 4 14 7 5 14 8 6 14 8 7 14 9 8 14 10 9 14 10 10 14 11 11 14 12 12 14 12 13 14 13 14 14 14 15 14 14 16 14 15 17 14 16 18 14 16 19 14 17 20 14 18 21 14 18 22 14 19 23 14 20 24 14 20 25 14 21 26 14 22 27 14 22 28 14 23 29 14 24 30 14 24 31 14 25 32 14 26 33 14 26 34 14 27 35 14 28 36 14 28 37 14 29 38 14 30 39 14 30 40 14 31 41 14 32 42 14 32 43 14 33 44 14 34 45 14 34 46 14 35 47 14 36 48 14 36 49 14 37 50 14 38 51 14 38 52 14 39 53 14 40 54 14 40 55 14 41 56 14 42 57 14 42 58 14 43 59 14 44 60 14 44 61 14 45 62 14 46 63 14 46 64 14 47 65 14 48 66 14 48 67 14 49 68 14 50 69 14 50 70 14 51 71 14 52 72 14 52 73 14 53 74 14 54 75 14 54 76 14 55 77 14 56 78 14 56 79 14 57 80 14 58 81 14 58 82 14 59 83 14 60 84 14 60 85 14 61 86 14 62 87 14 62 88 14 63 89 14 64 90 14 64 91 14 65 92 14 66 93 14 66 94 14 67 95 14 68 96 14 68 97 14 69 98 14 70 99 14 70 100 14 71 101 14 72 102 14 72 103 14 73 104 14 74 105 14 74 106 14 75 107 14 76 108 14 76 109 14 77 110 14 78 111 14 78 112 14 79 113 14 80 114 14 80 115 14 81 116 14 82 117 14 82 118 14 83 119 14 84 120 14 84 121 14 85 122 14 86 123 14 86 124 14 87 125 14 88 126 14 88 127 14 89 128 14 90 129 14 90 130 14 91 131 14 92 132 14 92 133 14 93 134 14 94 135 14 94 136 14 95 137 14 96 138 14 96 139 14 97 140 14 98 141 14 98 142 14 99 143 14 100 144 14 100 145 14 101 146 14 102 147 14 102 148 14 103 149 14 104 150 14 104 151 14 105 152 14 106 153 14 106 154 14 107 155 14 108 156 14 108 157 14 109 158 14 110 159 14 110 160 14 111 161 14 112 162 14 112 163 14 113 164 14 114 165 14 114 166 14 115 167 14 116 168 14 116 169 14 117 170 14 118 171 14 118 172 14 119 173 14 120 174 14 120 175 14 121 176 14 122 177 14 122 178 14 123 179 14 124 180 14 124 181 14 125 182 14 126 183 14 126 184 14 127 185 14 128 186 14 128 187 14 129 188 14 130 189 14 130 190 14 131 191 14 132 192 14 132 193 14 133 194 14 134 195 14 134 196 14 135 197 14 136 198 14 136 199 14 137 200 14 138 201 14 138 202 14 139 203 14 140 204 14 140 205 14 141 206 14 142 207 14 142 208 14 143 209 14 144 210 14 144 211 14 145 212 14 146 213 14 146 214 14 147 215 14 148 216 14 148 217 14 149 218 14 150 219 14 150 220 14 151 221 14 152 222 14 152 223 14 153 224 14 154 225 14 154 226 14 155 227 14 156 228 14 156 229 14 157 230 14 158 231 14 158 232 14 159 233 14 160 234 14 160 235 14 161 236 14 162 237 14 162 238 14 163 239 14 164 240 14 164 241 14 165 242 14 166 243 14 166 244 14 167 245 14 168 246 14 168 247 14 169 248 14 170 249 14 170 250 14 171 251 14 172 252 14 172 253 14 173 254 14 174 255 14 174
0 16 5 1 16 6 2 16 6 3 16 7 4 16 8 5 16 8 6 16 9 7 16 10 8 16 10 9 16 11 10 16 12 11 16 12 12 16 13 13 16 14 14 16 14 15 16 15 16 16 16 17 16 16 18 16 17 19 16 18 20 16 18 21 16 19 22 16 20 23 16 20 24 16 21 25 16 22 26 16 22 27 16 23 28 16 24 29 16 24 30 16 25 31 16 26 32 16 26 33 16 27 34 16 28 35 16 28 36 16 29 37 16 30 38 16 30 39 16 31 40 16 32 41 16 32 42 16 33 43 16 34 44 16 34 45 16 35 46 16 36 47 16 36 48 16 37 49 16 38 50 16 38 51 16 39 52 16 40 53 16 40 54 16 41 55 16 42 56 16 42 57 16 43 58 16 44 59 16 44 60 16 45 61 16 46 62 16 46 63 16 47 64 16 48 65 16 48 66 16 49 67 16 50 68 16 50 69 16 51 70 16 52 71 16 52 72 16 53 73 16 54 74 16 54 75 16 55 76 16 56 77 16 56 78 16 57 79 16 58 80 16 58 81 16 59 82 16 60 83 16 60 84 16 61 85 16 62 86 16 62 87 16 63 88 16 64 89 16 64 90 16 65 91 16 66 92 16 66 93 16 67 94 16 68 95 16 68 96 16 69 97 16 70 98 16 70 99 16 71 100 16 72 101 16 72 102 16 73 103 16 74 104 16 74 105 16 75 106 16 76 107 16 76 108 16 77 109 16 78 110 16 78 111 16 79 112 16 80 113 16 80 114 16 81 115 16 82 116 16 82 117 16 83 118 16 84 119 16 84 120 16 85 121 16 86 122 16 86 123 16 87 124 16 88 125 16 88 126 16 89 127 16 90 128 16 90 129 16 91 130 16 92 131 16 92 132 16 93 133 16 94 134 16 94 135 16 95 136 16 96 137 16 96 138 16 97 139 16 98 140 16 98 141 16 99 142 16 100 143 16 100 144 16 101 145 16 102 146 16 102 147 16 103 148 16 104 149 16 104 150 16 105 151 16 106 152 16 106 153 16 107 154 16 108 155 16 108 156 16 109 157 16 110 158 16 110 159 16 111 160 16 112 161 16 112 162 16 113 163 16 114 164 16 114 165 16 115 166 16 116 167 16 116 168 16 117 169 16 118 170 16 118 171 16 119 172 16 120 173 16 120 174 16 121 175 16 122 176 16 122 177 16 123 178 16 124 179 16 124 180 16 125 181 16 126 182 16 126 183 16 127 184 16 128 185 16 128 186 16 129 187 16 130 188 16 130 189 16 131 190 16 132 191 16 132 192 16 133 193 16 134 194 16 134 195 16 135 196 16 136 197 16 136 198 16 137 199 16 138 200 16 138 201 16 139 202 16 140 203 16 140 204 16 141 205 16 142 206 16 142 207 16 143 208 16 144 209 16 144 210 16 145 211 16 146 212 16 146 213 16 147 214 16 148 215 16 148 216 16 149 217 16 150 218 16 150 219 16 151 220 16 152 221 16 152 222 16 153 223 16 154 224 16 154 225 16 155 226 16 156 227 16 156 228 16 157 229 16 158 230 16 158 231 16 159 232 16 160 233 16 160 234 16 161 235 16 162 236 16 162 237 16 163 238 16 164 239 16 164 240 16 165 241 16 166 242 16 166 243 16 167 244 16 168 245 16 168 246 16 169 247 16 170 248 16 170 249 16 171 250 16 172 251 16 172 252 16 173 253 16 174 254 16 174 255 16 175
0 18 6 1 18 6 2 18 7 3 18 8 4 18 8 5 18 9 6 18 10 7 18 10 8 18 11 9 18 12 10 18 12 11 18 13 12 18 14 13 18 14 14 18 15 15 18 16 16 18 16 17 18 17 18 18 18 19 18 18 20 18 19 21 18 20 22 18 20 23 18 21 24 18 22 25 18 22 26 18 23 27 18 24 28 18 24 29 18 25 30 18 26 31 18 26 32 18 27 33 18 28 34 18 28 35 18 29 36 18 30 37 18 30 38 18 31 39 18 32 40 18 32 41 18 33 42 18 34 43 18 34 44 18 35 45 18 36 46 18 36 47 18 37 48 18 38 49 18 38 50 18 39 51 18 40 52 18 40 53 18 41 54 18 42 55 18 42 56 18 43 57 18 44 58 18 44 59 18 45 60 18 46 61 18 46 62 18 47 63 18 48 64 18 48 65 18 49 66 18 50 67 18 50 68 18 51 69 18 52 70 18 52 71 18 53 72 18 54 73 18 54 74 18 55 75 18 56 76 18 56 77 18 57 78 18 58 79 18 58 80 18 59 81 18 60 82 18 60 83 18 61 84 18 62 85 18 62 86 18 63 87 18 64 88 18 64 89 18 65 90 18 66 91 18 66 92 18 67 93 18 68 94 18 68 95 18 69 96 18 70 97 18 70 98 18 71 99 18 72 100 18 72 101 18 73 102 18 74 103 18 74 104 18 75 105 18 76 106 18 76 107 18 77 108 18 78 109 18 78 110 18 79 111 18 80 112 18 80 113 18 81 114 18 82 115 18 82 116 18 83 117 18 84 118 18 84 119 18 85 120 18 86 121 18 86 122 18 87 123 18 88 124 18 88 125 18 89 126 18 90 127 18 90 128 18 91 129 18 92 130 18 92 131 18 93 132 18 94 133 18 94 134 18 95 135 18 96 136 18 96 137 18 97 138 18 98 139 18 98 140 18 99 141 18 100 142 18 100 143 18 101 144 18 102 145 18 102 146 18 103 147 18 104 148 18 104 149 18 105 150 18 106 151 18 106 152 18 107 153 18 108 154 18 108 155 18 109 156 18 110 157 18 110 158 18 111 159 18 112 160 18 112 161 18 113 162 18 114 163 18 114 164 18 115 165 18 116 166 18 116 167 18 117 168 18 118 169 18 118 170 18 119 171 18 120 172 18 120 173 18 121 174 18 122 175 18 122 176 18 123 177 18 124 178 18 124 179 18 125 180 18 126 181 18 126 182 18 127 183 18 128 184 18 128 185 18 129 186 18 130 187 18 130 188 18 131 189 18 132 190 18 132 191 18 133 192 18 134 193 18 134 194 18 135 195 18 136 196 18 136 197 18 137 198 18 138 199 18 138 200 18 139 201 18 140 202 18 140 203 18 141 204 18 142 205 18 142 206 18 143 207 18 144 208 18 144 209 18 145 210 18 146 211 18 146 212 18 147 213 18 148 214 18 148 215 18 149 216 18 150 217 18 150 218 18 151 219 18 152 220 18 152 221 18 153 222 18 154 223 18 154 224 18 155 225 18 156 226 18 156 227 18 157 228 18 158 229 18 158 230 18 159 231 18 160 232 18 160 233 18 161 234 18 162 235 18 162 236 18 163 237 18 164 238 18 164 239 18 165 240 18 166 241 18 166 242 18 167 243 18 168 244 18 168 245 18 169 246 18 170 247 18 170 248 18 171 249 18 172 250 18 172 251 18 173 252 18 174 253 18 174 254 18 175 255 18 176
0 20 6 1 20 7 2 20 8 3 20 8 4 20 9 5 20 10 6 20 10 7 20 11 8 20 12 9 20 12 10 20 13 11 20 14 12 20 14 13 20 15 14 20 16 15 20 16 16 20 17 17 20 18 18 20 18 19 20 19 20 20 20 21 20 20 22 20 21 23 20 22 24 20 22 25 20 23 26 20 24 27 20 24 28 20 25 29 20 26 30 20 26 31 20 27 32 20 28 33 20 28 34 20 29 35 20 30 36 20 30 37 20 31 38 20 32 39 20 32 40 20 33 41 20 34 42 20 34 43 20 35 44 20 36 45 20 36 46 20 37 47 20 38 48 20 38 49 20 39 50 20 40 51 20 40 52 20 41 53 20 42 54 20 42 55 20 43 56 20 44 57 20 44 58 20 45 59 20 46 60 20 46 61 20 47 62 20 48 63 20 48 64 20 49 65 20 50 66 20 50 67 20 51 68 20 52 69 20 52 70 20 53 71 20 54 72 20 54 73 20 55 74 20 56 75 20 56 76 20 57 77 20 58 78 20 58 79 20 59 80 20 60 81 20 60 82 20 61 83 20 62 84 20 62 85 20 63 86 20 64 87 20 64 88 20 65 89 20 66 90 20 66 91 20 67 92 20 68 93 20 68 94 20 69 95 20 70 96 20 70 97 20 71 98 20 72 99 20 72 100 20 73 101 20 74 102 20 74 103 20 75 104 20 76 105 20 76 106 20 77 107 20 78 108 20 78 109 20 79 110 20 80 111 20 80 112 20 81 113 20 82 114 20 82 115 20 83 116 20 84 117 20 84 118 20 85 119 20 86 120 20 86 121 20 87 122 20 88 123 20 88 124 20 89 125 20 90 126 20 90 127 20 91 128 20 92 129 20 92 130 20 93 131 20 94 132 20 94 133 20 95 134 20 96 135 20 96 136 20 97 137 20 98 138 20 98 139 20 99 140 20 100 141 20 100 142 20 101 143 20 102 144 20 102 145 20 103 146 20 104 147 20 104 148 20 105 149 20 106 150 20 106 151 20 107 152 20 108 153 20 108 154 20 109 155 20 110 156 20 110 157 20 111 158 20 112 159 20 112 160 20 113 161 20 114 162 20 114 163 20 115 164 20 116 165 20 116 166 20 117 167 20 118 168 20 118 169 20 119 170 20 120 171 20 120 172 20 121 173 20 122 174 20 122 175 20 123 176 20 124 177 20 124 178 20 125 179 20 126 180 20 126 181 20 127 182 20 128 183 20 128 184 20 129 185 20 130 186 20 130 187 20 131 188 20 132 189 20 132 190 20 133 191 20 134 192 20 134 193 20 135 194 20 136 195 20 136 196 20 137 197 20 138 198 20 138 199 20 139 200 20 140 201 20 140 202 20 141 203 20 142 204 20 142 205 20 143 206 20 144 207 20 144 208 20 145 209 20 146 210 20 146 211 20 147 212 20 148 213 20 148 214 20 149 215 20 150 216 20 150 217 20 151 218 20 152 219 20 152 220 20 153 221 20 154 222 20 154 223 20 155 224 20 156 225 20 156 226 20 157 227 20 158 228 20 158 229 20 159 230 20 160 231 20 160 232 20 161 233 20 162 234 20 162 235 20 163 236 20 164 237 20 164 238 20 165 239 20 166 240 20 166 241 20 167 242 20 168 243 20 168 244 20 169 245 20 170 246 20 170 247 20 171 248 20 172 249 20 172 250 20 173 251 20 174 252 20 174 253 20 175 254 20 176 255 20 176
0 22 7 1 22 8 2 22 8 3 22 9 4 22 10 5 22 10 6 22 11 7 22 12 8 22 12 9 22 13 10 22 14 11 22 14 12 22 15 13 22 16 14 22 16 15 22 17 16 22 18 17 22 18 18 22 19 19 22 20 20 22 20 21 22 21 22 22 22 23 22 22 24 22 23 25 22 24 26 22 24 27 22 25 28 22 26 29 22 26 30 22 27 31 22 28 32 22 28 33 22 29 34 22 30 35 22 30 36 22 31 37 22 32 38 22 32 39 22 33 40 22 34 41 22 34 42 22 35 43 22 36 44 22 36 45 22 37 46 22 38 47 22 38 48 22 39 49 22 40 50 22 40 51 22 41 52 22 42 53 22 42 54 22 43 55 22 44 56 22 44 57 22 45 58 22 46 59 22 46 60 22 47 61 22 48 62 22 48 63 22 49 64 22 50 65 22 50 66 22 51 67 22 52 68 22 52 69 22 53 70 22 54 71 22 54 72 22 55 73 22 56 74 22 56 75 22 57 76 22 58 77 22 58 78 22 59 79 22 60 80 22 60 81 22 61 82 22 62 83 22 62 84 22 63 85 22 64 86 22 64 87 22 65 88 22 66 89 22 66 90 22 67 91 22 68 92 22 68 93 22 69 94 22 70 95 22 70 96 22 71 97 22 72 98 22 72 99 22 73 100 22 74 101 22 74 102 22 75 103 22 76 104 22 76 105 22 77 106 22 78 107 22 78 108 22 79 109 22 80 110 22 80 111 22 81 112 22 82 113 22 82 114 22 83 115 22 84 116 22 84 117 22 85 118 22 86 119 22 86 120 22 87 121 22 88 122 22 88 123 22 89 124 22 90 125 22 90 126 22 91 127 22 92 128 22 92 129 22 93 130 22 94 131 22 94 132 22 95 133 22 96 134 22 96 135 22 97 136 22 98 137 22 98 138 22 99 139 22 100 140 22 100 141 22 101 142 22 102 143 22 102 144 22 103 145 22 104 146 22 104 147 22 105 148 22 106 149 22 106 150 22 107 151 22 108 152 22 108 153 22 109 154 22 110 155 22 110 156 22 111 157 22 112 158 22 112 159 22 113 160 22 114 161 22 114 162 22 115 163 22 116 164 22 116 165 22 117 166 22 118 167 22 118 168 22 119 169 22 120 170 22 120 171 22 121 172 22 122 173 22 122 174 22 123 175 22 124 176 22 124 177 22 125 178 22 126 179 22 126 180 22 127 181 22 128 182 22 128 183 22 129 184 22 130 185 22 130 186 22 131 187 22 132 188 22 132 189 22 133 190 22 134 191 22 134 192 22 135 193 22 136 194 22 136 195 22 137 196 22 138 197 22 138 198 22 139 199 22 140 200 22 140 201 22 141 202 22 142 203 22 142 204 22 143 205 22 144 206 22 144 207 22 145 208 22 146 209 22 146 210 22 147 211 22 148 212 22 148 213 22 149 214 22 150 215 22 150 216 22 151 217 22 152 218 22 152 219 22 153 220 22 154 221 22 154 222 22 155 223 22 156 224 22 156 225 22 157 226 22 158 227 22 158 228 22 159 229 22 160 230 22 160 231 22 161 232 22 162 233 22 162 234 22 163 235 22 164 236 22 164 237 22 165 238 22 166 239 22 166 240 22 167 241 22 168 242 22 168 243 22 169 244 22 170 245 22 170 246 22 171 247 22 172 248 22 172 249 22 173 250 22 174 251 22 174 252 22 175 253 22 176 254 22 176 255 22 177
0 24 8 1 24 8 2 24 9 3 24 10 4 24 10 5 24 11 6 24 12 7 24 12 8 24 13 9 24 14 10 24 14 11 24 15 12 24 16 13 24 16 14 24 17 15 24 18 16 24 18 17 24 19 18 24 20 19 24 20 20 24 21 21 24 22 22 24 22 23 24 23 24 24 24 25 24 24 26 24 25 27 24 26 28 24 26 29 24 27 30 24 28 31 24 28 32 24 29 33 24 30 34 24 30 35 24 31 36 24 32 37 24 32 38 24 33 39 24 34 40 24 34 41 24 35 42 24 36 43 24 36 44 24 37 45 24 38 46 24 38 47 24 39 48 24 40 49 24 40 50 24 41 51 24 42 52 24 42 53 24 43 54 24 44 55 24 44 56 24 45 57 24 46 58 24 46 59 24 47 60 24 48 61 24 48 62 24 49 63 24 50 64 24 50 65 24 51 66 24 52 67 24 52 68 24 53 69 24 54 70 24 54 71 24 55 72 24 56 73 24 56 74 24 57 75 24 58 76 24 58 77 24 59 78 24 60 79 24 60 80 24 61 81 24 62 82 24 62 83 24 63 84 24 64 85 24 64 86 24 65 87 24 66 88 24 66 89 24 67 90 24 68 91 24 68 92 24 69 93 24 70 94 24 70 95 24 71 96 24 72 97 24 72 98 24 73 99 24 74 100 24 74 101 24 75 102 24 76 103 24 76 104 24 77 105 24 78 106 24 78 107 24 79 108 24 80 109 24 80 110 24 81 111 24 82 112 24 82 113 24 83 114 24 84 115 24 84 116 24 85 117 24 86 118 24 86 119 24 87 120 24 88 121 24 88 122 24 89 123 24 90 124 24 90 125 24 91 126 24 92 127 24 92 128 24 93 129 24 94 130 24 94 131 24 95 132 24 96 133 24 96 134 24 97 135 24 98 136 24 98 137 24 99 138 24 100 139 24 100 140 24 101 141 24 102 142 24 102 143 24 103 144 24 104 145 24 104 146 24 105 147 24 106 148 24 106 149 24 107 150 24 108 151 24 108 152 24 109 153 24 110 154 24 110 155 24 111 156 24 112 157 24 112 158 24 113 159 24 114 160 24 114 161 24 115 162 24 116 163 24 116 164 24 117 165 24 118 166 24 118 167 24 119 168 24 120 169 24 120 170 24 121 171 24 122 172 24 122 173 24 123 174 24 124 175 24 124 176 24 125 177 24 126 178 24 126 179 24 127 180 24 128 181 24 128 182 24 129 183 24 130 184 24 130 185 24 131 186 24 132 187 24 132 188 24 133 189 24 134 190 24 134 191 24 135 192 24 136 193 24 136 194 24 137 195 24 138 196 24 138 197 24 139 198 24 140 199 24 140 200 24 141 201 24 142 202 24 142 203 24 143 204 24 144 205 24 144 206 24 145 207 24 146 208 24 146 209 24 147 210 24 148 211 24 148 212 24 149 213 24 150 214 24 150 215 24 151 216 24 152 217 24 152 218 24 153 219 24 154 220 24 154 221 24 155 222 24 156 223 24 156 224 24 157 225 24 158 226 24 158 227 24 159 228 24 160 229 24 160 230 24 161 231 24 162 232 24 162 233 24 163 234 24 164 235 24 164 236 24 165 237 24 166 238 24 166 239 24 167 240 24 168 241 24 168 242 24 169 243 24 170 244 24 170 245 24 171 246 24 172 247 24 172 248 24 173 249 24 174 250 24 174 251 24 175 252 24 176 253 24 176 254 24 177 255 24 178
0 26 8 1 26 9 2 26 10 3 26 10 4 26 11 5 26 12 6 26 12 7 26 13 8 26 14 9 26 14 10 26 15 11 26 16 12 26 16 13 26 17 14 26 18 15 26 18 16 26 19 17 26 20 18 26 20 19 26 21 20 26 22 21 26 22 22 26 23 23 26 24 24 26 24 25 26 25 26 26 26 27 26 26 28 26 27 29 26 28 30 26 28 31 26 29 32 26 30 33 26 30 34 26 31 35 26 32 36 26 32 37 26 33 38 26 34 39 26 34 40 26 35 41 26 36 42 26 36 43 26 37 44 26 38 45 26 38 46 26 39 47 26 40 48 26 40 49 26 41 50 26 42 51 26 42 52 26 43 53 26 44 54 26 44 55 26 45 56 26 46 57 26 46 58 26 47 59 26 48 60 26 48 61 26 49 62 26 50 63 26 50 64 26 51 65 26 52 66 26 52 67 26 53 68 26 54 69 26 54 70 26 55 71 26 56 72 26 56 73 26 57 74 26 58 75 26 58 76 26 59 77 26 60 78 26 60 79 26 61 80 26 62 81 26 62 82 26 63 83 26 64 84 26 64 85 26 65 86 26 66 87 26 66 88 26 67 89 26 68 90 26 68 91 26 69 92 26 70 93 26 70 94 26 71 95 26 72 96 26 72 97 26 73 98 26 74 99 26 74 100 26 75 101 26 76 102 26 76 103 26 77 104 26 78 105 26 78 106 26 79 107 26 80 108 26 80 109 26 81 110 26 82 111 26 82 112 26 83 113 26 84 114 26 84 115 26 85 116 26 86 117 26 86 118 26 87 119 26 88 120 26 88 121 26 89 122 26 90 123 26 90 124 26 91 125 26 92 126 26 92 127 26 93 128 26 94 129 26 94 130 26 95 131 26 96 132 26 96 133 26 97 134 26 98 135 26 98 136 26 99 137 26 100 138 26 100 139 26 101 140 26 102 141 26 102 142 26 103 143 26 104 144 26 104 145 26 105 146 26 106 147 26 106 148 26 107 149 26 108 150 26 108 151 26 109 152 26 110 153 26 110 154 26 111 155 26 112 156 26 112 157 26 113 158 26 114 159 26 114 160 26 115 161 26 116 162 26 116 163 26 117 164 26 118 165 26 118 166 26 119 167 26 120 168 26 120 169 26 121 170 26 122 171 26 122 172 26 123 173 26 124 174 26 124 175 26 125 176 26 126 177 26 126 178 26 127 179 26 128 180 26 128 181 26 129 182 26 130 183 26 130 184 26 131 185 26 132 186 26 132 187 26 133 188 26 134 189 26 134 190 26 135 191 26 136 192 26 136 193 26 137 194 26 138 195 26 138 196 26 139 197 26 140 198 26 140 199 26 141 200 26 142 201 26 142 202 26 143 203 26 144 204 26 144 205 26 145 206 26 146 207 26 146 208 26 147 209 26 148 210 26 148 211 26 149 212 26 150 213 26 150 214 26 151 215 26 152 216 26 152 217 26 153 218 26 154 219 26 154 220 26 155 221 26 156 222 26 156 223 26 157 224 26 158 225 26 158 226 26 159 227 26 160 228 26 160 229 26 161 230 26 162 231 26 162 232 26 163 233 26 164 234 26 164 235 26 165 236 26 166 237 26 166 238 26 167 239 26 168 240 26 168 241 26 169 242 26 170 243 26 170 244 26 171 245 26 172 246 26 172 247 26 173 248 26 174 249 26 174 250 26 175 251 26 176 252 26 176 253 26 177 254 26 178 255 26 178
0 28 9 1 28 10 2 28 10 3 28 11 4 28 12 5 28 12 6 28 13 7 28 14 8 28 14 9 28 15 10 28 16 11 28 16 12 28 17 13 28 18 14 28 18 15 28 19 16 28 20 17 28 20 18 28 21 19 28 22 20 28 22 21 28 23 22 28 24 23 28 24 24 28 25 25 28 26 26 28 26 27 28 27 28 28 28 29 28 28 30 28 29 31 28 30 32 28 30 33 28 31 34 28 32 35 28 32 36 28 33 37 28 34 38 28 34 39 28 35 40 28 36 41 28 36 42 28 37 43 28 38 44 28 38 45 28 39 46 28 40 47 28 40 48 28 41 49 28 42 50 28 42 51 28 43 52 28 44 53 28 44 54 28 45 55 28 46 56 28 46 57 28 47 58 28 48 59 28 48 60 28 49 61 28 50 62 28 50 63 28 51 64 28 52 65 28 52 66 28 53 67 28 54 68 28 54 69 28 55 70 28 56 71 28 56 72 28 57 73 28 58 74 28 58 75 28 59 76 28 60 77 28 60 78 28 61 79 28 62 80 28 62 81 28 63 82 28 64 83 28 64 84 28 65 85 28 66 86 28 66 87 28 67 88 28 68 89 28 68 90 28 69 91 28 70 92 28 70 93 28 71 94 28 72 95 28 72 96 28 73 97 28 74 98 28 74 99 28 75 100 28 76 101 28 76 102 28 77 103 28 78 104 28 78 105 28 79 106 28 80 107 28 80 108 28 81 109 28 82 110 28 82 111 28 83 112 28 84 113 28 84 114 28 85 115 28 86 116 28 86 117 28 87 118 28 88 119 28 88 120 28 89 121 28 90 122 28 90 123 28 91 124 28 92 125 28 92 126 28 93 127 28 94 128 28 94 129 28 95 130 28 96 131 28 96 132 28 97 133 28 98 134 28 98 135 28 99 136 28 100 137 28 100 138 28 101 139 28 102 140 28 102 141 28 103 142 28 104 143 28 104 144 28 105 145 28 106 146 28 106 147 28 107 148 28 108 149 28 108 150 28 109 151 28 110 152 28 110 153 28 111 154 28 112 155 28 112 156 28 113 157 28 114 158 28 114 159 28 115 160 28 116 161 28 116 162 28 117 163 28 118 164 28 118 165 28 119 166 28 120 167 28 120 168 28 121 169 28 122 170 28 122 171 28 123 172 28 124 173 28 124 174 28 125 175 28 126 176 28 126 177 28 127 178 28 128 179 28 128 180 28 129 181 28 130 182 28 130 183 28 131 184 28 132 185 28 132 186 28 133 187 28 134 188 28 134 189 28 135 190 28 136 191 28 136 192 28 137 193 28 138 194 28 138 195 28 139 196 28 140 197 28 140 198 28 141 199 28 142 200 28 142 201 28 143 202 28 144 203 28 144 204 28 145 205 28 146 206 28 146 207 28 147 208 28 148 209 28 148 210 28 149 211 28 150 212 28 150 213 28 151 214 28 152 215 28 152 216 28 153 217 28 154 218 28 154 219 28 155 220 28 156 221 28 156 222 28 157 223 28 158 224 28 158 225 28 159 226 28 160 227 28 160 228 28 161 229 28 162 230 28 162 231 28 163 232 28 164 233 28 164 234 28 165 235 28 166 236 28 166 237 28 167 238 28 168 239 28 168 240 28 169 241 28 170 242 28 170 243 28 171 244 28 172 245 28 172 246 28 173 247 28 174 248 28 174 249 28 175 250 28 176 251 28 176 252 28 177 253 28 178 254 28 178 255 28 179
0 30 10 1 30 10 2 30 11 3 30 12 4 30 12 5 30 13 6 30 14 7 30 14 8 30 15 9 30 16 10 30 16 11 30 17 12 30 18 13 30 18 14 30 19 15 30 20 16 30 20 17 30 21 18 30 22 19 30 22 20 30 23 21 30 24 22 30 24 23 30 25 24 30 26 25 30 26 26 30 27 27 30 28 28 30 28 29 30 29 30 30 30 31 30 30 32 30 31 33 30 32 34 30 32 35 30 33 36 30 34 37 30 34 38 30 35 39 30 36 40 30 36 41 30 37 42 30 38 43 30 38 44 30 39 45 30 40 46 30 40 47 30 41 48 30 42 49 30 42 50 30 43 51 30 44 52 30 44 53 30 45 54 30 46 55 30 46 56 30 47 57 30 48 58 30 48 59 30 49 60 30 50 61 30 50 62 30 51 63 30 52 64 30 52 65 30 53 66 30 54 67 30 54 68 30 55 69 30 56 70 30 56 71 30 57 72 30 58 73 30 58 74 30 59 75 30 60 76 30 60 77 30 61 78 30 62 79 30 62 80 30 63 81 30 64 82 30 64 83 30 65 84 30 66 85 30 66 86 30 67 87 30 68 88 30 68 89 30 69 90 30 70 91 30 70 92 30 71 93 30 72 94 30 72 95 30 73 96 30 74 97 30 74 98 30 75 99 30 76 100 30 76 101 30 77 102 30 78 103 30 78 104 30 79 105 30 80 106 30 80 107 30 81 108 30 82 109 30 82 110 30 83 111 30 84 112 30 84 113 30 85 114 30 86 115 30 86 116 30 87 117 30 88 118 30 88 119 30 89 120 30 90 121 30 90 122 30 91 123 30 92 124 30 92 125 30 93 126 30 94 127 30 94 128 30 95 129 30 96 130 30 96 131 30 97 132 30 98 133 30 98 134 30 99 135 30 100 136 30 100 137 30 101 138 30 102 139 30 102 140 30 103 141 30 104 142 30 104 143 30 105 144 30 106 145 30 106 146 30 107 147 30 108 148 30 108 149 30 109 150 30 110 151 30 110 152 30 111 153 30 112 154 30 112 155 30 113 156 30 114 157 30 114 158 30 115 159 30 116 160 30 116 161 30 117 162 30 118 163 30 118 164 30 119 165 30 120 166 30 120 167 30 121 168 30 122 169 30 122 170 30 123 171 30 124 172 30 124 173 30 125 174 30 126 175 30 126 176 30 127 177 30 128 178 30 128 179 30 129 180 30 130 181 30 130 182 30 131 183 30 132 184 30 132 185 30 133 186 30 134 187 30 134 188 30 135 189 30 136 190 30 136 191 30 137 192 30 138 193 30 138 194 30 139 195 30 140 196 30 140 197 30 141 198 30 142 199 30 142 200 30 143 201 30 144 202 30 144 203 30 145 204 30 146 205 30 146 206 30 147 207 30 148 208 30 148 209 30 149 210 30 150 211 30 150 212 30 151 213 30 152 214 30 152 215 30 153 216 30 154 217 30 154 218 30 155 219 30 156 220 30 156 221 30 157 222 30 158 223 30 158 224 30 159 225 30 160 226 30 160 227 30 161 228 30 162 229 30 162 230 30 163 231 30 164 232 30 164 233 30 165 234 30 166 235 30 166 236 30 167 237 30 168 238 30 168 239 30 169 240 30 170 241 30 170 242 30 171 243 30 172 244 30 172 245 30 173 246 30 174 247 30 174 248 30 175 249 30 176 250 30 176 251 30 177 252 30 178 253 30 178 254 30 179 255 30 180
0 32 10 1 32 11 2 32 12 3 32 12 4 32 13 5 32 14 6 32 14 7 32 15 8 32 16 9 32 16 10 32 17 11 32 18 12 32 18 13 32 19 14 32 20 15 32 20 16 32 21 17 32 22 18 32 22 19 32 23 20 32 24 21 32 24 22 32 25 23 32 26 24 32 26 25 32 27 26 32 28 27 32 28 28 32 29 29 32 30 30 32 30 31 32 31 32 32 32 33 32 32 34 32 33 35 32 34 36 32 34 37 32 35 38 32 36 39 32 36 40 32 37 41 32 38 42 32 38 43 32 39 44 32 40 45 32 40 46 32 41 47 32 42 48 32 42 49 32 43 50 32 44 51 32 44 52 32 45 53 32 46 54 32 46 55 32 47 56 32 48 57 32 48 58 32 49 59 32 50 60 32 50 61 32 51 62 32 52 63 32 52 64 32 53 65 32 54 66 32 54 67 32 55 68 32 56 69 32 56 70 32 57 71 32 58 72 32 58 73 32 59 74 32 60 75 32 60 76 32 61 77 32 62 78 32 62 79 32 63 80 32 64 81 32 64 82 32 65 83 32 66 84 32 66 85 32 67 86 32 68 87 32 68 88 32 69 89 32 70 90 32 70 91 32 71 92 32 72 93 32 72 94 32 73 95 32 74 96 32 74 97 32 75 98 32 76 99 32 76 100 32 77 101 32 78 102 32 78 103 32 79 104 32 80 105 32 80 106 32 81 107 32 82 108 32 82 109 32 83 110 32 84 111 32 84 112 32 85 113 32 86 114 32 86 115 32 87 116 32 88 117 32 88 118 32 89 119 32 90 120 32 90 121 32 91 122 32 92 123 32 92 124 32 93 125 32 94 126 32 94 127 32 95 128 32 96 129 32 96 130 32 97 131 32 98 132 32 98 133 32 99 134 32 100 135 32 100 136 32 101 137 32 102 138 32 102 139 32 103 140 32 104 141 32 104 142 32 105 143 32 106 144 32 106 145 32 107 146 32 108 147 32 108 148 32 109 149 32 110 150 32 110 151 32 111 152 32 112 153 32 112 154 32 113 155 32 114 156 32 114 157 32 115 158 32 116 159 32 116 160 32 117 161 32 118 162 32 118 163 32 119 164 32 120 165 32 120 166 32 121 167 32 122 168 32 122 169 32 123 170 32 124 171 32 124 172 32 125 173 32 126 174 32 126 175 32 127 176 32 128 177 32 128 178 32 129 179 32 130 180 32 130 181 32 131 182 32 132 183 32 132 184 32 133 185 32 134 186 32 134 187 32 135 188 32 136 189 32 136 190 32 137 191 32 138 192 32 138 193 32 139 194 32 140 195 32 140 196 32 141 197 32 142 198 32 142 199 32 143 200 32 144 201 32 144 202 32 145 203 32 146 204 32 146 205 32 147 206 32 148 207 32 148 208 32 149 209 32 150 210 32 150 211 32 151 212 32 152 213 32 152 214 32 153 215 32 154 216 32 154 217 32 155 218 32 156 219 32 156 220 32 157 221 32 158 222 32 158 223 32 159 224 32 160 225 32 160 226 32 161 227 32 162 228 32 162 229 32 163 230 32 164 231 32 164 232 32 165 233 32 166 234 32 166 235 32 167 236 32 168 237 32 168 238 32 169 239 32 170 240 32 170 241 32 171 242 32 172 243 32 172 244 32 173 245 32 174 246 32 174 247 32 175 248 32 176 249 32 176 250 32 177 251 32 178 252 32 178 253 32 179 254 32 180 255 32 180
0 34 11 1 34 12 2 34 12 3 34 13 4 34 14 5 34 14 6 34 15 7 34 16 8 34 16 9 34 17 10 34 18 11 34 18 12 34 19 13 34 20 14 34 20 15 34 21 16 34 22 17 34 22 18 34 23 19 34 24 20 34 24 21 34 25 22 34 26 23 34 26 24 34 27 25 34 28 26 34 28 27 34 29 28 34 30 29 34 30 30 34 31 31 34 32 32 34 32 33 34 33 34 34 34 35 34 34 36 34 35 37 34 36 38 34 36 39 34 37 40 34 38 41 34 38 42 34 39 43 34 40 44 34 40 45 34 41 46 34 42 47 34 42 48 34 43 49 34 44 50 34 44 51 34 45 52 34 46 53 34 46 54 34 47 55 34 48 56 34 48 57 34 49 58 34 50 59 34 50 60 34 51 61 34 52 62 34 52 63 34 53 64 34 54 65 34 54 66 34 55 67 34 56 68 34 56 69 34 57 70 34 58 71 34 58 72 34 59 73 34 60 74 34 60 75 34 61 76 34 62 77 34 62 78 34 63 79 34 64 80 34 64 81 34 65 82 34 66 83 34 66 84 34 67 85 34 68 86 34 68 87 34 69 88 34 70 89 34 70 90 34 71 91 34 72 92 34 72 93 34 73 94 34 74 95 34 74 96 34 75 97 34 76 98 34 76 99 34 77 100 34 78 101 34 78 102 34 79 103 34 80 104 34 80 105 34 81 106 34 82 107 34 82 108 34 83 109 34 84 110 34 84 111 34 85 112 34 86 113 34 86 114 34 87 115 34 88 116 34 88 117 34 89 118 34 90 119 34 90 120 34 91 121 34 92 122 34 92 123 34 93 124 34 94 125 34 94 126 34 95 127 34 96 128 34 96 129 34 97 130 34 98 131 34 98 132 34 99 133 34 100 134 34 100 135 34 101 136 34 102 137 34 102 138 34 103 139 34 104 140 34 104 141 34 105 142 34 106 143 34 106 144 34 107 145 34 108 146 34 108 147 34 109 148 34 110 149 34 110 150 34 111 151 34 112 152 34 112 153 34 113 154 34 114 155 34 114 156 34 115 157 34 116 158 34 116 159 34 117 160 34 118 161 34 118 162 34 119 163 34 120 164 34 120 165 34 121 166 34 122 167 34 122 168 34 123 169 34 124 170 34 124 171 34 125 172 34 126 173 34 126 174 34 127 175 34 128 176 34 128 177 34 129 178 34 130 179 34 130 180 34 131 181 34 132 182 34 132 183 34 133 184 34 134 185 34 134 186 34 135 187 34 136 188 34 136 189 34 137 190 34 138 191 34 138 192 34 139 193 34 140 194 34 140 195 34 141 196 34 142 197 34 142 198 34 143 199 34 144 200 34 144 201 34 145 202 34 146 203 34 146 204 34 147 205 34 148 206 34 148 207 34 149 208 34 150 209 34 150 210 34 151 211 34 152 212 34 152 213 34 153 214 34 154 215 34 154 216 34 155 217 34 156 218 34 156 219 34 157 220 34 158 221 34 158 222 34 159 223 34 160 224 34 160 225 34 161 226 34 162 227 34 162 228 34 163 229 34 164 230 34 164 231 34 165 232 34 166 233 34 166 234 34 167 235 34 168 236 34 168 237 34 169 238 34 170 239 34 170 240 34 171 241 34 172 242 34 172 243 34 173 244 34 174 245 34 174 246 34 175 247 34 176 248 34 176 249 34 177 250 34 178 251 34 178 252 34 179 253 34 180 254 34 180 255 34 181
0 36 12 1 36 12 2 36 13 3 36 14 4 36 14 5 36 15 6 36 16 7 36 16 8 36 17 9 36 18 10 36 18 11 36 19 12 36 20 13 36 20 14 36 21 15 36 22 16 36 22 17 36 23 18 36 24 19 36 24 20 36 25 21 36 26 22 36 26 23 36 27 24 36 28 25 36 28 26 36 29 27 36 30 28 36 30 29 36 31 30 36 32 31 36 32 32 36 33 33 36 34 34 36 34 35 36 35 36 36 36 37 36 36 38 36 37 39 36 38 40 36 38 41 36 39 42 36 40 43 36 40 44 36 41 45 36 42 46 36 42 47 36 43 48 36 44 49 36 44 50 36 45 51 36 46 52 36 46 53 36 47 54 36 48 55 36 48 56 36 49 57 36 50 58 36 50 59 36 51 60 36 52 61 36 52 62 36 53 63 36 54 64 36 54 65 36 55 66 36 56 67 36 56 68 36 57 69 36 58 70 36 58 71 36 59 72 36 60 73 36 60 74 36 61 75 36 62 76 36 62 77 36 63 78 36 64 79 36 64 80 36 65 81 36 66 82 36 66 83 36 67 84 36 68 85 36 68 86 36 69 87 36 70 88 36 70 89 36 71 90 36 72 91 36 72 92 36 73 93 36 74 94 36 74 95 36 75 96 36 76 97 36 76 98 36 77 99 36 78 100 36 78 101 36 79 102 36 80 103 36 80 104 36 81 105 36 82 106 36 82 107 36 83 108 36 84 109 36 84 110 36 85 111 36 86 112 36 86 113 36 87 114 36 88 115 36 88 116 36 89 117 36 90 118 36 90 119 36 91 120 36 92 121 36 92 122 36 93 123 36 94 124 36 94 125 36 95 126 36 96 127 36 96 128 36 97 129 36 98 130 36 98 131 36 99 132 36 100 133 36 100 134 36 101 135 36 102 136 36 102 137 36 103 138 36 104 139 36 104 140 36 105 141 36 106 142 36 106 143 36 107 144 36 108 145 36 108 146 36 109 147 36 110 148 36 110 149 36 111 150 36 112 151 36 112 152 36 113 153 36 114 154 36 114 155 36 115 156 36 116 157 36 116 158 36 117 159 36 118 160 36 118 161 36 119 162 36 120 163 36 120 164 36 121 165 36 122 166 36 122 167 36 123 168 36 124 169 36 124 170 36 125 171 36 126 172 36 126 173 36 127 174 36 128 175 36 128 176 36 129 177 36 130 178 36 130 179 36 131 180 36 132 181 36 132 182 36 133 183 36 134 184 36 134 185 36 135 186 36 136 187 36 136 188 36 137 189 36 138 190 36 138 191 36 139 192 36 140 193 36 140 194 36 141 195 36 142 196 36 142 197 36 143 198 36 144 199 36 144 200 36 145 201 36 146 202 36 146 203 36 147 204 36 148 205 36 148 206 36 149 207 36 150 208 36 150 209 36 151 210 36 152 211 36 152 212 36 153 213 36 154 214 36 154 215 36 155 216 36 156 217 36 156 218 36 157 219 36 158 220 36 158 221 36 159 222 36 160 223 36 160 224 36 161 225 36 162 226 36 162 227 36 163 228 36 164 229 36 164 230 36 165 231 36 166 232 36 166 233 36 167 234 36 168 235 36 168 236 36 169 237 36 170 238 36 170 239 36 171 240 36 172 241 36 172 242 36 173 243 36 174 244 36 174 245 36 175 246 36 176 247 36 176 248 36 177 249 36 178 250 36 178 251 36 179 252 36 180 253 36 180 254 36 181 255 36 182
0 38 12 1 38 13 2 38 14 3 38 14 4 38 15 5 38 16 6 38 16 7 38 17 8 38 18 9 38 18 10 38 19 11 38 20 12 38 20 13 38 21 14 38 22 15 38 22 16 38 23 17 38 24 18 38 24 19 38 25 20 38 26 21 38 26 22 38 27 23 38 28 24 38 28 25 38 29 26 38 30 27 38 30 28 38 31 29 38 32 30 38 32 31 38 33 32 38 34 33 38 34 34 38 35 35 38 36 36 38 36 37 38 37 38 38 38 39 38 38 40 38 39 41 38 40 42 38 40 43 38 41 44 38 42 45 38 42 46 38 43 47 38 44 48 38 44 49 38 45 50 38 46 51 38 46 52 38 47 53 38 48 54 38 48 55 38 49 56 38 50 57 38 50 58 38 51 59 38 52 60 38 52 61 38 53 62 38 54 63 38 54 64 38 55 65 38 56 66 38 56 67 38 57 68 38 58 69 38 58 70 38 59 71 38 60 72 38 60 73 38 61 74 38 62 75 38 62 76 38 63 77 38 64 78 38 64 79 38 65 80 38 66 81 38 66 82 38 67 83 38 68 84 38 68 85 38 69 86 38 70 87 38 70 88 38 71 89 38 72 90 38 72 91 38 73 92 38 74 93 38 74 94 38 75 95 38 76 96 38 76 97 38 77 98 38 78 99 38 78 100 38 79 101 38 80 102 38 80 103 38 81 104 38 82 105 38 82 106 38 83 107 38 84 108 38 84 109 38 85 110 38 86 111 38 86 112 38 87 113 38 88 114 38 88 115 38 89 116 38 90 117 38 90 118 38 91 119 38 92 120 38 92 121 38 93 122 38 94 123 38 94 124 38 95 125 38 96 126 38 96 127 38 97 128 38 98 129 38 98 130 38 99 131 38 100 132 38 100 133 38 101 134 38 102 135 38 102 136 38 103 137 38 104 138 38 104 139 38 105 140 38 106 141 38 106 142 38 107 143 38 108 144 38 108 145 38 109 146 38 110 147 38 110 148 38 111 149 38 112 150 38 112 151 38 113 152 38 114 153 38 114 154 38 115 155 38 116 156 38 116 157 38 117 158 38 118 159 38 118 160 38 119 161 38 120 162 38 120 163 38 121 164 38 122 165 38 122 166 38 123 167 38 124 168 38 124 169 38 125 170 38 126 171 38 126 172 38 127 173 38 128 174 38 128 175 38 129 176 38 130 177 38 130 178 38 131 179 38 132 180 38 132 181 38 133 182 38 134 183 38 134 184 38 135 185 38 136 186 38 136 187 38 137 188 38 138 189 38 138 190 38 139 191 38 140 192 38 140 193 38 141 194 38 142 195 38 142 196 38 143 197 38 144 198 38 144 199 38 145 200 38 146 201 38 146 202 38 147 203 38 148 204 38 148 205 38 149 206 38 150 207 38 150 208 38 151 209 38 152 210 38 152 211 38 153 212 38 154 213 38 154 214 38 155 215 38 156 216 38 156 217 38 157 218 38 158 219 38 158 220 38 159 221 38 160 222 38 160 223 38 161 224 38 162 225 38 162 226 38 163 227 38 164 228 38 164 229 38 165 230 38 166 231 38 166 232 38 167 233 38 168 234 38 168 235 38 169 236 38 170 237 38 170 238 38 171 239 38 172 240 38 172 241 38 173 242 38 174 243 38 174 244 38 175 245 38 176 246 38 176 247 38 177 248 38 178 249 38 178 250 38 179 251 38 180 252 38 180 253 38 181 254 38 182 255 38 182
0 40 13 1 40 14 2 40 14 3 40 15 4 40 16 5 40 16 6 40 17 7 40 18 8 40 18 9 40 19 10 40 20 11 40 20 12 40 21 13 40 22 14 40 22 15 40 23 16 40 24 17 40 24 18 40 25 19 40 26 20 40 26 21 40 27 22 40 28 23 40 28 24 40 29 25 40 30 26 40 30 27 40 31 28 40 32 29 40 32 30 40 33 31 40 34 32 40 34 33 40 35 34 40 36 35 40 36 36 40 37 37 40 38 38 40 38 39 40 39 40 40 40 41 40 40 42 40 41 43 40 42 44 40 42 45 40 43 46 40 44 47 40 44 48 40 45 49 40 46 50 40 46 51 40 47 52 40 48 53 40 48 54 40 49 55 40 50 56 40 50 57 40 51 58 40 52 59 40 52 60 40 53 61 40 54 62 40 54 63 40 55 64 40 56 65 40 56 66 40 57 67 40 58 68 40 58 69 40 59 70 40 60 71 40 60 72 40 61 73 40 62 74 40 62 75 40 63 76 40 64 77 40 64 78 40 65 79 40 66 80 40 66 81 40 67 82 40 68 83 40 68 84 40 69 85 40 70 86 40 70 87 40 71 88 40 72 89 40 72 90 40 73 91 40 74 92 40 74 93 40 75 94 40 76 95 40 76 96 40 77 97 40 78 98 40 78 99 40 79 100 40 80 101 40 80 102 40 81 103 40 82 104 40 82 105 40 83 106 40 84 107 40 84 108 40 85 109 40 86 110 40 86 111 40 87 112 40 88 113 40 88 114 40 89 115 40 90 116 40 90 117 40 91 118 40 92 119 40 92 120 40 93 121 40 94 122 40 94 123 40 95 124 40 96 125 40 96 126 40 97 127 40 98 128 40 98 129 40 99 130 40 100 131 40 100 132 40 101 133 40 102 134 40 102 135 40 103 136 40 104 137 40 104 138 40 105 139 40 106 140 40 106 141 40 107 142 40 108 143 40 108 144 40 109 145 40 110 146 40 110 147 40 111 148 40 112 149 40 112 150 40 113 151 40 114 152 40 114 153 40 115 154 40 116 155 40 116 156 40 117 157 40 118 158 40 118 159 40 119 160 40 120 161 40 120 162 40 121 163 40 122 164 40 122 165 40 123 166 40 124 167 40 124 168 40 125 169 40 126 170 40 126 171 40 127 172 40 128 173 40 128 174 40 129 175 40 130 176 40 130 177 40 131 178 40 132 179 40 132 180 40 133 181 40 134 182 40 134 183 40 135 184 40 136 185 40 136 186 40 137 187 40 138 188 40 138 189 40 139 190 40 140 191 40 140 192 40 141 193 40 142 194 40 142 195 40 143 196 40 144 197 40 144 198 40 145 199 40 146 200 40 146 201 40 147 202 40 148 203 40 148 204 40 149 205 40 150 206 40 150 207 40 151 208 40 152 209 40 152 210 40 153 211 40 154 212 40 154 213 40 155 214 40 156 215 40 156 216 40 157 217 40 158 218 40 158 219 40 159 220 40 160 221 40 160 222 40 161 223 40 162 224 40 162 225 40 163 226 40 164 227 40 164 228 40 165 229 40 166 230 40 166 231 40 167 232 40 168 233 40 168 234 40 169 235 40 170 236 40 170 237 40 171 238 40 172 239 40 172 240 40 173 241 40 174 242 40 174 243 40 175 244 40 176 245 40 176 246 40 177 247 40 178 248 40 178 249 40 179 250 40 180 251 40 180 252 40 181 253 40 182 254 40 182 255 40 183
0 42 14 1 42 14 2 42 15 3 42 16 4 42 16 5 42 17 6 42 18 7 42 18 8 42 19 9 42 20 10 42 20 11 42 21 12 42 22 13 42 22 14 42 23 15 42 24 16 42 24 17 42 25 18 42 26 19 42 26 20 42 27 21 42 28 22 42 28 23 42 29 24 42 30 25 42 30 26 42 31 27 42 32 28 42 32 29 42 33 30 42 34 31 42 34 32 42 35 33 42 36 34 42 36 35 42 37 36 42 38 37 42 38 38 42 39 39 42 40 40 42 40 41 42 41 42 42 42 43 42 42 44 42 43 45 42 44 46 42 44 47 42 45 48 42 46 49 42 46 50 42 47 51 42 48 52 42 48 53 42 49 54 42 50 55 42 50 56 42 51 57 42 52 58 42 52 59 42 53 60 42 54 61 42 54 62 42 55 63 42 56 64 42 56 65 42 57 66 42 58 67 42 58 68 42 59 69 42 60 70 42 60 71 42 61 72 42 62 73 42 62 74 42 63 75 42 64 76 42 64 77 42 65 78 42 66 79 42 66 80 42 67 81 42 68 82 42 68 83 42 69 84 42 70 85 42 70 86 42 71 87 42 72 88 42 72 89 42 73 90 42 74 91 42 74 92 42 75 93 42 76 94 42 76 95 42 77 96 42 78 97 42 78 98 42 79 99 42 80 100 42 80 101 42 81 102 42 82 103 42 82 104 42 83 105 42 84 106 42 84 107 42 85 108 42 86 109 42 86 110 42 87 111 42 88 112 42 88 113 42 89 114 42 90 115 42 90 116 42 91 117 42 92 118 42 92 119 42 93 120 42 94 121 42 94 122 42 95 123 42 96 124 42 96 125 42 97 126 42 98 127 42 98 128 42 99 129 42 100 130 42 100 131 42 101 132 42 102 133 42 102 134 42 103 135 42 104 136 42 104 137 42 105 138 42 106 139 42 106 140 42 107 141 42 108 142 42 108 143 42 109 144 42 110 145 42 110 146 42 111 147 42 112 148 42 112 149 42 113 150 42 114 151 42 114 152 42 115 153 42 116 154 42 116 155 42 117 156 42 118 157 42 118 158 42 119 159 42 120 160 42 120 161 42 121 162 42 122 163 42 122 164 42 123 165 42 124 166 42 124 167 42 125 168 42 126 169 42 126 170 42 127 171 42 128 172 42 128 173 42 129 174 42 130 175 42 130 176 42 131 177 42 132 178 42 132 179 42 133 180 42 134 181 42 134 182 42 135 183 42 136 184 42 136 185 42 137 186 42 138 187 42 138 188 42 139 189 42 140 190 42 140 191 42 141 192 42 142 193 42 142 194 42 143 195 42 144 196 42 144 197 42 145 198 42 146 199 42 146 200 42 147 201 42 148 202 42 148 203 42 149 204 42 150 205 42 150 206 42 151 207 42 152 208 42 152 209 42 153 210 42 154 211 42 154 212 42 155 213 42 156 214 42 156 215 42 157 216 42 158 217 42 158 218 42 159 219 42 160 220 42 160 221 42 161 222 42 162 223 42 162 224 42 163 225 42 164 226 42 164 227 42 165 228 42 166 229 42 166 230 42 167 231 42 168 232 42 168 233 42 169 234 42 170 235 42 170 236 42 171 237 42 172 238 42 172 239 42 173 240 42 174 241 42 174 242 42 175 243 42 176 244 42 176 245 42 177 246 42 178 247 42 178 248 42 179 249 42 180 250 42 180 251 42 181 252 42 182 253 42 182 254 42 183 255 42 184
0 44 14 1 44 15 2 44 16 3 44 16 4 44 17 5 44 18 6 44 18 7 44 19 8 44 20 9 44 20 10 44 21 11 44 22 12 44 22 13 44 23 14 44 24 15 44 24 16 44 25 17 44 26 18 44 26 19 44 27 20 44 28 21 44 28 22 44 29 23 44 30 24 44 30 25 44 31 26 44 32 27 44 32 28 44 33 29 44 34 30 44 34 31 44 35 32 44 36 33 44 36 34 44 37 35 44 38 36 44 38 37 44 39 38 44 40 39 44 40 40 44 41 41 44 42 42 44 42 43 44 43 44 44 44 45 44 44 46 44 45 47 44 46 48 44 46 49 44 47 50 44 48 51 44 48 52 44 49 53 44 50 54 44 50 55 44 51 56 44 52 57 44 52 58 44 53 59 44 54 60 44 54 61 44 55 62 44 56 63 44 56 64 44 57 65 44 58 66 44 58 67 44 59 68 44 60 69 44 60 70 44 61 71 44 62 72 44 62 73 44 63 74 44 64 75 44 64 76 44 65 77 44 66 78 44 66 79 44 67 80 44 68 81 44 68 82 44 69 83 44 70 84 44 70 85 44 71 86 44 72 87 44 72 88 44 73 89 44 74 90 44 74 91 44 75 92 44 76 93 44 76 94 44 77 95 44 78 96 44 78 97 44 79 98 44 80 99 44 80 100 44 81 101 44 82 102 44 82 103 44 83 104 44 84 105 44 84 106 44 85 107 44 86 108 44 86 109 44 87 110 44 88 111 44 88 112 44 89 113 44 90 114 44 90 115 44 91 116 44 92 117 44 92 118 44 93 119 44 94 120 44 94 121 44 95 122 44 96 123 44 96 124 44 97 125 44 98 126 44 98 127 44 99 128 44 100 129 44 100 130 44 101 131 44 102 132 44 102 133 44 103 134 44 104 135 44 104 136 44 105 137 44 106 138 44 106 139 44 107 140 44 108 141 44 108 142 44 109 143 44 110 144 44 110 145 44 111 146 44 112 147 44 112 148 44 113 149 44 114 150 44 114 151 44 115 152 44 116 153 44 116 154 44 117 155 44 118 156 44 118 157 44 119 158 44 120 159 44 120 160 44 121 161 44 122 162 44 122 163 44 123 164 44 124 165 44 124 166 44 125 167 44 126 168 44 126 169 44 127 170 44 128 171 44 128 172 44 129 173 44 130 174 44 130 175 44 131 176 44 132 177 44 132 178 44 133 179 44 134 180 44 134 181 44 135 182 44 136 183 44 136 184 44 137 185 44 138 186 44 138 187 44 139 188 44 140 189 44 140 190 44 141 191 44 142 192 44 142 193 44 143 194 44 144 195 44 144 196 44 145 197 44 146 198 44 146 199 44 147 200 44 148 201 44 148 202 44 149 203 44 150 204 44 150 205 44 151 206 44 152 207 44 152 208 44 153 209 44 154 210 44 154 211 44 155 212 44 156 213 44 156 214 44 157 215 44 158 216 44 158 217 44 159 218 44 160 219 44 160 220 44 161 221 44 162 222 44 162 223 44 163 224 44 164 225 44 164 226 44 165 227 44 166 228 44 166 229 44 167 230 44 168 231 44 168 232 44 169 233 44 170 234 44 170 235 44 171 236 44 172 237 44 172 238 44 173 239 44 174 240 44 174 241 44 175 242 44 176 243 44 176 244 44 177 245 44 178 246 44 178 247 44 179 248 44 180 249 44 180 250 44 181 251 44 182 252 44 182 253 44 183 254 44 184 255 44 184
0 46 15 1 46 16 2 46 16 3 46 17 4 46 18 5 46 18 6 46 19 7 46 20 8 46 20 9 46 21 10 46 22 11 46 22 12 46 23 13 46 24 14 46 24 15 46 25 16 46 26 17 46 26 18 46 27 19 46 28 20 46 28 21 46 29 22 46 30 23 46 30 24 46 31 25 46 32 26 46 32 27 46 33 28 46 34 29 46 34 30 46 35 31 46 36 32 46 36 33 46 37 34 46 38 35 46 38 36 46 39 37 46 40 38 46 40 39 46 41 40 46 42 41 46 42 42 46 43 43 46 44 44 46 44 45 46 45 46 46 46 47 46 46 48 46 47 49 46 48 50 46 48 51 46 49 52 46 50 53 46 50 54 46 51 55 46 52 56 46 52 57 46 53 58 46 54 59 46 54 60 46 55 61 46 56 62 46 56 63 46 57 64 46 58 65 46 58 66 46 59 67 46 60 68 46 60 69 46 61 70 46 62 71 46 62 72 46 63 73 46 64 74 46 64 75 46 65 76 46 66 77 46 66 78 46 67 79 46 68 80 46 68 81 46 69 82 46 70 83 46 70 84 46 71 85 46 72 86 46 72 87 46 73 88 46 74 89 46 74 90 46 75 91 46 76 92 46 76 93 46 77 94 46 78 95 46 78 96 46 79 97 46 80 98 46 80 99 46 81 100 46 82 101 46 82 102 46 83 103 46 84 104 46 84 105 46 85 106 46 86 107 46 86 108 46 87 109 46 88 110 46 88 111 46 89 112 46 90 113 46 90 114 46 91 115 46 92 116 46 92 117 46 93 118 46 94 119 46 94 120 46 95 121 46 96 122 46 96 123 46 97 124 46 98 125 46 98 126 46 99 127 46 100 128 46 100 129 46 101 130 46 102 131 46 102 132 46 103 133 46 104 134 46 104 135 46 105 136 46 106 137 46 106 138 46 107 139 46 108 140 46 108 141 46 109 142 46 110 143 46 110 144 46 111 145 46 112 146 46 112 147 46 113 148 46 114 149 46 114 150 46 115 151 46 116 152 46 116 153 46 117 154 46 118 155 46 118 156 46 119 157 46 120 158 46 120 159 46 121 160 46 122 161 46 122 162 46 123 163 46 124 164 46 124 165 46 125 166 46 126 167 46 126 168 46 127 169 46 128 170 46 128 171 46 129 172 46 130 173 46 130 174 46 131 175 46 132 176 46 132 177 46 133 178 46 134 179 46 134 180 46 135 181 46 136 182 46 136 183 46 137 184 46 138 185 46 138 186 46 139 187 46 140 188 46 140 189 46 141 190 46 142 191 46 142 192 46 143 193 46 144 194 46 144 195 46 145 196 46 146 197 46 146 198 46 147 199 46 148 200 46 148 201 46 149 202 46 150 203 46 150 204 46 151 205 46 152 206 46 152 207 46 153 208 46 154 209 46 154 210 46 155 211 46 156 212 46 156 213 46 157 214 46 158 215 46 158 216 46 159 217 46 160 218 46 160 219 46 161 220 46 162 221 46 162 222 46 163 223 46 164 224 46 164 225 46 165 226 46 166 227 46 166 228 46 167 229 46 168 230 46 168 231 46 169 232 46 170 233 46 170 234 46 171 235 46 172 236 46 172 237 46 173 238 46 174 239 46 174 240 46 175 241 46 176 242 46 176 243 46 177 244 46 178 245 46 178 246 46 179 247 46 180 248 46 180 249 46 181 250 46 182 251 46 182 252 46 183 253 46 184 254 46 184 255 46 185
0 48 16 1 48 16 2 48 17 3 48 18 4 48 18 5 48 19 6 48 20 7 48 20 8 48 21 9 48 22 10 48 22 11 48 23 12 48 24 13 48 24 14 48 25 15 48 26 16 48 26 17 48 27 18 48 28 19 48 28 20 48 29 21 48 30 22 48 30 23 48 31 24 48 32 25 48 32 26 48 33 27 48 34 28 48 34 29 48 35 30 48 36 31 48 36 32 48 37 33 48 38 34 48 38 35 48 39 36 48 40 37 48 40 38 48 41 39 48 42 40 48 42 41 48 43 42 48 44 43 48 44 44 48 45 45 48 46 46 48 46 47 48 47 48 48 48 49 48 48 50 48 49 51 48 50 52 48 50 53 48 51 54 48 52 55 48 52 56 48 53 57 48 54 58 48 54 59 48 55 60 48 56 61 48 56 62 48 57 63 48 58 64 48 58 65 48 59 66 48 60 67 48 60 68 48 61 69 48 62 70 48 62 71 48 63 72 48 64 73 48 64 74 48 65 75 48 66 76 48 66 77 48 67 78 48 68 79 48 68 80 48 69 81 48 70 82 48 70 83 48 71 84 48 72 85 48 72 86 48 73 87 48 74 88 48 74 89 48 75 90 48 76 91 48 76 92 48 77 93 48 78 94 48 78 95 48 79 96 48 80 97 48 80 98 48 81 99 48 82 100 48 82 101 48 83 102 48 84 103 48 84 104 48 85 105 48 86 106 48 86 107 48 87 108 48 88 109 48 88 110 48 89 111 48 90 112 48 90 113 48 91 114 48 92 115 48 92 116 48 93 117 48 94 118 48 94 119 48 95 120 48 96 121 48 96 122 48 97 123 48 98 124 48 98 125 48 99 126 48 100 127 48 100 128 48 101 129 48 102 130 48 102 131 48 103 132 48 104 133 48 104 134 48 105 135 48 106 136 48 106 137 48 107 138 48 108 139 48 108 140 48 109 141 48 110 142 48 110 143 48 111 144 48 112 145 48 112 146 48 113 147 48 114 148 48 114 149 48 115 150 48 116 151 48 116 152 48 117 153 48 118 154 48 118 155 48 119 156 48 120 157 48 120 158 48 121 159 48 122 160 48 122 161 48 123 162 48 124 163 48 124 164 48 125 165 48 126 166 48 126 167 48 127 168 48 128 169 48 128 170 48 129 171 48 130 172 48 130 173 48 131 174 48 132 175 48 132 176 48 133 177 48 134 178 48 134 179 48 135 180 48 136 181 48 136 182 48 137 183 48 138 184 48 138 185 48 139 186 48 140 187 48 140 188 48 141 189 48 142 190 48 142 191 48 143 192 48 144 193 48 144 194 48 145 195 48 146 196 48 146 197 48 147 198 48 148 199 48 148 200 48 149 201 48 150 202 48 150 203 48 151 204 48 152 205 48 152 206 48 153 207 48 154 208 48 154 209 48 155 210 48 156 211 48 156 212 48 157 213 48 158 214 48 158 215 48 159 216 48 160 217 48 160 218 48 161 219 48 162 220 48 162 221 48 163 222 48 164 223 48 164 224 48 165 225 48 166 226 48 166 227 48 167 228 48 168 229 48 168 230 48 169 231 48 170 232 48 170 233 48 171 234 48 172 235 48 172 236 48 173 237 48 174 238 48 174 239 48 175 240 48 176 241 48 176 242 48 177 243 48 178 244 48 178 245 48 179 246 48 180 247 48 180 248 48 181 249 48 182 250 48 182 251 48 183 252 48 184 253 48 184 254 48 185 255 48 186
0 50 16 1 50 17 2 50 18 3 50 18 4 50 19 5 50 20 6 50 20 7 50 21 8 50 22 9 50 22 10 50 23 11 50 24 12 50 24 13 50 25 14 50 26 15 50 26 16 50 27 17 50 28 18 50 28 19 50 29 20 50 30 21 50 30 22 50 31 23 50 32 24 50 32 25 50 33 26 50 34 27 50 34 28 50 35 29 50 36 30 50 36 31 50 37 32 50 38 33 50 38 34 50 39 35 50 40 36 50 40 37 50 41 38 50 42 39 50 42 40 50 43 41 50 44 42 50 44 43 50 45 44 50 46 45 50 46 46 50 47 47 50 48 48 50 48 49 50 49 50 50 50 51 50 50 52 50 51 53 50 52 54 50 52 55 50 53 56 50 54 57 50 54 58 50 55 59 50 56 60 50 56 61 50 57 62 50 58 63 50 58 64 50 59 65 50 60 66 50 60 67 50 61 68 50 62 69 50 62 70 50 63 71 50 64 72 50 64 73 50 65 74 50 66 75 50 66 76 50 67 77 50 68 78 50 68 79 50 69 80 50 70 81 50 70 82 50 71 83 50 72 84 50 72 85 50 73 86 50 74 87 50 74 88 50 75 89 50 76 90 50 76 91 50 77 92 50 78 93 50 78 94 50 79 95 50 80 96 50 80 97 50 81 98 50 82 99 50 82 100 50 83 101 50 84 102 50 84 103 50 85 104 50 86 105 50 86 106 50 87 107 50 88 108 50 88 109 50 89 110 50 90 111 50 90 112 50 91 113 50 92 114 50 92 115 50 93 116 50 94 117 50 94 118 50 95 119 50 96 120 50 96 121 50 97 122 50 98 123 50 98 124 50 99 125 50 100 126 50 100 127 50 101 128 50 102 129 50 102 130 50 103 131 50 104 132 50 104 133 50 105 134 50 106 135 50 106 136 50 107 137 50 108 138 50 108 139 50 109 140 50 110 141 50 110 142 50 111 143 50 112 144 50 112 145 50 113 146 50 114 147 50 114 148 50 115 149 50 116 150 50 116 151 50 117 152 50 118 153 50 118 154 50 119 155 50 120 156 50 120 157 50 121 158 50 122 159 50 122 160 50 123 161 50 124 162 50 124 163 50 125 164 50 126 165 50 126 166 50 127 167 50 128 168 50 128 169 50 129 170 50 130 171 50 130 172 50 131 173 50 132 174 50 132 175 50 133 176 50 134 177 50 134 178 50 135 179 50 136 180 50 136 181 50 137 182 50 138 183 50 138 184 50 139 185 50 140 186 50 140 187 50 141 188 50 142 189 50 142 190 50 143 191 50 144 192 50 144 193 50 145 194 50 146 195 50 146 196 50 147 197 50 148 198 50 148 199 50 149 200 50 150 201 50 150 202 50 151 203 50 152 204 50 152 205 50 153 206 50 154 207 50 154 208 50 155 209 50 156 210 50 156 211 50 157 212 50 158 213 50 158 214 50 159 215 50 160 216 50 160 217 50 161 218 50 162 219 50 162 220 50 163 221 50 164 222 50 164 223 50 165 224 50 166 225 50 166 226 50 167 227 50 168 228 50 168 229 50 169 230 50 170 231 50 170 232 50 171 233 50 172 234 50 172 235 50 173 236 50 174 237 50 174 238 50 175 239 50 176 240 50 176 241 50 177 242 50 178 243 50 178 244 50 179 245 50 180 246 50 180 247 50 181 248 50 182 249 50 182 250 50 183 251 50 184 252 50 184 253 50 185 254 50 186 255 50 186
0 52 17 1 52 18 2 52 18 3 52 19 4 52 20 5 52 20 6 52 21 7 52 22 8 52 22 9 52 23 10 52 24 11 52 24 12 52 25 13 52 26 14 52 26 15 52 27 16 52 28 17 52 28 18 52 29 19 52 30 20 52 30 21 52 31 22 52 32 23 52 32 24 52 33 25 52 34 26 52 34 27 52 35 28 52 36 29 52 36 30 52 37 31 52 38 32 52 38 33 52 39 34 52 40 35 52 40 36 52 41 37 52 42 38 52 42 39 52 43 40 52 44 41 52 44 42 52 45 43 52 46 44 52 46 45 52 47 46 52 48 47 52 48 48 52 49 49 52 50 50 52 50 51 52 51 52 52 52 53 52 52 54 52 53 55 52 54 56 52 54 57 52 55 58 52 56 59 52 56 60 52 57 61 52 58 62 52 58 63 52 59 64 52 60 65 52 60 66 52 61 67 52 62 68 52 62 69 52 63 70 52 64 71 52 64 72 52 65 73 52 66 74 52 66 75 52 67 76 52 68 77 52 68 78 52 69 79 52 70 80 52 70 81 52 71 82 52 72 83 52 72 84 52 73 85 52 74 86 52 74 87 52 75 88 52 76 89 52 76 90 52 77 91 52 78 92 52 78 93 52 79 94 52 80 95 52 80 96 52 81 97 52 82 98 52 82 99 52 83 100 52 84 101 52 84 102 52 85 103 52 86 104 52 86 105 52 87 106 52 88 107 52 88 108 52 89 109 52 90 110 52 90 111 52 91 112 52 92 113 52 92 114 52 93 115 52 94 116 52 94 117 52 95 118 52 96 119 52 96 120 52 97 121 52 98 122 52 98 123 52 99 124 52 100 125 52 100 126 52 101 127 52 102 128 52 102 129 52 103 130 52 104 131 52 104 132 52 105 133 52 106 134 52 106 135 52 107 136 52 108 137 52 108 138 52 109 139 52 110 140 52 110 141 52 111 142 52 112 143 52 112 144 52 113 145 52 114 146 52 114 147 52 115 148 52 116 149 52 116 150 52 117 151 52 118 152 52 118 153 52 119 154 52 120 155 52 120 156 52 121 157 52 122 158 52 122 159 52 123 160 52 124 161 52 124 162 52 125 163 52 126 164 52 126 165 52 127 166 52 128 167 52 128 168 52 129 169 52 130 170 52 130 171 52 131 172 52 132 173 52 132 174 52 133 175 52 134 176 52 134 177 52 135 178 52 136 179 52 136 180 52 137 181 52 138 182 52 138 183 52 139 184 52 140 185 52 140 186 52 141 187 52 142 188 52 142 189 52 143 190 52 144 191 52 144 192 52 145 193 52 146 194 52 146 195 52 147 196 52 148 197 52 148 198 52 149 199 52 150 200 52 150 201 52 151 202 52 152 203 52 152 204 52 153 205 52 154 206 52 154 207 52 155 208 52 156 209 52 156 210 52 157 211 52 158 212 52 158 213 52 159 214 52 160 215 52 160 216 52 161 217 52 162 218 52 162 219 52 163 220 52 164 221 52 164 222 52 165 223 52 166 224 52 166 225 52 167 226 52 168 227 52 168 228 52 169 229 52 170 230 52 170 231 52 171 232 52 172 233 52 172 234 52 173 235 52 174 236 52 174 237 52 175 238 52 176 239 52 176 240 52 177 241 52 178 242 52 178 243 52 179 244 52 180 245 52 180 246 52 181 247 52 182 248 52 182 249 52 183 250 52 184 251 52 184 252 52 185 253 52 186 254 52 186 255 52 187
0 54 18 1 54 18 2 54 19 3 54 20 4 54 20 5 54 21 6 54 22 7 54 22 8 54 23 9 54 24 10 54 24 11 54 25 12 54 26 13 54 26 14 54 27 15 54 28 16 54 28 17 54 29 18 54 30 19 54 30 20 54 31 21 54 32 22 54 32 23 54 33 24 54 34 25 54 34 26 54 35 27 54 36 28 54 36 29 54 37 30 54 38 31 54 38 32 54 39 33 54 40 34 54 40 35 54 41 36 54 42 37 54 42 38 54 43 39 54 44 40 54 44 41 54 45 42 54 46 43 54 46 44 54 47 45 54 48 46 54 48 47 54 49 48 54 50 49 54 50 50 54 51 51 54 52 52 54 52 53 54 53 54 54 54 55 54 54 56 54 55 57 54 56 58 54 56 59 54 57 60 54 58 61 54 58 62 54 59 63 54 60 64 54 60 65 54 61 66 54 62 67 54 62 68 54 63 69 54 64 70 54 64 71 54 65 72 54 66 73 54 66 74 54 67 75 54 68 76 54 68 77 54 69 78 54 70 79 54 70 80 54 71 81 54 72 82 54 72 83 54 73 84 54 74 85 54 74 86 54 75 87 54 76 88 54 76 89 54 77 90 54 78 91 54 78 92 54 79 93 54 80 94 54 80 95 54 81 96 54 82 97 54 82 98 54 83 99 54 84 100 54 84 101 54 85 102 54 86 103 54 86 104 54 87 105 54 88 106 54 88 107 54 89 108 54 90 109 54 90 110 54 91 111 54 92 112 54 92 113 54 93 114 54 94 115 54 94 116 54 95 117 54 96 118 54 96 119 54 97 120 54 98 121 54 98 122 54 99 123 54 100 124 54 100 125 54 101 126 54 102 127 54 102 128 54 103 129 54 104 130 54 104 131 54 105 132 54 106 133 54 106 134 54 107 135 54 108 136 54 108 137 54 109 138 54 110 139 54 110 140 54 111 141 54 112 142 54 112 143 54 113 144 54 114 145 54 114 146 54 115 147 54 116 148 54 116 149 54 117 150 54 118 151 54 118 152 54 119 153 54 120 154 54 120 155 54 121 156 54 122 157 54 122 158 54 123 159 54 124 160 54 124 161 54 125 162 54 126 163 54 126 164 54 127 165 54 128 166 54 128 167 54 129 168 54 130 169 54 130 170 54 131 171 54 132 172 54 132 173 54 133 174 54 134 175 54 134 176 54 135 177 54 136 178 54 136 179 54 137 180 54 138 181 54 138 182 54 139 183 54 140 184 54 140 185 54 141 186 54 142 187 54 142 188 54 143 189 54 144 190 54 144 191 54 145 192 54 146 193 54 146 194 54 147 195 54 148 196 54 148 197 54 149 198 54 150 199 54 150 200 54 151 201 54 152 202 54 152 203 54 153 204 54 154 205 54 154 206 54 155 207 54 156 208 54 156 209 54 157 210 54 158 211 54 158 212 54 159 213 54 160 214 54 160 215 54 161 216 54 162 217 54 162 218 54 163 219 54 164 220 54 164 221 54 165 222 54 166 223 54 166 224 54 167 225 54 168 226 54 168 227 54 169 228 54 170 229 54 170 230 54 171 231 54 172 232 54 172 233 54 173 234 54 174 235 54 174 236 54 175 237 54 176 238 54 176 239 54 177 240 54 178 241 54 178 242 54 179 243 54 180 244 54 180 245 54 181 246 54 182 247 54 182 248 54 183 249 54 184 250 54 184 251 54 185 252 54 186 253 54 186 254 54 187 255 54 188
0 56 18 1 56 19 2 56 20 3 56 20 4 56 21 5 56 22 6 56 22 7 56 23 8 56 24 9 56 24 10 56 25 11 56 26 12 56 26 13 56 27 14 56 28 15 56 28 16 56 29 17 56 30 18 56 30 19 56 31 20 56 32 21 56 32 22 56 33 23 56 34 24 56 34 25 56 35 26 56 36 27 56 36 28 56 37 29 56 38 30 56 38 31 56 39 32 56 40 33 56 40 34 56 41 35 56 42 36 56 42 37 56 43 38 56 44 39 56 44 40 56 45 41 56 46 42 56 46 43 56 47 44 56 48 45 56 48 46 56 49 47 56 50 48 56 50 49 56 51 50 56 52 51 56 52 52 56 53 53 56 54 54 56 54 55 56 55 56 56 56 57 56 56 58 56 57 59 56 58 60 56 58 61 56 59 62 56 60 63 56 60 64 56 61 65 56 62 66 56 62 67 56 63 68 56 64 69 56 64 70 56 65 71 56 66 72 56 66 73 56 67 74 56 68 75 56 68 76 56 69 77 56 70 78 56 70 79 56 71 80 56 72 81 56 72 82 56 73 83 56 74 84 56 74 85 56 75 86 56 76 87 56 76 88 56 77 89 56 78 90 56 78 91 56 79 92 56 80 93 56 80 94 56 81 95 56 82 96 56 82 97 56 83 98 56 84 99 56 84 100 56 85 101 56 86 102 56 86 103 56 87 104 56 88 105 56 88 106 56 89 107 56 90 108 56 90 109 56 91 110 56 92 111 56 92 112 56 93 113 56 94 114 56 94 115 56 95 116 56 96 117 56 96 118 56 97 119 56 98 120 56 98 121 56 99 122 56 100 123 56 100 124 56 101 125 56 102 126 56 102 127 56 103 128 56 104 129 56 104 130 56 105 131 56 106 132 56 106 133 56 107 134 56 108 135 56 108 136 56 109 137 56 110 138 56 110 139 56 111 140 56 112 141 56 112 142 56 113 143 56 114 144 56 114 145 56 115 146 56 116 147 56 116 148 56 117 149 56 118 150 56 118 151 56 119 152 56 120 153 56 120 154 56 121 155 56 122 156 56 122 157 56 123 158 56 124 159 56 124 160 56 125 161 56 126 162 56 126 163 56 127 164 56 128 165 56 128 166 56 129 167 56 130 168 56 130 169 56 131 170 56 132 171 56 132 172 56 133 173 56 134 174 56 134 175 56 135 176 56 136 177 56 136 178 56 137 179 56 138 180 56 138 181 56 139 182 56 140 183 56 140 184 56 141 185 56 142 186 56 142 187 56 143 188 56 144 189 56 144 190 56 145 191 56 146 192 56 146 193 56 147 194 56 148 195 56 148 196 56 149 197 56 150 198 56 150 199 56 151 200 56 152 201 56 152 202 56 153 203 56 154 204 56 154 205 56 155 206 56 156 207 56 156 208 56 157 209 56 158 210 56 158 211 56 159 212 56 160 213 56 160 214 56 161 215 56 162 216 56 162 217 56 163 218 56 164 219 56 164 220 56 165 221 56 166 222 56 166 223 56 167 224 56 168 225 56 168 226 56 169 227 56 170 228 56 170 229 56 171 230 56 172 231 56 172 232 56 173 233 56 174 234 56 174 235 56 175 236 56 176 237 56 176 238 56 177 239 56 178 240 56 178 241 56 179 242 56 180 243 56 180 244 56 181 245 56 182 246 56 182 247 56 183 248 56 184 249 56 184 250 56 185 251 56 186 252 56 186 253 56 187 254 56 188 255 56 188
0 58 19 1 58 20 2 58 20 3 58 21 4 58 22 5 58 22 6 58 23 7 58 24 8 58 24 9 58 25 10 58 26 11 58 26 12 58 27 13 58 28 14 58 28 15 58 29 16 58 30 17 58 30 18 58 31 19 58 32 20 58 32 21 58 33 22 58 34 23 58 34 24 58 35 25 58 36 26 58 36 27 58 37 28 58 38 29 58 38 30 58 39 31 58 40 32 58 40 33 58 41 34 58 42 35 58 42 36 58 43 37 58 44 38 58 44 39 58 45 40 58 46 41 58 46 42 58 47 43 58 48 44 58 48 45 58 49 46 58 50 47 58 50 48 58 51 49 58 52 50 58 52 51 58 53 52 58 54 53 58 54 54 58 55 55 58 56 56 58 56 57 58 57 58 58 58 59 58 58 60 58 59 61 58 60 62 58 60 63 58 61 64 58 62 65 58 62 66 58 63 67 58 64 68 58 64 69 58 65 70 58 66 71 58 66 72 58 67 73 58 68 74 58 68 75 58 69 76 58 70 77 58 70 78 58 71 79 58 72 80 58 72 81 58 73 82 58 74 83 58 74 84 58 75 85 58 76 86 58 76 87 58 77 88 58 78 89 58 78 90 58 79 91 58 80 92 58 80 93 58 81 94 58 82 95 58 82 96 58 83 97 58 84 98 58 84 99 58 85 100 58 86 101 58 86 102 58 87 103 58 88 104 58 88 105 58 89 106 58 90 107 58 90 108 58 91 109 58 92 110 58 92 111 58 93 112 58 94 113 58 94 114 58 95 115 58 96 116 58 96 117 58 97 118 58 98 119 58 98 120 58 99 121 58 100 122 58 100 123 58 101 124 58 102 125 58 102 126 58 103 127 58 104 128 58 104 129 58 105 130 58 106 131 58 106 132 58 107 133 58 108 134 58 108 135 58 109 136 58 110 137 58 110 138 58 111 139 58 112 140 58 112 141 58 113 142 58 114 143 58 114 144 58 115 145 58 116 146 58 116 147 58 117 148 58 118 149 58 118 150 58 119 151 58 120 152 58 120 153 58 121 154 58 122 155 58 122 156 58 123 157 58 124 158 58 124 159 58 125 160 58 126 161 58 126 162 58 127 163 58 128 164 58 128 165 58 129 166 58 130 167 58 130 168 58 131 169 58 132 170 58 132 171 58 133 172 58 134 173 58 134 174 58 135 175 58 136 176 58 136 177 58 137 178 58 138 179 58 138 180 58 139 181 58 140 182 58 140 183 58 141 184 58 142 185 58 142 186 58 143 187 58 144 188 58 144 189 58 145 190 58 146 191 58 146 192 58 147 193 58 148 194 58 148 195 58 149 196 58 150 197 58 150 198 58 151 199 58 152 200 58 152 201 58 153 202 58 154 203 58 154 204 58 155 205 58 156 206 58 156 207 58 157 208 58 158 209 58 158 210 58 159 211 58 160 212 58 160 213 58 161 214 58 162 215 58 162 216 58 163 217 58 164 218 58 164 219 58 165 220 58 166 221 58 166 222 58 167 223 58 168 224 58 168 225 58 169 226 58 170 227 58 170 228 58 171 229 58 172 230 58 172 231 58 173 232 58 174 233 58 174 234 58 175 235 58 176 236 58 176 237 58 177 238 58 178 239 58 178 240 58 179 241 58 180 242 58 180 243 58 181 244 58 182 245 58 182 246 58 183 247 58 184 248 58 184 249 58 185 250 58 186 251 58 186 252 58 187 253 58 188 254 58 188 255 58 189
0 60 20 1 60 20 2 60 21 3 60 22 4 60 22 5 60 23 6 60 24 7 60 24 8 60 25 9 60 26 10 60 26 11 60 27 12 60 28 13 60 28 14 60 29 15 60 30 16 60 30 17 60 31 18 60 32 19 60 32 20 60 33 21 60 34 22 60 34 23 60 35 24 60 36 25 60 36 26 60 37 27 60 38 28 60 38 29 60 39 30 60 40 31 60 40 32 60 41 33 60 42 34 60 42 35 60 43 36 60 44 37 60 44 38 60 45 39 60 46 40 60 46 41 60 47 42 60 48 43 60 48 44 60 49 45 60 50 46 60 50 47 60 51 48 60 52 49 60 52 50 60 53 51 60 54 52 60 54 53 60 55 54 60 56 55 60 56 56 60 57 57 60 58 58 60 58 59 60 59 60 60 60 61 60 60 62 60 61 63 60 62 64 60 62 65 60 63 66 60 64 67 60 64 68 60 65 69 60 66 70 60 66 71 60 67 72 60 68 73 60 68 74 60 69 75 60 70 76 60 70 77 60 71 78 60 72 79 60 72 80 60 73 81 60 74 82 60 74 83 60 75 84 60 76 85 60 76 86 60 77 87 60 78 88 60 78 89 60 79 90 60 80 91 60 80 92 60 81 93 60 82 94 60 82 95 60 83 96 60 84 97 60 84 98 60 85 99 60 86 100 60 86 101 60 87 102 60 88 103 60 88 104 60 89 105 60 90 106 60 90 107 60 91 108 60 92 109 60 92 110 60 93 111 60 94 112 60 94 113 60 95 114 60 96 115 60 96 116 60 97 117 60 98 118 60 98 119 60 99 120 60 100 121 60 100 122 60 101 123 60 102 124 60 102 125 60 103 126 60 104 127 60 104 128 60 105 129 60 106 130 60 106 131 60 107 132 60 108 133 60 108 134 60 109 135 60 110 136 60 110 137 60 111 138 60 112 139 60 112 140 60 113 141 60 114 142 60 114 143 60 115 144 60 116 145 60 116 146 60 117 147 60 118 148 60 118 149 60 119 150 60 120 151 60 120 152 60 121 153 60 122 154 60 122 155 60 123 156 60 124 157 60 124 158 60 125 159 60 126 160 60 126 161 60 127 162 60 128 163 60 128 164 60 129 165 60 130 166 60 130 167 60 131 168 60 132 169 60 132 170 60 133 171 60 134 172 60 134 173 60 135 174 60 136 175 60 136 176 60 137 177 60 138 178 60 138 179 60 139 180 60 140 181 60 140 182 60 141 183 60 142 184 60 142 185 60 143 186 60 144 187 60 144 188 60 145 189 60 146 190 60 146 191 60 147 192 60 148 193 60 148 194 60 149 195 60 150 196 60 150 197 60 151 198 60 152 199 60 152 200 60 153 201 60 154 202 60 154 203 60 155 204 60 156 205 60 156 206 60 157 207 60 158 208 60 158 209 60 159 210 60 160 211 60 160 212 60 161 213 60 162 214 60 162 215 60 163 216 60 164 217 60 164 218 60 165 219 60 166 220 60 166 221 60 167 222 60 168 223 60 168 224 60 169 225 60 170 226 60 170 227 60 171 228 60 172 229 60 172 230 60 173 231 60 174 232 60 174 233 60 175 234 60 176 235 60 176 236 60 177 237 60 178 238 60 178 239 60 179 240 60 180 241 60 180 242 60 181 243 60 182 244 60 182 245 60 183 246 60 184 247 60 184 248 60 185 249 60 186 250 60 186 251 60 187 252 60 188 253 60 188 254 60 189 255 60 190
0 62 20 1 62 21 2 62 22 3 62 22 4 62 23 5 62 24 6 62 24 7 62 25 8 62 26 9 62 26 10 62 27 11 62 28 12 62 28 13 62 29 14 62 30 15 62 30 16 62 31 17 62 32 18 62 32 19 62 33 20 62 34 21 62 34 22 62 35 23 62 36 24 62 36 25 62 37 26 62 38 27 62 38 28 62 39 29 62 40 30 62 40 31 62 41 32 62 42 33 62 42 34 62 43 35 62 44 36 62 44 37 62 45 38 62 46 39 62 46 40 62 47 41 62 48 42 62 48 43 62 49 44 62 50 45 62 50 46 62 51 47 62 52 48 62 52 49 62 53 50 62 54 51 62 54 52 62 55 53 62 56 54 62 56 55 62 57 56 62 58 57 62 58 58 62 59 59 62 60 60 62 60 61 62 61 62 62 62 63 62 62 64 62 63 65 62 64 66 62 64 67 62 65 68 62 66 69 62 66 70 62 67 71 62 68 72 62 68 73 62 69 74 62 70 75 62 70 76 62 71 77 62 72 78 62 72 79 62 73 80 62 74 81 62 74 82 62 75 83 62 76 84 62 76 85 62 77 86 62 78 87 62 78 88 62 79 89 62 80 90 62 80 91 62 81 92 62 82 93 62 82 94 62 83 95 62 84 96 62 84 97 62 85 98 62 86 99 62 86 100 62 87 101 62 88 102 62 88 103 62 89 104 62 90 105 62 90 106 62 91 107 62 92 108 62 92 109 62 93 110 62 94 111 62 94 112 62 95 113 62 96 114 62 96 115 62 97 116 62 98 117 62 98 118 62 99 119 62 100 120 62 100 121 62 101 122 62 102 123 62 102 124 62 103 125 62 104 126 62 104 127 62 105 128 62 106 129 62 106 130 62 107 131 62 108 132 62 108 133 62 109 134 62 110 135 62 110 136 62 111 137 62 112 138 62 112 139 62 113 140 62 114 141 62 114 142 62 115 143 62 116 144 62 116 145 62 117 146 62 118 147 62 118 148 62 119 149 62 120 150 62 120 151 62 121 152 62 122 153 62 122 154 62 123 155 62 124 156 62 124 157 62 125 158 62 126 159 62 126 160 62 127 161 62 128 162 62 128 163 62 129 164 62 130 165 62 130 166 62 131 167 62 132 168 62 132 169 62 133 170 62 134 171 62 134 172 62 135 173 62 136 174 62 136 175 62 137 176 62 138 177 62 138 178 62 139 179 62 140 180 62 140 181 62 141 182 62 142 183 62 142 184 62 143 185 62 144 186 62 144 187 62 145 188 62 146 189 62 146 190 62 147 191 62 148 192 62 148 193 62 149 194 62 150 195 62 150 196 62 151 197 62 152 198 62 152 199 62 153 200 62 154 201 62 154 202 62 155 203 62 156 204 62 156 205 62 157 206 62 158 207 62 158 208 62 159 209 62 160 210 62 160 211 62 161 212 62 162 213 62 162 214 62 163 215 62 164 216 62 164 217 62 165 218 62 166 219 62 166 220 62 167 221 62 168 222 62 168 223 62 169 224 62 170 225 62 170 226 62 171 227 62 172 228 62 172 229 62 173 230 62 174 231 62 174 232 62 175 233 62 176 234 62 176 235 62 177 236 62 178 237 62 178 238 62 179 239 62 180 240 62 180 241 62 181 242 62 182 243 62 182 244 62 183 245 62 184 246 62 184 247 62 185 248 62 186 249 62 186 250 62 187 251 62 188 252 62 188 253 62 189 254 62 190 255 62 190
0 64 21 1 64 22 2 64 22 3 64 23 4 64 24 5 64 24 6 64 25 7 64 26 8 64 26 9 64 27 10 64 28 11 64 28 12 64 29 13 64 30 14 64 30 15 64 31 16 64 32 17 64 32 18 64 33 19 64 34 20 64 34 21 64 35 22 64 36 23 64 36 24 64 37 25 64 38 26 64 38 27 64 39 28 64 40 29 64 40 30 64 41 31 64 42 32 64 42 33 64 43 34 64 44 35 64 44 36 64 45 37 64 46 38 64 46 39 64 47 40 64 48 41 64 48 42 64 49 43 64 50 44 64 50 45 64 51 46 64 52 47 64 52 48 64 53 49 64 54 50 64 54 51 64 55 52 64 56 53 64 56 54 64 57 55 64 58 56 64 58 57 64 59 58 64 60 59 64 60 60 64 61 61 64 62 62 64 62 63 64 63 64 64 64 65 64 64 66 64 65 67 64 66 68 64 66 69 64 67 70 64 68 71 64 68 72 64 69 73 64 70 74 64 70 75 64 71 76 64 72 77 64 72 78 64 73 79 64 74 80 64 74 81 64 75 82 64 76 83 64 76 84 64 77 85 64 78 86 64 78 87 64 79 88 64 80 89 64 80 90 64 81 91 64 82 92 64 82 93 64 83 94 64 84 95 64 84 96 64 85 97 64 86 98 64 86 99 64 87 100 64 88 101 64 88 102 64 89 103 64 90 104 64 90 105 64 91 106 64 92 107 64 92 108 64 93 109 64 94 110 64 94 111 64 95 112 64 96 113 64 96 114 64 97 115 64 98 116 64 98 117 64 99 118 64 100 119 64 100 120 64 101 121 64 102 122 64 102 123 64 103 124 64 104 125 64 104 126 64 105 127 64 106 128 64 106 129 64 107 130 64 108 131 64 108 132 64 109 133 64 110 134 64 110 135 64 111 136 64 112 137 64 112 138 64 113 139 64 114 140 64 114 141 64 115 142 64 116 143 64 116 144 64 117 145 64 118 146 64 118 147 64 119 148 64 120 149 64 120 150 64 121 151 64 122 152 64 122 153 64 123 154 64 124 155 64 124 156 64 125 157 64 126 158 64 126 159 64 127 160 64 128 161 64 128 162 64 129 163 64 130 164 64 130 165 64 131 166 64 132 167 64 132 168 64 133 169 64 134 170 64 134 171 64 135 172 64 136 173 64 136 174 64 137 175 64 138 176 64 138 177 64 139 178 64 140 179 64 140 180 64 141 181 64 142 182 64 142 183 64 143 184 64 144 185 64 144 186 64 145 187 64 146 188 64 146 189 64 147 190 64 148 191 64 148 192 64 149 193 64 150 194 64 150 195 64 151 196 64 152 197 64 152 198 64 153 199 64 154 200 64 154 201 64 155 202 64 156 203 64 156 204 64 157 205 64 158 206 64 158 207 64 159 208 64 160 209 64 160 210 64 161 211 64 162 212 64 162 213 64 163 214 64 164 215 64 164 216 64 165 217 64 166 218 64 166 219 64 167 220 64 168 221 64 168 222 64 169 223 64 170 224 64 170 225 64 171 226 64 172 227 64 172 228 64 173 229 64 174 230 64 174 231 64 175 232 64 176 233 64 176 234 64 177 235 64 178 236 64 178 237 64 179 238 64 180 239 64 180 240 64 181 241 64 182 242 64 182 243 64 183 244 64 184 245 64 184 246 64 185 247 64 186 248 64 186 249 64 187 250 64 188 251 64 188 252 64 189 253 64 190 254 64 190 255 64 191
0 66 22 1 66 22 2 66 23 3 66 24 4 66 24 5 66 25 6 66 26 7 66 26 8 66 27 9 66 28 10 66 28 11 66 29 12 66 30 13 66 30 14 66 31 15 66 32 16 66 32 17 66 33 18 66 34 19 66 34 20 66 35 21 66 36 22 66 36 23 66 37 24 66 38 25 66 38 26 66 39 27 66 40 28 66 40 29 66 41 30 66 42 31 66 42 32 66 43 33 66 44 34 66 44 35 66 45 36 66 46 37 66 46 38 66 47 39 66 48 40 66 48 41 66 49 42 66 50 43 66 50 44 66 51 45 66 52 46 66 52 47 66 53 48 66 54 49 66 54 50 66 55 51 66 56 52 66 56 53 66 57 54 66 58 55 66 58 56 66 59 57 66 60 58 66 60 59 66 61 60 66 62 61 66 62 62 66 63 63 66 64 64 66 64 65 66 65 66 66 66 67 66 66 68 66 67 69 66 68 70 66 68 71 66 69 72 66 70 73 66 70 74 66 71 75 66 72 76 66 72 77 66 73 78 66 74 79 66 74 80 66 75 81 66 76 82 66 76 83 66 77 84 66 78 85 66 78 86 66 79 87 66 80 88 66 80 89 66 81 90 66 82 91 66 82 92 66 83 93 66 84 94 66 84 95 66 85 96 66 86 97 66 86 98 66 87 99 66 88 100 66 88 101 66 89 102 66 90 103 66 90 104 66 91 105 66 92 106 66 92 107 66 93 108 66 94 109 66 94 110 66 95 111 66 96 112 66 96 113 66 97 114 66 98 115 66 98 116 66 99 117 66 100 118 66 100 119 66 101 120 66 102 121 66 102 122 66 103 123 66 104 124 66 104 125 66 105 126 66 106 127 66 106 128 66 107 129 66 108 130 66 108 131 66 109 132 66 110 133 66 110 134 66 111 135 66 112 136 66 112 137 66 113 138 66 114 139 66 114 140 66 115 141 66 116 142 66 116 143 66 117 144 66 118 145 66 118 146 66 119 147 66 120 148 66 120 149 66 121 150 66 122 151 66 122 152 66 123 153 66 124 154 66 124 155 66 125 156 66 126 157 66 126 158 66 127 159 66 128 160 66 128 161 66 129 162 66 130 163 66 130 164 66 131 165 66 132 166 66 132 167 66 133 168 66 134 169 66 134 170 66 135 171 66 136 172 66 136 173 66 137 174 66 138 175 66 138 176 66 139 177 66 140 178 66 140 179 66 141 180 66 142 181 66 142 182 66 143 183 66 144 184 66 144 185 66 145 186 66 146 187 66 146 188 66 147 189 66 148 190 66 148 191 66 149 192 66 150 193 66 150 194 66 151 195 66 152 196 66 152 197 66 153 198 66 154 199 66 154 200 66 155 201 66 156 202 66 156 203 66 157 204 66 158 205 66 158 206 66 159 207 66 160 208 66 160 209 66 161 210 66 162 211 66 162 212 66 163 213 66 164 214 66 164 215 66 165 216 66 166 217 66 166 218 66 167 219 66 168 220 66 168 221 66 169 222 66 170 223 66 170 224 66 171 225 66 172 226 66 172 227 66 173 228 66 174 229 66 174 230 66 175 231 66 176 232 66 176 233 66 177 234 66 178 235 66 178 236 66 179 237 66 180 238 66 180 239 66 181 240 66 182 241 66 182 242 66 183 243 66 184 244 66 184 245 66 185 246 66 186 247 66 186 248 66 187 249 66 188 250 66 188 251 66 189 252 66 190 253 66 190 254 66 191 255 66 192
0 68 22 1 68 23 2 68 24 3 68 24 4 68 25 5 68 26 6 68 26 7 68 27 8 68 28 9 68 28 10 68 29 11 68 30 12 68 30 13 68 31 14 68 32 15 68 32 16 68 33 17 68 34 18 68 34 19 68 35 20 68 36 21 68 36 22 68 37 23 68 38 24 68 38 25 68 39 26 68 40 27 68 40 28 68 41 29 68 42 30 68 42 31 68 43 32 68 44 33 68 44 34 68 45 35 68 46 36 68 46 37 68 47 38 68 48 39 68 48 40 68 49 41 68 50 42 68 50 43 68 51 44 68 52 45 68 52 46 68 53 47 68 54 48 68 54 49 68 55 50 68 56 51 68 56 52 68 57 53 68 58 54 68 58 55 68 59 56 68 60 57 68 60 58 68 61 59 68 62 60 68 62 61 68 63 62 68 64 63 68 64 64 68 65 65 68 66 66 68 66 67 68 67 68 68 68 69 68 68 70 68 69 71 68 70 72 68 70 73 68 71 74 68 72 75 68 72 76 68 73 77 68 74 78 68 74 79 68 75 80 68 76 81 68 76 82 68 77 83 68 78 84 68 78 85 68 79 86 68 80 87 68 80 88 68 81 89 68 82 90 68 82 91 68 83 92 68 84 93 68 84 94 68 85 95 68 86 96 68 86 97 68 87 98 68 88 99 68 88 100 68 89 101 68 90 102 68 90 103 68 91 104 68 92 105 68 92 106 68 93 107 68 94 108 68 94 109 68 95 110 68 96 111 68 96 112 68 97 113 68 98 114 68 98 115 68 99 116 68 100 117 68 100 118 68 101 119 68 102 120 68 102 121 68 103 122 68 104 123 68 104 124 68 105 125 68 106 126 68 106 127 68 107 128 68 108 129 68 108 130 68 109 131 68 110 132 68 110 133 68 111 134 68 112 135 68 112 136 68 113 137 68 114 138 68 114 139 68 115 140 68 116 141 68 116 142 68 117 143 68 118 144 68 118 145 68 119 146 68 120 147 68 120 148 68 121 149 68 122 150 68 122 151 68 123 152 68 124 153 68 124 154 68 125 155 68 126 156 68 126 157 68 127 158 68 128 159 68 128 160 68 129 161 68 130 162 68 130 163 68 131 164 68 132 165 68 132 166 68 133 167 68 134 168 68 134 169 68 135 170 68 136 171 68 136 172 68 137 173 68 138 174 68 138 175 68 139 176 68 140 177 68 140 178 68 141 179 68 142 180 68 142 181 68 143 182 68 144 183 68 144 184 68 145 185 68 146 186 68 146 187 68 147 188 68 148 189 68 148 190 68 149 191 68 150 192 68 150 193 68 151 194 68 152 195 68 152 196 68 153 197 68 154 198 68 154 199 68 155 200 68 156 201 68 156 202 68 157 203 68 158 204 68 158 205 68 159 206 68 160 207 68 160 208 68 161 209 68 162 210 68 162 211 68 163 212 68 164 213 68 164 214 68 165 215 68 166 216 68 166 217 68 167 218 68 168 219 68 168 220 68 169 221 68 170 222 68 170 223 68 171 224 68 172 225 68 172 226 68 173 227 68 174 228 68 174 229 68 175 230 68 176 231 68 176 232 68 177 233 68 178 234 68 178 235 68 179 236 68 180 237 68 180 238 68 181 239 68 182 240 68 182 241 68 183 242 68 184 243 68 184 244 68 185 245 68 186 246 68 186 247 68 187 248 68 188 249 68 188 250 68 189 251 68 190 252 68 190 253 68 191 254 68 192 255 68 192
0 70 23 1 70 24 2 70 24 3 70 25 4 70 26 5 70 26 6 70 27 7 70 28 8 70 28 9 70 29 10 70 30 11 70 30 12 70 31 13 70 32 14 70 32 15 70 33 16 70 34 17 70 34 18 70 35 19 70 36 20 70 36 21 70 37 22 70 38 23 70 38 24 70 39 25 70 40 26 70 40 27 70 41 28 70 42 29 70 42 30 70 43 31 70 44 32 70 44 33 70 45 34 70 46 35 70 46 36 70 47 37 70 48 38 70 48 39 70 49 40 70 50 41 70 50 42 70 51 43 70 52 44 70 52 45 70 53 46 70 54 47 70 54 48 70 55 49 70 56 50 70 56 51 70 57 52 70 58 53 70 58 54 70 59 55 70 60 56 70 60 57 70 61 58 70 62 59 70 62 60 70 63 61 70 64 62 70 64 63 70 65 64 70 66 65 70 66 66 70 67 67 70 68 68 70 68 69 70 69 70 70 70 71 70 70 72 70 71 73 70 72 74 70 72 75 70 73 76 70 74 77 70 74 78 70 75 79 70 76 80 70 76 81 70 77 82 70 78 83 70 78 84 70 79 85 70 80 86 70 80 87 70 81 88 70 82 89 70 82 90 70 83 91 70 84 92 70 84 93 70 85 94 70 86 95 70 86 96 70 87 97 70 88 98 70 88 99 70 89 100 70 90 101 70 90 102 70 91 103 70 92 104 70 92 105 70 93 106 70 94 107 70 94 108 70 95 109 70 96 110 70 96 111 70 97 112 70 98 113 70 98 114 70 99 115 70 100 116 70 100 117 70 101 118 70 102 119 70 102 120 70 103 121 70 104 122 70 104 123 70 105 124 70 106 125 70 106 126 70 107 127 70 108 128 70 108 129 70 109 130 70 110 131 70 110 132 70 111 133 70 112 134 70 112 135 70 113 136 70 114 137 70 114 138 70 115 139 70 116 140 70 116 141 70 117 142 70 118 143 70 118 144 70 119 145 70 120 146 70 120 147 70 121 148 70 122 149 70 122 150 70 123 151 70 124 152 70 124 153 70 125 154 70 126 155 70 126 156 70 127 157 70 128 158 70 128 159 70 129 160 70 130 161 70 130 162 70 131 163 70 132 164 70 132 165 70 133 166 70 134 167 70 134 168 70 135 169 70 136 170 70 136 171 70 137 172 70 138 173 70 138 174 70 139 175 70 140 176 70 140 177 70 141 178 70 142 179 70 142 180 70 143 181 70 144 182 70 144 183 70 145 184 70 146 185 70 146 186 70 147 187 70 148 188 70 148 189 70 149 190 70 150 191 70 150 192 70 151 193 70 152 194 70 152 195 70 153 196 70 154 197 70 154 198 70 155 199 70 156 200 70 156 201 70 157 202 70 158 203 70 158 204 70 159 205 70 160 206 70 160 207 70 161 208 70 162 209 70 162 210 70 163 211 70 164 212 70 164 213 70 165 214 70 166 215 70 166 216 70 167 217 70 168 218 70 168 219 70 169 220 70 170 221 70 170 222 70 171 223 70 172 224 70 172 225 70 173 226 70 174 227 70 174 228 70 175 229 70 176 230 70 176 231 70 177 232 70 178 233 70 178 234 70 179 235 70 180 236 70 180 237 70 181 238 70 182 239 70 182 240 70 183 241 70 184 242 70 184 243 70 185 244 70 186 245 70 186 246 70 187 247 70 188 248 70 188 249 70 189 250 70 190 251 70 190 252 70 191 253 70 192 254 70 192 255 70 193
0 72 24 1 72 24 2 72 25 3 72 26 4 72 26 5 72 27 6 72 28 7 72 28 8 72 29 9 72 30 10 72 30 11 72 31 12 72 32 13 72 32 14 72 33 15 72 34 16 72 34 17 72 35 18 72 36 19 72 36 20 72 37 21 72 38 22 72 38 23 72 39 24 72 40 25 72 40 26 72 41 27 72 42 28 72 42 29 72 43 30 72 44 31 72 44 32 72 45 33 72 46 34 72 46 35 72 47 36 72 48 37 72 48 38 72 49 39 72 50 40 72 50 41 72 51 42 72 52 43 72 52 44 72 53 45 72 54 46 72 54 47 72 55 48 72 56 49 72 56 50 72 57 51 72 58 52 72 58 53 72 59 54 72 60 55 72 60 56 72 61 57 72 62 58 72 62 59 72 63 60 72 64 61 72 64 62 72 65 63 72 66 64 72 66 65 72 67 66 72 68 67 72 68 68 72 69 69 72 70 70 72 70 71 72 71 72 72 72 73 72 72 74 72 73 75 72 74 76 72 74 77 72 75 78 72 76 79 72 76 80 72 77 81 72 78 82 72 78 83 72 79 84 72 80 85 72 80 86 72 81 87 72 82 88 72 82 89 72 83 90 72 84 91 72 84 92 72 85 93 72 86 94 72 86 95 72 87 96 72 88 97 72 88 98 72 89 99 72 90 100 72 90 101 72 91 102 72 92 103 72 92 104 72 93 105 72 94 106 72 94 107 72 95 108 72 96 109 72 96 110 72 97 111 72 98 112 72 98 113 72 99 114 72 100 115 72 100 116 72 101 117 72 102 118 72 102 119 72 103 120 72 104 121 72 104 122 72 105 123 72 106 124 72 106 125 72 107 126 72 108 127 72 108 128 72 109 129 72 110 130 72 110 131 72 111 132 72 112 133 72 112 134 72 113 135 72 114 136 72 114 137 72 115 138 72 116 139 72 116 140 72 117 141 72 118 142 72 118 143 72 119 144 72 120 145 72 120 146 72 121 147 72 122 148 72 122 149 72 123 150 72 124 151 72 124 152 72 125 153 72 126 154 72 126 155 72 127 156 72 128 157 72 128 158 72 129 159 72 130 160 72 130 161 72 131 162 72 132 163 72 132 164 72 133 165 72 134 166 72 134 167 72 135 168 72 136 169 72 136 170 72 137 171 72 138 172 72 138 173 72 139 174 72 140 175 72 140 176 72 141 177 72 142 178 72 142 179 72 143 180 72 144 181 72 144 182 72 145 183 72 146 184 72 146 185 72 147 186 72 148 187 72 148 188 72 149 189 72 150 190 72 150 191 72 151 192 72 152 193 72 152 194 72 153 195 72 154 196 72 154 197 72 155 198 72 156 199 72 156 200 72 157 201 72 158 202 72 158 203 72 159 204 72 160 205 72 160 206 72 161 207 72 162 208 72 162 209 72 163 210 72 164 211 72 164 212 72 165 213 72 166 214 72 166 215 72 167 216 72 168 217 72 168 218 72 169 219 72 170 220 72 170 221 72 171 222 72 172 223 72 172 224 72 173 225 72 174 226 72 174 227 72 175 228 72 176 229 72 176 230 72 177 231 72 178 232 72 178 233 72 179 234 72 180 235 72 180 236 72 181 237 72 182 238 72 182 239 72 183 240 72 184 241 72 184 242 72 185 243 72 186 244 72 186 245 72 187 246 72 188 247 72 188 248 72 189 249 72 190 250 72 190 251 72 191 252 72 192 253 72 192 254 72 193 255 72 194
0 74 24 1 74 25 2 74 26 3 74 26 4 74 27 5 74 28 6 74 28 7 74 29 8 74 30 9 74 30 10 74 31 11 74 32 12 74 32 13 74 33 14 74 34 15 74 34 16 74 35 17 74 36 18 74 36 19 74 37 20 74 38 21 74 38 22 74 39 23 74 40 24 74 40 25 74 41 26 74 42 27 74 42 28 74 43 29 74 44 30 74 44 31 74 45 32 74 46 33 74 46 34 74 47 35 74 48 36 74 48 37 74 49 38 74 50 39 74 50 40 74 51 41 74 52 42 74 52 43 74 53 44 74 54 45 74 54 46 74 55 47 74 56 48 74 56 49 74 57 50 74 58 51 74 58 52 74 59 53 74 60 54 74 60 55 74 61 56 74 62 57 74 62 58 74 63 59 74 64 60 74 64 61 74 65 62 74 66 63 74 66 64 74 67 65 74 68 66 74 68 67 74 69 68 74 70 69 74 70 70 74 71 71 74 72 72 74 72 73 74 73 74 74 74 75 74 74 76 74 75 77 74 76 78 74 76 79 74 77 80 74 78 81 74 78 82 74 79 83 74 80 84 74 80 85 74 81 86 74 82 87 74 82 88 74 83 89 74 84 90 74 84 91 74 85 92 74 86 93 74 86 94 74 87 95 74 88 96 74 88 97 74 89 98 74 90 99 74 90 100 74 91 101 74 92 102 74 92 103 74 93 104 74 94 105 74 94 106 74 95 107 74 96 108 74 96 109 74 97 110 74 98 111 74 98 112 74 99 113 74 100 114 74 100 115 74 101 116 74 102 117 74 102 118 74 103 119 74 104 120 74 104 121 74 105 122 74 106 123 74 106 124 74 107 125 74 108 126 74 108 127 74 109 128 74 110 129 74 110 130 74 111 131 74 112 132 74 112 133 74 113 134 74 114 135 74 114 136 74 115 137 74 116 138 74 116 139 74 117 140 74 118 141 74 118 142 74 119 143 74 120 144 74 120 145 74 121 146 74 122 147 74 122 148 74 123 149 74 124 150 74 124 151 74 125 152 74 126 153 74 126 154 74 127 155 74 128 156 74 128 157 74 129 158 74 130 159 74 130 160 74 131 161 74 132 162 74 132 163 74 133 164 74 134 165 74 134 166 74 135 167 74 136 168 74 136 169 74 137 170 74 138 171 74 138 172 74 139 173 74 140 174 74 140 175 74 141 176 74 142 177 74 142 178 74 143 179 74 144 180 74 144 181 74 145 182 74 146 183 74 146 184 74 147 185 74 148 186 74 148 187 74 149 188 74 150 189 74 150 190 74 151 191 74 152 192 74 152 193 74 153 194 74 154 195 74 154 196 74 155 197 74 156 198 74 156 199 74 157 200 74 158 201 74 158 202 74 159 203 74 160 204 74 160 205 74 161 206 74 162 207 74 162 208 74 163 209 74 164 210 74 164 211 74 165 212 74 166 213 74 166 214 74 167 215 74 168 216 74 168 217 74 169 218 74 170 219 74 170 220 74 171 221 74 172 222 74 172 223 74 173 224 74 174 225 74 174 226 74 175 227 74 176 228 74 176 229 74 177 230 74 178 231 74 178 232 74 179 233 74 180 234 74 180 235 74 181 236 74 182 237 74 182 238 74 183 239 74 184 240 74 184 241 74 185 242 74 186 243 74 186 244 74 187 245 74 188 246 74 188 247 74 189 248 74 190 249 74 190 250 74 191 251 74 192 252 74 192 253 74 193 254 74 194 255 74 194
0 76 25 1 76 26 2 76 26 3 76 27 4 76 28 5 76 28 6 76 29 7 76 30 8 76 30 9 76 31 10 76 32 11 76 32 12 76 33 13 76 34 14 76 34 15 76 35 16 76 36 17 76 36 18 76 37 19 76 38 20 76 38 21 76 39 22 76 40 23 76 40 24 76 41 25 76 42 26 76 42 27 76 43 28 76 44 29 76 44 30 76 45 31 76 46 32 76 46 33 76 47 34 76 48 35 76 48 36 76 49 37 76 50 38 76 50 39 76 51 40 76 52 41 76 52 42 76 53 43 76 54 44 76 54 45 76 55 46 76 56 47 76 56 48 76 57 49 76 58 50 76 58 51 76 59 52 76 60 53 76 60 54 76 61 55 76 62 56 76 62 57 76 63 58 76 64 59 76 64 60 76 65 61 76 66 62 76 66 63 76 67 64 76 68 65 76 68 66 76 69 67 76 70 68 76 70 69 76 71 70 76 72 71 76 72 72 76 73 73 76 74 74 76 74 75 76 75 76 76 76 77 76 76 78 76 77 79 76 78 80 76 78 81 76 79 82 76 80 83 76 80 84 76 81 85 76 82 86 76 82 87 76 83 88 76 84 89 76 84 90 76 85 91 76 86 92 76 86 93 76 87 94 76 88 95 76 88 96 76 89 97 76 90 98 76 90 99 76 91 100 76 92 101 76 92 102 76 93 103 76 94 104 76 94 105 76 95 106 76 96 107 76 96 108 76 97 109 76 98 110 76 98 111 76 99 112 76 100 113 76 100 114 76 101 115 76 102 116 76 102 117 76 103 118 76 104 119 76 104 120 76 105 121 76 106 122 76 106 123 76 107 124 76 108 125 76 108 126 76 109 127 76 110 128 76 110 129 76 111 130 76 112 131 76 112 132 76 113 133 76 114 134 76 114 135 76 115 136 76 116 137 76 116 138 76 117 139 76 118 140 76 118 141 76 119 142 76 120 143 76 120 144 76 121 145 76 122 146 76 122 147 76 123 148 76 124 149 76 124 150 76 125 151 76 126 152 76 126 153 76 127 154 76 128 155 76 128 156 76 129 157 76 130 158 76 130 159 76 131 160 76 132 161 76 132 162 76 133 163 76 134 164 76 134 165 76 135 166 76 136 167 76 136 168 76 137 169 76 138 170 76 138 171 76 139 172 76 140 173 76 140 174 76 141 175 76 142 176 76 142 177 76 143 178 76 144 179 76 144 180 76 145 181 76 146 182 76 146 183 76 147 184 76 148 185 76 148 186 76 149 187 76 150 188 76 150 189 76 151 190 76 152 191 76 152 192 76 153 193 76 154 194 76 154 195 76 155 196 76 156 197 76 156 198 76 157 199 76 158 200 76 158 201 76 159 202 76 160 203 76 160 204 76 161 205 76 162 206 76 162 207 76 163 208 76 164 209 76 164 210 76 165 211 76 166 212 76 166 213 76 167 214 76 168 215 76 168 216 76 169 217 76 170 218 76 170 219 76 171 220 76 172 221 76 172 222 76 173 223 76 174 224 76 174 225 76 175 226 76 176 227 76 176 228 76 177 229 76 178 230 76 178 231 76 179 232 76 180 233 76 180 234 76 181 235 76 182 236 76 182 237 76 183 238 76 184 239 76 184 240 76 185 241 76 186 242 76 186 243 76 187 244 76 188 245 76 188 246 76 189 247 76 190 248 76 190 249 76 191 250 76 192 251 76 192 252 76 193 253 76 194 254 76 194 255 76 195
0 78 26 1 78 26 2 78 27 3 78 28 4 78 28 5 78 29 6 78 30 7 78 30 8 78 31 9 78 32 10 78 32 11 78 33 12 78 34 13 78 34 14 78 35 15 78 36 16 78 36 17 78 37 18 78 38 19 78 38 20 78 39 21 78 40 22 78 40 23 78 41 24 78 42 25 78 42 26 78 43 27 78 44 28 78 44 29 78 45 30 78 46 31 78 46 32 78 47 33 78 48 34 78 48 35 78 49 36 78 50 37 78 50 38 78 51 39 78 52 40 78 52 41 78 53 42 78 54 43 78 54 44 78 55 45 78 56 46 78 56 47 78 57 48 78 58 49 78 58 50 78 59 51 78 60 52 78 60 53 78 61 54 78 62 55 78 62 56 78 63 57 78 64 58 78 64 59 78 65 60 78 66 61 78 66 62 78 67 63 78 68 64 78 68 65 78 69 66 78 70 67 78 70 68 78 71 69 78 72 70 78 72 71 78 73 72 78 74 73 78 74 74 78 75 75 78 76 76 78 76 77 78 77 78 78 78 79 78 78 80 78 79 81 78 80 82 78 80 83 78 81 84 78 82 85 78 82 86 78 83 87 78 84 88 78 84 89 78 85 90 78 86 91 78 86 92 78 87 93 78 88 94 78 88 95 78 89 96 78 90 97 78 90 98 78 91 99 78 92 100 78 92 101 78 93 102 78 94 103 78 94 104 78 95 105 78 96 106 78 96 107 78 97 108 78 98 109 78 98 110 78 99 111 78 100 112 78 100 113 78 101 114 78 102 115 78 102 116 78 103 117 78 104 118 78 104 119 78 105 120 78 106 121 78 106 122 78 107 123 78 108 124 78 108 125 78 109 126 78 110 127 78 110 128 78 111 129 78 112 130 78 112 131 78 113 132 78 114 133 78 114 134 78 115 135 78 116 136 78 116 137 78 117 138 78 118 139 78 118 140 78 119 141 78 120 142 78 120 143 78 121 144 78 122 145 78 122 146 78 123 147 78 124 148 78 124 149 78 125 150 78 126 151 78 126 152 78 127 153 78 128 154 78 128 155 78 129 156 78 130 157 78 130 158 78 131 159 78 132 160 78 132 161 78 133 162 78 134 163 78 134 164 78 135 165 78 136 166 78 136 167 78 137 168 78 138 169 78 138 170 78 139 171 78 140 172 78 140 173 78 141 174 78 142 175 78 142 176 78 143 177 78 144 178 78 144 179 78 145 180 78 146 181 78 146 182 78 147 183 78 148 184 78 148 185 78 149 186 78 150 187 78 150 188 78 151 189 78 152 190 78 152 191 78 153 192 78 154 193 78 154 194 78 155 195 78 156 196 78 156 197 78 157 198 78 158 199 78 158 200 78 159 201 78 160 202 78 160 203 78 161 204 78 162 205 78 162 206 78 163 207 78 164 208 78 164 209 78 165 210 78 166 211 78 166 212 78 167 213 78 168 214 78 168 215 78 169 216 78 170 217 78 170 218 78 171 219 78 172 220 78 172 221 78 173 222 78 174 223 78 174 224 78 175 225 78 176 226 78 176 227 78 177 228 78 178 229 78 178 230 78 179 231 78 180 232 78 180 233 78 181 234 78 182 235 78 182 236 78 183 237 78 184 238 78 184 239 78 185 240 78 186 241 78 186 242 78 187 243 78 188 244 78 188 245 78 189 246 78 190 247 78 190 248 78 191 249 78 192 250 78 192 251 78 193 252 78 194 253 78 194 254 78 195 255 78 196
0 80 26 1 80 27 2 80 28 3 80 28 4 80 29 5 80 30 6 80 30 7 80 31 8 80 32 9 80 32 10 80 33 11 80 34 12 80 34 13 80 35 14 80 36 15 80 36 16 80 37 17 80 38 18 80 38 19 80 39 20 80 40 21 80 40 22 80 41 23 80 42 24 80 42 25 80 43 26 80 44 27 80 44 28 80 45 29 80 46 30 80 46 31 80 47 32 80 48 33 80 48 34 80 49 35 80 50 36 80 50 37 80 51 38 80 52 39 80 52 40 80 53 41 80 54 42 80 54 43 80 55 44 80 56 45 80 56 46 80 57 47 80 58 48 80 58 49 80 59 50 80 60 51 80 60 52 80 61 53 80 62 54 80 62 55 80 63 56 80 64 57 80 64 58 80 65 59 80 66 60 80 66 61 80 67 62 80 68 63 80 68 64 80 69 65 80 70 66 80 70 67 80 71 68 80 72 69 80 72 70 80 73 71 80 74 72 80 74 73 80 75 74 80 76 75 80 76 76 80 77 77 80 78 78 80 78 79 80 79 80 80 80 81 80 80 82 80 81 83 80 82 84 80 82 85 80 83 86 80 84 87 80 84 88 80 85 89 80 86 90 80 86 91 80 87 92 80 88 93 80 88 94 80 89 95 80 90 96 80 90 97 80 91 98 80 92 99 80 92 100 80 93 101 80 94 102 80 94 103 80 95 104 80 96 105 80 96 106 80 97 107 80 98 108 80 98 109 80 99 110 80 100 111 80 100 112 80 101 113 80 102 114 80 102 115 80 103 116 80 104 117 80 104 118 80 105 119 80 106 120 80 106 121 80 107 122 80 108 123 80 108 124 80 109 125 80 110 126 80 110 127 80 111 128 80 112 129 80 112 130 80 113 131 80 114 132 80 114 133 80 115 134 80 116 135 80 116 136 80 117 137 80 118 138 80 118 139 80 119 140 80 120 141 80 120 142 80 121 143 80 122 144 80 122 145 80 123 146 80 124 147 80 124 148 80 125 149 80 126 150 80 126 151 80 127 152 80 128 153 80 128 154 80 129 155 80 130 156 80 130 157 80 131 158 80 132 159 80 132 160 80 133 161 80 134 162 80 134 163 80 135 164 80 136 165 80 136 166 80 137 167 80 138 168 80 138 169 80 139 170 80 140 171 80 140 172 80 141 173 80 142 174 80 142 175 80 143 176 80 144 177 80 144 178 80 145 179 80 146 180 80 146 181 80 147 182 80 148 183 80 148 184 80 149 185 80 150 186 80 150 187 80 151 188 80 152 189 80 152 190 80 153 191 80 154 192 80 154 193 80 155 194 80 156 195 80 156 196 80 157 197 80 158 198 80 158 199 80 159 200 80 160 201 80 160 202 80 161 203 80 162 204 80 162 205 80 163 206 80 164 207 80 164 208 80 165 209 80 166 210 80 166 211 80 167 212 80 168 213 80 168 214 80 169 215 80 170 216 80 170 217 80 171 218 80 172 219 80 172 220 80 173 221 80 174 222 80 174 223 80 175 224 80 176 225 80 176 226 80 177 227 80 178 228 80 178 229 80 179 230 80 180 231 80 180 232 80 181 233 80 182 234 80 182 235 80 183 236 80 184 237 80 184 238 80 185 239 80 186 240 80 186 241 80 187 242 80 188 243 80 188 244 80 189 245 80 190 246 80 190 247 80 191 248 80 192 249 80 192 250 80 193 251 80 194 252 80 194 253 80 195 254 80 196 255 80 196
0 82 27 1 82 28 2 82 28 3 82 29 4 82 30 5 82 30 6 82 31 7 82 32 8 82 32 9 82 33 10 82 34 11 82 34 12 82 35 13 82 36 14 82 36 15 82 37 16 82 38 17 82 38 18 82 39 19 82 40 20 82 40 21 82 41 22 82 42 23 82 42 24 82 43 25 82 44 26 82 44 27 82 45 28 82 46 29 82 46 30 82 47 31 82 48 32 82 48 33 82 49 34 82 50 35 82 50 36 82 51 37 82 52 38 82 52 39 82 53 40 82 54 41 82 54 42 82 55 43 82 56 44 82 56 45 82 57 46 82 58 47 82 58 48 82 59 49 82 60 50 82 60 51 82 61 52 82 62 53 82 62 54 82 63 55 82 64 56 82 64 57 82 65 58 82 66 59 82 66 60 82 67 61 82 68 62 82 68 63 82 69 64 82 70 65 82 70 66 82 71 67 82 72 68 82 72 69 82 73 70 82 74 71 82 74 72 82 75 73 82 76 74 82 76 75 82 77 76 82 78 77 82 78 78 82 79 79 82 80 80 82 80 81 82 81 82 82 82 83 82 82 84 82 83 85 82 84 86 82 84 87 82 85 88 82 86 89 82 86 90 82 87 91 82 88 92 82 88 93 82 89 94 82 90 95 82 90 96 82 91 97 82 92 98 82 92 99 82 93 100 82 94 101 82 94 102 82 95 103 82 96 104 82 96 105 82 97 106 82 98 107 82 98 108 82 99 109 82 100 110 82 100 111 82 101 112 82 102 113 82 102 114 82 103 115 82 104 116 82 104 117 82 105 118 82 106 119 82 106 120 82 107 121 82 108 122 82 108 123 82 109 124 82 110 125 82 110 126 82 111 127 82 112 128 82 112 129 82 113 130 82 114 131 82 114 132 82 115 133 82 116 134 82 116 135 82 117 136 82 118 137 82 118 138 82 119 139 82 120 140 82 120 141 82 121 142 82 122 143 82 122 144 82 123 145 82 124 146 82 124 147 82 125 148 82 126 149 82 126 150 82 127 151 82 128 152 82 128 153 82 129 154 82 130 155 82 130 156 82 131 157 82 132 158 82 132 159 82 133 160 82 134 161 82 134 162 82 135 163 82 136 164 82 136 165 82 137 166 82 138 167 82 138 168 82 139 169 82 140 170 82 140 171 82 141 172 82 142 173 82 142 174 82 143 175 82 144 176 82 144 177 82 145 178 82 146 179 82 146 180 82 147 181 82 148 182 82 148 183 82 149 184 82 150 185 82 150 186 82 151 187 82 152 188 82 152 189 82 153 190 82 154 191 82 154 192 82 155 193 82 156 194 82 156 195 82 157 196 82 158 197 82 158 198 82 159 199 82 160 200 82 160 201 82 161 202 82 162 203 82 162 204 82 163 205 82 164 206 82 164 207 82 165 208 82 166 209 82 166 210 82 167 211 82 168 212 82 168 213 82 169 214 82 170 215 82 170 216 82 171 217 82 172 218 82 172 219 82 173 220 82 174 221 82 174 222 82 175 223 82 176 224 82 176 225 82 177 226 82 178 227 82 178 228 82 179 229 82 180 230 82 180 231 82 181 232 82 182 233 82 182 234 82 183 235 82 184 236 82 184 237 82 185 238 82 186 239 82 186 240 82 187 241 82 188 242 82 188 243 82 189 244 82 190 245 82 190 246 82 191 247 82 192 248 82 192 249 82 193 250 82 194 251 82 194 252 82 195 253 82 196 254 82 196 255 82 197
0 84 28 1 84 28 2 84 29 3 84 30 4 84 30 5 84 31 6 84 32 7 84 32 8 84 33 9 84 34 10 84 34 11 84 35 12 84 36 13 84 36 14 84 37 15 84 38 16 84 38 17 84 39 18 84 40 19 84 40 20 84 41 21 84 42 22 84 42 23 84 43 24 84 44 25 84 44 26 84 45 27 84 46 28 84 46 29 84 47 30 84 48 31 84 48 32 84 49 33 84 50 34 84 50 35 84 51 36 84 52 37 84 52 38 84 53 39 84 54 40 84 54 41 84 55 42 84 56 43 84 56 44 84 57 45 84 58 46 84 58 47 84 59 48 84 60 49 84 60 50 84 61 51 84 62 52 84 62 53 84 63 54 84 64 55 84 64 56 84 65 57 84 66 58 84 66 59 84 67 60 84 68 61 84 68 62 84 69 63 84 70 64 84 70 65 84 71 66 84 72 67 84 72 68 84 73 69 84 74 70 84 74 71 84 75 72 84 76 73 84 76 74 84 77 75 84 78 76 84 78 77 84 79 78 84 80 79 84 80 80 84 81 81 84 82 82 84 82 83 84 83 84 84 84 85 84 84 86 84 85 87 84 86 88 84 86 89 84 87 90 84 88 91 84 88 92 84 89 93 84 90 94 84 90 95 84 91 96 84 92 97 84 92 98 84 93 99 84 94 100 84 94 101 84 95 102 84 96 103 84 96 104 84 97 105 84 98 106 84 98 107 84 99 108 84 100 109 84 100 110 84 101 111 84 102 112 84 102 113 84 103 114 84 104 115 84 104 116 84 105 117 84 106 118 84 106 119 84 107 120 84 108 121 84 108 122 84 109 123 84 110 124 84 110 125 84 111 126 84 112 127 84 112 128 84 113 129 84 114 130 84 114 131 84 115 132 84 116 133 84 116 134 84 117 135 84 118 136 84 118 137 84 119 138 84 120 139 84 120 140 84 121 141 84 122 142 84 122 143 84 123 144 84 124 145 84 124 146 84 125 147 84 126 148 84 126 149 84 127 150 84 128 151 84 128 152 84 129 153 84 130 154 84 130 155 84 131 156 84 132 157 84 132 158 84 133 159 84 134 160 84 134 161 84 135 162 84 136 163 84 136 164 84 137 165 84 138 166 84 138 167 84 139 168 84 140 169 84 140 170 84 141 171 84 142 172 84 142 173 84 143 174 84 144 175 84 144 176 84 145 177 84 146 178 84 146 179 84 147 180 84 148 181 84 148 182 84 149 183 84 150 184 84 150 185 84 151 186 84 152 187 84 152 188 84 153 189 84 154 190 84 154 191 84 155 192 84 156 193 84 156 194 84 157 195 84 158 196 84 158 197 84 159 198 84 160 199 84 160 200 84 161 201 84 162 202 84 162 203 84 163 204 84 164 205 84 164 206 84 165 207 84 166 208 84 166 209 84 167 210 84 168 211 84 168 212 84 169 213 84 170 214 84 170 215 84 171 216 84 172 217 84 172 218 84 173 219 84 174 220 84 174 221 84 175 222 84 176 223 84 176 224 84 177 225 84 178 226 84 178 227 84 179 228 84 180 229 84 180 230 84 181 231 84 182 232 84 182 233 84 183 234 84 184 235 84 184 236 84 185 237 84 186 238 84 186 239 84 187 240 84 188 241 84 188 242 84 189 243 84 190 244 84 190 245 84 191 246 84 192 247 84 192 248 84 193 249 84 194 250 84 194 251 84 195 252 84 196 253 84 196 254 84 197 255 84 198
0 86 28 1 86 29 2 86 30 3 86 30 4 86 31 5 86 32 6 86 32 7 86 33 8 86 34 9 86 34 10 86 35 11 86 36 12 86 36 13 86 37 14 86 38 15 86 38 16 86 39 17 86 40 18 86 40 19 86 41 20 86 42 21 86 42 22 86 43 23 86 44 24 86 44 25 86 45 26 86 46 27 86 46 28 86 47 29 86 48 30 86 48 31 86 49 32 86 50 33 86 50 34 86 51 35 86 52 36 86 52 37 86 53 38 86 54 39 86 54 40 86 55 41 86 56 42 86 56 43 86 57 44 86 58 45 86 58 46 86 59 47 86 60 48 86 60 49 86 61 50 86 62 51 86 62 52 86 63 53 86 64 54 86 64 55 86 65 56 86 66 57 86 66 58 86 67 59 86 68 60 86 68 61 86 69 62 86 70 63 86 70 64 86 71 65 86 72 66 86 72 67 86 73 68 86 74 69 86 74 70 86 75 71 86 76 72 86 76 73 86 77 74 86 78 75 86 78 76 86 79 77 86 80 78 86 80 79 86 81 80 86 82 81 86 82 82 86 83 83 86 84 84 86 84 85 86 85 86 86 86 87 86 86 88 86 87 89 86 88 90 86 88 91 86 89 92 86 90 93 86 90 94 86 91 95 86 92 96 86 92 97 86 93 98 86 94 99 86 94 100 86 95 101 86 96 102 86 96 103 86 97 104 86 98 105 86 98 106 86 99 107 86 100 108 86 100 109 86 101 110 86 102 111 86 102 112 86 103 113 86 104 114 86 104 115 86 105 116 86 106 117 86 106 118 86 107 119 86 108 120 86 108 121 86 109 122 86 110 123 86 110 124 86 111 125 86 112 126 86 112 127 86 113 128 86 114 129 86 114 130 86 115 131 86 116 132 86 116 133 86 117 134 86 118 135 86 118 136 86 119 137 86 120 138 86 120 139 86 121 140 86 122 141 86 122 142 86 123 143 86 124 144 86 124 145 86 125 146 86 126 147 86 126 148 86 127 149 86 128 150 86 128 151 86 129 152 86 130 153 86 130 154 86 131 155 86 132 156 86 132 157 86 133 158 86 134 159 86 134 160 86 135 161 86 136 162 86 136 163 86 137 164 86 138 165 86 138 166 86 139 167 86 140 168 86 140 169 86 141 170 86 142 171 86 142 172 86 143 173 86 144 174 86 144 175 86 145 176 86 146 177 86 146 178 86 147 179 86 148 180 86 148 181 86 149 182 86 150 183 86 150 184 86 151 185 86 152 186 86 152 187 86 153 188 86 154 189 86 154 190 86 155 191 86 156 192 86 156 193 86 157 194 86 158 195 86 158 196 86 159 197 86 160 198 86 160 199 86 161 200 86 162 201 86 162 202 86 163 203 86 164 204 86 164 205 86 165 206 86 166 207 86 166 208 86 167 209 86 168 210 86 168 211 86 169 212 86 170 213 86 170 214 86 171 215 86 172 216 86 172 217 86 173 218 86 174 219 86 174 220 86 175 221 86 176 222 86 176 223 86 177 224 86 178 225 86 178 226 86 179 227 86 180 228 86 180 229 86 181 230 86 182 231 86 182 232 86 183 233 86 184 234 86 184 235 86 185 236 86 186 237 86 186 238 86 187 239 86 188 240 86 188 241 86 189 242 86 190 243 86 190 244 86 191 245 86 192 246 86 192 247 86 193 248 86 194 249 86 194 250 86 195 251 86 196 252 86 196 253 86 197 254 86 198 255 86 198
0 88 29 1 88 30 2 88 30 3 88 31 4 88 32 5 88 32 6 88 33 7 88 34 8 88 34 9 88 35 10 88 36 11 88 36 12 88 37 13 88 38 14 88 38 15 88 39 16 88 40 17 88 40 18 88 41 19 88 42 20 88 42 21 88 43 22 88 44 23 88 44 24 88 45 25 88 46 26 88 46 27 88 47 28 88 48 29 88 48 30 88 49 31 88 50 32 88 50 33 88 51 34 88 52 35 88 52 36 88 53 37 88 54 38 88 54 39 88 55 40 88 56 41 88 56 42 88 57 43 88 58 44 88 58 45 88 59 46 88 60 47 88 60 48 88 61 49 88 62 50 88 62 51 88 63 52 88 64 53 88 64 54 88 65 55 88 66 56 88 66 57 88 67 58 88 68 59 88 68 60 88 69 61 88 70 62 88 70 63 88 71 64 88 72 65 88 72 66 88 73 67 88 74 68 88 74 69 88 75 70 88 76 71 88 76 72 88 77 73 88 78 74 88 78 75 88 79 76 88 80 77 88 80 78 88 81 79 88 82 80 88 82 81 88 83 82 88 84 83 88 84 84 88 85 85 88 86 86 88 86 87 88 87 88 88 88 89 88 88 90 88 89 91 88 90 92 88 90 93 88 91 94 88 92 95 88 92 96 88 93 97 88 94 98 88 94 99 88 95 100 88 96 101 88 96 102 88 97 103 88 98 104 88 98 105 88 99 106 88 100 107 88 100 108 88 101 109 88 102 110 88 102 111 88 103 112 88 104 113 88 104 114 88 105 115 88 106 116 88 106 117 88 107 118 88 108 119 88 108 120 88 109 121 88 110 122 88 110 123 88 111 124 88 112 125 88 112 126 88 113 127 88 114 128 88 114 129 88 115 130 88 116 131 88 116 132 88 117 133 88 118 134 88 118 135 88 119 136 88 120 137 88 120 138 88 121 139 88 122 140 88 122 141 88 123 142 88 124 143 88 124 144 88 125 145 88 126 146 88 126 147 88 127 148 88 128 149 88 128 150 88 129 151 88 130 152 88 130 153 88 131 154 88 132 155 88 132 156 88 133 157 88 134 158 88 134 159 88 135 160 88 136 161 88 136 162 88 137 163 88 138 164 88 138 165 88 139 166 88 140 167 88 140 168 88 141 169 88 142 170 88 142 171 88 143 172 88 144 173 88 144 174 88 145 175 88 146 176 88 146 177 88 147 178 88 148 179 88 148 180 88 149 181 88 150 182 88 150 183 88 151 184 88 152 185 88 152 186 88 153 187 88 154 188 88 154 189 88 155 190 88 156 191 88 156 192 88 157 193 88 158 194 88 158 195 88 159 196 88 160 197 88 160 198 88 161 199 88 162 200 88 162 201 88 163 202 88 164 203 88 164 204 88 165 205 88 166 206 88 166 207 88 167 208 88 168 209 88 168 210 88 169 211 88 170 212 88 170 213 88 171 214 88 172 215 88 172 216 88 173 217 88 174 218 88 174 219 88 175 220 88 176 221 88 176 222 88 177 223 88 178 224 88 178 225 88 179 226 88 180 227 88 180 228 88 181 229 88 182 230 88 182 231 88 183 232 88 184 233 88 184 234 88 185 235 88 186 236 88 186 237 88 187 238 88 188 239 88 188 240 88 189 241 88 190 242 88 190 243 88 191 244 88 192 245 88 192 246 88 193 247 88 194 248 88 194 249 88 195 250 88 196 251 88 196 252 88 197 253 88 198 254 88 198 255 88 199
0 90 30 1 90 30 2 90 31 3 90 32 4 90 32 5 90 33 6 90 34 7 90 34 8 90 35 9 90 36 10 90 36 11 90 37 12 90 38 13 90 38 14 90 39 15 90 40 16 90 40 17 90 41 18 90 42 19 90 42 20 90 43 21 90 44 22 90 44 23 90 45 24 90 46 25 90 46 26 90 47 27 90 48 28 90 48 29 90 49 30 90 50 31 90 50 32 90 51 33 90 52 34 90 52 35 90 53 36 90 54 37 90 54 38 90 55 39 90 56 40 90 56 41 90 57 42 90 58 43 90 58 44 90 59 45 90 60 46 90 60 47 90 61 48 90 62 49 90 62 50 90 63 51 90 64 52 90 64 53 90 65 54 90 66 55 90 66 56 90 67 57 90 68 58 90 68 59 90 69 60 90 70 61 90 70 62 90 71 63 90 72 64 90 72 65 90 73 66 90 74 67 90 74 68 90 75 69 90 76 70 90 76 71 90 77 72 90 78 73 90 78 74 90 79 75 90 80 76 90 80 77 90 81 78 90 82 79 90 82 80 90 83 81 90 84 82 90 84 83 90 85 84 90 86 85 90 86 86 90 87 87 90 88 88 90 88 89 90 89 90 90 90 91 90 90 92 90 91 93 90 92 94 90 92 95 90 93 96 90 94 97 90 94 98 90 95 99 90 96 100 90 96 101 90 97 102 90 98 103 90 98 104 90 99 105 90 100 106 90 100 107 90 101 108 90 102 109 90 102 110 90 103 111 90 104 112 90 104 113 90 105 114 90 106 115 90 106 116 90 107 117 90 108 118 90 108 119 90 109 120 90 110 121 90 110 122 90 111 123 90 112 124 90 112 125 90 113 126 90 114 127 90 114 128 90 115 129 90 116 130 90 116 131 90 117 132 90 118 133 90 118 134 90 119 135 90 120 136 90 120 137 90 121 138 90 122 139 90 122 140 90 123 141 90 124 142 90 124 143 90 125 144 90 126 145 90 126 146 90 127 147 90 128 148 90 128 149 90 129 150 90 130 151 90 130 152 90 131 153 90 132 154 90 132 155 90 133 156 90 134 157 90 134 158 90 135 159 90 136 160 90 136 161 90 137 162 90 138 163 90 138 164 90 139 165 90 140 166 90 140 167 90 141 168 90 142 169 90 142 170 90 143 171 90 144 172 90 144 173 90 145 174 90 146 175 90 146 176 90 147 177 90 148 178 90 148 179 90 149 180 90 150 181 90 150 182 90 151 183 90 152 184 90 152 185 90 153 186 90 154 187 90 154 188 90 155 189 90 156 190 90 156 191 90 157 192 90 158 193 90 158 194 90 159 195 90 160 196 90 160 197 90 161 198 90 162 199 90 162 200 90 163 201 90 164 202 90 164 203 90 165 204 90 166 205 90 166 206 90 167 207 90 168 208 90 168 209 90 169 210 90 170 211 90 170 212 90 171 213 90 172 214 90 172 215 90 173 216 90 174 217 90 174 218 90 175 219 90 176 220 90 176 221 90 177 222 90 178 223 90 178 224 90 179 225 90 180 226 90 180 227 90 181 228 90 182 229 90 182 230 90 183 231 90 184 232 90 184 233 90 185 234 90 186 235 90 186 236 90 187 237 90 188 238 90 188 239 90 189 240 90 190 241 90 190 242 90 191 243 90 192 244 90 192 245 90 193 246 90 194 247 90 194 248 90 195 249 90 196 250 90 196 251 90 197 252 90 198 253 90 198 254 90 199 255 90 200
0 92 30 1 92 31 2 92 32 3 92 32 4 92 33 5 92 34 6 92 34 7 92 35 8 92 36 9 92 36 10 92 37 11 92 38 12 92 38 13 92 39 14 92 40 15 92 40 16 92 41 17 92 42 18 92 42 19 92 43 20 92 44 21 92 44 22 92 45 23 92 46 24 92 46 25 92 47 26 92 48 27 92 48 28 92 49 29 92 50 30 92 50 31 92 51 32 92 52 33 92 52 34 92 53 35 92 54 36 92 54 37 92 55 38 92 56 39 92 56 40 92 57 41 92 58 42 92 58 43 92 59 44 92 60 45 92 60 46 92 61 47 92 62 48 92 62 49 92 63 50 92 64 51 92 64 52 92 65 53 92 66 54 92 66 55 92 67 56 92 68 57 92 68 58 92 69 59 92 70 60 92 70 61 92 71 62 92 72 63 92 72 64 92 73 65 92 74 66 92 74 67 92 75 68 92 76 69 92 76 70 92 77 71 92 78 72 92 78 73 92 79 74 92 80 75 92 80 76 92 81 77 92 82 78 92 82 79 92 83 80 92 84 81 92 84 82 92 85 83 92 86 84 92 86 85 92 87 86 92 88 87 92 88 88 92 89 89 92 90 90 92 90 91 92 91 92 92 92 93 92 92 94 92 93 95 92 94 96 92 94 97 92 95 98 92 96 99 92 96 100 92 97 101 92 98 102 92 98 103 92 99 104 92 100 105 92 100 106 92 101 107 92 102 108 92 102 109 92 103 110 92 104 111 92 104 112 92 105 113 92 106 114 92 106 115 92 107 116 92 108 117 92 108 118 92 109 119 92 110 120 92 110 121 92 111 122 92 112 123 92 112 124 92 113 125 92 114 126 92 114 127 92 115 128 92 116 129 92 116 130 92 117 131 92 118 132 92 118 133 92 119 134 92 120 135 92 120 136 92 121 137 92 122 138 92 122 139 92 123 140 92 124 141 92 124 142 92 125 143 92 126 144 92 126 145 92 127 146 92 128 147 92 128 148 92 129 149 92 130 150 92 130 151 92 131 152 92 132 153 92 132 154 92 133 155 92 134 156 92 134 157 92 135 158 92 136 159 92 136 160 92 137 161 92 138 162 92 138 163 92 139 164 92 140 165 92 140 166 92 141 167 92 142 168 92 142 169 92 143 170 92 144 171 92 144 172 92 145 173 92 146 174 92 146 175 92 147 176 92 148 177 92 148 178 92 149 179 92 150 180 92 150 181 92 151 182 92 152 183 92 152 184 92 153 185 92 154 186 92 154 187 92 155 188 92 156 189 92 156 190 92 157 191 92 158 192 92 158 193 92 159 194 92 160 195 92 160 196 92 161 197 92 162 198 92 162 199 92 163 200 92 164 201 92 164 202 92 165 203 92 166 204 92 166 205 92 167 206 92 168 207 92 168 208 92 169 209 92 170 210 92 170 211 92 171 212 92 172 213 92 172 214 92 173 215 92 174 216 92 174 217 92 175 218 92 176 219 92 176 220 92 177 221 92 178 222 92 178 223 92 179 224 92 180 225 92 180 226 92 181 227 92 182 228 92 182 229 92 183 230 92 184 231 92 184 232 92 185 233 92 186 234 92 186 235 92 187 236 92 188 237 92 188 238 92 189 239 92 190 240 92 190 241 92 191 242 92 192 243 92 192 244 92 193 245 92 194 246 92 194 247 92 195 248 92 196 249 92 196 250 92 197 251 92 198 252 92 198 253 92 199 254 92 200 255 92 200
0 94 31 1 94 32 2 94 32 3 94 33 4 94 34 5 94 34 6 94 35 7 94 36 8 94 36 9 94 37 10 94 38 11 94 38 12 94 39 13 94 40 14 94 40 15 94 41 16 94 42 17 94 42 18 94 43 19 94 44 20 94 44 21 94 45 22 94 46 23 94 46 24 94 47 25 94 48 26 94 48 27 94 49 28 94 50 29 94 50 30 94 51 31 94 52 32 94 52 33 94 53 34 94 54 35 94 54 36 94 55 37 94 56 38 94 56 39 94 57 40 94 58 41 94 58 42 94 59 43 94 60 44 94 60 45 94 61 46 94 62 47 94 62 48 94 63 49 94 64 50 94 64 51 94 65 52 94 66 53 94 66 54 94 67 55 94 68 56 94 68 57 94 69 58 94 70 59 94 70 60 94 71 61 94 72 62 94 72 63 94 73 64 94 74 65 94 74 66 94 75 67 94 76 68 94 76 69 94 77 70 94 78 71 94 78 72 94 79 73 94 80 74 94 80 75 94 81 76 94 82 77 94 82 78 94 83 79 94 84 80 94 84 81 94 85 82 94 86 83 94 86 84 94 87 85 94 88 86 94 88 87 94 89 88 94 90 89 94 90 90 94 91 91 94 92 92 94 92 93 94 93 94 94 94 95 94 94 96 94 95 97 94 96 98 94 96 99 94 97 100 94 98 101 94 98 102 94 99 103 94 100 104 94 100 105 94 101 106 94 102 107 94 102 108 94 103 109 94 104 110 94 104 111 94 105 112 94 106 113 94 106 114 94 107 115 94 108 116 94 108 117 94 109 118 94 110 119 94 110 120 94 111 121 94 112 122 94 112 123 94 113 124 94 114 125 94 114 126 94 115 127 94 116 128 94 116 129 94 117 130 94 118 131 94 118 132 94 119 133 94 120 134 94 120 135 94 121 136 94 122 137 94 122 138 94 123 139 94 124 140 94 124 141 94 125 142 94 126 143 94 126 144 94 127 145 94 128 146 94 128 147 94 129 148 94 130 149 94 130 150 94 131 151 94 132 152 94 132 153 94 133 154 94 134 155 94 134 156 94 135 157 94 136 158 94 136 159 94 137 160 94 138 161 94 138 162 94 139 163 94 140 164 94 140 165 94 141 166 94 142 167 94 142 168 94 143 169 94 144 170 94 144 171 94 145 172 94 146 173 94 146 174 94 147 175 94 148 176 94 148 177 94 149 178 94 150 179 94 150 180 94 151 181 94 152 182 94 152 183 94 153 184 94 154 185 94 154 186 94 155 187 94 156 188 94 156 189 94 157 190 94 158 191 94 158 192 94 159 193 94 160 194 94 160 195 94 161 196 94 162 197 94 162 198 94 163 199 94 164 200 94 164 201 94 165 202 94 166 203 94 166 204 94 167 205 94 168 206 94 168 207 94 169 208 94 170 209 94 170 210 94 171 211 94 172 212 94 172 213 94 173 214 94 174 215 94 174 216 94 175 217 94 176 218 94 176 219 94 177 220 94 178 221 94 178 222 94 179 223 94 180 224 94 180 225 94 181 226 94 182 227 94 182 228 94 183 229 94 184 230 94 184 231 94 185 232 94 186 233 94 186 234 94 187 235 94 188 236 94 188 237 94 189 238 94 190 239 94 190 240 94 191 241 94 192 242 94 192 243 94 193 244 94 194 245 94 194 246 94 195 247 94 196 248 94 196 249 94 197 250 94 198 251 94 198 252 94 199 253 94 200 254 94 200 255 94 201
0 96 32 1 96 32 2 96 33 3 96 34 4 96 34 5 96 35 6 96 36 7 96 36 8 96 37 9 96 38 10 96 38 11 96 39 12 96 40 13 96 40 14 96 41 15 96 42 16 96 42 17 96 43 18 96 44 19 96 44 20 96 45 21 96 46 22 96 46 23 96 47 24 96 48 25 96 48 26 96 49 27 96 50 28 96 50 29 96 51 30 96 52 31 96 52 32 96 53 33 96 54 34 96 54 35 96 55 36 96 56 37 96 56 38 96 57 39 96 58 40 96 58 41 96 59 42 96 60 43 96 60 44 96 61 45 96 62 46 96 62 47 96 63 48 96 64 49 96 64 50 96 65 51 96 66 52 96 66 53 96 67 54 96 68 55 96 68 56 96 69 57 96 70 58 96 70 59 96 71 60 96 72 61 96 72 62 96 73 63 96 74 64 96 74 65 96 75 66 96 76 67 96 76 68 96 77 69 96 78 70 96 78 71 96 79 72 96 80 73 96 80 74 96 81 75 96 82 76 96 82 77 96 83 78 96 84 79 96 84 80 96 85 81 96 86 82 96 86 83 96 87 84 96 88 85 96 88 86 96 89 87 96 90 88 96 90 89 96 91 90 96 92 91 96 92 92 96 93 93 96 94 94 96 94 95 96 95 96 96 96 97 96 96 98 96 97 99 96 98 100 96 98 101 96 99 102 96 100 103 96 100 104 96 101 105 96 102 106 96 102 107 96 103 108 96 104 109 96 104 110 96 105 111 96 106 112 96 106 113 96 107 114 96 108 115 96 108 116 96 109 117 96 110 118 96 110 119 96 111 120 96 112 121 96 112 122 96 113 123 96 114 124 96 114 125 96 115 126 96 116 127 96 116 128 96 117 129 96 118 130 96 118 131 96 119 132 96 120 133 96 120 134 96 121 135 96 122 136 96 122 137 96 123 138 96 124 139 96 124 140 96 125 141 96 126 142 96 126 143 96 127 144 96 128 145 96 128 146 96 129 147 96 130 148 96 130 149 96 131 150 96 132 151 96 132 152 96 133 153 96 134 154 96 134 155 96 135 156 96 136 157 96 136 158 96 137 159 96 138 160 96 138 161 96 139 162 96 140 163 96 140 164 96 141 165 96 142 166 96 142 167 96 143 168 96 144 169 96 144 170 96 145 171 96 146 172 96 146 173 96 147 174 96 148 175 96 148 176 96 149 177 96 150 178 96 150 179 96 151 180 96 152 181 96 152 182 96 153 183 96 154 184 96 154 185 96 155 186 96 156 187 96 156 188 96 157 189 96 158 190 96 158 191 96 159 192 96 160 193 96 160 194 96 161 195 96 162 196 96 162 197 96 163 198 96 164 199 96 164 200 96 165 201 96 166 202 96 166 203 96 167 204 96 168 205 96 168 206 96 169 207 96 170 208 96 170 209 96 171 210 96 172 211 96 172 212 96 173 213 96 174 214 96 174 215 96 175 216 96 176 217 96 176 218 96 177 219 96 178 220 96 178 221 96 179 222 96 180 223 96 180 224 96 181 225 96 182 226 96 182 227 96 183 228 96 184 229 96 184 230 96 185 231 96 186 232 96 186 233 96 187 234 96 188 235 96 188 236 96 189 237 96 190 238 96 190 239 96 191 240 96 192 241 96 192 242 96 193 243 96 194 244 96 194 245 96 195 246 96 196 247 96 196 248 96 197 249 96 198 250 96 198 251 96 199 252 96 200 253 96 200 254 96 201 255 96 202
0 98 32 1 98 33 2 98 34 3 98 34 4 98 35 5 98 36 6 98 36 7 98 37 8 98 38 9 98 38 10 98 39 11 98 40 12 98 40 13 98 41 14 98 42 15 98 42 16 98 43 17 98 44 18 98 44 19 98 45 20 98 46 21 98 46 22 98 47 23 98 48 24 98 48 25 98 49 26 98 50 27 98 50 28 98 51 29 98 52 30 98 52 31 98 53 32 98 54 33 98 54 34 98 55 35 98 56 36 98 56 37 98 57 38 98 58 39 98 58 40 98 59 41 98 60 42 98 60 43 98 61 44 98 62 45 98 62 46 98 63 47 98 64 48 98 64 49 98 65 50 98 66 51 98 66 52 98 67 53 98 68 54 98 68 55 98 69 56 98 70 57 98 70 58 98 71 59 98 72 60 98 72 61 98 73 62 98 74 63 98 74 64 98 75 65 98 76 66 98 76 67 98 77 68 98 78 69 98 78 70 98 79 71 98 80 72 98 80 73 98 81 74 98 82 75 98 82 76 98 83 77 98 84 78 98 84 79 98 85 80 98 86 81 98 86 82 98 87 83 98 88 84 98 88 85 98 89 86 98 90 87 98 90 88 98 91 89 98 92 90 98 92 91 98 93 92 98 94 93 98 94 94 98 95 95 98 96 96 98 96 97 98 97 98 98 98 99 98 98 100 98 99 101 98 100 102 98 100 103 98 101 104 98 102 105 98 102 106 98 103 107 98 104 108 98 104 109 98 105 110 98 106 111 98 106 112 98 107 113 98 108 114 98 108 115 98 109 116 98 110 117 98 110 118 98 111 119 98 112 120 98 112 121 98 113 122 98 114 123 98 114 124 98 115 125 98 116 126 98 116 127 98 117 128 98 118 129 98 118 130 98 119 131 98 120 132 98 120 133 98 121 134 98 122 135 98 122 136 98 123 137 98 124 138 98 124 139 98 125 140 98 126 141 98 126 142 98 127 143 98 128 144 98 128 145 98 129 146 98 130 147 98 130 148 98 131 149 98 132 150 98 132 151 98 133 152 98 134 153 98 134 154 98 135 155 98 136 156 98 136 157 98 137 158 98 138 159 98 138 160 98 139 161 98 140 162 98 140 163 98 141 164 98 142 165 98 142 166 98 143 167 98 144 168 98 144 169 98 145 170 98 146 171 98 146 172 98 147 173 98 148 174 98 148 175 98 149 176 98 150 177 98 150 178 98 151 179 98 152 180 98 152 181 98 153 182 98 154 183 98 154 184 98 155 185 98 156 186 98 156 187 98 157 188 98 158 189 98 158 190 98 159 191 98 160 192 98 160 193 98 161 194 98 162 195 98 162 196 98 163 197 98 164 198 98 164 199 98 165 200 98 166 201 98 166 202 98 167 203 98 168 204 98 168 205 98 169 206 98 170 207 98 170 208 98 171 209 98 172 210 98 172 211 98 173 212 98 174 213 98 174 214 98 175 215 98 176 216 98 176 217 98 177 218 98 178 219 98 178 220 98 179 221 98 180 222 98 180 223 98 181 224 98 182 225 98 182 226 98 183 227 98 184 228 98 184 229 98 185 230 98 186 231 98 186 232 98 187 233 98 188 234 98 188 235 98 189 236 98 190 237 98 190 238 98 191 239 98 192 240 98 192 241 98 193 242 98 194 243 98 194 244 98 195 245 98 196 246 98 196 247 98 197 248 98 198 249 98 198 250 98 199 251 98 200 252 98 200 253 98 201 254 98 202 255 98 202
0 100 33 1 100 34 2 100 34 3 100 35 4 100 36 5 100 36 6 100 37 7 100 38 8 100 38 9 100 39 10 100 40 11 100 40 12 100 41 13 100 42 14 100 42 15 100 43 16 100 44 17 100 44 18 100 45 19 100 46 20 100 46 21 100 47 22 100 48 23 100 48 24 100 49 25 100 50 26 100 50 27 100 51 28 100 52 29 100 52 30 100 53 31 100 54 32 100 54 33 100 55 34 100 56 35 100 56 36 100 57 37 100 58 38 100 58 39 100 59 40 100 60 41 100 60 42 100 61 43 100 62 44 100 62 45 100 63 46 100 64 47 100 64 48 100 65 49 100 66 50 100 66 51 100 67 52 100 68 53 100 68 54 100 69 55 100 70 56 100 70 57 100 71 58 100 72 59 100 72 60 100 73 61 100 74 62 100 74 63 100 75 64 100 76 65 100 76 66 100 77 67 100 78 68 100 78 69 100 79 70 100 80 71 100 80 72 100 81 73 100 82 74 100 82 75 100 83 76 100 84 77 100 84 78 100 85 79 100 86 80 100 86 81 100 87 82 100 88 83 100 88 84 100 89 85 100 90 86 100 90 87 100 91 88 100 92 89 100 92 90 100 93 91 100 94 92 100 94 93 100 95 94 100 96 95 100 96 96 100 97 97 100 98 98 100 98 99 100 99 100 100 100 101 100 100 102 100 101 103 100 102 104 100 102 105 100 103 106 100 104 107 100 104 108 100 105 109 100 106 110 100 106 111 100 107 112 100 108 113 100 108 114 100 109 115 100 110 116 100 110 117 100 111 118 100 112 119 100 112 120 100 113 121 100 114 122 100 114 123 100 115 124 100 116 125 100 116 126 100 117 127 100 118 128 100 118 129 100 119 130 100 120 131 100 120 132 100 121 133 100 122 134 100 122 135 100 123 136 100 124 137 100 124 138 100 125 139 100 126 140 100 126 141 100 127 142 100 128 143 100 128 144 100 129 145 100 130 146 100 130 147 100 131 148 100 132 149 100 132 150 100 133 151 100 134 152 100 134 153 100 135 154 100 136 155 100 136 156 100 137 157 100 138 158 100 138 159 100 139 160 100 140 161 100 140 162 100 141 163 100 142 164 100 142 165 100 143 166 100 144 167 100 144 168 100 145 169 100 146 170 100 146 171 100 147 172 100 148 173 100 148 174 100 149 175 100 150 176 100 150 177 100 151 178 100 152 179 100 152 180 100 153 181 100 154 182 100 154 183 100 155 184 100 156 185 100 156 186 100 157 187 100 158 188 100 158 189 100 159 190 100 160 191 100 160 192 100 161 193 100 162 194 100 162 195 100 163 196 100 164 197 100 164 198 100 165 199 100 166 200 100 166 201 100 167 202 100 168 203 100 168 204 100 169 205 100 170 206 100 170 207 100 171 208 100 172 209 100 172 210 100 173 211 100 174 212 100 174 213 100 175 214 100 176 215 100 176 216 100 177 217 100 178 218 100 178 219 100 179 220 100 180 221 100 180 222 100 181 223 100 182 224 100 182 225 100 183 226 100 184 227 100 184 228 100 185 229 100 186 230 100 186 231 100 187 232 100 188 233 100 188 234 100 189 235 100 190 236 100 190 237 100 191 238 100 192 239 100 192 240 100 193 241 100 194 242 100 194 243 100 195 244 100 196 245 100 196 246 100 197 247 100 198 248 100 198 249 100 199 250 100 200 251 100 200 252 100 201 253 100 202 254 100 202 255 100 203
0 102 34 1 102 34 2 102 35 3 102 36 4 102 36 5 102 37 6 102 38 7 102 38 8 102 39 9 102 40 10 102 40 11 102 41 12 102 42 13 102 42 14 102 43 15 102 44 16 102 44 17 102 45 18 102 46 19 102 46 20 102 47 21 102 48 22 102 48 23 102 49 24 102 50 25 102 50 26 102 51 27 102 52 28 102 52 29 102 53 30 102 54 31 102 54 32 102 55 33 102 56 34 102 56 35 102 57 36 102 58 37 102 58 38 102 59 39 102 60 40 102 60 41 102 61 42 102 62 43 102 62 44 102 63 45 102 64 46 102 64 47 102 65 48 102 66 49 102 66 50 102 67 51 102 68 52 102 68 53 102 69 54 102 70 55 102 70 56 102 71 57 102 72 58 102 72 59 102 73 60 102 74 61 102 74 62 102 75 63 102 76 64 102 76 65 102 77 66 102 78 67 102 78 68 102 79 69 102 80 70 102 80 71 102 81 72 102 82 73 102 82 74 102 83 75 102 84 76 102 84 77 102 85 78 102 86 79 102 86 80 102 87 81 102 88 82 102 88 83 102 89 84 102 90 85 102 90 86 102 91 87 102 92 88 102 92 89 102 93 90 102 94 91 102 94 92 102 95 93 102 96 94 102 96 95 102 97 96 102 98 97 102 98 98 102 99 99 102 100 100 102 100 101 102 101 102 102 102 103 102 102 104 102 103 105 102 104 106 102 104 107 102 105 108 102 106 109 102 106 110 102 107 111 102 108 112 102 108 113 102 109 114 102 110 115 102 110 116 102 111 117 102 112 118 102 112 119 102 113 120 102 114 121 102 114 122 102 115 123 102 116 124 102 116 125 102 117 126 102 118 127 102 118 128 102 119 129 102 120 130 102 120 131 102 121 132 102 122 133 102 122 134 102 123 135 102 124 136 102 124 137 102 125 138 102 126 139 102 126 140 102 127 141 102 128 142 102 128 143 102 129 144 102 130 145 102 130 146 102 131 147 102 132 148 102 132 149 102 133 150 102 134 151 102 134 152 102 135 153 102 136 154 102 136 155 102 137 156 102 138 157 102 138 158 102 139 159 102 140 160 102 140 161 102 141 162 102 142 163 102 142 164 102 143 165 102 144 166 102 144 167 102 145 168 102 146 169 102 146 170 102 147 171 102 148 172 102 148 173 102 149 174 102 150 175 102 150 176 102 151 177 102 152 178 102 152 179 102 153 180 102 154 181 102 154 182 102 155 183 102 156 184 102 156 185 102 157 186 102 158 187 102 158 188 102 159 189 102 160 190 102 160 191 102 161 192 102 162 193 102 162 194 102 163 195 102 164 196 102 164 197 102 165 198 102 166 199 102 166 200 102 167 201 102 168 202 102 168 203 102 169 204 102 170 205 102 170 206 102 171 207 102 172 208 102 172 209 102 173 210 102 174 211 102 174 212 102 175 213 102 176 214 102 176 215 102 177 216 102 178 217 102 178 218 102 179 219 102 180 220 102 180 221 102 181 222 102 182 223 102 182 224 102 183 225 102 184 226 102 184 227 102 185 228 102 186 229 102 186 230 102 187 231 102 188 232 102 188 233 102 189 234 102 190 235 102 190 236 102 191 237 102 192 238 102 192 239 102 193 240 102 194 241 102 194 242 102 195 243 102 196 244 102 196 245 102 197 246 102 198 247 102 198 248 102 199 249 102 200 250 102 200 251 102 201 252 102 202 253 102 202 254 102 203 255 102 204
0 104 34 1 104 35 2 104 36 3 104 36 4 104 37 5 104 38 6 104 38 7 104 39 8 104 40 9 104 40 10 104 41 11 104 42 12 104 42 13 104 43 14 104 44 15 104 44 16 104 45 17 104 46 18 104 46 19 104 47 20 104 48 21 104 48 22 104 49 23 104 50 24 104 50 25 104 51 26 104 52 27 104 52 28 104 53 29 104 54 30 104 54 31 104 55 32 104 56 33 104 56 34 104 57 35 104 58 36 104 58 37 104 59 38 104 60 39 104 60 40 104 61 41 104 62 42 104 62 43 104 63 44 104 64 45 104 64 46 104 65 47 104 66 48 104 66 49 104 67 50 104 68 51 104 68 52 104 69 53 104 70 54 104 70 55 104 71 56 104 72 57 104 72 58 104 73 59 104 74 60 104 74 61 104 75 62 104 76 63 104 76 64 104 77 65 104 78 66 104 78 67 104 79 68 104 80 69 104 80 70 104 81 71 104 82 72 104 82 73 104 83 74 104 84 75 104 84 76 104 85 77 104 86 78 104 86 79 104 87 80 104 88 81 104 88 82 104 89 83 104 90 84 104 90 85 104 91 86 104 92 87 104 92 88 104 93 89 104 94 90 104 94 91 104 95 92 104 96 93 104 96 94 104 97 95 104 98 96 104 98 97 104 99 98 104 100 99 104 100 100 104 101 101 104 102 102 104 102 103 104 103 104 104 104 105 104 104 106 104 105 107 104 106 108 104 106 109 104 107 110 104 108 111 104 108 112 104 109 113 104 110 114 104 110 115 104 111 116 104 112 117 104 112 118 104 113 119 104 114 120 104 114 121 104 115 122 104 116 123 104 116 124 104 117 125 104 118 126 104 118 127 104 119 128 104 120 129 104 120 130 104 121 131 104 122 132 104 122 133 104 123 134 104 124 135 104 124 136 104 125 137 104 126 138 104 126 139 104 127 140 104 128 141 104 128 142 104 129 143 104 130 144 104 130 145 104 131 146 104 132 147 104 132 148 104 133 149 104 134 150 104 134 151 104 135 152 104 136 153 104 136 154 104 137 155 104 138 156 104 138 157 104 139 158 104 140 159 104 140 160 104 141 161 104 142 162 104 142 163 104 143 164 104 144 165 104 144 166 104 145 167 104 146 168 104 146 169 104 147 170 104 148 171 104 148 172 104 149 173 104 150 174 104 150 175 104 151 176 104 152 177 104 152 178 104 153 179 104 154 180 104 154 181 104 155 182 104 156 183 104 156 184 104 157 185 104 158 186 104 158 187 104 159 188 104 160 189 104 160 190 104 161 191 104 162 192 104 162 193 104 163 194 104 164 195 104 164 196 104 165 197 104 166 198 104 166 199 104 167 200 104 168 201 104 168 202 104 169 203 104 170 204 104 170 205 104 171 206 104 172 207 104 172 208 104 173 209 104 174 210 104 174 211 104 175 212 104 176 213 104 176 214 104 177 215 104 178 216 104 178 217 104 179 218 104 180 219 104 180 220 104 181 221 104 182 222 104 182 223 104 183 224 104 184 225 104 184 226 104 185 227 104 186 228 104 186 229 104 187 230 104 188 231 104 188 232 104 189 233 104 190 234 104 190 235 104 191 236 104 192 237 104 192 238 104 193 239 104 194 240 104 194 241 104 195 242 104 196 243 104 196 244 104 197 245 104 198 246 104 198 247 104 199 248 104 200 249 104 200 250 104 201 251 104 202 252 104 202 253 104 203 254 104 204 255 104 204
0 106 35 1 106 36 2 106 36 3 106 37 4 106 38 5 106 38 6 106 39 7 106 40 8 106 40 9 106 41 10 106 42 11 106 42 12 106 43 13 106 44 14 106 44 15 106 45 16 106 46 17 106 46 18 106 47 19 106 48 20 106 48 21 106 49 22 106 50 23 106 50 24 106 51 25 106 52 26 106 52 27 106 53 28 106 54 29 106 54 30 106 55 31 106 56 32 106 56 33 106 57 34 106 58 35 106 58 36 106 59 37 106 60 38 106 60 39 106 61 40 106 62 41 106 62 42 106 63 43 106 64 44 106 64 45 106 65 46 106 66 47 106 66 48 106 67 49 106 68 50 106 68 51 106 69 52 106 70 53 106 70 54 106 71 55 106 72 56 106 72 57 106 73 58 106 74 59 106 74 60 106 75 61 106 76 62 106 76 63 106 77 64 106 78 65 106 78 66 106 79 67 106 80 68 106 80 69 106 81 70 106 82 71 106 82 72 106 83 73 106 84 74 106 84 75 106 85 76 106 86 77 106 86 78 106 87 79 106 88 80 106 88 81 106 89 82 106 90 83 106 90 84 106 91 85 106 92 86 106 92 87 106 93 88 106 94 89 106 94 90 106 95 91 106 96 92 106 96 93 106 97 94 106 98 95 106 98 96 106 99 97 106 100 98 106 100 99 106 101 100 106 102 101 106 102 102 106 103 103 106 104 104 106 104 105 106 105 106 106 106 107 106 106 108 106 107 109 106 108 110 106 108 111 106 109 112 106 110 113 106 110 114 106 111 115 106 112 116 106 112 117 106 113 118 106 114 119 106 114 120 106 115 121 106 116 122 106 116 123 106 117 124 106 118 125 106 118 126 106 119 127 106 120 128 106 120 129 106 121 130 106 122 131 106 122 132 106 123 133 106 124 134 106 124 135 106 125 136 106 126 137 106 126 138 106 127 139 106 128 140 106 128 141 106 129 142 106 130 143 106 130 144 106 131 145 106 132 146 106 132 147 106 133 148 106 134 149 106 134 150 106 135 151 106 136 152 106 136 153 106 137 154 106 138 155 106 138 156 106 139 157 106 140 158 106 140 159 106 141 160 106 142 161 106 142 162 106 143 163 106 144 164 106 144 165 106 145 166 106 146 167 106 146 168 106 147 169 106 148 170 106 148 171 106 149 172 106 150 173 106 150 174 106 151 175 106 152 176 106 152 177 106 153 178 106 154 179 106 154 180 106 155 181 106 156 182 106 156 183 106 157 184 106 158 185 106 158 186 106 159 187 106 160 188 106 160 189 106 161 190 106 162 191 106 162 192 106 163 193 106 164 194 106 164 195 106 165 196 106 166 197 106 166 198 106 167 199 106 168 200 106 168 201 106 169 202 106 170 203 106 170 204 106 171 205 106 172 206 106 172 207 106 173 208 106 174 209 106 174 210 106 175 211 106 176 212 106 176 213 106 177 214 106 178 215 106 178 216 106 179 217 106 180 218 106 180 219 106 181 220 106 182 221 106 182 222 106 183 223 106 184 224 106 184 225 106 185 226 106 186 227 106 186 228 106 187 229 106 188 230 106 188 231 106 189 232 106 190 233 106 190 234 106 191 235 106 192 236 106 192 237 106 193 238 106 194 239 106 194 240 106 195 241 106 196 242 106 196 243 106 197 244 106 198 245 106 198 246 106 199 247 106 200 248 106 200 249 106 201 250 106 202 251 106 202 252 106 203 253 106 204 254 106 204 255 106 205
0 108 36 1 108 36 2 108 37 3 108 38 4 108 38 5 108 39 6 108 40 7 108 40 8 108 41 9 108 42 10 108 42 11 108 43 12 108 44 13 108 44 14 108 45 15 108 46 16 108 46 17 108 47 18 108 48 19 108 48 20 108 49 21 108 50 22 108 50 23 108 51 24 108 52 25 108 52 26 108 53 27 108 54 28 108 54 29 108 55 30 108 56 31 108 56 32 108 57 33 108 58 34 108 58 35 108 59 36 108 60 37 108 60 38 108 61 39 108 62 40 108 62 41 108 63 42 108 64 43 108 64 44 108 65 45 108 66 46 108 66 47 108 67 48 108 68 49 108 68 50 108 69 51 108 70 52 108 70 53 108 71 54 108 72 55 108 72 56 108 73 57 108 74 58 108 74 59 108 75 60 108 76 61 108 76 62 108 77 63 108 78 64 108 78 65 108 79 66 108 80 67 108 80 68 108 81 69 108 82 70 108 82 71 108 83 72 108 84 73 108 84 74 108 85 75 108 86 76 108 86 77 108 87 78 108 88 79 108 88 80 108 89 81 108 90 82 108 90 83 108 91 84 108 92 85 108 92 86 108 93 87 108 94 88 108 94 89 108 95 90 108 96 91 108 96 92 108 97 93 108 98 94 108 98 95 108 99 96 108 100 97 108 100 98 108 101 99 108 102 100 108 102 101 108 103 102 108 104 103 108 104 104 108 105 105 108 106 106 108 106 107 108 107 108 108 108 109 108 108 110 108 109 111 108 110 112 108 110 113 108 111 114 108 112 115 108 112 116 108 113 117 108 114 118 108 114 119 108 115 120 108 116 121 108 116 122 108 117 123 108 118 124 108 118 125 108 119 126 108 120 127 108 120 128 108 121 129 108 122 130 108 122 131 108 123 132 108 124 133 108 124 134 108 125 135 108 126 136 108 126 137 108 127 138 108 128 139 108 128 140 108 129 141 108 130 142 108 130 143 108 131 144 108 132 145 108 132 146 108 133 147 108 134 148 108 134 149 108 135 150 108 136 151 108 136 152 108 137 153 108 138 154 108 138 155 108 139 156 108 140 157 108 140 158 108 141 159 108 142 160 108 142 161 108 143 162 108 144 163 108 144 164 108 145 165 108 146 166 108 146 167 108 147 168 108 148 169 108 148 170 108 149 171 108 150 172 108 150 173 108 151 174 108 152 175 108 152 176 108 153 177 108 154 178 108 154 179 108 155 180 108 156 181 108 156 182 108 157 183 108 158 184 108 158 185 108 159 186 108 160 187 108 160 188 108 161 189 108 162 190 108 162 191 108 163 192 108 164 193 108 164 194 108 165 195 108 166 196 108 166 197 108 167 198 108 168 199 108 168 200 108 169 201 108 170 202 108 170 203 108 171 204 108 172 205 108 172 206 108 173 207 108 174 208 108 174 209 108 175 210 108 176 211 108 176 212 108 177 213 108 178 214 108 178 215 108 179 216 108 180 217 108 180 218 108 181 219 108 182 220 108 182 221 108 183 222 108 184 223 108 184 224 108 185 225 108 186 226 108 186 227 108 187 228 108 188 229 108 188 230 108 189 231 108 190 232 108 190 233 108 191 234 108 192 235 108 192 236 108 193 237 108 194 238 108 194 239 108 195 240 108 196 241 108 196 242 108 197 243 108 198 244 108 198 245 108 199 246 108 200 247 108 200 248 108 201 249 108 202 250 108 202 251 108 203 252 108 204 253 108 204 254 108 205 255 108 206
0 110 36 1 110 37 2 110 38 3 110 38 4 110 39 5 110 40 6 110 40 7 110 41 8 110 42 9 110 42 10 110 43 11 110 44 12 110 44 13 110 45 14 110 46 15 110 46 16 110 47 17 110 48 18 110 48 19 110 49 20 110 50 21 110 50 22 110 51 23 110 52 24 110 52 25 110 53 26 110 54 27 110 54 28 110 55 29 110 56 30 110 56 31 110 57 32 110 58 33 110 58 34 110 59 35 110 60 36 110 60 37 110 61 38 110 62 39 110 62 40 110 63 41 110 64 42 110 64 43 110 65 44 110 66 45 110 66 46 110 67 47 110 68 48 110 68 49 110 69 50 110 70 51 110 70 52 110 71 53 110 72 54 110 72 55 110 73 56 110 74 57 110 74 58 110 75 59 110 76 60 110 76 61 110 77 62 110 78 63 110 78 64 110 79 65 110 80 66 110 80 67 110 81 68 110 82 69 110 82 70 110 83 71 110 84 72 110 84 73 110 85 74 110 86 75 110 86 76 110 87 77 110 88 78 110 88 79 110 89 80 110 90 81 110 90 82 110 91 83 110 92 84 110 92 85 110 93 86 110 94 87 110 94 88 110 95 89 110 96 90 110 96 91 110 97 92 110 98 93 110 98 94 110 99 95 110 100 96 110 100 97 110 101 98 110 102 99 110 102 100 110 103 101 110 104 102 110 104 103 110 105 104 110 106 105 110 106 106 110 107 107 110 108 108 110 108 109 110 109 110 110 110 111 110 110 112 110 111 113 110 112 114 110 112 115 110 113 116 110 114 117 110 114 118 110 115 119 110 116 120 110 116 121 110 117 122 110 118 123 110 118 124 110 119 125 110 120 126 110 120 127 110 121 128 110 122 129 110 122 130 110 123 131 110 124 132 110 124 133 110 125 134 110 126 135 110 126 136 110 127 137 110 128 138 110 128 139 110 129 140 110 130 141 110 130 142 110 131 143 110 132 144 110 132 145 110 133 146 110 134 147 110 134 148 110 135 149 110 136 150 110 136 151 110 137 152 110 138 153 110 138 154 110 139 155 110 140 156 110 140 157 110 141 158 110 142 159 110 142 160 110 143 161 110 144 162 110 144 163 110 145 164 110 146 165 110 146 166 110 147 167 110 148 168 110 148 169 110 149 170 110 150 171 110 150 172 110 151 173 110 152 174 110 152 175 110 153 176 110 154 177 110 154 178 110 155 179 110 156 180 110 156 181 110 157 182 110 158 183 110 158 184 110 159 185 110 160 186 110 160 187 110 161 188 110 162 189 110 162 190 110 163 191 110 164 192 110 164 193 110 165 194 110 166 195 110 166 196 110 167 197 110 168 198 110 168 199 110 169 200 110 170 201 110 170 202 110 171 203 110 172 204 110 172 205 110 173 206 110 174 207 110 174 208 110 175 209 110 176 210 110 176 211 110 177 212 110 178 213 110 178 214 110 179 215 110 180 216 110 180 217 110 181 218 110 182 219 110 182 220 110 183 221 110 184 222 110 184 223 110 185 224 110 186 225 110 186 226 110 187 227 110 188 228 110 188 229 110 189 230 110 190 231 110 190 232 110 191 233 110 192 234 110 192 235 110 193 236 110 194 237 110 194 238 110 195 239 110 196 240 110 196 241 110 197 242 110 198 243 110 198 244 110 199 245 110 200 246 110 200 247 110 201 248 110 202 249 110 202 250 110 203 251 110 204 252 110 204 253 110 205 254 110 206 255 110 206
0 112 37 1 112 38 2 112 38 3 112 39 4 112 40 5 112 40 6 112 41 7 112 42 8 112 42 9 112 43 10 112 44 11 112 44 12 112 45 13 112 46 14 112 46 15 112 47 16 112 48 17 112 48 18 112 49 19 112 50 20 112 50 21 112 51 22 112 52 23 112 52 24 112 53 25 112 54 26 112 54 27 112 55 28 112 56 29 112 56 30 112 57 31 112 58 32 112 58 33 112 59 34 112 60 35 112 60 36 112 61 37 112 62 38 112 62 39 112 63 40 112 64 41 112 64 42 112 65 43 112 66 44 112 66 45 112 67 46 112 68 47 112 68 48 112 69 49 112 70 50 112 70 51 112 71 52 112 72 53 112 72 54 112 73 55 112 74 56 112 74 57 112 75 58 112 76 59 112 76 60 112 77 61 112 78 62 112 78 63 112 79 64 112 80 65 112 80 66 112 81 67 112 82 68 112 82 69 112 83 70 112 84 71 112 84 72 112 85 73 112 86 74 112 86 75 112 87 76 112 88 77 112 88 78 112 89 79 112 90 80 112 90 81 112 91 82 112 92 83 112 92 84 112 93 85 112 94 86 112 94 87 112 95 88 112 96 89 112 96 90 112 97 91 112 98 92 112 98 93 112 99 94 112 100 95 112 100 96 112 101 97 112 102 98 112 102 99 112 103 100 112 104 101 112 104 102 112 105 103 112 106 104 112 106 105 112 107 106 112 108 107 112 108 108 112 109 109 112 110 110 112 110 111 112 111 112 112 112 113 112 112 114 112 113 115 112 114 116 112 114 117 112 115 118 112 116 119 112 116 120 112 117 121 112 118 122 112 118 123 112 119 124 112 120 125 112 120 126 112 121 127 112 122 128 112 122 129 112 123 130 112 124 131 112 124 132 112 125 133 112 126 134 112 126 135 112 127 136 112 128 137 112 128 138 112 129 139 112 130 140 112 130 141 112 131 142 112 132 143 112 132 144 112 133 145 112 134 146 112 134 147 112 135 148 112 136 149 112 136 150 112 137 151 112 138 152 112 138 153 112 139 154 112 140 155 112 140 156 112 141 157 112 142 158 112 142 159 112 143 160 112 144 161 112 144 162 112 145 163 112 146 164 112 146 165 112 147 166 112 148 167 112 148 168 112 149 169 112 150 170 112 150 171 112 151 172 112 152 173 112 152 174 112 153 175 112 154 176 112 154 177 112 155 178 112 156 179 112 156 180 112 157 181 112 158 182 112 158 183 112 159 184 112 160 185 112 160 186 112 161 187 112 162 188 112 162 189 112 163 190 112 164 191 112 164 192 112 165 193 112 166 194 112 166 195 112 167 196 112 168 197 112 168 198 112 169 199 112 170 200 112 170 201 112 171 202 112 172 203 112 172 204 112 173 205 112 174 206 112 174 207 112 175 208 112 176 209 112 176 210 112 177 211 112 178 212 112 178 213 112 179 214 112 180 215 112 180 216 112 181 217 112 182 218 112 182 219 112 183 220 112 184 221 112 184 222 112 185 223 112 186 224 112 186 225 112 187 226 112 188 227 112 188 228 112 189 229 112 190 230 112 190 231 112 191 232 112 192 233 112 192 234 112 193 235 112 194 236 112 194 237 112 195 238 112 196 239 112 196 240 112 197 241 112 198 242 112 198 243 112 199 244 112 200 245 112 200 246 112 201 247 112 202 248 112 202 249 112 203 250 112 204 251 112 204 252 112 205 253 112 206 254 112 206 255 112 207
0 114 38 1 114 38 2 114 39 3 114 40 4 114 40 5 114 41 6 114 42 7 114 42 8 114 43 9 114 44 10 114 44 11 114 45 12 114 46 13 114 46 14 114 47 15 114 48 16 114 48 17 114 49 18 114 50 19 114 50 20 114 51 21 114 52 22 114 52 23 114 53 24 114 54 25 114 54 26 114 55 27 114 56 28 114 56 29 114 57 30 114 58 31 114 58 32 114 59 33 114 60 34 114 60 35 114 61 36 114 62 37 114 62 38 114 63 39 114 64 40 114 64 41 114 65 42 114 66 43 114 66 44 114 67 45 114 68 46 114 68 47 114 69 48 114 70 49 114 70 50 114 71 51 114 72 52 114 72 53 114 73 54 114 74 55 114 74 56 114 75 57 114 76 58 114 76 59 114 77 60 114 78 61 114 78 62 114 79 63 114 80 64 114 80 65 114 81 66 114 82 67 114 82 68 114 83 69 114 84 70 114 84 71 114 85 72 114 86 73 114 86 74 114 87 75 114 88 76 114 88 77 114 89 78 114 90 79 114 90 80 114 91 81 114 92 82 114 92 83 114 93 84 114 94 85 114 94 86 114 95 87 114 96 88 114 96 89 114 97 90 114 98 91 114 98 92 114 99 93 114 100 94 114 100 95 114 101 96 114 102 97 114 102 98 114 103 99 114 104 100 114 104 101 114 105 102 114 106 103 114 106 104 114 107 105 114 108 106 114 108 107 114 109 108 114 110 109 114 110 110 114 111 111 114 112 112 114 112 113 114 113 114 114 114 115 114 114 116 114 115 117 114 116 118 114 116 119 114 117 120 114 118 121 114 118 122 114 119 123 114 120 124 114 120 125 114 121 126 114 122 127 114 122 128 114 123 129 114 124 130 114 124 131 114 125 132 114 126 133 114 126 134 114 127 135 114 128 136 114 128 137 114 129 138 114 130 139 114 130 140 114 131 141 114 132 142 114 132 143 114 133 144 114 134 145 114 134 146 114 135 147 114 136 148 114 136 149 114 137 150 114 138 151 114 138 152 114 139 153 114 140 154 114 140 155 114 141 156 114 142 157 114 142 158 114 143 159 114 144 160 114 144 161 114 145 162 114 146 163 114 146 164 114 147 165 114 148 166 114 148 167 114 149 168 114 150 169 114 150 170 114 151 171 114 152 172 114 152 173 114 153 174 114 154 175 114 154 176 114 155 177 114 156 178 114 156 179 114 157 180 114 158 181 114 158 182 114 159 183 114 160 184 114 160 185 114 161 186 114 162 187 114 162 188 114 163 189 114 164 190 114 164 191 114 165 192 114 166 193 114 166 194 114 167 195 114 168 196 114 168 197 114 169 198 114 170 199 114 170 200 114 171 201 114 172 202 114 172 203 114 173 204 114 174 205 114 174 206 114 175 207 114 176 208 114 176 209 114 177 210 114 178 211 114 178 212 114 179 213 114 180 214 114 180 215 114 181 216 114 182 217 114 182 218 114 183 219 114 184 220 114 184 221 114 185 222 114 186 223 114 186 224 114 187 225 114 188 226 114 188 227 114 189 228 114 190 229 114 190 230 114 191 231 114 192 232 114 192 233 114 193 234 114 194 235 114 194 236 114 195 237 114 196 238 114 196 239 114 197 240 114 198 241 114 198 242 114 199 243 114 200 244 114 200 245 114 201 246 114 202 247 114 202 248 114 203 249 114 204 250 114 204 251 114 205 252 114 206 253 114 206 254 114 207 255 114 208
0 116 38 1 116 39 2 116 40 3 116 40 4 116 41 5 116 42 6 116 42 7 116 43 8 116 44 9 116 44 10 116 45 11 116 46 12 116 46 13 116 47 14 116 48 15 116 48 16 116 49 17 116 50 18 116 50 19 116 51 20 116 52 21 116 52 22 116 53 23 116 54 24 116 54 25 116 55 26 116 56 27 116 56 28 116 57 29 116 58 30 116 58 31 116 59 32 116 60 33 116 60 34 116 61 35 116 62 36 116 62 37 116 63 38 116 64 39 116 64 40 116 65 41 116 66 42 116 66 43 116 67 44 116 68 45 116 68 46 116 69 47 116 70 48 116 70 49 116 71 50 116 72 51 116 72 52 116 73 53 116 74 54 116 74 55 116 75 56 116 76 57 116 76 58 116 77 59 116 78 60 116 78 61 116 79 62 116 80 63 116 80 64 116 81 65 116 82 66 116 82 67 116 83 68 116 84 69 116 84 70 116 85 71 116 86 72 116 86 73 116 87 74 116 88 75 116 88 76 116 89 77 116 90 78 116 90 79 116 91 80 116 92 81 116 92 82 116 93 83 116 94 84 116 94 85 116 95 86 116 96 87 116 96 88 116 97 89 116 98 90 116 98 91 116 99 92 116 100 93 116 100 94 116 101 95 116 102 96 116 102 97 116 103 98 116 104 99 116 104 100 116 105 101 116 106 102 116 106 103 116 107 104 116 108 105 116 108 106 116 109 107 116 110 108 116 110 109 116 111 110 116 112 111 116 112 112 116 113 113 116 114 114 116 114 115 116 115 116 116 116 117 116 116 118 116 117 119 116 118 120 116 118 121 116 119 122 116 120 123 116 120 124 116 121 125 116 122 126 116 122 127 116 123 128 116 124 129 116 124 130 116 125 131 116 126 132 116 126 133 116 127 134 116 128 135 116 128 136 116 129 137 116 130 138 116 130 139 116 131 140 116 132 141 116 132 142 116 133 143 116 134 144 116 134 145 116 135 146 116 136 147 116 136 148 116 137 149 116 138 150 116 138 151 116 139 152 116 140 153 116 140 154 116 141 155 116 142 156 116 142 157 116 143 158 116 144 159 116 144 160 116 145 161 116 146 162 116 146 163 116 147 164 116 148 165 116 148 166 116 149 167 116 150 168 116 150 169 116 151 170 116 152 171 116 152 172 116 153 173 116 154 174 116 154 175 116 155 176 116 156 177 116 156 178 116 157 179 116 158 180 116 158 181 116 159 182 116 160 183 116 160 184 116 161 185 116 162 186 116 162 187 116 163 188 116 164 189 116 164 190 116 165 191 116 166 192 116 166 193 116 167 194 116 168 195 116 168 196 116 169 197 116 170 198 116 170 199 116 171 200 116 172 201 116 172 202 116 173 203 116 174 204 116 174 205 116 175 206 116 176 207 116 176 208 116 177 209 116 178 210 116 178 211 116 179 212 116 180 213 116 180 214 116 181 215 116 182 216 116 182 217 116 183 218 116 184 219 116 184 220 116 185 221 116 186 222 116 186 223 116 187 224 116 188 225 116 188 226 116 189 227 116 190 228 116 190 229 116 191 230 116 192 231 116 192 232 116 193 233 116 194 234 116 194 235 116 195 236 116 196 237 116 196 238 116 197 239 116 198 240 116 198 241 116 199 242 116 200 243 116 200 244 116 201 245 116 202 246 116 202 247 116 203 248 116 204 249 116 204 250 116 205 251 116 206 252 116 206 253 116 207 254 116 208 255 116 208
0 118 39 1 118 40 2 118 40 3 118 41 4 118 42 5 118 42 6 118 43 7 118 44 8 118 44 9 118 45 10 118 46 11 118 46 12 118 47 13 118 48 14 118 48 15 118 49 16 118 50 17 118 50 18 118 51 19 118 52 20 118 52 21 118 53 22 118 54 23 118 54 24 118 55 25 118 56 26 118 56 27 118 57 28 118 58 29 118 58 30 118 59 31 118 60 32 118 60 33 118 61 34 118 62 35 118 62 36 118 63 37 118 64 38 118 64 39 118 65 40 118 66 41 118 66 42 118 67 43 118 68 44 118 68 45 118 69 46 118 70 47 118 70 48 118 71 49 118 72 50 118 72 51 118 73 52 118 74 53 118 74 54 118 75 55 118 76 56 118 76 57 118 77 58 118 78 59 118 78 60 118 79 61 118 80 62 118 80 63 118 81 64 118 82 65 118 82 66 118 83 67 118 84 68 118 84 69 118 85 70 118 86 71 118 86 72 118 87 73 118 88 74 118 88 75 118 89 76 118 90 77 118 90 78 118 91 79 118 92 80 118 92 81 118 93 82 118 94 83 118 94 84 118 95 85 118 96 86 118 96 87 118 97 88 118 98 89 118 98 90 118 99 91 118 100 92 118 100 93 118 101 94 118 102 95 118 102 96 118 103 97 118 104 98 118 104 99 118 105 100 118 106 101 118 106 102 118 107 103 118 108 104 118 108 105 118 109 106 118 110 107 118 110 108 118 111 109 118 112 110 118 112 111 118 113 112 118 114 113 118 114 114 118 115 115 118 116 116 118 116 117 118 117 118 118 118 119 118 118 120 118 119 121 118 120 122 118 120 123 118 121 124 118 122 125 118 122 126 118 123 127 118 124 128 118 124 129 118 125 130 118 126 131 118 126 132 118 127 133 118 128 134 118 128 135 118 129 136 118 130 137 118 130 138 118 131 139 118 132 140 118 132 141 118 133 142 118 134 143 118 134 144 118 135 145 118 136 146 118 136 147 118 137 148 118 138 149 118 138 150 118 139 151 118 140 152 118 140 153 118 141 154 118 142 155 118 142 156 118 143 157 118 144 158 118 144 159 118 145 160 118 146 161 118 146 162 118 147 163 118 148 164 118 148 165 118 149 166 118 150 167 118 150 168 118 151 169 118 152 170 118 152 171 118 153 172 118 154 173 118 154 174 118 155 175 118 156 176 118 156 177 118 157 178 118 158 179 118 158 180 118 159 181 118 160 182 118 160 183 118 161 184 118 162 185 118 162 186 118 163 187 118 164 188 118 164 189 118 165 190 118 166 191 118 166 192 118 167 193 118 168 194 118 168 195 118 169 196 118 170 197 118 170 198 118 171 199 118 172 200 118 172 201 118 173 202 118 174 203 118 174 204 118 175 205 118 176 206 118 176 207 118 177 208 118 178 209 118 178 210 118 179 211 118 180 212 118 180 213 118 181 214 118 182 215 118 182 216 118 183 217 118 184 218 118 184 219 118 185 220 118 186 221 118 186 222 118 187 223 118 188 224 118 188 225 118 189 226 118 190 227 118 190 228 118 191 229 118 192 230 118 192 231 118 193 232 118 194 233 118 194 234 118 195 235 118 196 236 118 196 237 118 197 238 118 198 239 118 198 240 118 199 241 118 200 242 118 200 243 118 201 244 118 202 245 118 202 246 118 203 247 118 204 248 118 204 249 118 205 250 118 206 251 118 206 252 118 207 253 118 208 254 118 208 255 118 209
0 120 40 1 120 40 2 120 41 3 120 42 4 120 42 5 120 43 6 120 44 7 120 44 8 120 45 9 120 46 10 120 46 11 120 47 12 120 48 13 120 48 14 120 49 15 120 50 16 120 50 17 120 51 18 120 52 19 120 52 20 120 53 21 120 54 22 120 54 23 120 55 24 120 56 25 120 56 26 120 57 27 120 58 28 120 58 29 120 59 30 120 60 31 120 60 32 120 61 33 120 62 34 120 62 35 120 63 36 120 64 37 120 64 38 120 65 39 120 66 40 120 66 41 120 67 42 120 68 43 120 68 44 120 69 45 120 70 46 120 70 47 120 71 48 120 72 49 120 72 50 120 73 51 120 74 52 120 74 53 120 75 54 120 76 55 120 76 56 120 77 57 120 78 58 120 78 59 120 79 60 120 80 61 120 80 62 120 81 63 120 82 64 120 82 65 120 83 66 120 84 67 120 84 68 120 85 69 120 86 70 120 86 71 120 87 72 120 88 73 120 88 74 120 89 75 120 90 76 120 90 77 120 91 78 120 92 79 120 92 80 120 93 81 120 94 82 120 94 83 120 95 84 120 96 85 120 96 86 120 97 87 120 98 88 120 98 89 120 99 90 120 100 91 120 100 92 120 101 93 120 102 94 120 102 95 120 103 96 120 104 97 120 104 98 120 105 99 120 106 100 120 106 101 120 107 102 120 108 103 120 108 104 120 109 105 120 110 106 120 110 107 120 111 108 120 112 109 120 112 110 120 113 111 120 114 112 120 114 113 120 115 114 120 116 115 120 116 116 120 117 117 120 118 118 120 118 119 120 119 120 120 120 121 120 120 122 120 121 123 120 122 124 120 122 125 120 123 126 120 124 127 120 124 128 120 125 129 120 126 130 120 126 131 120 127 132 120 128 133 120 128 134 120 129 135 120 130 136 120 130 137 120 131 138 120 132 139 120 132 140 120 133 141 120 134 142 120 134 143 120 135 144 120 136 145 120 136 146 120 137 147 120 138 148 120 138 149 120 139 150 120 140 151 120 140 152 120 141 153 120 142 154 120 142 155 120 143 156 120 144 157 120 144 158 120 145 159 120 146 160 120 146 161 120 147 162 120 148 163 120 148 164 120 149 165 120 150 166 120 150 167 120 151 168 120 152 169 120 152 170 120 153 171 120 154 172 120 154 173 120 155 174 120 156 175 120 156 176 120 157 177 120 158 178 120 158 179 120 159 180 120 160 181 120 160 182 120 161 183 120 162 184 120 162 185 120 163 186 120 164 187 120 164 188 120 165 189 120 166 190 120 166 191 120 167 192 120 168 193 120 168 194 120 169 195 120 170 196 120 170 197 120 171 198 120 172 199 120 172 200 120 173 201 120 174 202 120 174 203 120 175 204 120 176 205 120 176 206 120 177 207 120 178 208 120 178 209 120 179 210 120 180 211 120 180 212 120 181 213 120 182 214 120 182 215 120 183 216 120 184 217 120 184 218 120 185 219 120 186 220 120 186 221 120 187 222 120 188 223 120 188 224 120 189 225 120 190 226 120 190 227 120 191 228 120 192 229 120 192 230 120 193 231 120 194 232 120 194 233 120 195 234 120 196 235 120 196 236 120 197 237 120 198 238 120 198 239 120 199 240 120 200 241 120 200 242 120 201 243 120 202 244 120 202 245 120 203 246 120 204 247 120 204 248 120 205 249 120 206 250 120 206 251 120 207 252 120 208 253 120 208 254 120 209 255 120 210
0 122 40 1 122 41 2 122 42 3 122 42 4 122 43 5 122 44 6 122 44 7 122 45 8 122 46 9 122 46 10 122 47 11 122 48 12 122 48 13 122 49 14 122 50 15 122 50 16 122 51 17 122 52 18 122 52 19 122 53 20 122 54 21 122 54 22 122 55 23 122 56 24 122 56 25 122 57 26 122 58 27 122 58 28 122 59 29 122 60 30 122 60 31 122 61 32 122 62 33 122 62 34 122 63 35 122 64 36 122 64 37 122 65 38 122 66 39 122 66 40 122 67 41 122 68 42 122 68 43 122 69 44 122 70 45 122 70 46 122 71 47 122 72 48 122 72 49 122 73 50 122 74 51 122 74 52 122 75 53 122 76 54 122 76 55 122 77 56 122 78 57 122 78 58 122 79 59 122 80 60 122 80 61 122 81 62 122 82 63 122 82 64 122 83 65 122 84 66 122 84 67 122 85 68 122 86 69 122 86 70 122 87 71 122 88 72 122 88 73 122 89 74 122 90 75 122 90 76 122 91 77 122 92 78 122 92 79 122 93 80 122 94 81 122 94 82 122 95 83 122 96 84 122 96 85 122 97 86 122 98 87 122 98 88 122 99 89 122 100 90 122 100 91 122 101 92 122 102 93 122 102 94 122 103 95 122 104 96 122 104 97 122 105 98 122 106 99 122 106 100 122 107 101 122 108 102 122 108 103 122 109 104 122 110 105 122 110 106 122 111 107 122 112 108 122 112 109 122 113 110 122 114 111 122 114 112 122 115 113 122 116 114 122 116 115 122 117 116 122 118 117 122 118 118 122 119 119 122 120 120 122 120 121 122 121 122 122 122 123 122 122 124 122 123 125 122 124 126 122 124 127 122 125 128 122 126 129 122 126 130 122 127 131 122 128 132 122 128 133 122 129 134 122 130 135 122 130 136 122 131 137 122 132 138 122 132 139 122 133 140 122 134 141 122 134 142 122 135 143 122 136 144 122 136 145 122 137 146 122 138 147 122 138 148 122 139 149 122 140 150 122 140 151 122 141 152 122 142 153 122 142 154 122 143 155 122 144 156 122 144 157 122 145 158 122 146 159 122 146 160 122 147 161 122 148 162 122 148 163 122 149 164 122 150 165 122 150 166 122 151 167 122 152 168 122 152 169 122 153 170 122 154 171 122 154 172 122 155 173 122 156 174 122 156 175 122 157 176 122 158 177 122 158 178 122 159 179 122 160 180 122 160 181 122 161 182 122 162 183 122 162 184 122 163 185 122 164 186 122 164 187 122 165 188 122 166 189 122 166 190 122 167 191 122 168 192 122 168 193 122 169 194 122 170 195 122 170 196 122 171 197 122 172 198 122 172 199 122 173 200 122 174 201 122 174 202 122 175 203 122 176 204 122 176 205 122 177 206 122 178 207 122 178 208 122 179 209 122 180 210 122 180 211 122 181 212 122 182 213 122 182 214 122 183 215 122 184 216 122 184 217 122 185 218 122 186 219 122 186 220 122 187 221 122 188 222 122 188 223 122 189 224 122 190 225 122 190 226 122 191 227 122 192 228 122 192 229 122 193 230 122 194 231 122 194 232 122 195 233 122 196 234 122 196 235 122 197 236 122 198 237 122 198 238 122 199 239 122 200 240 122 200 241 122 201 242 122 202 243 122 202 244 122 203 245 122 204 246 122 204 247 122 205 248 122 206 249 122 206 250 122 207 251 122 208 252 122 208 253 122 209 254 122 210 255 122 210
0 124 41 1 124 42 2 124 42 3 124 43 4 124 44 5 124 44 6 124 45 7 124 46 8 124 46 9 124 47 10 124 48 11 124 48 12 124 49 13 124 50 14 124 50 15 124 51 16 124 52 17 124 52 18 124 53 19 124 54 20 124 54 21 124 55 22 124 56 23 124 56 24 124 57 25 124 58 26 124 58 27 124 59 28 124 60 29 124 60 30 124 61 31 124 62 32 124 62 33 124 63 34 124 64 35 124 64 36 124 65 37 124 66 38 124 66 39 124 67 40 124 68 41 124 68 42 124 69 43 124 70 44 124 70 45 124 71 46 124 72 47 124 72 48 124 73 49 124 74 50 124 74 51 124 75 52 124 76 53 124 76 54 124 77 55 124 78 56 124 78 57 124 79 58 124 80 59 124 80 60 124 81 61 124 82 62 124 82 63 124 83 64 124 84 65 124 84 66 124 85 67 124 86 68 124 86 69 124 87 70 124 88 71 124 88 72 124 89 73 124 90 74 124 90 75 124 91 76 124 92 77 124 92 78 124 93 79 124 94 80 124 94 81 124 95 82 124 96 83 124 96 84 124 97 85 124 98 86 124 98 87 124 99 88 124 100 89 124 100 90 124 101 91 124 102 92 124 102 93 124 103 94 124 104 95 124 104 96 124 105 97 124 106 98 124 106 99 124 107 100 124 108 101 124 108 102 124 109 103 124 110 104 124 110 105 124 111 106 124 112 107 124 112 108 124 113 109 124 114 110 124 114 111 124 115 112 124 116 113 124 116 114 124 117 115 124 118 116 124 118 117 124 119 118 124 120 119 124 120 120 124 121 121 124 122 122 124 122 123 124 123 124 124 124 125 124 124 126 124 125 127 124 126 128 124 126 129 124 127 130 124 128 131 124 128 132 124 129 133 124 130 134 124 130 135 124 131 136 124 132 137 124 132 138 124 133 139 124 134 140 124 134 141 124 135 142 124 136 143 124 136 144 124 137 145 124 138 146 124 138 147 124 139 148 124 140 149 124 140 150 124 141 151 124 142 152 124 142 153 124 143 154 124 144 155 124 144 156 124 145 157 124 146 158 124 146 159 124 147 160 124 148 161 124 148 162 124 149 163 124 150 164 124 150 165 124 151 166 124 152 167 124 152 168 124 153 169 124 154 170 124 154 171 124 155 172 124 156 173 124 156 174 124 157 175 124 158 176 124 158 177 124 159 178 124 160 179 124 160 180 124 161 181 124 162 182 124 162 183 124 163 184 124 164 185 124 164 186 124 165 187 124 166 188 124 166 189 124 167 190 124 168 191 124 168 192 124 169 193 124 170 194 124 170 195 124 171 196 124 172 197 124 172 198 124 173 199 124 174 200 124 174 201 124 175 202 124 176 203 124 176 204 124 177 205 124 178 206 124 178 207 124 179 208 124 180 209 124 180 210 124 181 211 124 182 212 124 182 213 124 183 214 124 184 215 124 184 216 124 185 217 124 186 218 124 186 219 124 187 220 124 188 221 124 188 222 124 189 223 124 190 224 124 190 225 124 191 226 124 192 227 124 192 228 124 193 229 124 194 230 124 194 231 124 195 232 124 196 233 124 196 234 124 197 235 124 198 236 124 198 237 124 199 238 124 200 239 124 200 240 124 201 241 124 202 242 124 202 243 124 203 244 124 204 245 124 204 246 124 205 247 124 206 248 124 206 249 124 207 250 124 208 251 124 208 252 124 209 253 124 210 254 124 210 255 124 211
0 126 42 1 126 42 2 126 43 3 126 44 4 126 44 5 126 45 6 126 46 7 126 46 8 126 47 9 126 48 10 126 48 11 126 49 12 126 50 13 126 50 14 126 51 15 126 52 16 126 52 17 126 53 18 126 54 19 126 54 20 126 55 21 126 56 22 126 56 23 126 57 24 126 58 25 126 58 26 126 59 27 126 60 28 126 60 29 126 61 30 126 62 31 126 62 32 126 63 33 126 64 34 126 64 35 126 65 36 126 66 37 126 66 38 126 67 39 126 68 40 126 68 41 126 69 42 126 70 43 126 70 44 126 71 45 126 72 46 126 72 47 126 73 48 126 74 49 126 74 50 126 75 51 126 76 52 126 76 53 126 77 54 126 78 55 126 78 56 126 79 57 126 80 58 126 80 59 126 81 60 126 82 61 126 82 62 126 83 63 126 84 64 126 84 65 126 85 66 126 86 67 126 86 68 126 87 69 126 88 70 126 88 71 126 89 72 126 90 73 126 90 74 126 91 75 126 92 76 126 92 77 126 93 78 126 94 79 126 94 80 126 95 81 126 96 82 126 96 83 126 97 84 126 98 85 126 98 86 126 99 87 126 100 88 126 100 89 126 101 90 126 102 91 126 102 92 126 103 93 126 104 94 126 104 95 126 105 96 126 106 97 126 106 98 126 107 99 126 108 100 126 108 101 126 109 102 126 110 103 126 110 104 126 111 105 126 112 106 126 112 107 126 113 108 126 114 109 126 114 110 126 115 111 126 116 112 126 116 113 126 117 114 126 118 115 126 118 116 126 119 117 126 120 118 126 120 119 126 121 120 126 122 121 126 122 122 126 123 123 126 124 124 126 124 125 126 125 126 126 126 127 126 126 128 126 127 129 126 128 130 126 128 131 126 129 132 126 130 133 126 130 134 126 131 135 126 132 136 126 132 137 126 133 138 126 134 139 126 134 140 126 135 141 126 136 142 126 136 143 126 137 144 126 138 145 126 138 146 126 139 147 126 140 148 126 140 149 126 141 150 126 142 151 126 142 152 126 143 153 126 144 154 126 144 155 126 145 156 126 146 157 126 146 158 126 147 159 126 148 160 126 148 161 126 149 162 126 150 163 126 150 164 126 151 165 126 152 166 126 152 167 126 153 168 126 154 169 126 154 170 126 155 171 126 156 172 126 156 173 126 157 174 126 158 175 126 158 176 126 159 177 126 160 178 126 160 179 126 161 180 126 162 181 126 162 182 126 163 183 126 164 184 126 164 185 126 165 186 126 166 187 126 166 188 126 167 189 126 168 190 126 168 191 126 169 192 126 170 193 126 170 194 126 171 195 126 172 196 126 172 197 126 173 198 126 174 199 126 174 200 126 175 201 126 176 202 126 176 203 126 177 204 126 178 205 126 178 206 126 179 207 126 180 208 126 180 209 126 181 210 126 182 211 126 182 212 126 183 213 126 184 214 126 184 215 126 185 216 126 186 217 126 186 218 126 187 219 126 188 220 126 188 221 126 189 222 126 190 223 126 190 224 126 191 225 126 192 226 126 192 227 126 193 228 126 194 229 126 194 230 126 195 231 126 196 232 126 196 233 126 197 234 126 198 235 126 198 236 126 199 237 126 200 238 126 200 239 126 201 240 126 202 241 126 202 242 126 203 243 126 204 244 126 204 245 126 205 246 126 206 247 126 206 248 126 207 249 126 208 250 126 208 251 126 209 252 126 210 253 126 210 254 126 211 255 126 212
0 128 42 1 128 43 2 128 44 3 128 44 4 128 45 5 128 46 6 128 46 7 128 47 8 128 48 9 128 48 10 128 49 11 128 50 12 128 50 13 128 51 14 128 52 15 128 52 16 128 53 17 128 54 18 128 54 19 128 55 20 128 56 21 128 56 22 128 57 23 128 58 24 128 58 25 128 59 26 128 60 27 128 60 28 128 61 29 128 62 30 128 62 31 128 63 32 128 64 33 128 64 34 128 65 35 128 66 36 128 66 37 128 67 38 128 68 39 128 68 40 128 69 41 128 70 42 128 70 43 128 71 44 128 72 45 128 72 46 128 73 47 128 74 48 128 74 49 128 75 50 128 76 51 128 76 52 128 77 53 128 78 54 128 78 55 128 79 56 128 80 57 128 80 58 128 81 59 128 82 60 128 82 61 128 83 62 128 84 63 128 84 64 128 85 65 128 86 66 128 86 67 128 87 68 128 88 69 128 88 70 128 89 71 128 90 72 128 90 73 128 91 74 128 92 75 128 92 76 128 93 77 128 94 78 128 94 79 128 95 80 128 96 81 128 96 82 128 97 83 128 98 84 128 98 85 128 99 86 128 100 87 128 100 88 128 101 89 128 102 90 128 102 91 128 103 92 128 104 93 128 104 94 128 105 95 128 106 96 128 106 97 128 107 98 128 108 99 128 108 100 128 109 101 128 110 102 128 110 103 128 111 104 128 112 105 128 112 106 128 113 107 128 114 108 128 114 109 128 115 110 128 116 111 128 116 112 128 117 113 128 118 114 128 118 115 128 119 116 128 120 117 128 120 118 128 121 119 128 122 120 128 122 121 128 123 122 128 124 123 128 124 124 128 125 125 128 126 126 128 126 127 128 127 128 128 128 129 128 128 130 128 129 131 128 130 132 128 130 133 128 131 134 128 132 135 128 132 136 128 133 137 128 134 138 128 134 139 128 135 140 128 136 141 128 136 142 128 137 143 128 138 144 128 138 145 128 139 146 128 140 147 128 140 148 128 141 149 128 142 150 128 142 151 128 143 152 128 144 153 128 144 154 128 145 155 128 146 156 128 146 157 128 147 158 128 148 159 128 148 160 128 149 161 128 150 162 128 150 163 128 151 164 128 152 165 128 152 166 128 153 167 128 154 168 128 154 169 128 155 170 128 156 171 128 156 172 128 157 173 128 158 174 128 158 175 128 159 176 128 160 177 128 160 178 128 161 179 128 162 180 128 162 181 128 163 182 128 164 183 128 164 184 128 165 185 128 166 186 128 166 187 128 167 188 128 168 189 128 168 190 128 169 191 128 170 192 128 170 193 128 171 194 128 172 195 128 172 196 128 173 197 128 174 198 128 174 199 128 175 200 128 176 201 128 176 202 128 177 203 128 178 204 128 178 205 128 179 206 128 180 207 128 180 208 128 181 209 128 182 210 128 182 211 128 183 212 128 184 213 128 184 214 128 185 215 128 186 216 128 186 217 128 187 218 128 188 219 128 188 220 128 189 221 128 190 222 128 190 223 128 191 224 128 192 225 128 192 226 128 193 227 128 194 228 128 194 229 128 195 230 128 196 231 128 196 232 128 197 233 128 198 234 128 198 235 128 199 236 128 200 237 128 200 238 128 201 239 128 202 240 128 202 241 128 203 242 128 204 243 128 204 244 128 205 245 128 206 246 128 206 247 128 207 248 128 208 249 128 208 250 128 209 251 128 210 252 128 210 253 128 211 254 128 212 255 128 212
0 130 43 1 130 44 2 130 44 3 130 45 4 130 46 5 130 46 6 130 47 7 130 48 8 130 48 9 130 49 10 130 50 11 130 50 12 130 51 13 130 52 14 130 52 15 130 53 16 130 54 17 130 54 18 130 55 19 130 56 20 130 56 21 130 57 22 130 58 23 130 58 24 130 59 25 130 60 26 130 60 27 130 61 28 130 62 29 130 62 30 130 63 31 130 64 32 130 64 33 130 65 34 130 66 35 130 66 36 130 67 37 130 68 38 130 68 39 130 69 40 130 70 41 130 70 42 130 71 43 130 72 44 130 72 45 130 73 46 130 74 47 130 74 48 130 75 49 130 76 50 130 76 51 130 77 52 130 78 53 130 78 54 130 79 55 130 80 56 130 80 57 130 81 58 130 82 59 130 82 60 130 83 61 130 84 62 130 84 63 130 85 64 130 86 65 130 86 66 130 87 67 130 88 68 130 88 69 130 89 70 130 90 71 130 90 72 130 91 73 130 92 74 130 92 75 130 93 76 130 94 77 130 94 78 130 95 79 130 96 80 130 96 81 130 97 82 130 98 83 130 98 84 130 99 85 130 100 86 130 100 87 130 101 88 130 102 89 130 102 90 130 103 91 130 104 92 130 104 93 130 105 94 130 106 95 130 106 96 130 107 97 130 108 98 130 108 99 130 109 100 130 110 101 130 110 102 130 111 103 130 112 104 130 112 105 130 113 106 130 114 107 130 114 108 130 115 109 130 116 110 130 116 111 130 117 112 130 118 113 130 118 114 130 119 115 130 120 116 130 120 117 130 121 118 130 122 119 130 122 120 130 123 121 130 124 122 130 124 123 130 125 124 130 126 125 130 126 126 130 127 127 130 128 128 130 128 129 130 129 130 130 130 131 130 130 132 130 131 133 130 132 134 130 132 135 130 133 136 130 134 137 130 134 138 130 135 139 130 136 140 130 136 141 130 137 142 130 138 143 130 138 144 130 139 145 130 140 146 130 140 147 130 141 148 130 142 149 130 142 150 130 143 151 130 144 152 130 144 153 130 145 154 130 146 155 130 146 156 130 147 157 130 148 158 130 148 159 130 149 160 130 150 161 130 150 162 130 151 163 130 152 164 130 152 165 130 153 166 130 154 167 130 154 168 130 155 169 130 156 170 130 156 171 130 157 172 130 158 173 130 158 174 130 159 175 130 160 176 130 160 177 130 161 178 130 162 179 130 162 180 130 163 181 130 164 182 130 164 183 130 165 184 130 166 185 130 166 186 130 167 187 130 168 188 130 168 189 130 169 190 130 170 191 130 170 192 130 171 193 130 172 194 130 172 195 130 173 196 130 174 197 130 174 198 130 175 199 130 176 200 130 176 201 130 177 202 130 178 203 130 178 204 130 179 205 130 180 206 130 180 207 130 181 208 130 182 209 130 182 210 130 183 211 130 184 212 130 184 213 130 185 214 130 186 215 130 186 216 130 187 217 130 188 218 130 188 219 130 189 220 130 190 221 130 190 222 130 191 223 130 192 224 130 192 225 130 193 226 130 194 227 130 194 228 130 195 229 130 196 230 130 196 231 130 197 232 130 198 233 130 198 234 130 199 235 130 200 236 130 200 237 130 201 238 130 202 239 130 202 240 130 203 241 130 204 242 130 204 243 130 205 244 130 206 245 130 206 246 130 207 247 130 208 248 130 208 249 130 209 250 130 210 251 130 210 252 130 211 253 130 212 254 130 212 255 130 213
0 132 44 1 132 44 2 132 45 3 132 46 4 132 46 5 132 47 6 132 48 7 132 48 8 132 49 9 132 50 10 132 50 11 132 51 12 132 52 13 132 52 14 132 53 15 132 54 16 132 54 17 132 55 18 132 56 19 132 56 20 132 57 21 132 58 22 132 58 23 132 59 24 132 60 25 132 60 26 132 61 27 132 62 28 132 62 29 132 63 30 132 64 31 132 64 32 132 65 33 132 66 34 132 66 35 132 67 36 132 68 37 132 68 38 132 69 39 132 70 40 132 70 41 132 71 42 132 72 43 132 72 44 132 73 45 132 74 46 132 74 47 132 75 48 132 76 49 132 76 50 132 77 51 132 78 52 132 78 53 132 79 54 132 80 55 132 80 56 132 81 57 132 82 58 132 82 59 132 83 60 132 84 61 132 84 62 132 85 63 132 86 64 132 86 65 132 87 66 132 88 67 132 88 68 132 89 69 132 90 70 132 90 71 132 91 72 132 92 73 132 92 74 132 93 75 132 94 76 132 94 77 132 95 78 132 96 79 132 96 80 132 97 81 132 98 82 132 98 83 132 99 84 132 100 85 132 100 86 132 101 87 132 102 88 132 102 89 132 103 90 132 104 91 132 104 92 132 105 93 132 106 94 132 106 95 132 107 96 132 108 97 132 108 98 132 109 99 132 110 100 132 110 101 132 111 102 132 112 103 132 112 104 132 113 105 132 114 106 132 114 107 132 115 108 132 116 109 132 116 110 132 117 111 132 118 112 132 118 113 132 119 114 132 120 115 132 120 116 132 121 117 132 122 118 132 122 119 132 123 120 132 124 121 132 124 122 132 125 123 132 126 124 132 126 125 132 127 126 132 128 127 132 128 128 132 129 129 132 130 130 132 130 131 132 131 132 132 132 133 132 132 134 132 133 135 132 134 136 132 134 137 132 135 138 132 136 139 132 136 140 132 137 141 132 138 142 132 138 143 132 139 144 132 140 145 132 140 146 132 141 147 132 142 148 132 142 149 132 143 150 132 144 151 132 144 152 132 145 153 132 146 154 132 146 155 132 147 156 132 148 157 132 148 158 132 149 159 132 150 160 132 150 161 132 151 162 132 152 163 132 152 164 132 153 165 132 154 166 132 154 167 132 155 168 132 156 169 132 156 170 132 157 171 132 158 172 132 158 173 132 159 174 132 160 175 132 160 176 132 161 177 132 162 178 132 162 179 132 163 180 132 164 181 132 164 182 132 165 183 132 166 184 132 166 185 132 167 186 132 168 187 132 168 188 132 169 189 132 170 190 132 170 191 132 171 192 132 172 193 132 172 194 132 173 195 132 174 196 132 174 197 132 175 198 132 176 199 132 176 200 132 177 201 132 178 202 132 178 203 132 179 204 132 180 205 132 180 206 132 181 207 132 182 208 132 182 209 132 183 210 132 184 211 132 184 212 132 185 213 132 186 214 132 186 215 132 187 216 132 188 217 132 188 218 132 189 219 132 190 220 132 190 221 132 191 222 132 192 223 132 192 224 132 193 225 132 194 226 132 194 227 132 195 228 132 196 229 132 196 230 132 197 231 132 198 232 132 198 233 132 199 234 132 200 235 132 200 236 132 201 237 132 202 238 132 202 239 132 203 240 132 204 241 132 204 242 132 205 243 132 206 244 132 206 245 132 207 246 132 208 247 132 208 248 132 209 249 132 210 250 132 210 251 132 211 252 132 212 253 132 212 254 132 213 255 132 214
0 134 44 1 134 45 2 134 46 3 134 46 4 134 47 5 134 48 6 134 48 7 134 49 8 134 50 9 134 50 10 134 51 11 134 52 12 134 52 13 134 53 14 134 54 15 134 54 16 134 55 17 134 56 18 134 56 19 134 57 20 134 58 21 134 58 22 134 59 23 134 60 24 134 60 25 134 61 26 134 62 27 134 62 28 134 63 29 134 64 30 134 64 31 134 65 32 134 66 33 134 66 34 134 67 35 134 68 36 134 68 37 134 69 38 134 70 39 134 70 40 134 71 41 134 72 42 134 72 43 134 73 44 134 74 45 134 74 46 134 75 47 134 76 48 134 76 49 134 77 50 134 78 51 134 78 52 134 79 53 134 80 54 134 80 55 134 81 56 134 82 57 134 82 58 134 83 59 134 84 60 134 84 61 134 85 62 134 86 63 134 86 64 134 87 65 134 88 66 134 88 67 134 89 68 134 90 69 134 90 70 134 91 71 134 92 72 134 92 73 134 93 74 134 94 75 134 94 76 134 95 77 134 96 78 134 96 79 134 97 80 134 98 81 134 98 82 134 99 83 134 100 84 134 100 85 134 101 86 134 102 87 134 102 88 134 103 89 134 104 90 134 104 91 134 105 92 134 106 93 134 106 94 134 107 95 134 108 96 134 108 97 134 109 98 134 110 99 134 110 100 134 111 101 134 112 102 134 112 103 134 113 104 134 114 105 134 114 106 134 115 107 134 116 108 134 116 109 134 117 110 134 118 111 134 118 112 134 119 113 134 120 114 134 120 115 134 121 116 134 122 117 134 122 118 134 123 119 134 124 120 134 124 121 134 125 122 134 126 123 134 126 124 134 127 125 134 128 126 134 128 127 134 129 128 134 130 129 134 130 130 134 131 131 134 132 132 134 132 133 134 133 134 134 134 135 134 134 136 134 135 137 134 136 138 134 136 139 134 137 140 134 138 141 134 138 142 134 139 143 134 140 144 134 140 145 134 141 146 134 142 147 134 142 148 134 143 149 134 144 150 134 144 151 134 145 152 134 146 153 134 146 154 134 147 155 134 148 156 134 148 157 134 149 158 134 150 159 134 150 160 134 151 161 134 152 162 134 152 163 134 153 164 134 154 165 134 154 166 134 155 167 134 156 168 134 156 169 134 157 170 134 158 171 134 158 172 134 159 173 134 160 174 134 160 175 134 161 176 134 162 177 134 162 178 134 163 179 134 164 180 134 164 181 134 165 182 134 166 183 134 166 184 134 167 185 134 168 186 134 168 187 134 169 188 134 170 189 134 170 190 134 171 191 134 172 192 134 172 193 134 173 194 134 174 195 134 174 196 134 175 197 134 176 198 134 176 199 134 177 200 134 178 201 134 178 202 134 179 203 134 180 204 134 180 205 134 181 206 134 182 207 134 182 208 134 183 209 134 184 210 134 184 211 134 185 212 134 186 213 134 186 214 134 187 215 134 188 216 134 188 217 134 189 218 134 190 219 134 190 220 134 191 221 134 192 222 134 192 223 134 193 224 134 194 225 134 194 226 134 195 227 134 196 228 134 196 229 134 197 230 134 198 231 134 198 232 134 199 233 134 200 234 134 200 235 134 201 236 134 202 237 134 202 238 134 203 239 134 204 240 134 204 241 134 205 242 134 206 243 134 206 244 134 207 245 134 208 246 134 208 247 134 209 248 134 210 249 134 210 250 134 211 251 134 212 252 134 212 253 134 213 254 134 214 255 134 214
0 136 45 1 136 46 2 136 46 3 136 47 4 136 48 5 136 48 6 136 49 7 136 50 8 136 50 9 136 51 10 136 52 11 136 52 12 136 53 13 136 54 14 136 54 15 136 55 16 136 56 17 136 56 18 136 57 19 136 58 20 136 58 21 136 59 22 136 60 23 136 60 24 136 61 25 136 62 26 136 62 27 136 63 28 136 64 29 136 64 30 136 65 31 136 66 32 136 66 33 136 67 34 136 68 35 136 68 36 136 69 37 136 70 38 136 70 39 136 71 40 136 72 41 136 72 42 136 73 43 136 74 44 136 74 45 136 75 46 136 76 47 136 76 48 136 77 49 136 78 50 136 78 51 136 79 52 136 80 53 136 80 54 136 81 55 136 82 56 136 82 57 136 83 58 136 84 59 136 84 60 136 85 61 136 86 62 136 86 63 136 87 64 136 88 65 136 88 66 136 89 67 136 90 68 136 90 69 136 91 70 136 92 71 136 92 72 136 93 73 136 94 74 136 94 75 136 95 76 136 96 77 136 96 78 136 97 79 136 98 80 136 98 81 136 99 82 136 100 83 136 100 84 136 101 85 136 102 86 136 102 87 136 103 88 136 104 89 136 104 90 136 105 91 136 106 92 136 106 93 136 107 94 136 108 95 136 108 96 136 109 97 136 110 98 136 110 99 136 111 100 136 112 101 136 112 102 136 113 103 136 114 104 136 114 105 136 115 106 136 116 107 136 116 108 136 117 109 136 118 110 136 118 111 136 119 112 136 120 113 136 120 114 136 121 115 136 122 116 136 122 117 136 123 118 136 124 119 136 124 120 136 125 121 136 126 122 136 126 123 136 127 124 136 128 125 136 128 126 136 129 127 136 130 128 136 130 129 136 131 130 136 132 131 136 132 132 136 133 133 136 134 134 136 134 135 136 135 136 136 136 137 136 136 138 136 137 139 136 138 140 136 138 141 136 139 142 136 140 143 136 140 144 136 141 145 136 142 146 136 142 147 136 143 148 136 144 149 136 144 150 136 145 151 136 146 152 136 146 153 136 147 154 136 148 155 136 148 156 136 149 157 136 150 158 136 150 159 136 151 160 136 152 161 136 152 162 136 153 163 136 154 164 136 154 165 136 155 166 136 156 167 136 156 168 136 157 169 136 158 170 136 158 171 136 159 172 136 160 173 136 160 174 136 161 175 136 162 176 136 162 177 136 163 178 136 164 179 136 164 180 136 165 181 136 166 182 136 166 183 136 167 184 136 168 185 136 168 186 136 169 187 136 170 188 136 170 189 136 171 190 136 172 191 136 172 192 136 173 193 136 174 194 136 174 195 136 175 196 136 176 197 136 176 198 136 177 199 136 178 200 136 178 201 136 179 202 136 180 203 136 180 204 136 181 205 136 182 206 136 182 207 136 183 208 136 184 209 136 184 210 136 185 211 136 186 212 136 186 213 136 187 214 136 188 215 136 188 216 136 189 217 136 190 218 136 190 219 136 191 220 136 192 221 136 192 222 136 193 223 136 194 224 136 194 225 136 195 226 136 196 227 136 196 228 136 197 229 136 198 230 136 198 231 136 199 232 136 200 233 136 200 234 136 201 235 136 202 236 136 202 237 136 203 238 136 204 239 136 204 240 136 205 241 136 206 242 136 206 243 136 207 244 136 208 245 136 208 246 136 209 247 136 210 248 136 210 249 136 211 250 136 212 251 136 212 252 136 213 253 136 214 254 136 214 255 136 215
0 138 46 1 138 46 2 138 47 3 138 48 4 138 48 5 138 49 6 138 50 7 138 50 8 138 51 9 138 52 10 138 52 11 138 53 12 138 54 13 138 54 14 138 55 15 138 56 16 138 56 17 138 57 18 138 58 19 138 58 20 138 59 21 138 60 22 138 60 23 138 61 24 138 62 25 138 62 26 138 63 27 138 64 28 138 64 29 138 65 30 138 66 31 138 66 32 138 67 33 138 68 34 138 68 35 138 69 36 138 70 37 138 70 38 138 71 39 138 72 40 138 72 41 138 73 42 138 74 43 138 74 44 138 75 45 138 76 46 138 76 47 138 77 48 138 78 49 138 78 50 138 79 51 138 80 52 138 80 53 138 81 54 138 82 55 138 82 56 138 83 57 138 84 58 138 84 59 138 85 60 138 86 61 138 86 62 138 87 63 138 88 64 138 88 65 138 89 66 138 90 67 138 90 68 138 91 69 138 92 70 138 92 71 138 93 72 138 94 73 138 94 74 138 95 75 138 96 76 138 96 77 138 97 78 138 98 79 138 98 80 138 99 81 138 100 82 138 100 83 138 101 84 138 102 85 138 102 86 138 103 87 138 104 88 138 104 89 138 105 90 138 106 91 138 106 92 138 107 93 138 108 94 138 108 95 138 109 96 138 110 97 138 110 98 138 111 99 138 112 100 138 112 101 138 113 102 138 114 103 138 114 104 138 115 105 138 116 106 138 116 107 138 117 108 138 118 109 138 118 110 138 119 111 138 120 112 138 120 113 138 121 114 138 122 115 138 122 116 138 123 117 138 124 118 138 124 119 138 125 120 138 126 121 138 126 122 138 127 123 138 128 124 138 128 125 138 129 126 138 130 127 138 130 128 138 131 129 138 132 130 138 132 131 138 133 132 138 134 133 138 134 134 138 135 135 138 136 136 138 136 137 138 137 138 138 138 139 138 138 140 138 139 141 138 140 142 138 140 143 138 141 144 138 142 145 138 142 146 138 143 147 138 144 148 138 144 149 138 145 150 138 146 151 138 146 152 138 147 153 138 148 154 138 148 155 138 149 156 138 150 157 138 150 158 138 151 159 138 152 160 138 152 161 138 153 162 138 154 163 138 154 164 138 155 165 138 156 166 138 156 167 138 157 168 138 158 169 138 158 170 138 159 171 138 160 172 138 160 173 138 161 174 138 162 175 138 162 176 138 163 177 138 164 178 138 164 179 138 165 180 138 166 181 138 166 182 138 167 183 138 168 184 138 168 185 138 169 186 138 170 187 138 170 188 138 171 189 138 172 190 138 172 191 138 173 192 138 174 193 138 174 194 138 175 195 138 176 196 138 176 197 138 177 198 138 178 199 138 178 200 138 179 201 138 180 202 138 180 203 138 181 204 138 182 205 138 182 206 138 183 207 138 184 208 138 184 209 138 185 210 138 186 211 138 186 212 138 187 213 138 188 214 138 188 215 138 189 216 138 190 217 138 190 218 138 191 219 138 192 220 138 192 221 138 193 222 138 194 223 138 194 224 138 195 225 138 196 226 138 196 227 138 197 228 138 198 229 138 198 230 138 199 231 138 200 232 138 200 233 138 201 234 138 202 235 138 202 236 138 203 237 138 204 238 138 204 239 138 205 240 138 206 241 138 206 242 138 207 243 138 208 244 138 208 245 138 209 246 138 210 247 138 210 248 138 211 249 138 212 250 138 212 251 138 213 252 138 214 253 138 214 254 138 215 255 138 216
0 140 46 1 140 47 2 140 48 3 140 48 4 140 49 5 140 50 6 140 50 7 140 51 8 140 52 9 140 52 10 140 53 11 140 54 12 140 54 13 140 55 14 140 56 15 140 56 16 140 57 17 140 58 18 140 58 19 140 59 20 140 60 21 140 60 22 140 61 23 140 62 24 140 62 25 140 63 26 140 64 27 140 64 28 140 65 29 140 66 30 140 66 31 140 67 32 140 68 33 140 68 34 140 69 35 140 70 36 140 70 37 140 71 38 140 72 39 140 72 40 140 73 41 140 74 42 140 74 43 140 75 44 140 76 45 140 76 46 140 77 47 140 78 48 140 78 49 140 79 50 140 80 51 140 80 52 140 81 53 140 82 54 140 82 55 140 83 56 140 84 57 140 84 58 140 85 59 140 86 60 140 86 61 140 87 62 140 88 63 140 88 64 140 89 65 140 90 66 140 90 67 140 91 68 140 92 69 140 92 70 140 93 71 140 94 72 140 94 73 140 95 74 140 96 75 140 96 76 140 97 77 140 98 78 140 98 79 140 99 80 140 100 81 140 100 82 140 101 83 140 102 84 140 102 85 140 103 86 140 104 87 140 104 88 140 105 89 140 106 90 140 106 91 140 107 92 140 108 93 140 108 94 140 109 95 140 110 96 140 110 97 140 111 98 140 112 99 140 112 100 140 113 101 140 114 102 140 114 103 140 115 104 140 116 105 140 116 106 140 117 107 140 118 108 140 118 109 140 119 110 140 120 111 140 120 112 140 121 113 140 122 114 140 122 115 140 123 116 140 124 117 140 124 118 140 125 119 140 126 120 140 126 121 140 127 122 140 128 123 140 128 124 140 129 125 140 130 126 140 130 127 140 131 128 140 132 129 140 132 130 140 133 131 140 134 132 140 134 133 140 135 134 140 136 135 140 136 136 140 137 137 140 138 138 140 138 139 140 139 140 140 140 141 140 140 142 140 141 143 140 142 144 140 142 145 140 143 146 140 144 147 140 144 148 140 145 149 140 146 150 140 146 151 140 147 152 140 148 153 140 148 154 140 149 155 140 150 156 140 150 157 140 151 158 140 152 159 140 152 160 140 153 161 140 154 162 140 154 163 140 155 164 140 156 165 140 156 166 140 157 167 140 158 168 140 158 169 140 159 170 140 160 171 140 160 172 140 161 173 140 162 174 140 162 175 140 163 176 140 164 177 140 164 178 140 165 179 140 166 180 140 166 181 140 167 182 140 168 183 140 168 184 140 169 185 140 170 186 140 170 187 140 171 188 140 172 189 140 172 190 140 173 191 140 174 192 140 174 193 140 175 194 140 176 195 140 176 196 140 177 197 140 178 198 140 178 199 140 179 200 140 180 201 140 180 202 140 181 203 140 182 204 140 182 205 140 183 206 140 184 207 140 184 208 140 185 209 140 186 210 140 186 211 140 187 212 140 188 213 140 188 214 140 189 215 140 190 216 140 190 217 140 191 218 140 192 219 140 192 220 140 193 221 140 194 222 140 194 223 140 195 224 140 196 225 140 196 226 140 197 227 140 198 228 140 198 229 140 199 230 140 200 231 140 200 232 140 201 233 140 202 234 140 202 235 140 203 236 140 204 237 140 204 238 140 205 239 140 206 240 140 206 241 140 207 242 140 208 243 140 208 244 140 209 245 140 210 246 140 210 247 140 211 248 140 212 249 140 212 250 140 213 251 140 214 252 140 214 253 140 215 254 140 216 255 140 216
0 142 47 1 142 48 2 142 48 3 142 49 4 142 50 5 142 50 6 142 51 7 142 52 8 142 52 9 142 53 10 142 54 11 142 54 12 142 55 13 142 56 14 142 56 15 142 57 16 142 58 17 142 58 18 142 59 19 142 60 20 142 60 21 142 61 22 142 62 23 142 62 24 142 63 25 142 64 26 142 64 27 142 65 28 142 66 29 142 66 30 142 67 31 142 68 32 142 68 33 142 69 34 142 70 35 142 70 36 142 71 37 142 72 38 142 72 39 142 73 40 142 74 41 142 74 42 142 75 43 142 76 44 142 76 45 142 77 46 142 78 47 142 78 48 142 79 49 142 80 50 142 80 51 142 81 52 142 82 53 142 82 54 142 83 55 142 84 56 142 84 57 142 85 58 142 86 59 142 86 60 142 87 61 142 88 62 142 88 63 142 89 64 142 90 65 142 90 66 142 91 67 142 92 68 142 92 69 142 93 70 142 94 71 142 94 72 142 95 73 142 96 74 142 96 75 142 97 76 142 98 77 142 98 78 142 99 79 142 100 80 142 100 81 142 101 82 142 102 83 142 102 84 142 103 85 142 104 86 142 104 87 142 105 88 142 106 89 142 106 90 142 107 91 142 108 92 142 108 93 142 109 94 142 110 95 142 110 96 142 111 97 142 112 98 142 112 99 142 113 100 142 114 101 142 114 102 142 115 103 142 116 104 142 116 105 142 117 106 142 118 107 142 118 108 142 119 109 142 120 110 142 120 111 142 121 112 142 122 113 142 122 114 142 123 115 142 124 116 142 124 117 142 125 118 142 126 119 142 126 120 142 127 121 142 128 122 142 128 123 142 129 124 142 130 125 142 130 126 142 131 127 142 132 128 142 132 129 142 133 130 142 134 131 142 134 132 142 135 133 142 136 134 142 136 135 142 137 136 142 138 137 142 138 138 142 139 139 142 140 140 142 140 141 142 141 142 142 142 143 142 142 144 142 143 145 142 144 146 142 144 147 142 145 148 142 146 149 142 146 150 142 147 151 142 148 152 142 148 153 142 149 154 142 150 155 142 150 156 142 151 157 142 152 158 142 152 159 142 153 160 142 154 161 142 154 162 142 155 163 142 156 164 142 156 165 142 157 166 142 158 167 142 158 168 142 159 169 142 160 170 142 160 171 142 161 172 142 162 173 142 162 174 142 163 175 142 164 176 142 164 177 142 165 178 142 166 179 142 166 180 142 167 181 142 168 182 142 168 183 142 169 184 142 170 185 142 170 186 142 171 187 142 172 188 142 172 189 142 173 190 142 174 191 142 174 192 142 175 193 142 176 194 142 176 195 142 177 196 142 178 197 142 178 198 142 179 199 142 180 200 142 180 201 142 181 202 142 182 203 142 182 204 142 183 205 142 184 206 142 184 207 142 185 208 142 186 209 142 186 210 142 187 211 142 188 212 142 188 213 142 189 214 142 190 215 142 190 216 142 191 217 142 192 218 142 192 219 142 193 220 142 194 221 142 194 222 142 195 223 142 196 224 142 196 225 142 197 226 142 198 227 142 198 228 142 199 229 142 200 230 142 200 231 142 201 232 142 202 233 142 202 234 142 203 235 142 204 236 142 204 237 142 205 238 142 206 239 142 206 240 142 207 241 142 208 242 142 208 243 142 209 244 142 210 245 142 210 246 142 211 247 142 212 248 142 212 249 142 213 250 142 214 251 142 214 252 142 215 253 142 216 254 142 216 255 142 217
0 144 48 1 144 48 2 144 49 3 144 50 4 144 50 5 144 51 6 144 52 7 144 52 8 144 53 9 144 54 10 144 54 11 144 55 12 144 56 13 144 56 14 144 57 15 144 58 16 144 58 17 144 59 18 144 60 19 144 60 20 144 61 21 144 62 22 144 62 23 144 63 24 144 64 25 144 64 26 144 65 27 144 66 28 144 66 29 144 67 30 144 68 31 144 68 32 144 69 33 144 70 34 144 70 35 144 71 36 144 72 37 144 72 38 144 73 39 144 74 40 144 74 41 144 75 42 144 76 43 144 76 44 144 77 45 144 78 46 144 78 47 144 79 48 144 80 49 144 80 50 144 81 51 144 82 52 144 82 53 144 83 54 144 84 55 144 84 56 144 85 57 144 86 58 144 86 59 144 87 60 144 88 61 144 88 62 144 89 63 144 90 64 144 90 65 144 91 66 144 92 67 144 92 68 144 93 69 144 94 70 144 94 71 144 95 72 144 96 73 144 96 74 144 97 75 144 98 76 144 98 77 144 99 78 144 100 79 144 100 80 144 101 81 144 102 82 144 102 83 144 103 84 144 104 85 144 104 86 144 105 87 144 106 88 144 106 89 144 107 90 144 108 91 144 108 92 144 109 93 144 110 94 144 110 95 144 111 96 144 112 97 144 112 98 144 113 99 144 114 100 144 114 101 144 115 102 144 116 103 144 116 104 144 117 105 144 118 106 144 118 107 144 119 108 144 120 109 144 120 110 144 121 111 144 122 112 144 122 113 144 123 114 144 124 115 144 124 116 144 125 117 144 126 118 144 126 119 144 127 120 144 128 121 144 128 122 144 129 123 144 130 124 144 130 125 144 131 126 144 132 127 144 132 128 144 133 129 144 134 130 144 134 131 144 135 132 144 136 133 144 136 134 144 137 135 144 138 136 144 138 137 144 139 138 144 140 139 144 140 140 144 141 141 144 142 142 144 142 143 144 143 144 144 144 145 144 144 146 144 145 147 144 146 148 144 146 149 144 147 150 144 148 151 144 148 152 144 149 153 144 150 154 144 150 155 144 151 156 144 152 157 144 152 158 144 153 159 144 154 160 144 154 161 144 155 162 144 156 163 144 156 164 144 157 165 144 158 166 144 158 167 144 159 168 144 160 169 144 160 170 144 161 171 144 162 172 144 162 173 144 163 174 144 164 175 144 164 176 144 165 177 144 166 178 144 166 179 144 167 180 144 168 181 144 168 182 144 169 183 144 170 184 144 170 185 144 171 186 144 172 187 144 172 188 144 173 189 144 174 190 144 174 191 144 175 192 144 176 193 144 176 194 144 177 195 144 178 196 144 178 197 144 179 198 144 180 199 144 180 200 144 181 201 144 182 202 144 182 203 144 183 204 144 184 205 144 184 206 144 185 207 144 186 208 144 186 209 144 187 210 144 188 211 144 188 212 144 189 213 144 190 214 144 190 215 144 191 216 144 192 217 144 192 218 144 193 219 144 194 220 144 194 221 144 195 222 144 196 223 144 196 224 144 197 225 144 198 226 144 198 227 144 199 228 144 200 229 144 200 230 144 201 231 144 202 232 144 202 233 144 203 234 144 204 235 144 204 236 144 205 237 144 206 238 144 206 239 144 207 240 144 208 241 144 208 242 144 209 243 144 210 244 144 210 245 144 211 246 144 212 247 144 212 248 144 213 249 144 214 250 144 214 251 144 215 252 144 216 253 144 216 254 144 217 255 144 218
0 146 48 1 146 49 2 146 50 3 146 50 4 146 51 5 146 52 6 146 52 7 146 53 8 146 54 9 146 54 10 146 55 11 146 56 12 146 56 13 146 57 14 146 58 15 146 58 16 146 59 17 146 60 18 146 60 19 146 61 20 146 62 21 146 62 22 146 63 23 146 64 24 146 64 25 146 65 26 146 66 27 146 66 28 146 67 29 146 68 30 146 68 31 146 69 32 146 70 33 146 70 34 146 71 35 146 72 36 146 72 37 146 73 38 146 74 39 146 74 40 146 75 41 146 76 42 146 76 43 146 77 44 146 78 45 146 78 46 146 79 47 146 80 48 146 80 49 146 81 50 146 82 51 146 82 52 146 83 53 146 84 54 146 84 55 146 85 56 146 86 57 146 86 58 146 87 59 146 88 60 146 88 61 146 89 62 146 90 63 146 90 64 146 91 65 146 92 66 146 92 67 146 93 68 146 94 69 146 94 70 146 95 71 146 96 72 146 96 73 146 97 74 146 98 75 146 98 76 146 99 77 146 100 78 146 100 79 146 101 80 146 102 81 146 102 82 146 103 83 146 104 84 146 104 85 146 105 86 146 106 87 146 106 88 146 107 89 146 108 90 146 108 91 146 109 92 146 110 93 146 110 94 146 111 95 146 112 96 146 112 97 146 113 98 146 114 99 146 114 100 146 115 101 146 116 102 146 116 103 146 117 104 146 118 105 146 118 106 146 119 107 146 120 108 146 120 109 146 121 110 146 122 111 146 122 112 146 123 113 146 124 114 146 124 115 146 125 116 146 126 117 146 126 118 146 127 119 146 128 120 146 128 121 146 129 122 146 130 123 146 130 124 146 131 125 146 132 126 146 132 127 146 133 128 146 134 129 146 134 130 146 135 131 146 136 132 146 136 133 146 137 134 146 138 135 146 138 136 146 139 137 146 140 138 146 140 139 146 141 140 146 142 141 146 142 142 146 143 143 146 144 144 146 144 145 146 145 146 146 146 147 146 146 148 146 147 149 146 148 150 146 148 151 146 149 152 146 150 153 146 150 154 146 151 155 146 152 156 146 152 157 146 153 158 146 154 159 146 154 160 146 155 161 146 156 162 146 156 163 146 157 164 146 158 165 146 158 166 146 159 167 146 160 168 146 160 169 146 161 170 146 162 171 146 162 172 146 163 173 146 164 174 146 164 175 146 165 176 146 166 177 146 166 178 146 167 179 146 168 180 146 168 181 146 169 182 146 170 183 146 170 184 146 171 185 146 172 186 146 172 187 146 173 188 146 174 189 146 174 190 146 175 191 146 176 192 146 176 193 146 177 194 146 178 195 146 178 196 146 179 197 146 180 198 146 180 199 146 181 200 146 182 201 146 182 202 146 183 203 146 184 204 146 184 205 146 185 206 146 186 207 146 186 208 146 187 209 146 188 210 146 188 211 146 189 212 146 190 213 146 190 214 146 191 215 146 192 216 146 192 217 146 193 218 146 194 219 146 194 220 146 195 221 146 196 222 146 196 223 146 197 224 146 198 225 146 198 226 146 199 227 146 200 228 146 200 229 146 201 230 146 202 231 146 202 232 146 203 233 146 204 234 146 204 235 146 205 236 146 206 237 146 206 238 146 207 239 146 208 240 146 208 241 146 209 242 146 210 243 146 210 244 146 211 245 146 212 246 146 212 247 146 213 248 146 214 249 146 214 250 146 215 251 146 216 252 146 216 253 146 217 254 146 218 255 146 218
0 148 49 1 148 50 2 148 50 3 148 51 4 148 52 5 148 52 6 148 53 7 148 54 8 148 54 9 148 55 10 148 56 11 148 56 12 148 57 13 148 58 14 148 58 15 148 59 16 148 60 17 148 60 18 148 61 19 148 62 20 148 62 21 148 63 22 148 64 23 148 64 24 148 65 25 148 66 26 148 66 27 148 67 28 148 68 29 148 68 30 148 69 31 148 70 32 148 70 33 148 71 34 148 72 35 148 72 36 148 73 37 148 74 38 148 74 39 148 75 40 148 76 41 148 76 42 148 77 43 148 78 44 148 78 45 148 79 46 148 80 47 148 80 48 148 81 49 148 82 50 148 82 51 148 83 52 148 84 53 148 84 54 148 85 55 148 86 56 148 86 57 148 87 58 148 88 59 148 88 60 148 89 61 148 90 62 148 90 63 148 91 64 148 92 65 148 92 66 148 93 67 148 94 68 148 94 69 148 95 70 148 96 71 148 96 72 148 97 73 148 98 74 148 98 75 148 99 76 148 100 77 148 100 78 148 101 79 148 102 80 148 102 81 148 103 82 148 104 83 148 104 84 148 105 85 148 106 86 148 106 87 148 107 88 148 108 89 148 108 90 148 109 91 148 110 92 148 110 93 148 111 94 148 112 95 148 112 96 148 113 97 148 114 98 148 114 99 148 115 100 148 116 101 148 116 102 148 117 103 148 118 104 148 118 105 148 119 106 148 120 107 148 120 108 148 121 109 148 122 110 148 122 111 148 123 112 148 124 113 148 124 114 148 125 115 148 126 116 148 126 117 148 127 118 148 128 119 148 128 120 148 129 121 148 130 122 148 130 123 148 131 124 148 132 125 148 132 126 148 133 127 148 134 128 148 134 129 148 135 130 148 136 131 148 136 132 148 137 133 148 138 134 148 138 135 148 139 136 148 140 137 148 140 138 148 141 139 148 142 140 148 142 141 148 143 142 148 144 143 148 144 144 148 145 145 148 146 146 148 146 147 148 147 148 148 148 149 148 148 150 148 149 151 148 150 152 148 150 153 148 151 154 148 152 155 148 152 156 148 153 157 148 154 158 148 154 159 148 155 160 148 156 161 148 156 162 148 157 163 148 158 164 148 158 165 148 159 166 148 160 167 148 160 168 148 161 169 148 162 170 148 162 171 148 163 172 148 164 173 148 164 174 148 165 175 148 166 176 148 166 177 148 167 178 148 168 179 148 168 180 148 169 181 148 170 182 148 170 183 148 171 184 148 172 185 148 172 186 148 173 187 148 174 188 148 174 189 148 175 190 148 176 191 148 176 192 148 177 193 148 178 194 148 178 195 148 179 196 148 180 197 148 180 198 148 181 199 148 182 200 148 182 201 148 183 202 148 184 203 148 184 204 148 185 205 148 186 206 148 186 207 148 187 208 148 188 209 148 188 210 148 189 211 148 190 212 148 190 213 148 191 214 148 192 215 148 192 216 148 193 217 148 194 218 148 194 219 148 195 220 148 196 221 148 196 222 148 197 223 148 198 224 148 198 225 148 199 226 148 200 227 148 200 228 148 201 229 148 202 230 148 202 231 148 203 232 148 204 233 148 204 234 148 205 235 148 206 236 148 206 237 148 207 238 148 208 239 148 208 240 148 209 241 148 210 242 148 210 243 148 211 244 148 212 245 148 212 246 148 213 247 148 214 248 148 214 249 148 215 250 148 216 251 148 216 252 148 217 253 148 218 254 148 218 255 148 219
0 150 50 1 150 50 2 150 51 3 150 52 4 150 52 5 150 53 6 150 54 7 150 54 8 150 55 9 150 56 10 150 56 11 150 57 12 150 58 13 150 58 14 150 59 15 150 60 16 150 60 17 150 61 18 150 62 19 150 62 20 150 63 21 150 64 22 150 64 23 150 65 24 150 66 25 150 66 26 150 67 27 150 68 28 150 68 29 150 69 30 150 70 31 150 70 32 150 71 33 150 72 34 150 72 35 150 73 36 150 74 37 150 74 38 150 75 39 150 76 40 150 76 41 150 77 42 150 78 43 150 78 44 150 79 45 150 80 46 150 80 47 150 81 48 150 82 49 150 82 50 150 83 51 150 84 52 150 84 53 150 85 54 150 86 55 150 86 56 150 87 57 150 88 58 150 88 59 150 89 60 150 90 61 150 90 62 150 91 63 150 92 64 150 92 65 150 93 66 150 94 67 150 94 68 150 95 69 150 96 70 150 96 71 150 97 72 150 98 73 150 98 74 150 99 75 150 100 76 150 100 77 150 101 78 150 102 79 150 102 80 150 103 81 150 104 82 150 104 83 150 105 84 150 106 85 150 106 86 150 107 87 150 108 88 150 108 89 150 109 90 150 110 91 150 110 92 150 111 93 150 112 94 150 112 95 150 113 96 150 114 97 150 114 98 150 115 99 150 116 100 150 116 101 150 117 102 150 118 103 150 118 104 150 119 105 150 120 106 150 120 107 150 121 108 150 122 109 150 122 110 150 123 111 150 124 112 150 124 113 150 125 114 150 126 115 150 126 116 150 127 117 150 128 118 150 128 119 150 129 120 150 130 121 150 130 122 150 131 123 150 132 124 150 132 125 150 133 126 150 134 127 150 134 128 150 135 129 150 136 130 150 136 131 150 137 132 150 138 133 150 138 134 150 139 135 150 140 136 150 140 137 150 141 138 150 142 139 150 142 140 150 143 141 150 144 142 150 144 143 150 145 144 150 146 145 150 146 146 150 147 147 150 148 148 150 148 149 150 149 150 150 150 151 150 150 152 150 151 153 150 152 154 150 152 155 150 153 156 150 154 157 150 154 158 150 155 159 150 156 160 150 156 161 150 157 162 150 158 163 150 158 164 150 159 165 150 160 166 150 160 167 150 161 168 150 162 169 150 162 170 150 163 171 150 164 172 150 164 173 150 165 174 150 166 175 150 166 176 150 167 177 150 168 178 150 168 179 150 169 180 150 170 181 150 170 182 150 171 183 150 172 184 150 172 185 150 173 186 150 174 187 150 174 188 150 175 189 150 176 190 150 176 191 150 177 192 150 178 193 150 178 194 150 179 195 150 180 196 150 180 197 150 181 198 150 182 199 150 182 200 150 183 201 150 184 202 150 184 203 150 185 204 150 186 205 150 186 206 150 187 207 150 188 208 150 188 209 150 189 210 150 190 211 150 190 212 150 191 213 150 192 214 150 192 215 150 193 216 150 194 217 150 194 218 150 195 219 150 196 220 150 196 221 150 197 222 150 198 223 150 198 224 150 199 225 150 200 226 150 200 227 150 201 228 150 202 229 150 202 230 150 203 231 150 204 232 150 204 233 150 205 234 150 206 235 150 206 236 150 207 237 150 208 238 150 208 239 150 209 240 150 210 241 150 210 242 150 211 243 150 212 244 150 212 245 150 213 246 150 214 247 150 214 248 150 215 249 150 216 250 150 216 251 150 217 252 150 218 253 150 218 254 150 219 255 150 220
0 152 50 1 152 51 2 152 52 3 152 52 4 152 53 5 152 54 6 152 54 7 152 55 8 152 56 9 152 56 10 152 57 11 152 58 12 152 58 13 152 59 14 152 60 15 152 60 16 152 61 17 152 62 18 152 62 19 152 63 20 152 64 21 152 64 22 152 65 23 152 66 24 152 66 25 152 67 26 152 68 27 152 68 28 152 69 29 152 70 30 152 70 31 152 71 32 152 72 33 152 72 34 152 73 35 152 74 36 152 74 37 152 75 38 152 76 39 152 76 40 152 77 41 152 78 42 152 78 43 152 79 44 152 80 45 152 80 46 152 81 47 152 82 48 152 82 49 152 83 50 152 84 51 152 84 52 152 85 53 152 86 54 152 86 55 152 87 56 152 88 57 152 88 58 152 89 59 152 90 60 152 90 61 152 91 62 152 92 63 152 92 64 152 93 65 152 94 66 152 94 67 152 95 68 152 96 69 152 96 70 152 97 71 152 98 72 152 98 73 152 99 74 152 100 75 152 100 76 152 101 77 152 102 78 152 102 79 152 103 80 152 104 81 152 104 82 152 105 83 152 106 84 152 106 85 152 107 86 152 108 87 152 108 88 152 109 89 152 110 90 152 110 91 152 111 92 152 112 93 152 112 94 152 113 95 152 114 96 152 114 97 152 115 98 152 116 99 152 116 100 152 117 101 152 118 102 152 118 103 152 119 104 152 120 105 152 120 106 152 121 107 152 122 108 152 122 109 152 123 110 152 124 111 152 124 112 152 125 113 152 126 114 152 126 115 152 127 116 152 128 117 152 128 118 152 129 119 152 130 120 152 130 121 152 131 122 152 132 123 152 132 124 152 133 125 152 134 126 152 134 127 152 135 128 152 136 129 152 136 130 152 137 131 152 138 132 152 138 133 152 139 134 152 140 135 152 140 136 152 141 137 152 142 138 152 142 139 152 143 140 152 144 141 152 144 142 152 145 143 152 146 144 152 146 145 152 147 146 152 148 147 152 148 148 152 149 149 152 150 150 152 150 151 152 151 152 152 152 153 152 152 154 152 153 155 152 154 156 152 154 157 152 155 158 152 156 159 152 156 160 152 157 161 152 158 162 152 158 163 152 159 164 152 160 165 152 160 166 152 161 167 152 162 168 152 162 169 152 163 170 152 164 171 152 164 172 152 165 173 152 166 174 152 166 175 152 167 176 152 168 177 152 168 178 152 169 179 152 170 180 152 170 181 152 171 182 152 172 183 152 172 184 152 173 185 152 174 186 152 174 187 152 175 188 152 176 189 152 176 190 152 177 191 152 178 192 152 178 193 152 179 194 152 180 195 152 180 196 152 181 197 152 182 198 152 182 199 152 183 200 152 184 201 152 184 202 152 185 203 152 186 204 152 186 205 152 187 206 152 188 207 152 188 208 152 189 209 152 190 210 152 190 211 152 191 212 152 192 213 152 192 214 152 193 215 152 194 216 152 194 217 152 195 218 152 196 219 152 196 220 152 197 221 152 198 222 152 198 223 152 199 224 152 200 225 152 200 226 152 201 227 152 202 228 152 202 229 152 203 230 152 204 231 152 204 232 152 205 233 152 206 234 152 206 235 152 207 236 152 208 237 152 208 238 152 209 239 152 210 240 152 210 241 152 211 242 152 212 243 152 212 244 152 213 245 152 214 246 152 214 247 152 215 248 152 216 249 152 216 250 152 217 251 152 218 252 152 218 253 152 219 254 152 220 255 152 220
0 154 51 1 154 52 2 154 52 3 154 53 4 154 54 5 154 54 6 154 55 7 154 56 8 154 56 9 154 57 10 154 58 11 154 58 12 154 59 13 154 60 14 154 60 15 154 61 16 154 62 17 154 62 18 154 63 19 154 64 20 154 64 21 154 65 22 154 66 23 154 66 24 154 67 25 154 68 26 154 68 27 154 69 28 154 70 29 154 70 30 154 71 31 154 72 32 154 72 33 154 73 34 154 74 35 154 74 36 154 75 37 154 76 38 154 76 39 154 77 40 154 78 41 154 78 42 154 79 43 154 80 44 154 80 45 154 81 46 154 82 47 154 82 48 154 83 49 154 84 50 154 84 51 154 85 52 154 86 53 154 86 54 154 87 55 154 88 56 154 88 57 154 89 58 154 90 59 154 90 60 154 91 61 154 92 62 154 92 63 154 93 64 154 94 65 154 94 66 154 95 67 154 96 68 154 96 69 154 97 70 154 98 71 154 98 72 154 99 73 154 100 74 154 100 75 154 101 76 154 102 77 154 102 78 154 103 79 154 104 80 154 104 81 154 105 82 154 106 83 154 106 84 154 107 85 154 108 86 154 108 87 154 109 88 154 110 89 154 110 90 154 111 91 154 112 92 154 112 93 154 113 94 154 114 95 154 114 96 154 115 97 154 116 98 154 116 99 154 117 100 154 118 101 154 118 102 154 119 103 154 120 104 154 120 105 154 121 106 154 122 107 154 122 108 154 123 109 154 124 110 154 124 111 154 125 112 154 126 113 154 126 114 154 127 115 154 128 116 154 128 117 154 129 118 154 130 119 154 130 120 154 131 121 154 132 122 154 132 123 154 133 124 154 134 125 154 134 126 154 135 127 154 136 128 154 136 129 154 137 130 154 138 131 154 138 132 154 139 133 154 140 134 154 140 135 154 141 136 154 142 137 154 142 138 154 143 139 154 144 140 154 144 141 154 145 142 154 146 143 154 146 144 154 147 145 154 148 146 154 148 147 154 149 148 154 150 149 154 150 150 154 151 151 154 152 152 154 152 153 154 153 154 154 154 155 154 154 156 154 155 157 154 156 158 154 156 159 154 157 160 154 158 161 154 158 162 154 159 163 154 160 164 154 160 165 154 161 166 154 162 167 154 162 168 154 163 169 154 164 170 154 164 171 154 165 172 154 166 173 154 166 174 154 167 175 154 168 176 154 168 177 154 169 178 154 170 179 154 170 180 154 171 181 154 172 182 154 172 183 154 173 184 154 174 185 154 174 186 154 175 187 154 176 188 154 176 189 154 177 190 154 178 191 154 178 192 154 179 193 154 180 194 154 180 195 154 181 196 154 182 197 154 182 198 154 183 199 154 184 200 154 184 201 154 185 202 154 186 203 154 186 204 154 187 205 154 188 206 154 188 207 154 189 208 154 190 209 154 190 210 154 191 211 154 192 212 154 192 213 154 193 214 154 194 215 154 194 216 154 195 217 154 196 218 154 196 219 154 197 220 154 198 221 154 198 222 154 199 223 154 200 224 154 200 225 154 201 226 154 202 227 154 202 228 154 203 229 154 204 230 154 204 231 154 205 232 154 206 233 154 206 234 154 207 235 154 208 236 154 208 237 154 209 238 154 210 239 154 210 240 154 211 241 154 212 242 154 212 243 154 213 244 154 214 245 154 214 246 154 215 247 154 216 248 154 216 249 154 217 250 154 218 251 154 218 252 154 219 253 154 220 254 154 220 255 154 221
0 156 52 1 156 52 2 156 53 3 156 54 4 156 54 5 156 55 6 156 56 7 156 56 8 156 57 9 156 58 10 156 58 11 156 59 12 156 60 13 156 60 14 156 61 15 156 62 16 156 62 17 156 63 18 156 64 19 156 64 20 156 65 21 156 66 22 156 66 23 156 67 24 156 68 25 156 68 26 156 69 27 156 70 28 156 70 29 156 71 30 156 72 31 156 72 32 156 73 33 156 74 34 156 74 35 156 75 36 156 76 37 156 76 38 156 77 39 156 78 40 156 78 41 156 79 42 156 80 43 156 80 44 156 81 45 156 82 46 156 82 47 156 83 48 156 84 49 156 84 50 156 85 51 156 86 52 156 86 53 156 87 54 156 88 55 156 88 56 156 89 57 156 90 58 156 90 59 156 91 60 156 92 61 156 92 62 156 93 63 156 94 64 156 94 65 156 95 66 156 96 67 156 96 68 156 97 69 156 98 70 156 98 71 156 99 72 156 100 73 156 100 74 156 101 75 156 102 76 156 102 77 156 103 78 156 104 79 156 104 80 156 105 81 156 106 82 156 106 83 156 107 84 156 108 85 156 108 86 156 109 87 156 110 88 156 110 89 156 111 90 156 112 91 156 112 92 156 113 93 156 114 94 156 114 95 156 115 96 156 116 97 156 116 98 156 117 99 156 118 100 156 118 101 156 119 102 156 120 103 156 120 104 156 121 105 156 122 106 156 122 107 156 123 108 156 124 109 156 124 110 156 125 111 156 126 112 156 126 113 156 127 114 156 128 115 156 128 116 156 129 117 156 130 118 156 130 119 156 131 120 156 132 121 156 132 122 156 133 123 156 134 124 156 134 125 156 135 126 156 136 127 156 136 128 156 137 129 156 138 130 156 138 131 156 139 132 156 140 133 156 140 134 156 141 135 156 142 136 156 142 137 156 143 138 156 144 139 156 144 140 156 145 141 156 146 142 156 146 143 156 147 144 156 148 145 156 148 146 156 149 147 156 150 148 156 150 149 156 151 150 156 152 151 156 152 152 156 153 153 156 154 154 156 154 155 156 155 156 156 156 157 156 156 158 156 157 159 156 158 160 156 158 161 156 159 162 156 160 163 156 160 164 156 161 165 156 162 166 156 162 167 156 163 168 156 164 169 156 164 170 156 165 171 156 166 172 156 166 173 156 167 174 156 168 175 156 168 176 156 169 177 156 170 178 156 170 179 156 171 180 156 172 181 156 172 182 156 173 183 156 174 184 156 174 185 156 175 186 156 176 187 156 176 188 156 177 189 156 178 190 156 178 191 156 179 192 156 180 193 156 180 194 156 181 195 156 182 196 156 182 197 156 183 198 156 184 199 156 184 200 156 185 201 156 186 202 156 186 203 156 187 204 156 188 205 156 188 206 156 189 207 156 190 208 156 190 209 156 191 210 156 192 211 156 192 212 156 193 213 156 194 214 156 194 215 156 195 216 156 196 217 156 196 218 156 197 219 156 198 220 156 198 221 156 199 222 156 200 223 156 200 224 156 201 225 156 202 226 156 202 227 156 203 228 156 204 229 156 204 230 156 205 231 156 206 232 156 206 233 156 207 234 156 208 235 156 208 236 156 209 237 156 210 238 156 210 239 156 211 240 156 212 241 156 212 242 156 213 243 156 214 244 156 214 245 156 215 246 156 216 247 156 216 248 156 217 249 156 218 250 156 218 251 156 219 252 156 220 253 156 220 254 156 221 255 156 222
0 158 52 1 158 53 2 158 54 3 158 54 4 158 55 5 158 56 6 158 56 7 158 57 8 158 58 9 158 58 10 158 59 11 158 60 12 158 60 13 158 61 14 158 62 15 158 62 16 158 63 17 158 64 18 158 64 19 158 65 20 158 66 21 158 66 22 158 67 23 158 68 24 158 68 25 158 69 26 158 70 27 158 70 28 158 71 29 158 72 30 158 72 31 158 73 32 158 74 33 158 74 34 158 75 35 158 76 36 158 76 37 158 77 38 158 78 39 158 78 40 158 79 41 158 80 42 158 80 43 158 81 44 158 82 45 158 82 46 158 83 47 158 84 48 158 84 49 158 85 50 158 86 51 158 86 52 158 87 53 158 88 54 158 88 55 158 89 56 158 90 57 158 90 58 158 91 59 158 92 60 158 92 61 158 93 62 158 94 63 158 94 64 158 95 65 158 96 66 158 96 67 158 97 68 158 98 69 158 98 70 158 99 71 158 100 72 158 100 73 158 101 74 158 102 75 158 102 76 158 103 77 158 104 78 158 104 79 158 105 80 158 106 81 158 106 82 158 107 83 158 108 84 158 108 85 158 109 86 158 110 87 158 110 88 158 111 89 158 112 90 158 112 91 158 113 92 158 114 93 158 114 94 158 115 95 158 116 96 158 116 97 158 117 98 158 118 99 158 118 100 158 119 101 158 120 102 158 120 103 158 121 104 158 122 105 158 122 106 158 123 107 158 124 108 158 124 109 158 125 110 158 126 111 158 126 112 158 127 113 158 128 114 158 128 115 158 129 116 158 130 117 158 130 118 158 131 119 158 132 120 158 132 121 158 133 122 158 134 123 158 134 124 158 135 125 158 136 126 158 136 127 158 137 128 158 138 129 158 138 130 158 139 131 158 140 132 158 140 133 158 141 134 158 142 135 158 142 136 158 143 137 158 144 138 158 144 139 158 145 140 158 146 141 158 146 142 158 147 143 158 148 144 158 148 145 158 149 146 158 150 147 158 150 148 158 151 149 158 152 150 158 152 151 158 153 152 158 154 153 158 154 154 158 155 155 158 156 156 158 156 157 158 157 158 158 158 159 158 158 160 158 159 161 158 160 162 158 160 163 158 161 164 158 162 165 158 162 166 158 163 167 158 164 168 158 164 169 158 165 170 158 166 171 158 166 172 158 167 173 158 168 174 158 168 175 158 169 176 158 170 177 158 170 178 158 171 179 158 172 180 158 172 181 158 173 182 158 174 183 158 174 184 158 175 185 158 176 186 158 176 187 158 177 188 158 178 189 158 178 190 158 179 191 158 180 192 158 180 193 158 181 194 158 182 195 158 182 196 158 183 197 158 184 198 158 184 199 158 185 200 158 186 201 158 186 202 158 187 203 158 188 204 158 188 205 158 189 206 158 190 207 158 190 208 158 191 209 158 192 210 158 192 211 158 193 212 158 194 213 158 194 214 158 195 215 158 196 216 158 196 217 158 197 218 158 198 219 158 198 220 158 199 221 158 200 222 158 200 223 158 201 224 158 202 225 158 202 226 158 203 227 158 204 228 158 204 229 158 205 230 158 206 231 158 206 232 158 207 233 158 208 234 158 208 235 158 209 236 158 210 237 158 210 238 158 211 239 158 212 240 158 212 241 158 213 242 158 214 243 158 214 244 158 215 245 158 216 246 158 216 247 158 217 248 158 218 249 158 218 250 158 219 251 158 220 252 158 220 253 158 221 254 158 222 255 158 222
0 160 53 1 160 54 2 160 54 3 160 55 4 160 56 5 160 56 6 160 57 7 160 58 8 160 58 9 160 59 10 160 60 11 160 60 12 160 61 13 160 62 14 160 62 15 160 63 16 160 64 17 160 64 18 160 65 19 160 66 20 160 66 21 160 67 22 160 68 23 160 68 24 160 69 25 160 70 26 160 70 27 160 71 28 160 72 29 160 72 30 160 73 31 160 74 32 160 74 33 160 75 34 160 76 35 160 76 36 160 77 37 160 78 38 160 78 39 160 79 40 160 80 41 160 80 42 160 81 43 160 82 44 160 82 45 160 83 46 160 84 47 160 84 48 160 85 49 160 86 50 160 86 51 160 87 52 160 88 53 160 88 54 160 89 55 160 90 56 160 90 57 160 91 58 160 92 59 160 92 60 160 93 61 160 94 62 160 94 63 160 95 64 160 96 65 160 96 66 160 97 67 160 98 68 160 98 69 160 99 70 160 100 71 160 100 72 160 101 73 160 102 74 160 102 75 160 103 76 160 104 77 160 104 78 160 105 79 160 106 80 160 106 81 160 107 82 160 108 83 160 108 84 160 109 85 160 110 86 160 110 87 160 111 88 160 112 89 160 112 90 160 113 91 160 114 92 160 114 93 160 115 94 160 116 95 160 116 96 160 117 97 160 118 98 160 118 99 160 119 100 160 120 101 160 120 102 160 121 103 160 122 104 160 122 105 160 123 106 160 124 107 160 124 108 160 125 109 160 126 110 160 126 111 160 127 112 160 128 113 160 128 114 160 129 115 160 130 116 160 130 117 160 131 118 160 132 119 160 132 120 160 133 121 160 134 122 160 134 123 160 135 124 160 136 125 160 136 126 160 137 127 160 138 128 160 138 129 160 139 130 160 140 131 160 140 132 160 141 133 160 142 134 160 142 135 160 143 136 160 144 137 160 144 138 160 145 139 160 146 140 160 146 141 160 147 142 160 148 143 160 148 144 160 149 145 160 150 146 160 150 147 160 151 148 160 152 149 160 152 150 160 153 151 160 154 152 160 154 153 160 155 154 160 156 155 160 156 156 160 157 157 160 158 158 160 158 159 160 159 160 160 160 161 160 160 162 160 161 163 160 162 164 160 162 165 160 163 166 160 164 167 160 164 168 160 165 169 160 166 170 160 166 171 160 167 172 160 168 173 160 168 174 160 169 175 160 170 176 160 170 177 160 171 178 160 172 179 160 172 180 160 173 181 160 174 182 160 174 183 160 175 184 160 176 185 160 176 186 160 177 187 160 178 188 160 178 189 160 179 190 160 180 191 160 180 192 160 181 193 160 182 194 160 182 195 160 183 196 160 184 197 160 184 198 160 185 199 160 186 200 160 186 201 160 187 202 160 188 203 160 188 204 160 189 205 160 190 206 160 190 207 160 191 208 160 192 209 160 192 210 160 193 211 160 194 212 160 194 213 160 195 214 160 196 215 160 196 216 160 197 217 160 198 218 160 198 219 160 199 220 160 200 221 160 200 222 160 201 223 160 202 224 160 202 225 160 203 226 160 204 227 160 204 228 160 205 229 160 206 230 160 206 231 160 207 232 160 208 233 160 208 234 160 209 235 160 210 236 160 210 237 160 211 238 160 212 239 160 212 240 160 213 241 160 214 242 160 214 243 160 215 244 160 216 245 160 216 246 160 217 247 160 218 248 160 218 249 160 219 250 160 220 251 160 220 252 160 221 253 160 222 254 160 222 255 160 223
0 162 54 1 162 54 2 162 55 3 162 56 4 162 56 5 162 57 6 162 58 7 162 58 8 162 59 9 162 60 10 162 60 11 162 61 12 162 62 13 162 62 14 162 63 15 162 64 16 162 64 17 162 65 18 162 66 19 162 66 20 162 67 21 162 68 22 162 68 23 162 69 24 162 70 25 162 70 26 162 71 27 162 72 28 162 72 29 162 73 30 162 74 31 162 74 32 162 75 33 162 76 34 162 76 35 162 77 36 162 78 37 162 78 38 162 79 39 162 80 40 162 80 41 162 81 42 162 82 43 162 82 44 162 83 45 162 84 46 162 84 47 162 85 48 162 86 49 162 86 50 162 87 51 162 88 52 162 88 53 162 89 54 162 90 55 162 90 56 162 91 57 162 92 58 162 92 59 162 93 60 162 94 61 162 94 62 162 95 63 162 96 64 162 96 65 162 97 66 162 98 67 162 98 68 162 99 69 162 100 70 162 100 71 162 101 72 162 102 73 162 102 74 162 103 75 162 104 76 162 104 77 162 105 78 162 106 79 162 106 80 162 107 81 162 108 82 162 108 83 162 109 84 162 110 85 162 110 86 162 111 87 162 112 88 162 112 89 162 113 90 162 114 91 162 114 92 162 115 93 162 116 94 162 116 95 162 117 96 162 118 97 162 118 98 162 119 99 162 120 100 162 120 101 162 121 102 162 122 103 162 122 104 162 123 105 162 124 106 162 124 107 162 125 108 162 126 109 162 126 110 162 127 111 162 128 112 162 128 113 162 129 114 162 130 115 162 130 116 162 131 117 162 132 118 162 132 119 162 133 120 162 134 121 162 134 122 162 135 123 162 136 124 162 136 125 162 137 126 162 138 127 162 138 128 162 139 129 162 140 130 162 140 131 162 141 132 162 142 133 162 142 134 162 143 135 162 144 136 162 144 137 162 145 138 162 146 139 162 146 140 162 147 141 162 148 142 162 148 143 162 149 144 162 150 145 162 150 146 162 151 147 162 152 148 162 152 149 162 153 150 162 154 151 162 154 152 162 155 153 162 156 154 162 156 155 162 157 156 162 158 157 162 158 158 162 159 159 162 160 160 162 160 161 162 161 162 162 162 163 162 162 164 162 163 165 162 164 166 162 164 167 162 165 168 162 166 169 162 166 170 162 167 171 162 168 172 162 168 173 162 169 174 162 170 175 162 170 176 162 171 177 162 172 178 162 172 179 162 173 180 162 174 181 162 174 182 162 175 183 162 176 184 162 176 185 162 177 186 162 178 187 162 178 188 162 179 189 162 180 190 162 180 191 162 181 192 162 182 193 162 182 194 162 183 195 162 184 196 162 184 197 162 185 198 162 186 199 162 186 200 162 187 201 162 188 202 162 188 203 162 189 204 162 190 205 162 190 206 162 191 207 162 192 208 162 192 209 162 193 210 162 194 211 162 194 212 162 195 213 162 196 214 162 196 215 162 197 216 162 198 217 162 198 218 162 199 219 162 200 220 162 200 221 162 201 222 162 202 223 162 202 224 162 203 225 162 204 226 162 204 227 162 205 228 162 206 229 162 206 230 162 207 231 162 208 232 162 208 233 162 209 234 162 210 235 162 210 236 162 211 237 162 212 238 162 212 239 162 213 240 162 214 241 162 214 242 162 215 243 162 216 244 162 216 245 162 217 246 162 218 247 162 218 248 162 219 249 162 220 250 162 220 251 162 221 252 162 222 253 162 222 254 162 223 255 162 224
0 164 54 1 164 55 2 164 56 3 164 56 4 164 57 5 164 58 6 164 58 7 164 59 8 164 60 9 164 60 10 164 61 11 164 62 12 164 62 13 164 63 14 164 64 15 164 64 16 164 65 17 164 66 18 164 66 19 164 67 20 164 68 21 164 68 22 164 69 23 164 70 24 164 70 25 164 71 26 164 72 27 164 72 28 164 73 29 164 74 30 164 74 31 164 75 32 164 76 33 164 76 34 164 77 35 164 78 36 164 78 37 164 79 38 164 80 39 164 80 40 164 81 41 164 82 42 164 82 43 164 83 44 164 84 45 164 84 46 164 85 47 164 86 48 164 86 49 164 87 50 164 88 51 164 88 52 164 89 53 164 90 54 164 90 55 164 91 56 164 92 57 164 92 58 164 93 59 164 94 60 164 94 61 164 95 62 164 96 63 164 96 64 164 97 65 164 98 66 164 98 67 164 99 68 164 100 69 164 100 70 164 101 71 164 102 72 164 102 73 164 103 74 164 104 75 164 104 76 164 105 77 164 106 78 164 106 79 164 107 80 164 108 81 164 108 82 164 109 83 164 110 84 164 110 85 164 111 86 164 112 87 164 112 88 164 113 89 164 114 90 164 114 91 164 115 92 164 116 93 164 116 94 164 117 95 164 118 96 164 118 97 164 119 98 164 120 99 164 120 100 164 121 101 164 122 102 164 122 103 164 123 104 164 124 105 164 124 106 164 125 107 164 126 108 164 126 109 164 127 110 164 128 111 164 128 112 164 129 113 164 130 114 164 130 115 164 131 116 164 132 117 164 132 118 164 133 119 164 134 120 164 134 121 164 135 122 164 136 123 164 136 124 164 137 125 164 138 126 164 138 127 164 139 128 164 140 129 164 140 130 164 141 131 164 142 132 164 142 133 164 143 134 164 144 135 164 144 136 164 145 137 164 146 138 164 146 139 164 147 140 164 148 141 164 148 142 164 149 143 164 150 144 164 150 145 164 151 146 164 152 147 164 152 148 164 153 149 164 154 150 164 154 151 164 155 152 164 156 153 164 156 154 164 157 155 164 158 156 164 158 157 164 159 158 164 160 159 164 160 160 164 161 161 164 162 162 164 162 163 164 163 164 164 164 165 164 164 166 164 165 167 164 166 168 164 166 169 164 167 170 164 168 171 164 168 172 164 169 173 164 170 174 164 170 175 164 171 176 164 172 177 164 172 178 164 173 179 164 174 180 164 174 181 164 175 182 164 176 183 164 176 184 164 177 185 164 178 186 164 178 187 164 179 188 164 180 189 164 180 190 164 181 191 164 182 192 164 182 193 164 183 194 164 184 195 164 184 196 164 185 197 164 186 198 164 186 199 164 187 200 164 188 201 164 188 202 164 189 203 164 190 204 164 190 205 164 191 206 164 192 207 164 192 208 164 193 209 164 194 210 164 194 211 164 195 212 164 196 213 164 196 214 164 197 215 164 198 216 164 198 217 164 199 218 164 200 219 164 200 220 164 201 221 164 202 222 164 202 223 164 203 224 164 204 225 164 204 226 164 205 227 164 206 228 164 206 229 164 207 230 164 208 231 164 208 232 164 209 233 164 210 234 164 210 235 164 211 236 164 212 237 164 212 238 164 213 239 164 214 240 164 214 241 164 215 242 164 216 243 164 216 244 164 217 245 164 218 246 164 218 247 164 219 248 164 220 249 164 220 250 164 221 251 164 222 252 164 222 253 164 223 254 164 224 255 164 224
0 166 55 1 166 56 2 166 56 3 166 57 4 166 58 5 166 58 6 166 59 7 166 60 8 166 60 9 166 61 10 166 62 11 166 62 12 166 63 13 166 64 14 166 64 15 166 65 16 166 66 17 166 66 18 166 67 19 166 68 20 166 68 21 166 69 22 166 70 23 166 70 24 166 71 25 166 72 26 166 72 27 166 73 28 166 74 29 166 74 30 166 75 31 166 76 32 166 76 33 166 77 34 166 78 35 166 78 36 166 79 37 166 80 38 166 80 39 166 81 40 166 82 41 166 82 42 166 83 43 166 84 44 166 84 45 166 85 46 166 86 47 166 86 48 166 87 49 166 88 50 166 88 51 166 89 52 166 90 53 166 90 54 166 91 55 166 92 56 166 92 57 166 93 58 166 94 59 166 94 60 166 95 61 166 96 62 166 96 63 166 97 64 166 98 65 166 98 66 166 99 67 166 100 68 166 100 69 166 101 70 166 102 71 166 102 72 166 103 73 166 104 74 166 104 75 166 105 76 166 106 77 166 106 78 166 107 79 166 108 80 166 108 81 166 109 82 166 110 83 166 110 84 166 111 85 166 112 86 166 112 87 166 113 88 166 114 89 166 114 90 166 115 91 166 116 92 166 116 93 166 117 94 166 118 95 166 118 96 166 119 97 166 120 98 166 120 99 166 121 100 166 122 101 166 122 102 166 123 103 166 124 104 166 124 105 166 125 106 166 126 107 166 126 108 166 127 109 166 128 110 166 128 111 166 129 112 166 130 113 166 130 114 166 131 115 166 132 116 166 132 117 166 133 118 166 134 119 166 134 120 166 135 121 166 136 122 166 136 123 166 137 124 166 138 125 166 138 126 166 139 127 166 140 128 166 140 129 166 141 130 166 142 131 166 142 132 166 143 133 166 144 134 166 144 135 166 145 136 166 146 137 166 146 138 166 147 139 166 148 140 166 148 141 166 149 142 166 150 143 166 150 144 166 151 145 166 152 146 166 152 147 166 153 148 166 154 149 166 154 150 166 155 151 166 156 152 166 156 153 166 157 154 166 158 155 166 158 156 166 159 157 166 160 158 166 160 159 166 161 160 166 162 161 166 162 162 166 163 163 166 164 164 166 164 165 166 165 166 166 166 167 166 166 168 166 167 169 166 168 170 166 168 171 166 169 172 166 170 173 166 170 174 166 171 175 166 172 176 166 172 177 166 173 178 166 174 179 166 174 180 166 175 181 166 176 182 166 176 183 166 177 184 166 178 185 166 178 186 166 179 187 166 180 188 166 180 189 166 181 190 166 182 191 166 182 192 166 183 193 166 184 194 166 184 195 166 185 196 166 186 197 166 186 198 166 187 199 166 188 200 166 188 201 166 189 202 166 190 203 166 190 204 166 191 205 166 192 206 166 192 207 166 193 208 166 194 209 166 194 210 166 195 211 166 196 212 166 196 213 166 197 214 166 198 215 166 198 216 166 199 217 166 200 218 166 200 219 166 201 220 166 202 221 166 202 222 166 203 223 166 204 224 166 204 225 166 205 226 166 206 227 166 206 228 166 207 229 166 208 230 166 208 231 166 209 232 166 210 233 166 210 234 166 211 235 166 212 236 166 212 237 166 213 238 166 214 239 166 214 240 166 215 241 166 216 242 166 216 243 166 217 244 166 218 245 166 218 246 166 219 247 166 220 248 166 220 249 166 221 250 166 222 251 166 222 252 166 223 253 166 224 254 166 224 255 166 225
0 168 56 1 168 56 2 168 57 3 168 58 4 168 58 5 168 59 6 168 60 7 168 60 8 168 61 9 168 62 10 168 62 11 168 63 12 168 64 13 168 64 14 168 65 15 168 66 16 168 66 17 168 67 18 168 68 19 168 68 20 168 69 21 168 70 22 168 70 23 168 71 24 168 72 25 168 72 26 168 73 27 168 74 28 168 74 29 168 75 30 168 76 31 168 76 32 168 77 33 168 78 34 168 78 35 168 79 36 168 80 37 168 80 38 168 81 39 168 82 40 168 82 41 168 83 42 168 84 43 168 84 44 168 85 45 168 86 46 168 86 47 168 87 48 168 88 49 168 88 50 168 89 51 168 90 52 168 90 53 168 91 54 168 92 55 168 92 56 168 93 57 168 94 58 168 94 59 168 95 60 168 96 61 168 96 62 168 97 63 168 98 64 168 98 65 168 99 66 168 100 67 168 100 68 168 101 69 168 102 70 168 102 71 168 103 72 168 104 73 168 104 74 168 105 75 168 106 76 168 106 77 168 107 78 168 108 79 168 108 80 168 109 81 168 110 82 168 110 83 168 111 84 168 112 85 168 112 86 168 113 87 168 114 88 168 114 89 168 115 90 168 116 91 168 116 92 168 117 93 168 118 94 168 118 95 168 119 96 168 120 97 168 120 98 168 121 99 168 122 100 168 122 101 168 123 102 168 124 103 168 124 104 168 125 105 168 126 106 168 126 107 168 127 108 168 128 109 168 128 110 168 129 111 168 130 112 168 130 113 168 131 114 168 132 115 168 132 116 168 133 117 168 134 118 168 134 119 168 135 120 168 136 121 168 136 122 168 137 123 168 138 124 168 138 125 168 139 126 168 140 127 168 140 128 168 141 129 168 142 130 168 142 131 168 143 132 168 144 133 168 144 134 168 145 135 168 146 136 168 146 137 168 147 138 168 148 139 168 148 140 168 149 141 168 150 142 168 150 143 168 151 144 168 152 145 168 152 146 168 153 147 168 154 148 168 154 149 168 155 150 168 156 151 168 156 152 168 157 153 168 158 154 168 158 155 168 159 156 168 160 157 168 160 158 168 161 159 168 162 160 168 162 161 168 163 162 168 164 163 168 164 164 168 165 165 168 166 166 168 166 167 168 167 168 168 168 169 168 168 170 168 169 171 168 170 172 168 170 173 168 171 174 168 172 175 168 172 176 168 173 177 168 174 178 168 174 179 168 175 180 168 176 181 168 176 182 168 177 183 168 178 184 168 178 185 168 179 186 168 180 187 168 180 188 168 181 189 168 182 190 168 182 191 168 183 192 168 184 193 168 184 194 168 185 195 168 186 196 168 186 197 168 187 198 168 188 199 168 188 200 168 189 201 168 190 202 168 190 203 168 191 204 168 192 205 168 192 206 168 193 207 168 194 208 168 194 209 168 195 210 168 196 211 168 196 212 168 197 213 168 198 214 168 198 215 168 199 216 168 200 217 168 200 218 168 201 219 168 202 220 168 202 221 168 203 222 168 204 223 168 204 224 168 205 225 168 206 226 168 206 227 168 207 228 168 208 229 168 208 230 168 209 231 168 210 232 168 210 233 168 211 234 168 212 235 168 212 236 168 213 237 168 214 238 168 214 239 168 215 240 168 216 241 168 216 242 168 217 243 168 218 244 168 218 245 168 219 246 168 220 247 168 220 248 168 221 249 168 222 250 168 222 251 168 223 252 168 224 253 168 224 254 168 225 255 168 226
0 170 56 1 170 57 2 170 58 3 170 58 4 170 59 5 170 60 6 170 60 7 170 61 8 170 62 9 170 62 10 170 63 11 170 64 12 170 64 13 170 65 14 170 66 15 170 66 16 170 67 17 170 68 18 170 68 19 170 69 20 170 70 21 170 70 22 170 71 23 170 72 24 170 72 25 170 73 26 170 74 27 170 74 28 170 75 29 170 76 30 170 76 31 170 77 32 170 78 33 170 78 34 170 79 35 170 80 36 170 80 37 170 81 38 170 82 39 170 82 40 170 83 41 170 84 42 170 84 43 170 85 44 170 86 45 170 86 46 170 87 47 170 88 48 170 88 49 170 89 50 170 90 51 170 90 52 170 91 53 170 92 54 170 92 55 170 93 56 170 94 57 170 94 58 170 95 59 170 96 60 170 96 61 170 97 62 170 98 63 170 98 64 170 99 65 170 100 66 170 100 67 170 101 68 170 102 69 170 102 70 170 103 71 170 104 72 170 104 73 170 105 74 170 106 75 170 106 76 170 107 77 170 108 78 170 108 79 170 109 80 170 110 81 170 110 82 170 111 83 170 112 84 170 112 85 170 113 86 170 114 87 170 114 88 170 115 89 170 116 90 170 116 91 170 117 92 170 118 93 170 118 94 170 119 95 170 120 96 170 120 97 170 121 98 170 122 99 170 122 100 170 123 101 170 124 102 170 124 103 170 125 104 170 126 105 170 126 106 170 127 107 170 128 108 170 128 109 170 129 110 170 130 111 170 130 112 170 131 113 170 132 114 170 132 115 170 133 116 170 134 117 170 134 118 170 135 119 170 136 120 170 136 121 170 137 122 170 138 123 170 138 124 170 139 125 170 140 126 170 140 127 170 141 128 170 142 129 170 142 130 170 143 131 170 144 132 170 144 133 170 145 134 170 146 135 170 146 136 170 147 137 170 148 138 170 148 139 170 149 140 170 150 141 170 150 142 170 151 143 170 152 144 170 152 145 170 153 146 170 154 147 170 154 148 170 155 149 170 156 150 170 156 151 170 157 152 170 158 153 170 158 154 170 159 155 170 160 156 170 160 157 170 161 158 170 162 159 170 162 160 170 163 161 170 164 162 170 164 163 170 165 164 170 166 165 170 166 166 170 167 167 170 168 168 170 168 169 170 169 170 170 170 171 170 170 172 170 171 173 170 172 174 170 172 175 170 173 176 170 174 177 170 174 178 170 175 179 170 176 180 170 176 181 170 177 182 170 178 183 170 178 184 170 179 185 170 180 186 170 180 187 170 181 188 170 182 189 170 182 190 170 183 191 170 184 192 170 184 193 170 185 194 170 186 195 170 186 196 170 187 197 170 188 198 170 188 199 170 189 200 170 190 201 170 190 202 170 191 203 170 192 204 170 192 205 170 193 206 170 194 207 170 194 208 170 195 209 170 196 210 170 196 211 170 197 212 170 198 213 170 198 214 170 199 215 170 200 216 170 200 217 170 201 218 170 202 219 170 202 220 170 203 221 170 204 222 170 204 223 170 205 224 170 206 225 170 206 226 170 207 227 170 208 228 170 208 229 170 209 230 170 210 231 170 210 232 170 211 233 170 212 234 170 212 235 170 213 236 170 214 237 170 214 238 170 215 239 170 216 240 170 216 241 170 217 242 170 218 243 170 218 244 170 219 245 170 220 246 170 220 247 170 221 248 170 222 249 170 222 250 170 223 251 170 224 252 170 224 253 170 225 254 170 226 255 170 226
0 172 57 1 172 58 2 172 58 3 172 59 4 172 60 5 172 60 6 172 61 7 172 62 8 172 62 9 172 63 10 172 64 11 172 64 12 172 65 13 172 66 14 172 66 15 172 67 16 172 68 17 172 68 18 172 69 19 172 70 20 172 70 21 172 71 22 172 72 23 172 72 24 172 73 25 172 74 26 172 74 27 172 75 28 172 76 29 172 76 30 172 77 31 172 78 32 172 78 33 172 79 34 172 80 35 172 80 36 172 81 37 172 82 38 172 82 39 172 83 40 172 84 41 172 84 42 172 85 43 172 86 44 172 86 45 172 87 46 172 88 47 172 88 48 172 89 49 172 90 50 172 90 51 172 91 52 172 92 53 172 92 54 172 93 55 172 94 56 172 94 57 172 95 58 172 96 59 172 96 60 172 97 61 172 98 62 172 98 63 172 99 64 172 100 65 172 100 66 172 101 67 172 102 68 172 102 69 172 103 70 172 104 71 172 104 72 172 105 73 172 106 74 172 106 75 172 107 76 172 108 77 172 108 78 172 109 79 172 110 80 172 110 81 172 111 82 172 112 83 172 112 84 172 113 85 172 114 86 172 114 87 172 115 88 172 116 89 172 116 90 172 117 91 172 118 92 172 118 93 172 119 94 172 120 95 172 120 96 172 121 97 172 122 98 172 122 99 172 123 100 172 124 101 172 124 102 172 125 103 172 126 104 172 126 105 172 127 106 172 128 107 172 128 108 172 129 109 172 130 110 172 130 111 172 131 112 172 132 113 172 132 114 172 133 115 172 134 116 172 134 117 172 135 118 172 136 119 172 136 120 172 137 121 172 138 122 172 138 123 172 139 124 172 140 125 172 140 126 172 141 127 172 142 128 172 142 129 172 143 130 172 144 131 172 144 132 172 145 133 172 146 134 172 146 135 172 147 136 172 148 137 172 148 138 172 149 139 172 150 140 172 150 141 172 151 142 172 152 143 172 152 144 172 153 145 172 154 146 172 154 147 172 155 148 172 156 149 172 156 150 172 157 151 172 158 152 172 158 153 172 159 154 172 160 155 172 160 156 172 161 157 172 162 158 172 162 159 172 163 160 172 164 161 172 164 162 172 165 163 172 166 164 172 166 165 172 167 166 172 168 167 172 168 168 172 169 169 172 170 170 172 170 171 172 171 172 172 172 173 172 172 174 172 173 175 172 174 176 172 174 177 172 175 178 172 176 179 172 176 180 172 177 181 172 178 182 172 178 183 172 179 184 172 180 185 172 180 186 172 181 187 172 182 188 172 182 189 172 183 190 172 184 191 172 184 192 172 185 193 172 186 194 172 186 195 172 187 196 172 188 197 172 188 198 172 189 199 172 190 200 172 190 201 172 191 202 172 192 203 172 192 204 172 193 205 172 194 206 172 194 207 172 195 208 172 196 209 172 196 210 172 197 211 172 198 212 172 198 213 172 199 214 172 200 215 172 200 216 172 201 217 172 202 218 172 202 219 172 203 220 172 204 221 172 204 222 172 205 223 172 206 224 172 206 225 172 207 226 172 208 227 172 208 228 172 209 229 172 210 230 172 210 231 172 211 232 172 212 233 172 212 234 172 213 235 172 214 236 172 214 237 172 215 238 172 216 239 172 216 240 172 217 241 172 218 242 172 218 243 172 219 244 172 220 245 172 220 246 172 221 247 172 222 248 172 222 249 172 223 250 172 224 251 172 224 252 172 225 253 172 226 254 172 226 255 172 227
0 174 58 1 174 58 2 174 59 3 174 60 4 174 60 5 174 61 6 174 62 7 174 62 8 174 63 9 174 64 10 174 64 11 174 65 12 174 66 13 174 66 14 174 67 15 174 68 16 174 68 17 174 69 18 174 70 19 174 70 20 174 71 21 174 72 22 174 72 23 174 73 24 174 74 25 174 74 26 174 75 27 174 76 28 174 76 29 174 77 30 174 78 31 174 78 32 174 79 33 174 80 34 174 80 35 174 81 36 174 82 37 174 82 38 174 83 39 174 84 40 174 84 41 174 85 42 174 86 43 174 86 44 174 87 45 174 88 46 174 88 47 174 89 48 174 90 49 174 90 50 174 91 51 174 92 52 174 92 53 174 93 54 174 94 55 174 94 56 174 95 57 174 96 58 174 96 59 174 97 60 174 98 61 174 98 62 174 99 63 174 100 64 174 100 65 174 101 66 174 102 67 174 102 68 174 103 69 174 104 70 174 104 71 174 105 72 174 106 73 174 106 74 174 107 75 174 108 76 174 108 77 174 109 78 174 110 79 174 110 80 174 111 81 174 112 82 174 112 83 174 113 84 174 114 85 174 114 86 174 115 87 174 116 88 174 116 89 174 117 90 174 118 91 174 118 92 174 119 93 174 120 94 174 120 95 174 121 96 174 122 97 174 122 98 174 123 99 174 124 100 174 124 101 174 125 102 174 126 103 174 126 104 174 127 105 174 128 106 174 128 107 174 129 108 174 130 109 174 130 110 174 131 111 174 132 112 174 132 113 174 133 114 174 134 115 174 134 116 174 135 117 174 136 118 174 136 119 174 137 120 174 138 121 174 138 122 174 139 123 174 140 124 174 140 125 174 141 126 174 142 127 174 142 128 174 143 129 174 144 130 174 144 131 174 145 132 174 146 133 174 146 134 174 147 135 174 148 136 174 148 137 174 149 138 174 150 139 174 150 140 174 151 141 174 152 142 174 152 143 174 153 144 174 154 145 174 154 146 174 155 147 174 156 148 174 156 149 174 157 150 174 158 151 174 158 152 174 159 153 174 160 154 174 160 155 174 161 156 174 162 157 174 162 158 174 163 159 174 164 160 174 164 161 174 165 162 174 166 163 174 166 164 174 167 165 174 168 166 174 168 167 174 169 168 174 170 169 174 170 170 174 171 171 174 172 172 174 172 173 174 173 174 174 174 175 174 174 176 174 175 177 174 176 178 174 176 179 174 177 180 174 178 181 174 178 182 174 179 183 174 180 184 174 180 185 174 181 186 174 182 187 174 182 188 174 183 189 174 184 190 174 184 191 174 185 192 174 186 193 174 186 194 174 187 195 174 188 196 174 188 197 174 189 198 174 190 199 174 190 200 174 191 201 174 192 202 174 192 203 174 193 204 174 194 205 174 194 206 174 195 207 174 196 208 174 196 209 174 197 210 174 198 211 174 198 212 174 199 213 174 200 214 174 200 215 174 201 216 174 202 217 174 202 218 174 203 219 174 204 220 174 204 221 174 205 222 174 206 223 174 206 224 174 207 225 174 208 226 174 208 227 174 209 228 174 210 229 174 210 230 174 211 231 174 212 232 174 212 233 174 213 234 174 214 235 174 214 236 174 215 237 174 216 238 174 216 239 174 217 240 174 218 241 174 218 242 174 219 243 174 220 244 174 220 245 174 221 246 174 222 247 174 222 248 174 223 249 174 224 250 174 224 251 174 225 252 174 226 253 174 226 254 174 227 255 174 228
0 176 58 1 176 59 2 176 60 3 176 60 4 176 61 5 176 62 6 176 62 7 176 63 8 176 64 9 176 64 10 176 65 11 176 66 12 176 66 13 176 67 14 176 68 15 176 68 16 176 69 17 176 70 18 176 70 19 176 71 20 176 72 21 176 72 22 176 73 23 176 74 24 176 74 25 176 75 26 176 76 27 176 76 28 176 77 29 176 78 30 176 78 31 176 79 32 176 80 33 176 80 34 176 81 35 176 82 36 176 82 37 176 83 38 176 84 39 176 84 40 176 85 41 176 86 42 176 86 43 176 87 44 176 88 45 176 88 46 176 89 47 176 90 48 176 90 49 176 91 50 176 92 51 176 92 52 176 93 53 176 94 54 176 94 55 176 95 56 176 96 57 176 96 58 176 97 59 176 98 60 176 98 61 176 99 62 176 100 63 176 100 64 176 101 65 176 102 66 176 102 67 176 103 68 176 104 69 176 104 70 176 105 71 176 106 72 176 106 73 176 107 74 176 108 75 176 108 76 176 109 77 176 110 78 176 110 79 176 111 80 176 112 81 176 112 82 176 113 83 176 114 84 176 114 85 176 115 86 176 116 87 176 116 88 176 117 89 176 118 90 176 118 91 176 119 92 176 120 93 176 120 94 176 121 95 176 122 96 176 122 97 176 123 98 176 124 99 176 124 100 176 125 101 176 126 102 176 126 103 176 127 104 176 128 105 176 128 106 176 129 107 176 130 108 176 130 109 176 131 110 176 132 111 176 132 112 176 133 113 176 134 114 176 134 115 176 135 116 176 136 117 176 136 118 176 137 119 176 138 120 176 138 121 176 139 122 176 140 123 176 140 124 176 141 125 176 142 126 176 142 127 176 143 128 176 144 129 176 144 130 176 145 131 176 146 132 176 146 133 176 147 134 176 148 135 176 148 136 176 149 137 176 150 138 176 150 139 176 151 140 176 152 141 176 152 142 176 153 143 176 154 144 176 154 145 176 155 146 176 156 147 176 156 148 176 157 149 176 158 150 176 158 151 176 159 152 176 160 153 176 160 154 176 161 155 176 162 156 176 162 157 176 163 158 176 164 159 176 164 160 176 165 161 176 166 162 176 166 163 176 167 164 176 168 165 176 168 166 176 169 167 176 170 168 176 170 169 176 171 170 176 172 171 176 172 172 176 173 173 176 174 174 176 174 175 176 175 176 176 176 177 176 176 178 176 177 179 176 178 180 176 178 181 176 179 182 176 180 183 176 180 184 176 181 185 176 182 186 176 182 187 176 183 188 176 184 189 176 184 190 176 185 191 176 186 192 176 186 193 176 187 194 176 188 195 176 188 196 176 189 197 176 190 198 176 190 199 176 191 200 176 192 201 176 192 202 176 193 203 176 194 204 176 194 205 176 195 206 176 196 207 176 196 208 176 197 209 176 198 210 176 198 211 176 199 212 176 200 213 176 200 214 176 201 215 176 202 216 176 202 217 176 203 218 176 204 219 176 204 220 176 205 221 176 206 222 176 206 223 176 207 224 176 208 225 176 208 226 176 209 227 176 210 228 176 210 229 176 211 230 176 212 231 176 212 232 176 213 233 176 214 234 176 214 235 176 215 236 176 216 237 176 216 238 176 217 239 176 218 240 176 218 241 176 219 242 176 220 243 176 220 244 176 221 245 176 222 246 176 222 247 176 223 248 176 224 249 176 224 250 176 225 251 176 226 252 176 226 253 176 227 254 176 228 255 176 228
0 178 59 1 178 60 2 178 60 3 178 61 4 178 62 5 178 62 6 178 63 7 178 64 8 178 64 9 178 65 10 178 66 11 178 66 12 178 67 13 178 68 14 178 68 15 178 69 16 178 70 17 178 70 18 178 71 19 178 72 20 178 72 21 178 73 22 178 74 23 178 74 24 178 75 25 178 76 26 178 76 27 178 77 28 178 78 29 178 78 30 178 79 31 178 80 32 178 80 33 178 81 34 178 82 35 178 82 36 178 83 37 178 84 38 178 84 39 178 85 40 178 86 41 178 86 42 178 87 43 178 88 44 178 88 45 178 89 46 178 90 47 178 90 48 178 91 49 178 92 50 178 92 51 178 93 52 178 94 53 178 94 54 178 95 55 178 96 56 178 96 57 178 97 58 178 98 59 178 98 60 178 99 61 178 100 62 178 100 63 178 101 64 178 102 65 178 102 66 178 103 67 178 104 68 178 104 69 178 105 70 178 106 71 178 106 72 178 107 73 178 108 74 178 108 75 178 109 76 178 110 77 178 110 78 178 111 79 178 112 80 178 112 81 178 113 82 178 114 83 178 114 84 178 115 85 178 116 86 178 116 87 178 117 88 178 118 89 178 118 90 178 119 91 178 120 92 178 120 93 178 121 94 178 122 95 178 122 96 178 123 97 178 124 98 178 124 99 178 125 100 178 126 101 178 126 102 178 127 103 178 128 104 178 128 105 178 129 106 178 130 107 178 130 108 178 131 109 178 132 110 178 132 111 178 133 112 178 134 113 178 134 114 178 135 115 178 136 116 178 136 117 178 137 118 178 138 119 178 138 120 178 139 121 178 140 122 178 140 123 178 141 124 178 142 125 178 142 126 178 143 127 178 144 128 178 144 129 178 145 130 178 146 131 178 146 132 178 147 133 178 148 134 178 148 135 178 149 136 178 150 137 178 150 138 178 151 139 178 152 140 178 152 141 178 153 142 178 154 143 178 154 144 178 155 145 178 156 146 178 156 147 178 157 148 178 158 149 178 158 150 178 159 151 178 160 152 178 160 153 178 161 154 178 162 155 178 162 156 178 163 157 178 164 158 178 164 159 178 165 160 178 166 161 178 166 162 178 167 163 178 168 164 178 168 165 178 169 166 178 170 167 178 170 168 178 171 169 178 172 170 178 172 171 178 173 172 178 174 173 178 174 174 178 175 175 178 176 176 178 176 177 178 177 178 178 178 179 178 178 180 178 179 181 178 180 182 178 180 183 178 181 184 178 182 185 178 182 186 178 183 187 178 184 188 178 184 189 178 185 190 178 186 191 178 186 192 178 187 193 178 188 194 178 188 195 178 189 196 178 190 197 178 190 198 178 191 199 178 192 200 178 192 201 178 193 202 178 194 203 178 194 204 178 195 205 178 196 206 178 196 207 178 197 208 178 198 209 178 198 210 178 199 211 178 200 212 178 200 213 178 201 214 178 202 215 178 202 216 178 203 217 178 204 218 178 204 219 178 205 220 178 206 221 178 206 222 178 207 223 178 208 224 178 208 225 178 209 226 178 210 227 178 210 228 178 211 229 178 212 230 178 212 231 178 213 232 178 214 233 178 214 234 178 215 235 178 216 236 178 216 237 178 217 238 178 218 239 178 218 240 178 219 241 178 220 242 178 220 243 178 221 244 178 222 245 178 222 246 178 223 247 178 224 248 178 224 249 178 225 250 178 226 251 178 226 252 178 227 253 178 228 254 178 228 255 178 229
0 180 60 1 180 60 2 180 61 3 180 62 4 180 62 5 180 63 6 180 64 7 180 64 8 180 65 9 180 66 10 180 66 11 180 67 12 180 68 13 180 68 14 180 69 15 180 70 16 180 70 17 180 71 18 180 72 19 180 72 20 180 73 21 180 74 22 180 74 23 180 75 24 180 76 25 180 76 26 180 77 27 180 78 28 180 78 29 180 79 30 180 80 31 180 80 32 180 81 33 180 82 34 180 82 35 180 83 36 180 84 37 180 84 38 180 85 39 180 86 40 180 86 41 180 87 42 180 88 43 180 88 44 180 89 45 180 90 46 180 90 47 180 91 48 180 92 49 180 92 50 180 93 51 180 94 52 180 94 53 180 95 54 180 96 55 180 96 56 180 97 57 180 98 58 180 98 59 180 99 60 180 100 61 180 100 62 180 101 63 180 102 64 180 102 65 180 103 66 180 104 67 180 104 68 180 105 69 180 106 70 180 106 71 180 107 72 180 108 73 180 108 74 180 109 75 180 110 76 180 110 77 180 111 78 180 112 79 180 112 80 180 113 81 180 114 82 180 114 83 180 115 84 180 116 85 180 116 86 180 117 87 180 118 88 180 118 89 180 119 90 180 120 91 180 120 92 180 121 93 180 122 94 180 122 95 180 123 96 180 124 97 180 124 98 180 125 99 180 126 100 180 126 101 180 127 102 180 128 103 180 128 104 180 129 105 180 130 106 180 130 107 180 131 108 180 132 109 180 132 110 180 133 111 180 134 112 180 134 113 180 135 114 180 136 115 180 136 116 180 137 117 180 138 118 180 138 119 180 139 120 180 140 121 180 140 122 180 141 123 180 142 124 180 142 125 180 143 126 180 144 127 180 144 128 180 145 129 180 146 130 180 146 131 180 147 132 180 148 133 180 148 134 180 149 135 180 150 136 180 150 137 180 151 138 180 152 139 180 152 140 180 153 141 180 154 142 180 154 143 180 155 144 180 156 145 180 156 146 180 157 147 180 158 148 180 158 149 180 159 150 180 160 151 180 160 152 180 161 153 180 162 154 180 162 155 180 163 156 180 164 157 180 164 158 180 165 159 180 166 160 180 166 161 180 167 162 180 168 163 180 168 164 180 169 165 180 170 166 180 170 167 180 171 168 180 172 169 180 172 170 180 173 171 180 174 172 180 174 173 180 175 174 180 176 175 180 176 176 180 177 177 180 178 178 180 178 179 180 179 180 180 180 181 180 180 182 180 181 183 180 182 184 180 182 185 180 183 186 180 184 187 180 184 188 180 185 189 180 186 190 180 186 191 180 187 192 180 188 193 180 188 194 180 189 195 180 190 196 180 190 197 180 191 198 180 192 199 180 192 200 180 193 201 180 194 202 180 194 203 180 195 204 180 196 205 180 196 206 180 197 207 180 198 208 180 198 209 180 199 210 180 200 211 180 200 212 180 201 213 180 202 214 180 202 215 180 203 216 180 204 217 180 204 218 180 205 219 180 206 220 180 206 221 180 207 222 180 208 223 180 208 224 180 209 225 180 210 226 180 210 227 180 211 228 180 212 229 180 212 230 180 213 231 180 214 232 180 214 233 180 215 234 180 216 235 180 216 236 180 217 237 180 218 238 180 218 239 180 219 240 180 220 241 180 220 242 180 221 243 180 222 244 180 222 245 180 223 246 180 224 247 180 224 248 180 225 249 180 226 250 180 226 251 180 227 252 180 228 253 180 228 254 180 229 255 180 230
0 182 60 1 182 61 2 182 62 3 182 62 4 182 63 5 182 64 6 182 64 7 182 65 8 182 66 9 182 66 10 182 67 11 182 68 12 182 68 13 182 69 14 182 70 15 182 70 16 182 71 17 182 72 18 182 72 19 182 73 20 182 74 21 182 74 22 182 75 23 182 76 24 182 76 25 182 77 26 182 78 27 182 78 28 182 79 29 182 80 30 182 80 31 182 81 32 182 82 33 182 82 34 182 83 35 182 84 36 182 84 37 182 85 38 182 86 39 182 86 40 182 87 41 182 88 42 182 88 43 182 89 44 182 90 45 182 90 46 182 91 47 182 92 48 182 92 49 182 93 50 182 94 51 182 94 52 182 95 53 182 96 54 182 96 55 182 97 56 182 98 57 182 98 58 182 99 59 182 100 60 182 100 61 182 101 62 182 102 63 182 102 64 182 103 65 182 104 66 182 104 67 182 105 68 182 106 69 182 106 70 182 107 71 182 108 72 182 108 73 182 109 74 182 110 75 182 110 76 182 111 77 182 112 78 182 112 79 182 113 80 182 114 81 182 114 82 182 115 83 182 116 84 182 116 85 182 117 86 182 118 87 182 118 88 182 119 89 182 120 90 182 120 91 182 121 92 182 122 93 182 122 94 182 123 95 182 124 96 182 124 97 182 125 98 182 126 99 182 126 100 182 127 101 182 128 102 182 128 103 182 129 104 182 130 105 182 130 106 182 131 107 182 132 108 182 132 109 182 133 110 182 134 111 182 134 112 182 135 113 182 136 114 182 136 115 182 137 116 182 138 117 182 138 118 182 139 119 182 140 120 182 140 121 182 141 122 182 142 123 182 142 124 182 143 125 182 144 126 182 144 127 182 145 128 182 146 129 182 146 130 182 147 131 182 148 132 182 148 133 182 149 134 182 150 135 182 150 136 182 151 137 182 152 138 182 152 139 182 153 140 182 154 141 182 154 142 182 155 143 182 156 144 182 156 145 182 157 146 182 158 147 182 158 148 182 159 149 182 160 150 182 160 151 182 161 152 182 162 153 182 162 154 182 163 155 182 164 156 182 164 157 182 165 158 182 166 159 182 166 160 182 167 161 182 168 162 182 168 163 182 169 164 182 170 165 182 170 166 182 171 167 182 172 168 182 172 169 182 173 170 182 174 171 182 174 172 182 175 173 182 176 174 182 176 175 182 177 176 182 178 177 182 178 178 182 179 179 182 180 180 182 180 181 182 181 182 182 182 183 182 182 184 182 183 185 182 184 186 182 184 187 182 185 188 182 186 189 182 186 190 182 187 191 182 188 192 182 188 193 182 189 194 182 190 195 182 190 196 182 191 197 182 192 198 182 192 199 182 193 200 182 194 201 182 194 202 182 195 203 182 196 204 182 196 205 182 197 206 182 198 207 182 198 208 182 199 209 182 200 210 182 200 211 182 201 212 182 202 213 182 202 214 182 203 215 182 204 216 182 204 217 182 205 218 182 206 219 182 206 220 182 207 221 182 208 222 182 208 223 182 209 224 182 210 225 182 210 226 182 211 227 182 212 228 182 212 229 182 213 230 182 214 231 182 214 232 182 215 233 182 216 234 182 216 235 182 217 236 182 218 237 182 218 238 182 219 239 182 220 240 182 220 241 182 221 242 182 222 243 182 222 244 182 223 245 182 224 246 182 224 247 182 225 248 182 226 249 182 226 250 182 227 251 182 228 252 182 228 253 182 229 254 182 230 255 182 230
0 184 61 1 184 62 2 184 62 3 184 63 4 184 64 5 184 64 6 184 65 7 184 66 8 184 66 9 184 67 10 184 68 11 184 68 12 184 69 13 184 70 14 184 70 15 184 71 16 184 72 17 184 72 18 184 73 19 184 74 20 184 74 21 184 75 22 184 76 23 184 76 24 184 77 25 184 78 26 184 78 27 184 79 28 184 80 29 184 80 30 184 81 31 184 82 32 184 82 33 184 83 34 184 84 35 184 84 36 184 85 37 184 86 38 184 86 39 184 87 40 184 88 41 184 88 42 184 89 43 184 90 44 184 90 45 184 91 46 184 92 47 184 92 48 184 93 49 184 94 50 184 94 51 184 95 52 184 96 53 184 96 54 184 97 55 184 98 56 184 98 57 184 99 58 184 100 59 184 100 60 184 101 61 184 102 62 184 102 63 184 103 64 184 104 65 184 104 66 184 105 67 184 106 68 184 106 69 184 107 70 184 108 71 184 108 72 184 109 73 184 110 74 184 110 75 184 111 76 184 112 77 184 112 78 184 113 79 184 114 80 184 114 81 184 115 82 184 116 83 184 116 84 184 117 85 184 118 86 184 118 87 184 119 88 184 120 89 184 120 90 184 121 91 184 122 92 184 122 93 184 123 94 184 124 95 184 124 96 184 125 97 184 126 98 184 126 99 184 127 100 184 128 101 184 128 102 184 129 103 184 130 104 184 130 105 184 131 106 184 132 107 184 132 108 184 133 109 184 134 110 184 134 111 184 135 112 184 136 113 184 136 114 184 137 115 184 138 116 184 138 117 184 139 118 184 140 119 184 140 120 184 141 121 184 142 122 184 142 123 184 143 124 184 144 125 184 144 126 184 145 127 184 146 128 184 146 129 184 147 130 184 148 131 184 148 132 184 149 133 184 150 134 184 150 135 184 151 136 184 152 137 184 152 138 184 153 139 184 154 140 184 154 141 184 155 142 184 156 143 184 156 144 184 157 145 184 158 146 184 158 147 184 159 148 184 160 149 184 160 150 184 161 151 184 162 152 184 162 153 184 163 154 184 164 155 184 164 156 184 165 157 184 166 158 184 166 159 184 167 160 184 168 161 184 168 162 184 169 163 184 170 164 184 170 165 184 171 166 184 172 167 184 172 168 184 173 169 184 174 170 184 174 171 184 175 172 184 176 173 184 176 174 184 177 175 184 178 176 184 178 177 184 179 178 184 180 179 184 180 180 184 181 181 184 182 182 184 182 183 184 183 184 184 184 185 184 184 186 184 185 187 184 186 188 184 186 189 184 187 190 184 188 191 184 188 192 184 189 193 184 190 194 184 190 195 184 191 196 184 192 197 184 192 198 184 193 199 184 194 200 184 194 201 184 195 202 184 196 203 184 196 204 184 197 205 184 198 206 184 198 207 184 199 208 184 200 209 184 200 210 184 201 211 184 202 212 184 202 213 184 203 214 184 204 215 184 204 216 184 205 217 184 206 218 184 206 219 184 207 220 184 208 221 184 208 222 184 209 223 184 210 224 184 210 225 184 211 226 184 212 227 184 212 228 184 213 229 184 214 230 184 214 231 184 215 232 184 216 233 184 216 234 184 217 235 184 218 236 184 218 237 184 219 238 184 220 239 184 220 240 184 221 241 184 222 242 184 222 243 184 223 244 184 224 245 184 224 246 184 225 247 184 226 248 184 226 249 184 227 250 184 228 251 184 228 252 184 229 253 184 230 254 184 230 255 184 231
0 186 62 1 186 62 2 186 63 3 186 64 4 186 64 5 186 65 6 186 66 7 186 66 8 186 67 9 186 68 10 186 68 11 186 69 12 186 70 13 186 70 14 186 71 15 186 72 16 186 72 17 186 73 18 186 74 19 186 74 20 186 75 21 186 76 22 186 76 23 186 77 24 186 78 25 186 78 26 186 79 27 186 80 28 186 80 29 186 81 30 186 82 31 186 82 32 186 83 33 186 84 34 186 84 35 186 85 36 186 86 37 186 86 38 186 87 39 186 88 40 186 88 41 186 89 42 186 90 43 186 90 44 186 91 45 186 92 46 186 92 47 186 93 48 186 94 49 186 94 50 186 95 51 186 96 52 186 96 53 186 97 54 186 98 55 186 98 56 186 99 57 186 100 58 186 100 59 186 101 60 186 102 61 186 102 62 186 103 63 186 104 64 186 104 65 186 105 66 186 106 67 186 106 68 186 107 69 186 108 70 186 108 71 186 109 72 186 110 73 186 110 74 186 111 75 186 112 76 186 112 77 186 113 78 186 114 79 186 114 80 186 115 81 186 116 82 186 116 83 186 117 84 186 118 85 186 118 86 186 119 87 186 120 88 186 120 89 186 121 90 186 122 91 186 122 92 186 123 93 186 124 94 186 124 95 186 125 96 186 126 97 186 126 98 186 127 99 186 128 100 186 128 101 186 129 102 186 130 103 186 130 104 186 131 105 186 132 106 186 132 107 186 133 108 186 134 109 186 134 110 186 135 111 186 136 112 186 136 113 186 137 114 186 138 115 186 138 116 186 139 117 186 140 118 186 140 119 186 141 120 186 142 121 186 142 122 186 143 123 186 144 124 186 144 125 186 145 126 186 146 127 186 146 128 186 147 129 186 148 130 186 148 131 186 149 132 186 150 133 186 150 134 186 151 135 186 152 136 186 152 137 186 153 138 186 154 139 186 154 140 186 155 141 186 156 142 186 156 143 186 157 144 186 158 145 186 158 146 186 159 147 186 160 148 186 160 149 186 161 150 186 162 151 186 162 152 186 163 153 186 164 154 186 164 155 186 165 156 186 166 157 186 166 158 186 167 159 186 168 160 186 168 161 186 169 162 186 170 163 186 170 164 186 171 165 186 172 166 186 172 167 186 173 168 186 174 169 186 174 170 186 175 171 186 176 172 186 176 173 186 177 174 186 178 175 186 178 176 186 179 177 186 180 178 186 180 179 186 181 180 186 182 181 186 182 182 186 183 183 186 184 184 186 184 185 186 185 186 186 186 187 186 186 188 186 187 189 186 188 190 186 188 191 186 189 192 186 190 193 186 190 194 186 191 195 186 192 196 186 192 197 186 193 198 186 194 199 186 194 200 186 195 201 186 196 202 186 196 203 186 197 204 186 198 205 186 198 206 186 199 207 186 200 208 186 200 209 186 201 210 186 202 211 186 202 212 186 203 213 186 204 214 186 204 215 186 205 216 186 206 217 186 206 218 186 207 219 186 208 220 186 208 221 186 209 222 186 210 223 186 210 224 186 211 225 186 212 226 186 212 227 186 213 228 186 214 229 186 214 230 186 215 231 186 216 232 186 216 233 186 217 234 186 218 235 186 218 236 186 219 237 186 220 238 186 220 239 186 221 240 186 222 241 186 222 242 186 223 243 186 224 244 186 224 245 186 225 246 186 226 247 186 226 248 186 227 249 186 228 250 186 228 251 186 229 252 186 230 253 186 230 254 186 231 255 186 232
0 188 62 1 188 63 2 188 64 3 188 64 4 188 65 5 188 66 6 188 66 7 188 67 8 188 68 9 188 68 10 188 69 11 188 70 12 188 70 13 188 71 14 188 72 15 188 72 16 188 73 17 188 74 18 188 74 19 188 75 20 188 76 21 188 76 22 188 77 23 188 78 24 188 78 25 188 79 26 188 80 27 188 80 28 188 81 29 188 82 30 188 82 31 188 83 32 188 84 33 188 84 34 188 85 35 188 86 36 188 86 37 188 87 38 188 88 39 188 88 40 188 89 41 188 90 42 188 90 43 188 91 44 188 92 45 188 92 46 188 93 47 188 94 48 188 94 49 188 95 50 188 96 51 188 96 52 188 97 53 188 98 54 188 98 55 188 99 56 188 100 57 188 100 58 188 101 59 188 102 60 188 102 61 188 103 62 188 104 63 188 104 64 188 105 65 188 106 66 188 106 67 188 107 68 188 108 69 188 108 70 188 109 71 188 110 72 188 110 73 188 111 74 188 112 75 188 112 76 188 113 77 188 114 78 188 114 79 188 115 80 188 116 81 188 116 82 188 117 83 188 118 84 188 118 85 188 119 86 188 120 87 188 120 88 188 121 89 188 122 90 188 122 91 188 123 92 188 124 93 188 124 94 188 125 95 188 126 96 188 126 97 188 127 98 188 128 99 188 128 100 188 129 101 188 130 102 188 130 103 188 131 104 188 132 105 188 132 106 188 133 107 188 134 108 188 134 109 188 135 110 188 136 111 188 136 112 188 137 113 188 138 114 188 138 115 188 139 116 188 140 117 188 140 118 188 141 119 188 142 120 188 142 121 188 143 122 188 144 123 188 144 124 188 145 125 188 146 126 188 146 127 188 147 128 188 148 129 188 148 130 188 149 131 188 150 132 188 150 133 188 151 134 188 152 135 188 152 136 188 153 137 188 154 138 188 154 139 188 155 140 188 156 141 188 156 142 188 157 143 188 158 144 188 158 145 188 159 146 188 160 147 188 160 148 188 161 149 188 162 150 188 162 151 188 163 152 188 164 153 188 164 154 188 165 155 188 166 156 188 166 157 188 167 158 188 168 159 188 168 160 188 169 161 188 170 162 188 170 163 188 171 164 188 172 165 188 172 166 188 173 167 188 174 168 188 174 169 188 175 170 188 176 171 188 176 172 188 177 173 188 178 174 188 178 175 188 179 176 188 180 177 188 180 178 188 181 179 188 182 180 188 182 181 188 183 182 188 184 183 188 184 184 188 185 185 188 186 186 188 186 187 188 187 188 188 188 189 188 188 190 188 189 191 188 190 192 188 190 193 188 191 194 188 192 195 188 192 196 188 193 197 188 194 198 188 194 199 188 195 200 188 196 201 188 196 202 188 197 203 188 198 204 188 198 205 188 199 206 188 200 207 188 200 208 188 201 209 188 202 210 188 202 211 188 203 212 188 204 213 188 204 214 188 205 215 188 206 216 188 206 217 188 207 218 188 208 219 188 208 220 188 209 221 188 210 222 188 210 223 188 211 224 188 212 225 188 212 226 188 213 227 188 214 228 188 214 229 188 215 230 188 216 231 188 216 232 188 217 233 188 218 234 188 218 235 188 219 236 188 220 237 188 220 238 188 221 239 188 222 240 188 222 241 188 223 242 188 224 243 188 224 244 188 225 245 188 226 246 188 226 247 188 227 248 188 228 249 188 228 250 188 229 251 188 230 252 188 230 253 188 231 254 188 232 255 188 232
0 190 63 1 190 64 2 190 64 3 190 65 4 190 66 5 190 66 6 190 67 7 190 68 8 190 68 9 190 69 10 190 70 11 190 70 12 190 71 13 190 72 14 190 72 15 190 73 16 190 74 17 190 74 18 190 75 19 190 76 20 190 76 21 190 77 22 190 78 23 190 78 24 190 79 25 190 80 26 190 80 27 190 81 28 190 82 29 190 82 30 190 83 31 190 84 32 190 84 33 190 85 34 190 86 35 190 86 36 190 87 37 190 88 38 190 88 39 190 89 40 190 90 41 190 90 42 190 91 43 190 92 44 190 92 45 190 93 46 190 94 47 190 94 48 190 95 49 190 96 50 190 96 51 190 97 52 190 98 53 190 98 54 190 99 55 190 100 56 190 100 57 190 101 58 190 102 59 190 102 60 190 103 61 190 104 62 190 104 63 190 105 64 190 106 65 190 106 66 190 107 67 190 108 68 190 108 69 190 109 70 190 110 71 190 110 72 190 111 73 190 112 74 190 112 75 190 113 76 190 114 77 190 114 78 190 115 79 190 116 80 190 116 81 190 117 82 190 118 83 190 118 84 190 119 85 190 120 86 190 120 87 190 121 88 190 122 89 190 122 90 190 123 91 190 124 92 190 124 93 190 125 94 190 126 95 190 126 96 190 127 97 190 128 98 190 128 99 190 129 100 190 130 101 190 130 102 190 131 103 190 132 104 190 132 105 190 133 106 190 134 107 190 134 108 190 135 109 190 136 110 190 136 111 190 137 112 190 138 113 190 138 114 190 139 115 190 140 116 190 140 117 190 141 118 190 142 119 190 142 120 190 143 121 190 144 122 190 144 123 190 145 124 190 146 125 190 146 126 190 147 127 190 148 128 190 148 129 190 149 130 190 150 131 190 150 132 190 151 133 190 152 134 190 152 135 190 153 136 190 154 137 190 154 138 190 155 139 190 156 140 190 156 141 190 157 142 190 158 143 190 158 144 190 159 145 190 160 146 190 160 147 190 161 148 190 162 149 190 162 150 190 163 151 190 164 152 190 164 153 190 165 154 190 166 155 190 166 156 190 167 157 190 168 158 190 168 159 190 169 160 190 170 161 190 170 162 190 171 163 190 172 164 190 172 165 190 173 166 190 174 167 190 174 168 190 175 169 190 176 170 190 176 171 190 177 172 190 178 173 190 178 174 190 179 175 190 180 176 190 180 177 190 181 178 190 182 179 190 182 180 190 183 181 190 184 182 190 184 183 190 185 184 190 186 185 190 186 186 190 187 187 190 188 188 190 188 189 190 189 190 190 190 191 190 190 192 190 191 193 190 192 194 190 192 195 190 193 196 190 194 197 190 194 198 190 195 199 190 196 200 190 196 201 190 197 202 190 198 203 190 198 204 190 199 205 190 200 206 190 200 207 190 201 208 190 202 209 190 202 210 190 203 211 190 204 212 190 204 213 190 205 214 190 206 215 190 206 216 190 207 217 190 208 218 190 208 219 190 209 220 190 210 221 190 210 222 190 211 223 190 212 224 190 212 225 190 213 226 190 214 227 190 214 228 190 215 229 190 216 230 190 216 231 190 217 232 190 218 233 190 218 234 190 219 235 190 220 236 190 220 237 190 221 238 190 222 239 190 222 240 190 223 241 190 224 242 190 224 243 190 225 244 190 226 245 190 226 246 190 227 247 190 228 248 190 228 249 190 229 250 190 230 251 190 230 252 190 231 253 190 232 254 190 232 255 190 233
0 192 64 1 192 64 2 192 65 3 192 66 4 192 66 5 192 67 6 192 68 7 192 68 8 192 69 9 192 70 10 192 70 11 192 71 12 192 72 13 192 72 14 192 73 15 192 74 16 192 74 17 192 75 18 192 76 19 192 76 20 192 77 21 192 78 22 192 78 23 192 79 24 192 80 25 192 80 26 192 81 27 192 82 28 192 82 29 192 83 30 192 84 31 192 84 32 192 85 33 192 86 34 192 86 35 192 87 36 192 88 37 192 88 38 192 89 39 192 90 40 192 90 41 192 91 42 192 92 43 192 92 44 192 93 45 192 94 46 192 94 47 192 95 48 192 96 49 192 96 50 192 97 51 192 98 52 192 98 53 192 99 54 192 100 55 192 100 56 192 101 57 192 102 58 192 102 59 192 103 60 192 104 61 192 104 62 192 105 63 192 106 64 192 106 65 192 107 66 192 108 67 192 108 68 192 109 69 192 110 70 192 110 71 192 111 72 192 112 73 192 112 74 192 113 75 192 114 76 192 114 77 192 115 78 192 116 79 192 116 80 192 117 81 192 118 82 192 118 83 192 119 84 192 120 85 192 120 86 192 121 87 192 122 88 192 122 89 192 123 90 192 124 91 192 124 92 192 125 93 192 126 94 192 126 95 192 127 96 192 128 97 192 128 98 192 129 99 192 130 100 192 130 101 192 131 102 192 132 103 192 132 104 192 133 105 192 134 106 192 134 107 192 135 108 192 136 109 192 136 110 192 137 111 192 138 112 192 138 113 192 139 114 192 140 115 192 140 116 192 141 117 192 142 118 192 142 119 192 143 120 192 144 121 192 144 122 192 145 123 192 146 124 192 146 125 192 147 126 192 148 127 192 148 128 192 149 129 192 150 130 192 150 131 192 151 132 192 152 133 192 152 134 192 153 135 192 154 136 192 154 137 192 155 138 192 156 139 192 156 140 192 157 141 192 158 142 192 158 143 192 159 144 192 160 145 192 160 146 192 161 147 192 162 148 192 162 149 192 163 150 192 164 151 192 164 152 192 165 153 192 166 154 192 166 155 192 167 156 192 168 157 192 168 158 192 169 159 192 170 160 192 170 161 192 171 162 192 172 163 192 172 164 192 173 165 192 174 166 192 174 167 192 175 168 192 176 169 192 176 170 192 177 171 192 178 172 192 178 173 192 179 174 192 180 175 192 180 176 192 181 177 192 182 178 192 182 179 192 183 180 192 184 181 192 184 182 192 185 183 192 186 184 192 186 185 192 187 186 192 188 187 192 188 188 192 189 189 192 190 190 192 190 191 192 191 192 192 192 193 192 192 194 192 193 195 192 194 196 192 194 197 192 195 198 192 196 199 192 196 200 192 197 201 192 198 202 192 198 203 192 199 204 192 200 205 192 200 206 192 201 207 192 202 208 192 202 209 192 203 210 192 204 211 192 204 212 192 205 213 192 206 214 192 206 215 192 207 216 192 208 217 192 208 218 192 209 219 192 210 220 192 210 221 192 211 222 192 212 223 192 212 224 192 213 225 192 214 226 192 214 227 192 215 228 192 216 229 192 216 230 192 217 231 192 218 232 192 218 233 192 219 234 192 220 235 192 220 236 192 221 237 192 222 238 192 222 239 192 223 240 192 224 241 192 224 242 192 225 243 192 226 244 192 226 245 192 227 246 192 228 247 192 228 248 192 229 249 192 230 250 192 230 251 192 231 252 192 232 253 192 232 254 192 233 255 192 234
0 194 64 1 194 65 2 194 66 3 194 66 4 194 67 5 194 68 6 194 68 7 194 69 8 194 70 9 194 70 10 194 71 11 194 72 12 194 72 13 194 73 14 194 74 15 194 74 16 194 75 17 194 76 18 194 76 19 194 77 20 194 78 21 194 78 22 194 79 23 194 80 24 194 80 25 194 81 26 194 82 27 194 82 28 194 83 29 194 84 30 194 84 31 194 85 32 194 86 33 194 86 34 194 87 35 194 88 36 194 88 37 194 89 38 194 90 39 194 90 40 194 91 41 194 92 42 194 92 43 194 93 44 194 94 45 194 94 46 194 95 47 194 96 48 194 96 49 194 97 50 194 98 51 194 98 52 194 99 53 194 100 54 194 100 55 194 101 56 194 102 57 194 102 58 194 103 59 194 104 60 194 104 61 194 105 62 194 106 63 194 106 64 194 107 65 194 108 66 194 108 67 194 109 68 194 110 69 194 110 70 194 111 71 194 112 72 194 112 73 194 113 74 194 114 75 194 114 76 194 115 77 194 116 78 194 116 79 194 117 80 194 118 81 194 118 82 194 119 83 194 120 84 194 120 85 194 121 86 194 122 87 194 122 88 194 123 89 194 124 90 194 124 91 194 125 92 194 126 93 194 126 94 194 127 95 194 128 96 194 128 97 194 129 98 194 130 99 194 130 100 194 131 101 194 132 102 194 132 103 194 133 104 194 134 105 194 134 106 194 135 107 194 136 108 194 136 109 194 137 110 194 138 111 194 138 112 194 139 113 194 140 114 194 140 115 194 141 116 194 142 117 194 142 118 194 143 119 194 144 120 194 144 121 194 145 122 194 146 123 194 146 124 194 147 125 194 148 126 194 148 127 194 149 128 194 150 129 194 150 130 194 151 131 194 152 132 194 152 133 194 153 134 194 154 135 194 154 136 194 155 137 194 156 138 194 156 139 194 157 140 194 158 141 194 158 142 194 159 143 194 160 144 194 160 145 194 161 146 194 162 147 194 162 148 194 163 149 194 164 150 194 164 151 194 165 152 194 166 153 194 166 154 194 167 155 194 168 156 194 168 157 194 169 158 194 170 159 194 170 160 194 171 161 194 172 162 194 172 163 194 173 164 194 174 165 194 174 166 194 175 167 194 176 168 194 176 169 194 177 170 194 178 171 194 178 172 194 179 173 194 180 174 194 180 175 194 181 176 194 182 177 194 182 178 194 183 179 194 184 180 194 184 181 194 185 182 194 186 183 194 186 184 194 187 185 194 188 186 194 188 187 194 189 188 194 190 189 194 190 190 194 191 191 194 192 192 194 192 193 194 193 194 194 194 195 194 194 196 194 195 197 194 196 198 194 196 199 194 197 200 194 198 201 194 198 202 194 199 203 194 200 204 194 200 205 194 201 206 194 202 207 194 202 208 194 203 209 194 204 210 194 204 211 194 205 212 194 206 213 194 206 214 194 207 215 194 208 216 194 208 217 194 209 218 194 210 219 194 210 220 194 211 221 194 212 222 194 212 223 194 213 224 194 214 225 194 214 226 194 215 227 194 216 228 194 216 229 194 217 230 194 218 231 194 218 232 194 219 233 194 220 234 194 220 235 194 221 236 194 222 237 194 222 238 194 223 239 194 224 240 194 224 241 194 225 242 194 226 243 194 226 244 194 227 245 194 228 246 194 228 247 194 229 248 194 230 249 194 230 250 194 231 251 194 232 252 194 232 253 194 233 254 194 234 255 194 234
0 196 65 1 196 66 2 196 66 3 196 67 4 196 68 5 196 68 6 196 69 7 196 70 8 196 70 9 196 71 10 196 72 11 196 72 12 196 73 13 196 74 14 196 74 15 196 75 16 196 76 17 196 76 18 196 77 19 196 78 20 196 78 21 196 79 22 196 80 23 196 80 24 196 81 25 196 82 26 196 82 27 196 83 28 196 84 29 196 84 30 196 85 31 196 86 32 196 86 33 196 87 34 196 88 35 196 88 36 196 89 37 196 90 38 196 90 39 196 91 40 196 92 41 196 92 42 196 93 43 196 94 44 196 94 45 196 95 46 196 96 47 196 96 48 196 97 49 196 98 50 196 98 51 196 99 52 196 100 53 196 100 54 196 101 55 196 102 56 196 102 57 196 103 58 196 104 59 196 104 60 196 105 61 196 106 62 196 106 63 196 107 64 196 108 65 196 108 66 196 109 67 196 110 68 196 110 69 196 111 70 196 112 71 196 112 72 196 113 73 196 114 74 196 114 75 196 115 76 196 116 77 196 116 78 196 117 79 196 118 80 196 118 81 196 119 82 196 120 83 196 120 84 196 121 85 196 122 86 196 122 87 196 123 88 196 124 89 196 124 90 196 125 91 196 126 92 196 126 93 196 127 94 196 128 95 196 128 96 196 129 97 196 130 98 196 130 99 196 131 100 196 132 101 196 132 102 196 133 103 196 134 104 196 134 105 196 135 106 196 136 107 196 136 108 196 137 109 196 138 110 196 138 111 196 139 112 196 140 113 196 140 114 196 141 115 196 142 116 196 142 117 196 143 118 196 144 119 196 144 120 196 145 121 196 146 122 196 146 123 196 147 124 196 148 125 196 148 126 196 149 127 196 150 128 196 150 129 196 151 130 196 152 131 196 152 132 196 153 133 196 154 134 196 154 135 196 155 136 196 156 137 196 156 138 196 157 139 196 158 140 196 158 141 196 159 142 196 160 143 196 160 144 196 161 145 196 162 146 196 162 147 196 163 148 196 164 149 196 164 150 196 165 151 196 166 152 196 166 153 196 167 154 196 168 155 196 168 156 196 169 157 196 170 158 196 170 159 196 171 160 196 172 161 196 172 162 196 173 163 196 174 164 196 174 165 196 175 166 196 176 167 196 176 168 196 177 169 196 178 170 196 178 171 196 179 172 196 180 173 196 180 174 196 181 175 196 182 176 196 182 177 196 183 178 196 184 179 196 184 180 196 185 181 196 186 182 196 186 183 196 187 184 196 188 185 196 188 186 196 189 187 196 190 188 196 190 189 196 191 190 196 192 191 196 192 192 196 193 193 196 194 194 196 194 195 196 195 196 196 196 197 196 196 198 196 197 199 196 198 200 196 198 201 196 199 202 196 200 203 196 200 204 196 201 205 196 202 206 196 202 207 196 203 208 196 204 209 196 204 210 196 205 211 196 206 212 196 206 213 196 207 214 196 208 215 196 208 216 196 209 217 196 210 218 196 210 219 196 211 220 196 212 221 196 212 222 196 213 223 196 214 224 196 214 225 196 215 226 196 216 227 196 216 228 196 217 229 196 218 230 196 218 231 196 219 232 196 220 233 196 220 234 196 221 235 196 222 236 196 222 237 196 223 238 196 224 239 196 224 240 196 225 241 196 226 242 196 226 243 196 227 244 196 228 245 196 228 246 196 229 247 196 230 248 196 230 249 196 231 250 196 232 251 196 232 252 196 233 253 196 234 254 196 234 255 196 235
0 198 66 1 198 66 2 198 67 3 198 68 4 198 68 5 198 69 6 198 70 7 198 70 8 198 71 9 198 72 10 198 72 11 198 73 12 198 74 13 198 74 14 198 75 15 198 76 16 198 76 17 198 77 18 198 78 19 198 78 20 198 79 21 198 80 22 198 80 23 198 81 24 198 82 25 198 82 26 198 83 27 198 84 28 198 84 29 198 85 30 198 86 31 198 86 32 198 87 33 198 88 34 198 88 35 198 89 36 198 90 37 198 90 38 198 91 39 198 92 40 198 92 41 198 93 42 198 94 43 198 94 44 198 95 45 198 96 46 198 96 47 198 97 48 198 98 49 198 98 50 198 99 51 198 100 52 198 100 53 198 101 54 198 102 55 198 102 56 198 103 57 198 104 58 198 104 59 198 105 60 198 106 61 198 106 62 198 107 63 198 108 64 198 108 65 198 109 66 198 110 67 198 110 68 198 111 69 198 112 70 198 112 71 198 113 72 198 114 73 198 114 74 198 115 75 198 116 76 198 116 77 198 117 78 198 118 79 198 118 80 198 119 81 198 120 82 198 120 83 198 121 84 198 122 85 198 122 86 198 123 87 198 124 88 198 124 89 198 125 90 198 126 91 198 126 92 198 127 93 198 128 94 198 128 95 198 129 96 198 130 97 198 130 98 198 131 99 198 132 100 198 132 101 198 133 102 198 134 103 198 134 104 198 135 105 198 136 106 198 136 107 198 137 108 198 138 109 198 138 110 198 139 111 198 140 112 198 140 113 198 141 114 198 142 115 198 142 116 198 143 117 198 144 118 198 144 119 198 145 120 198 146 121 198 146 122 198 147 123 198 148 124 198 148 125 198 149 126 198 150 127 198 150 128 198 151 129 198 152 130 198 152 131 198 153 132 198 154 133 198 154 134 198 155 135 198 156 136 198 156 137 198 157 138 198 158 139 198 158 140 198 159 141 198 160 142 198 160 143 198 161 144 198 162 145 198 162 146 198 163 147 198 164 148 198 164 149 198 165 150 198 166 151 198 166 152 198 167 153 198 168 154 198 168 155 198 169 156 198 170 157 198 170 158 198 171 159 198 172 160 198 172 161 198 173 162 198 174 163 198 174 164 198 175 165 198 176 166 198 176 167 198 177 168 198 178 169 198 178 170 198 179 171 198 180 172 198 180 173 198 181 174 198 182 175 198 182 176 198 183 177 198 184 178 198 184 179 198 185 180 198 186 181 198 186 182 198 187 183 198 188 184 198 188 185 198 189 186 198 190 187 198 190 188 198 191 189 198 192 190 198 192 191 198 193 192 198 194 193 198 194 194 198 195 195 198 196 196 198 196 197 198 197 198 198 198 199 198 198 200 198 199 201 198 200 202 198 200 203 198 201 204 198 202 205 198 202 206 198 203 207 198 204 208 198 204 209 198 205 210 198 206 211 198 206 212 198 207 213 198 208 214 198 208 215 198 209 216 198 210 217 198 210 218 198 211 219 198 212 220 198 212 221 198 213 222 198 214 223 198 214 224 198 215 225 198 216 226 198 216 227 198 217 228 198 218 229 198 218 230 198 219 231 198 220 232 198 220 233 198 221 234 198 222 235 198 222 236 198 223 237 198 224 238 198 224 239 198 225 240 198 226 241 198 226 242 198 227 243 198 228 244 198 228 245 198 229 246 198 230 247 198 230 248 198 231 249 198 232 250 198 232 251 198 233 252 198 234 253 198 234 254 198 235 255 198 236
0 200 66 1 200 67 2 200 68 3 200 68 4 200 69 5 200 70 6 200 70 7 200 71 8 200 72 9 200 72 10 200 73 11 200 74 12 200 74 13 200 75 14 200 76 15 200 76 16 200 77 17 200 78 18 200 78 19 200 79 20 200 80 21 200 80 22 200 81 23 200 82 24 200 82 25 200 83 26 200 84 27 200 84 28 200 85 29 200 86 30 200 86 31 200 87 32 200 88 33 200 88 34 200 89 35 200 90 36 200 90 37 200 91 38 200 92 39 200 92 40 200 93 41 200 94 42 200 94 43 200 95 44 200 96 45 200 96 46 200 97 47 200 98 48 200 98 49 200 99 50 200 100 51 200 100 52 200 101 53 200 102 54 200 102 55 200 103 56 200 104 57 200 104 58 200 105 59 200 106 60 200 106 61 200 107 62 200 108 63 200 108 64 200 109 65 200 110 66 200 110 67 200 111 68 200 112 69 200 112 70 200 113 71 200 114 72 200 114 73 200 115 74 200 116 75 200 116 76 200 117 77 200 118 78 200 118 79 200 119 80 200 120 81 200 120 82 200 121 83 200 122 84 200 122 85 200 123 86 200 124 87 200 124 88 200 125 89 200 126 90 200 126 91 200 127 92 200 128 93 200 128 94 200 129 95 200 130 96 200 130 97 200 131 98 200 132 99 200 132 100 200 133 101 200 134 102 200 134 103 200 135 104 200 136 105 200 136 106 200 137 107 200 138 108 200 138 109 200 139 110 200 140 111 200 140 112 200 141 113 200 142 114 200 142 115 200 143 116 200 144 117 200 144 118 200 145 119 200 146 120 200 146 121 200 147 122 200 148 123 200 148 124 200 149 125 200 150 126 200 150 127 200 151 128 200 152 129 200 152 130 200 153 131 200 154 132 200 154 133 200 155 134 200 156 135 200 156 136 200 157 137 200 158 138 200 158 139 200 159 140 200 160 141 200 160 142 200 161 143 200 162 144 200 162 145 200 163 146 200 164 147 200 164 148 200 165 149 200 166 150 200 166 151 200 167 152 200 168 153 200 168 154 200 169 155 200 170 156 200 170 157 200 171 158 200 172 159 200 172 160 200 173 161 200 174 162 200 174 163 200 175 164 200 176 165 200 176 166 200 177 167 200 178 168 200 178 169 200 179 170 200 180 171 200 180 172 200 181 173 200 182 174 200 182 175 200 183 176 200 184 177 200 184 178 200 185 179 200 186 180 200 186 181 200 187 182 200 188 183 200 188 184 200 189 185 200 190 186 200 190 187 200 191 188 200 192 189 200 192 190 200 193 191 200 194 192 200 194 193 200 195 194 200 196 195 200 196 196 200 197 197 200 198 198 200 198 199 200 199 200 200 200 201 200 200 202 200 201 203 200 202 204 200 202 205 200 203 206 200 204 207 200 204 208 200 205 209 200 206 210 200 206 211 200 207 212 200 208 213 200 208 214 200 209 215 200 210 216 200 210 217 200 211 218 200 212 219 200 212 220 200 213 221 200 214 222 200 214 223 200 215 224 200 216 225 200 216 226 200 217 227 200 218 228 200 218 229 200 219 230 200 220 231 200 220 232 200 221 233 200 222 234 200 222 235 200 223 236 200 224 237 200 224 238 200 225 239 200 226 240 200 226 241 200 227 242 200 228 243 200 228 244 200 229 245 200 230 246 200 230 247 200 231 248 200 232 249 200 232 250 200 233 251 200 234 252 200 234 253 200 235 254 200 236 255 200 236
0 202 67 1 202 68 2 202 68 3 202 69 4 202 70 5 202 70 6 202 71 7 202 72 8 202 72 9 202 73 10 202 74 11 202 74 12 202 75 13 202 76 14 202 76 15 202 77 16 202 78 17 202 78 18 202 79 19 202 80 20 202 80 21 202 81 22 202 82 23 202 82 24 202 83 25 202 84 26 202 84 27 202 85 28 202 86 29 202 86 30 202 87 31 202 88 32 202 88 33 202 89 34 202 90 35 202 90 36 202 91 37 202 92 38 202 92 39 202 93 40 202 94 41 202 94 42 202 95 43 202 96 44 202 96 45 202 97 46 202 98 47 202 98 48 202 99 49 202 100 50 202 100 51 202 101 52 202 102 53 202 102 54 202 103 55 202 104 56 202 104 57 202 105 58 202 106 59 202 106 60 202 107 61 202 108 62 202 108 63 202 109 64 202 110 65 202 110 66 202 111 67 202 112 68 202 112 69 202 113 70 202 114 71 202 114 72 202 115 73 202 116 74 202 116 75 202 117 76 202 118 77 202 118 78 202 119 79 202 120 80 202 120 81 202 121 82 202 122 83 202 122 84 202 123 85 202 124 86 202 124 87 202 125 88 202 126 89 202 126 90 202 127 91 202 128 92 202 128 93 202 129 94 202 130 95 202 130 96 202 131 97 202 132 98 202 132 99 202 133 100 202 134 101 202 134 102 202 135 103 202 136 104 202 136 105 202 137 106 202 138 107 202 138 108 202 139 109 202 140 110 202 140 111 202 141 112 202 142 113 202 142 114 202 143 115 202 144 116 202 144 117 202 145 118 202 146 119 202 146 120 202 147 121 202 148 122 202 148 123 202 149 124 202 150 125 202 150 126 202 151 127 202 152 128 202 152 129 202 153 130 202 154 131 202 154 132 202 155 133 202 156 134 202 156 135 202 157 136 202 158 137 202 158 138 202 159 139 202 160 140 202 160 141 202 161 142 202 162 143 202 162 144 202 163 145 202 164 146 202 164 147 202 165 148 202 166 149 202 166 150 202 167 151 202 168 152 202 168 153 202 169 154 202 170 155 202 170 156 202 171 157 202 172 158 202 172 159 202 173 160 202 174 161 202 174 162 202 175 163 202 176 164 202 176 165 202 177 166 202 178 167 202 178 168 202 179 169 202 180 170 202 180 171 202 181 172 202 182 173 202 182 174 202 183 175 202 184 176 202 184 177 202 185 178 202 186 179 202 186 180 202 187 181 202 188 182 202 188 183 202 189 184 202 190 185 202 190 186 202 191 187 202 192 188 202 192 189 202 193 190 202 194 191 202 194 192 202 195 193 202 196 194 202 196 195 202 197 196 202 198 197 202 198 198 202 199 199 202 200 200 202 200 201 202 201 202 202 202 203 202 202 204 202 203 205 202 204 206 202 204 207 202 205 208 202 206 209 202 206 210 202 207 211 202 208 212 202 208 213 202 209 214 202 210 215 202 210 216 202 211 217 202 212 218 202 212 219 202 213 220 202 214 221 202 214 222 202 215 223 202 216 224 202 216 225 202 217 226 202 218 227 202 218 228 202 219 229 202 220 230 202 220 231 202 221 232 202 222 233 202 222 234 202 223 235 202 224 236 202 224 237 202 225 238 202 226 239 202 226 240 202 227 241 202 228 242 202 228 243 202 229 244 202 230 245 202 230 246 202 231 247 202 232 248 202 232 249 202 233 250 202 234 251 202 234 252 202 235 253 202 236 254 202 236 255 202 237
0 204 68 1 204 68 2 204 69 3 204 70 4 204 70 5 204 71 6 204 72 7 204 72 8 204 73 9 204 74 10 204 74 11 204 75 12 204 76 13 204 76 14 204 77 15 204 78 16 204 78 17 204 79 18 204 80 19 204 80 20 204 81 21 204 82 22 204 82 23 204 83 24 204 84 25 204 84 26 204 85 27 204 86 28 204 86 29 204 87 30 204 88 31 204 88 32 204 89 33 204 90 34 204 90 35 204 91 36 204 92 37 204 92 38 204 93 39 204 94 40 204 94 41 204 95 42 204 96 43 204 96 44 204 97 45 204 98 46 204 98 47 204 99 48 204 100 49 204 100 50 204 101 51 204 102 52 204 102 53 204 103 54 204 104 55 204 104 56 204 105 57 204 106 58 204 106 59 204 107 60 204 108 61 204 108 62 204 109 63 204 110 64 204 110 65 204 111 66 204 112 67 204 112 68 204 113 69 204 114 70 204 114 71 204 115 72 204 116 73 204 116 74 204 117 75 204 118 76 204 118 77 204 119 78 204 120 79 204 120 80 204 121 81 204 122 82 204 122 83 204 123 84 204 124 85 204 124 86 204 125 87 204 126 88 204 126 89 204 127 90 204 128 91 204 128 92 204 129 93 204 130 94 204 130 95 204 131 96 204 132 97 204 132 98 204 133 99 204 134 100 204 134 101 204 135 102 204 136 103 204 136 104 204 137 105 204 138 106 204 138 107 204 139 108 204 140 109 204 140 110 204 141 111 204 142 112 204 142 113 204 143 114 204 144 115 204 144 116 204 145 117 204 146 118 204 146 119 204 147 120 204 148 121 204 148 122 204 149 123 204 150 124 204 150 125 204 151 126 204 152 127 204 152 128 204 153 129 204 154 130 204 154 131 204 155 132 204 156 133 204 156 134 204 157 135 204 158 136 204 158 137 204 159 138 204 160 139 204 160 140 204 161 141 204 162 142 204 162 143 204 163 144 204 164 145 204 164 146 204 165 147 204 166 148 204 166 149 204 167 150 204 168 151 204 168 152 204 169 153 204 170 154 204 170 155 204 171 156 204 172 157 204 172 158 204 173 159 204 174 160 204 174 161 204 175 162 204 176 163 204 176 164 204 177 165 204 178 166 204 178 167 204 179 168 204 180 169 204 180 170 204 181 171 204 182 172 204 182 173 204 183 174 204 184 175 204 184 176 204 185 177 204 186 178 204 186 179 204 187 180 204 188 181 204 188 182 204 189 183 204 190 184 204 190 185 204 191 186 204 192 187 204 192 188 204 193 189 204 194 190 204 194 191 204 195 192 204 196 193 204 196 194 204 197 195 204 198 196 204 198 197 204 199 198 204 200 199 204 200 200 204 201 201 204 202 202 204 202 203 204 203 204 204 204 205 204 204 206 204 205 207 204 206 208 204 206 209 204 207 210 204 208 211 204 208 212 204 209 213 204 210 214 204 210 215 204 211 216 204 212 217 204 212 218 204 213 219 204 214 220 204 214 221 204 215 222 204 216 223 204 216 224 204 217 225 204 218 226 204 218 227 204 219 228 204 220 229 204 220 230 204 221 231 204 222 232 204 222 233 204 223 234 204 224 235 204 224 236 204 225 237 204 226 238 204 226 239 204 227 240 204 228 241 204 228 242 204 229 243 204 230 244 204 230 245 204 231 246 204 232 247 204 232 248 204 233 249 204 234 250 204 234 251 204 235 252 204 236 253 204 236 254 204 237 255 204 238
0 206 68 1 206 69 2 206 70 3 206 70 4 206 71 5 206 72 6 206 72 7 206 73 8 206 74 9 206 74 10 206 75 11 206 76 12 206 76 13 206 77 14 206 78 15 206 78 16 206 79 17 206 80 18 206 80 19 206 81 20 206 82 21 206 82 22 206 83 23 206 84 24 206 84 25 206 85 26 206 86 27 206 86 28 206 87 29 206 88 30 206 88 31 206 89 32 206 90 33 206 90 34 206 91 35 206 92 36 206 92 37 206 93 38 206 94 39 206 94 40 206 95 41 206 96 42 206 96 43 206 97 44 206 98 45 206 98 46 206 99 47 206 100 48 206 100 49 206 101 50 206 102 51 206 102 52 206 103 53 206 104 54 206 104 55 206 105 56 206 106 57 206 106 58 206 107 59 206 108 60 206 108 61 206 109 62 206 110 63 206 110 64 206 111 65 206 112 66 206 112 67 206 113 68 206 114 69 206 114 70 206 115 71 206 116 72 206 116 73 206 117 74 206 118 75 206 118 76 206 119 77 206 120 78 206 120 79 206 121 80 206 122 81 206 122 82 206 123 83 206 124 84 206 124 85 206 125 86 206 126 87 206 126 88 206 127 89 206 128 90 206 128 91 206 129 92 206 130 93 206 130 94 206 131 95 206 132 96 206 132 97 206 133 98 206 134 99 206 134 100 206 135 101 206 136 102 206 136 103 206 137 104 206 138 105 206 138 106 206 139 107 206 140 108 206 140 109 206 141 110 206 142 111 206 142 112 206 143 113 206 144 114 206 144 115 206 145 116 206 146 117 206 146 118 206 147 119 206 148 120 206 148 121 206 149 122 206 150 123 206 150 124 206 151 125 206 152 126 206 152 127 206 153 128 206 154 129 206 154 130 206 155 131 206 156 132 206 156 133 206 157 134 206 158 135 206 158 136 206 159 137 206 160 138 206 160 139 206 161 140 206 162 141 206 162 142 206 163 143 206 164 144 206 164 145 206 165 146 206 166 147 206 166 148 206 167 149 206 168 150 206 168 151 206 169 152 206 170 153 206 170 154 206 171 155 206 172 156 206 172 157 206 173 158 206 174 159 206 174 160 206 175 161 206 176 162 206 176 163 206 177 164 206 178 165 206 178 166 206 179 167 206 180 168 206 180 169 206 181 170 206 182 171 206 182 172 206 183 173 206 184 174 206 184 175 206 185 176 206 186 177 206 186 178 206 187 179 206 188 180 206 188 181 206 189 182 206 190 183 206 190 184 206 191 185 206 192 186 206 192 187 206 193 188 206 194 189 206 194 190 206 195 191 206 196 192 206 196 193 206 197 194 206 198 195 206 198 196 206 199 197 206 200 198 206 200 199 206 201 200 206 202 201 206 202 202 206 203 203 206 204 204 206 204 205 206 205 206 206 206 207 206 206 208 206 207 209 206 208 210 206 208 211 206 209 212 206 210 213 206 210 214 206 211 215 206 212 216 206 212 217 206 213 218 206 214 219 206 214 220 206 215 221 206 216 222 206 216 223 206 217 224 206 218 225 206 218 226 206 219 227 206 220 228 206 220 229 206 221 230 206 222 231 206 222 232 206 223 233 206 224 234 206 224 235 206 225 236 206 226 237 206 226 238 206 227 239 206 228 240 206 228 241 206 229 242 206 230 243 206 230 244 206 231 245 206 232 246 206 232 247 206 233 248 206 234 249 206 234 250 206 235 251 206 236 252 206 236 253 206 237 254 206 238 255 206 238
0 208 69 1 208 70 2 208 70 3 208 71 4 208 72 5 208 72 6 208 73 7 208 74 8 208 74 9 208 75 10 208 76 11 208 76 12 208 77 13 208 78 14 208 78 15 208 79 16 208 80 17 208 80 18 208 81 19 208 82 20 208 82 21 208 83 22 208 84 23 208 84 24 208 85 25 208 86 26 208 86 27 208 87 28 208 88 29 208 88 30 208 89 31 208 90 32 208 90 33 208 91 34 208 92 35 208 92 36 208 93 37 208 94 38 208 94 39 208 95 40 208 96 41 208 96 42 208 97 43 208 98 44 208 98 45 208 99 46 208 100 47 208 100 48 208 101 49 208 102 50 208 102 51 208 103 52 208 104 53 208 104 54 208 105 55 208 106 56 208 106 57 208 107 58 208 108 59 208 108 60 208 109 61 208 110 62 208 110 63 208 111 64 208 112 65 208 112 66 208 113 67 208 114 68 208 114 69 208 115 70 208 116 71 208 116 72 208 117 73 208 118 74 208 118 75 208 119 76 208 120 77 208 120 78 208 121 79 208 122 80 208 122 81 208 123 82 208 124 83 208 124 84 208 125 85 208 126 86 208 126 87 208 127 88 208 128 89 208 128 90 208 129 91 208 130 92 208 130 93 208 131 94 208 132 95 208 132 96 208 133 97 208 134 98 208 134 99 208 135 100 208 136 101 208 136 102 208 137 103 208 138 104 208 138 105 208 139 106 208 140 107 208 140 108 208 141 109 208 142 110 208 142 111 208 143 112 208 144 113 208 144 114 208 145 115 208 146 116 208 146 117 208 147 118 208 148 119 208 148 120 208 149 121 208 150 122 208 150 123 208 151 124 208 152 125 208 152 126 208 153 127 208 154 128 208 154 129 208 155 130 208 156 131 208 156 132 208 157 133 208 158 134 208 158 135 208 159 136 208 160 137 208 160 138 208 161 139 208 162 140 208 162 141 208 163 142 208 164 143 208 164 144 208 165 145 208 166 146 208 166 147 208 167 148 208 168 149 208 168 150 208 169 151 208 170 152 208 170 153 208 171 154 208 172 155 208 172 156 208 173 157 208 174 158 208 174 159 208 175 160 208 176 161 208 176 162 208 177 163 208 178 164 208 178 165 208 179 166 208 180 167 208 180 168 208 181 169 208 182 170 208 182 171 208 183 172 208 184 173 208 184 174 208 185 175 208 186 176 208 186 177 208 187 178 208 188 179 208 188 180 208 189 181 208 190 182 208 190 183 208 191 184 208 192 185 208 192 186 208 193 187 208 194 188 208 194 189 208 195 190 208 196 191 208 196 192 208 197 193 208 198 194 208 198 195 208 199 196 208 200 197 208 200 198 208 201 199 208 202 200 208 202 201 208 203 202 208 204 203 208 204 204 208 205 205 208 206 206 208 206 207 208 207 208 208 208 209 208 208 210 208 209 211 208 210 212 208 210 213 208 211 214 208 212 215 208 212 216 208 213 217 208 214 218 208 214 219 208 215 220 208 216 221 208 216 222 208 217 223 208 218 224 208 218 225 208 219 226 208 220 227 208 220 228 208 221 229 208 222 230 208 222 231 208 223 232 208 224 233 208 224 234 208 225 235 208 226 236 208 226 237 208 227 238 208 228 239 208 228 240 208 229 241 208 230 242 208 230 243 208 231 244 208 232 245 208 232 246 208 233 247 208 234 248 208 234 249 208 235 250 208 236 251 208 236 252 208 237 253 208 238 254 208 238 255 208 239
0 210 70 1 210 70 2 210 71 3 210 72 4 210 72 5 210 73 6 210 74 7 210 74 8 210 75 9 210 76 10 210 76 11 210 77 12 210 78 13 210 78 14 210 79 15 210 80 16 210 80 17 210 81 18 210 82 19 210 82 20 210 83 21 210 84 22 210 84 23 210 85 24 210 86 25 210 86 26 210 87 27 210 88 28 210 88 29 210 89 30 210 90 31 210 90 32 210 91 33 210 92 34 210 92 35 210 93 36 210 94 37 210 94 38 210 95 39 210 96 40 210 96 41 210 97 42 210 98 43 210 98 44 210 99 45 210 100 46 210 100 47 210 101 48 210 102 49 210 102 50 210 103 51 210 104 52 210 104 53 210 105 54 210 106 55 210 106 56 210 107 57 210 108 58 210 108 59 210 109 60 210 110 61 210 110 62 210 111 63 210 112 64 210 112 65 210 113 66 210 114 67 210 114 68 210 115 69 210 116 70 210 116 71 210 117 72 210 118 73 210 118 74 210 119 75 210 120 76 210 120 77 210 121 78 210 122 79 210 122 80 210 123 81 210 124 82 210 124 83 210 125 84 210 126 85 210 126 86 210 127 87 210 128 88 210 128 89 210 129 90 210 130 91 210 130 92 210 131 93 210 132 94 210 132 95 210 133 96 210 134 97 210 134 98 210 135 99 210 136 100 210 136 101 210 137 102 210 138 103 210 138 104 210 139 105 210 140 106 210 140 107 210 141 108 210 142 109 210 142 110 210 143 111 210 144 112 210 144 113 210 145 114 210 146 115 210 146 116 210 147 117 210 148 118 210 148 119 210 149 120 210 150 121 210 150 122 210 151 123 210 152 124 210 152 125 210 153 126 210 154 127 210 154 128 210 155 129 210 156 130 210 156 131 210 157 132 210 158 133 210 158 134 210 159 135 210 160 136 210 160 137 210 161 138 210 162 139 210 162 140 210 163 141 210 164 142 210 164 143 210 165 144 210 166 145 210 166 146 210 167 147 210 168 148 210 168 149 210 169 150 210 170 151 210 170 152 210 171 153 210 172 154 210 172 155 210 173 156 210 174 157 210 174 158 210 175 159 210 176 160 210 176 161 210 177 162 210 178 163 210 178 164 210 179 165 210 180 166 210 180 167 210 181 168 210 182 169 210 182 170 210 183 171 210 184 172 210 184 173 210 185 174 210 186 175 210 186 176 210 187 177 210 188 178 210 188 179 210 189 180 210 190 181 210 190 182 210 191 183 210 192 184 210 192 185 210 193 186 210 194 187 210 194 188 210 195 189 210 196 190 210 196 191 210 197 192 210 198 193 210 198 194 210 199 195 210 200 196 210 200 197 210 201 198 210 202 199 210 202 200 210 203 201 210 204 202 210 204 203 210 205 204 210 206 205 210 206 206 210 207 207 210 208 208 210 208 209 210 209 210 210 210 211 210 210 212 210 211 213 210 212 214 210 212 215 210 213 216 210 214 217 210 214 218 210 215 219 210 216 220 210 216 221 210 217 222 210 218 223 210 218 224 210 219 225 210 220 226 210 220 227 210 221 228 210 222 229 210 222 230 210 223 231 210 224 232 210 224 233 210 225 234 210 226 235 210 226 236 210 227 237 210 228 238 210 228 239 210 229 240 210 230 241 210 230 242 210 231 243 210 232 244 210 232 245 210 233 246 210 234 247 210 234 248 210 235 249 210 236 250 210 236 251 210 237 252 210 238 253 210 238 254 210 239 255 210 240
0 212 70 1 212 71 2 212 72 3 212 72 4 212 73 5 212 74 6 212 74 7 212 75 8 212 76 9 212 76 10 212 77 11 212 78 12 212 78 13 212 79 14 212 80 15 212 80 16 212 81 17 212 82 18 212 82 19 212 83 20 212 84 21 212 84 22 212 85 23 212 86 24 212 86 25 212 87 26 212 88 27 212 88 28 212 89 29 212 90 30 212 90 31 212 91 32 212 92 33 212 92 34 212 93 35 212 94 36 212 94 37 212 95 38 212 96 39 212 96 40 212 97 41 212 98 42 212 98 43 212 99 44 212 100 45 212 100 46 212 101 47 212 102 48 212 102 49 212 103 50 212 104 51 212 104 52 212 105 53 212 106 54 212 106 55 212 107 56 212 108 57 212 108 58 212 109 59 212 110 60 212 110 61 212 111 62 212 112 63 212 112 64 212 113 65 212 114 66 212 114 67 212 115 68 212 116 69 212 116 70 212 117 71 212 118 72 212 118 73 212 119 74 212 120 75 212 120 76 212 121 77 212 122 78 212 122 79 212 123 80 212 124 81 212 124 82 212 125 83 212 126 84 212 126 85 212 127 86 212 128 87 212 128 88 212 129 89 212 130 90 212 130 91 212 131 92 212 132 93 212 132 94 212 133 95 212 134 96 212 134 97 212 135 98 212 136 99 212 136 100 212 137 101 212 138 102 212 138 103 212 139 104 212 140 105 212 140 106 212 141 107 212 142 108 212 142 109 212 143 110 212 144 111 212 144 112 212 145 113 212 146 114 212 146 115 212 147 116 212 148 117 212 148 118 212 149 119 212 150 120 212 150 121 212 151 122 212 152 123 212 152 124 212 153 125 212 154 126 212 154 127 212 155 128 212 156 129 212 156 130 212 157 131 212 158 132 212 158 133 212 159 134 212 160 135 212 160 136 212 161 137 212 162 138 212 162 139 212 163 140 212 164 141 212 164 142 212 165 143 212 166 144 212 166 145 212 167 146 212 168 147 212 168 148 212 169 149 212 170 150 212 170 151 212 171 152 212 172 153 212 172 154 212 173 155 212 174 156 212 174 157 212 175 158 212 176 159 212 176 160 212 177 161 212 178 162 212 178 163 212 179 164 212 180 165 212 180 166 212 181 167 212 182 168 212 182 169 212 183 170 212 184 171 212 184 172 212 185 173 212 186 174 212 186 175 212 187 176 212 188 177 212 188 178 212 189 179 212 190 180 212 190 181 212 191 182 212 192 183 212 192 184 212 193 185 212 194 186 212 194 187 212 195 188 212 196 189 212 196 190 212 197 191 212 198 192 212 198 193 212 199 194 212 200 195 212 200 196 212 201 197 212 202 198 212 202 199 212 203 200 212 204 201 212 204 202 212 205 203 212 206 204 212 206 205 212 207 206 212 208 207 212 208 208 212 209 209 212 210 210 212 210 211 212 211 212 212 212 213 212 212 214 212 213 215 212 214 216 212 214 217 212 215 218 212 216 219 212 216 220 212 217 221 212 218 222 212 218 223 212 219 224 212 220 225 212 220 226 212 221 227 212 222 228 212 222 229 212 223 230 212 224 231 212 224 232 212 225 233 212 226 234 212 226 235 212 227 236 212 228 237 212 228 238 212 229 239 212 230 240 212 230 241 212 231 242 212 232 243 212 232 244 212 233 245 212 234 246 212 234 247 212 235 248 212 236 249 212 236 250 212 237 251 212 238 252 212 238 253 212 239 254 212 240 255 212 240
0 214 71 1 214 72 2 214 72 3 214 73 4 214 74 5 214 74 6 214 75 7 214 76 8 214 76 9 214 77 10 214 78 11 214 78 12 214 79 13 214 80 14 214 80 15 214 81 16 214 82 17 214 82 18 214 83 19 214 84 20 214 84 21 214 85 22 214 86 23 214 86 24 214 87 25 214 88 26 214 88 27 214 89 28 214 90 29 214 90 30 214 91 31 214 92 32 214 92 33 214 93 34 214 94 35 214 94 36 214 95 37 214 96 38 214 96 39 214 97 40 214 98 41 214 98 42 214 99 43 214 100 44 214 100 45 214 101 46 214 102 47 214 102 48 214 103 49 214 104 50 214 104 51 214 105 52 214 106 53 214 106 54 214 107 55 214 108 56 214 108 57 214 109 58 214 110 59 214 110 60 214 111 61 214 112 62 214 112 63 214 113 64 214 114 65 214 114 66 214 115 67 214 116 68 214 116 69 214 117 70 214 118 71 214 118 72 214 119 73 214 120 74 214 120 75 214 121 76 214 122 77 214 122 78 214 123 79 214 124 80 214 124 81 214 125 82 214 126 83 214 126 84 214 127 85 214 128 86 214 128 87 214 129 88 214 130 89 214 130 90 214 131 91 214 132 92 214 132 93 214 133 94 214 134 95 214 134 96 214 135 97 214 136 98 214 136 99 214 137 100 214 138 101 214 138 102 214 139 103 214 140 104 214 140 105 214 141 106 214 142 107 214 142 108 214 143 109 214 144 110 214 144 111 214 145 112 214 146 113 214 146 114 214 147 115 214 148 116 214 148 117 214 149 118 214 150 119 214 150 120 214 151 121 214 152 122 214 152 123 214 153 124 214 154 125 214 154 126 214 155 127 214 156 128 214 156 129 214 157 130 214 158 131 214 158 132 214 159 133 214 160 134 214 160 135 214 161 136 214 162 137 214 162 138 214 163 139 214 164 140 214 164 141 214 165 142 214 166 143 214 166 144 214 167 145 214 168 146 214 168 147 214 169 148 214 170 149 214 170 150 214 171 151 214 172 152 214 172 153 214 173 154 214 174 155 214 174 156 214 175 157 214 176 158 214 176 159 214 177 160 214 178 161 214 178 162 214 179 163 214 180 164 214 180 165 214 181 166 214 182 167 214 182 168 214 183 169 214 184 170 214 184 171 214 185 172 214 186 173 214 186 174 214 187 175 214 188 176 214 188 177 214 189 178 214 190 179 214 190 180 214 191 181 214 192 182 214 192 183 214 193 184 214 194 185 214 194 186 214 195 187 214 196 188 214 196 189 214 197 190 214 198 191 214 198 192 214 199 193 214 200 194 214 200 195 214 201 196 214 202 197 214 202 198 214 203 199 214 204 200 214 204 201 214 205 202 214 206 203 214 206 204 214 207 205 214 208 206 214 208 207 214 209 208 214 210 209 214 210 210 214 211 211 214 212 212 214 212 213 214 213 214 214 214 215 214 214 216 214 215 217 214 216 218 214 216 219 214 217 220 214 218 221 214 218 222 214 219 223 214 220 224 214 220 225 214 221 226 214 222 227 214 222 228 214 223 229 214 224 230 214 224 231 214 225 232 214 226 233 214 226 234 214 227 235 214 228 236 214 228 237 214 229 238 214 230 239 214 230 240 214 231 241 214 232 242 214 232 243 214 233 244 214 234 245 214 234 246 214 235 247 214 236 248 214 236 249 214 237 250 214 238 251 214 238 252 214 239 253 214 240 254 214 240 255 214 241
0 216 72 1 216 72 2 216 73 3 216 74 4 216 74 5 216 75 6 216 76 7 216 76 8 216 77 9 216 78 10 216 78 11 216 79 12 216 80 13 216 80 14 216 81 15 216 82 16 216 82 17 216 83 18 216 84 19 216 84 20 216 85 21 216 86 22 216 86 23 216 87 24 216 88 25 216 88 26 216 89 27 216 90 28 216 90 29 216 91 30 216 92 31 216 92 32 216 93 33 216 94 34 216 94 35 216 95 36 216 96 37 216 96 38 216 97 39 216 98 40 216 98 41 216 99 42 216 100 43 216 100 44 216 101 45 216 102 46 216 102 47 216 103 48 216 104 49 216 104 50 216 105 51 216 106 52 216 106 53 216 107 54 216 108 55 216 108 56 216 109 57 216 110 58 216 110 59 216 111 60 216 112 61 216 112 62 216 113 63 216 114 64 216 114 65 216 115 66 216 116 67 216 116 68 216 117 69 216 118 70 216 118 71 216 119 72 216 120 73 216 120 74 216 121 75 216 122 76 216 122 77 216 123 78 216 124 79 216 124 80 216 125 81 216 126 82 216 126 83 216 127 84 216 128 85 216 128 86 216 129 87 216 130 88 216 130 89 216 131 90 216 132 91 216 132 92 216 133 93 216 134 94 216 134 95 216 135 96 216 136 97 216 136 98 216 137 99 216 138 100 216 138 101 216 139 102 216 140 103 216 140 104 216 141 105 216 142 106 216 142 107 216 143 108 216 144 109 216 144 110 216 145 111 216 146 112 216 146 113 216 147 114 216 148 115 216 148 116 216 149 117 216 150 118 216 150 119 216 151 120 216 152 121 216 152 122 216 153 123 216 154 124 216 154 125 216 155 126 216 156 127 216 156 128 216 157 129 216 158 130 216 158 131 216 159 132 216 160 133 216 160 134 216 161 135 216 162 136 216 162 137 216 163 138 216 164 139 216 164 140 216 165 141 216 166 142 216 166 143 216 167 144 216 168 145 216 168 146 216 169 147 216 170 148 216 170 149 216 171 150 216 172 151 216 172 152 216 173 153 216 174 154 216 174 155 216 175 156 216 176 157 216 176 158 216 177 159 216 178 160 216 178 161 216 179 162 216 180 163 216 180 164 216 181 165 216 182 166 216 182 167 216 183 168 216 184 169 216 184 170 216 185 171 216 186 172 216 186 173 216 187 174 216 188 175 216 188 176 216 189 177 216 190 178 216 190 179 216 191 180 216 192 181 216 192 182 216 193 183 216 194 184 216 194 185 216 195 186 216 196 187 216 196 188 216 197 189 216 198 190 216 198 191 216 199 192 216 200 193 216 200 194 216 201 195 216 202 196 216 202 197 216 203 198 216 204 199 216 204 200 216 205 201 216 206 202 216 206 203 216 207 204 216 208 205 216 208 206 216 209 207 216 210 208 216 210 209 216 211 210 216 212 211 216 212 212 216 213 213 216 214 214 216 214 215 216 215 216 216 216 217 216 216 218 216 217 219 216 218 220 216 218 221 216 219 222 216 220 223 216 220 224 216 221 225 216 222 226 216 222 227 216 223 228 216 224 229 216 224 230 216 225 231 216 226 232 216 226 233 216 227 234 216 228 235 216 228 236 216 229 237 216 230 238 216 230 239 216 231 240 216 232 241 216 232 242 216 233 243 216 234 244 216 234 245 216 235 246 216 236 247 216 236 248 216 237 249 216 238 250 216 238 251 216 239 252 216 240 253 216 240 254 216 241 255 216 242
0 218 72 1 218 73 2 218 74 3 218 74 4 218 75 5 218 76 6 218 76 7 218 77 8 218 78 9 218 78 10 218 79 11 218 80 12 218 80 13 218 81 14 218 82 15 218 82 16 218 83 17 218 84 18 218 84 19 218 85 20 218 86 21 218 86 22 218 87 23 218 88 24 218 88 25 218 89 26 218 90 27 218 90 28 218 91 29 218 92 30 218 92 31 218 93 32 218 94 33 218 94 34 218 95 35 218 96 36 218 96 37 218 97 38 218 98 39 218 98 40 218 99 41 218 100 42 218 100 43 218 101 44 218 102 45 218 102 46 218 103 47 218 104 48 218 104 49 218 105 50 218 106 51 218 106 52 218 107 53 218 108 54 218 108 55 218 109 56 218 110 57 218 110 58 218 111 59 218 112 60 218 112 61 218 113 62 218 114 63 218 114 64 218 115 65 218 116 66 218 116 67 218 117 68 218 118 69 218 118 70 218 119 71 218 120 72 218 120 73 218 121 74 218 122 75 218 122 76 218 123 77 218 124 78 218 124 79 218 125 80 218 126 81 218 126 82 218 127 83 218 128 84 218 128 85 218 129 86 218 130 87 218 130 88 218 131 89 218 132 90 218 132 91 218 133 92 218 134 93 218 134 94 218 135 95 218 136 96 218 136 97 218 137 98 218 138 99 218 138 100 218 139 101 218 140 102 218 140 103 218 141 104 218 142 105 218 142 106 218 143 107 218 144 108 218 144 109 218 145 110 218 146 111 218 146 112 218 147 113 218 148 114 218 148 115 218 149 116 218 150 117 218 150 118 218 151 119 218 152 120 218 152 121 218 153 122 218 154 123 218 154 124 218 155 125 218 156 126 218 156 127 218 157 128 218 158 129 218 158 130 218 159 131 218 160 132 218 160 133 218 161 134 218 162 135 218 162 136 218 163 137 218 164 138 218 164 139 218 165 140 218 166 141 218 166 142 218 167 143 218 168 144 218 168 145 218 169 146 218 170 147 218 170 148 218 171 149 218 172 150 218 172 151 218 173 152 218 174 153 218 174 154 218 175 155 218 176 156 218 176 157 218 177 158 218 178 159 218 178 160 218 179 161 218 180 162 218 180 163 218 181 164 218 182 165 218 182 166 218 183 167 218 184 168 218 184 169 218 185 170 218 186 171 218 186 172 218 187 173 218 188 174 218 188 175 218 189 176 218 190 177 218 190 178 218 191 179 218 192 180 218 192 181 218 193 182 218 194 183 218 194 184 218 195 185 218 196 186 218 196 187 218 197 188 218 198 189 218 198 190 218 199 191 218 200 192 218 200 193 218 201 194 218 202 195 218 202 196 218 203 197 218 204 198 218 204 199 218 205 200 218 206 201 218 206 202 218 207 203 218 208 204 218 208 205 218 209 206 218 210 207 218 210 208 218 211 209 218 212 210 218 212 211 218 213 212 218 214 213 218 214 214 218 215 215 218 216 216 218 216 217 218 217 218 218 218 219 218 218 220 218 219 221 218 220 222 218 220 223 218 221 224 218 222 225 218 222 226 218 223 227 218 224 228 218 224 229 218 225 230 218 226 231 218 226 232 218 227 233 218 228 234 218 228 235 218 229 236 218 230 237 218 230 238 218 231 239 218 232 240 218 232 241 218 233 242 218 234 243 218 234 244 218 235 245 218 236 246 218 236 247 218 237 248 218 238 249 218 238 250 218 239 251 218 240 252 218 240 253 218 241 254 218 242 255 218 242
0 220 73 1 220 74 2 220 74 3 220 75 4 220 76 5 220 76 6 220 77 7 220 78 8 220 78 9 220 79 10 220 80 11 220 80 12 220 81 13 220 82 14 220 82 15 220 83 16 220 84 17 220 84 18 220 85 19 220 86 20 220 86 21 220 87 22 220 88 23 220 88 24 220 89 25 220 90 26 220 90 27 220 91 28 220 92 29 220 92 30 220 93 31 220 94 32 220 94 33 220 95 34 220 96 35 220 96 36 220 97 37 220 98 38 220 98 39 220 99 40 220 100 41 220 100 42 220 101 43 220 102 44 220 102 45 220 103 46 220 104 47 220 104 48 220 105 49 220 106 50 220 106 51 220 107 52 220 108 53 220 108 54 220 109 55 220 110 56 220 110 57 220 111 58 220 112 59 220 112 60 220 113 61 220 114 62 220 114 63 220 115 64 220 116 65 220 116 66 220 117 67 220 118 68 220 118 69 220 119 70 220 120 71 220 120 72 220 121 73 220 122 74 220 122 75 220 123 76 220 124 77 220 124 78 220 125 79 220 126 80 220 126 81 220 127 82 220 128 83 220 128 84 220 129 85 220 130 86 220 130 87 220 131 88 220 132 89 220 132 90 220 133 91 220 134 92 220 134 93 220 135 94 220 136 95 220 136 96 220 137 97 220 138 98 220 138 99 220 139 100 220 140 101 220 140 102 220 141 103 220 142 104 220 142 105 220 143 106 220 144 107 220 144 108 220 145 109 220 146 110 220 146 111 220 147 112 220 148 113 220 148 114 220 149 115 220 150 116 220 150 117 220 151 118 220 152 119 220 152 120 220 153 121 220 154 122 220 154 123 220 155 124 220 156 125 220 156 126 220 157 127 220 158 128 220 158 129 220 159 130 220 160 131 220 160 132 220 161 133 220 162 134 220 162 135 220 163 136 220 164 137 220 164 138 220 165 139 220 166 140 220 166 141 220 167 142 220 168 143 220 168 144 220 169 145 220 170 146 220 170 147 220 171 148 220 172 149 220 172 150 220 173 151 220 174 152 220 174 153 220 175 154 220 176 155 220 176 156 220 177 157 220 178 158 220 178 159 220 179 160 220 180 161 220 180 162 220 181 163 220 182 164 220 182 165 220 183 166 220 184 167 220 184 168 220 185 169 220 186 170 220 186 171 220 187 172 220 188 173 220 188 174 220 189 175 220 190 176 220 190 177 220 191 178 220 192 179 220 192 180 220 193 181 220 194 182 220 194 183 220 195 184 220 196 185 220 196 186 220 197 187 220 198 188 220 198 189 220 199 190 220 200 191 220 200 192 220 201 193 220 202 194 220 202 195 220 203 196 220 204 197 220 204 198 220 205 199 220 206 200 220 206 201 220 207 202 220 208 203 220 208 204 220 209 205 220 210 206 220 210 207 220 211 208 220 212 209 220 212 210 220 213 211 220 214 212 220 214 213 220 215 214 220 216 215 220 216 216 220 217 217 220 218 218 220 218 219 220 219 220 220 220 221 220 220 222 220 221 223 220 222 224 220 222 225 220 223 226 220 224 227 220 224 228 220 225 229 220 226 230 220 226 231 220 227 232 220 228 233 220 228 234 220 229 235 220 230 236 220 230 237 220 231 238 220 232 239 220 232 240 220 233 241 220 234 242 220 234 243 220 235 244 220 236 245 220 236 246 220 237 247 220 238 248 220 238 249 220 239 250 220 240 251 220 240 252 220 241 253 220 242 254 220 242 255 220 243
0 222 74 1 222 74 2 222 75 3 222 76 4 222 76 5 222 77 6 222 78 7 222 78 8 222 79 9 222 80 10 222 80 11 222 81 12 222 82 13 222 82 14 222 83 15 222 84 16 222 84 17 222 85 18 222 86 19 222 86 20 222 87 21 222 88 22 222 88 23 222 89 24 222 90 25 222 90 26 222 91 27 222 92 28 222 92 29 222 93 30 222 94 31 222 94 32 222 95 33 222 96 34 222 96 35 222 97 36 222 98 37 222 98 38 222 99 39 222 100 40 222 100 41 222 101 42 222 102 43 222 102 44 222 103 45 222 104 46 222 104 47 222 105 48 222 106 49 222 106 50 222 107 51 222 108 52 222 108 53 222 109 54 222 110 55 222 110 56 222 111 57 222 112 58 222 112 59 222 113 60 222 114 61 222 114 62 222 115 63 222 116 64 222 116 65 222 117 66 222 118 67 222 118 68 222 119 69 222 120 70 222 120 71 222 121 72 222 122 73 222 122 74 222 123 75 222 124 76 222 124 77 222 125 78 222 126 79 222 126 80 222 127 81 222 128 82 222 128 83 222 129 84 222 130 85 222 130 86 222 131 87 222 132 88 222 132 89 222 133 90 222 134 91 222 134 92 222 135 93 222 136 94 222 136 95 222 137 96 222 138 97 222 138 98 222 139 99 222 140 100 222 140 101 222 141 102 222 142 103 222 142 104 222 143 105 222 144 106 222 144 107 222 145 108 222 146 109 222 146 110 222 147 111 222 148 112 222 148 113 222 149 114 222 150 115 222 150 116 222 151 117 222 152 118 222 152 119 222 153 120 222 154 121 222 154 122 222 155 123 222 156 124 222 156 125 222 157 126 222 158 127 222 158 128 222 159 129 222 160 130 222 160 131 222 161 132 222 162 133 222 162 134 222 163 135 222 164 136 222 164 137 222 165 138 222 166 139 222 166 140 222 167 141 222 168 142 222 168 143 222 169 144 222 170 145 222 170 146 222 171 147 222 172 148 222 172 149 222 173 150 222 174 151 222 174 152 222 175 153 222 176 154 222 176 155 222 177 156 222 178 157 222 178 158 222 179 159 222 180 160 222 180 161 222 181 162 222 182 163 222 182 164 222 183 165 222 184 166 222 184 167 222 185 168 222 186 169 222 186 170 222 187 171 222 188 172 222 188 173 222 189 174 222 190 175 222 190 176 222 191 177 222 192 178 222 192 179 222 193 180 222 194 181 222 194 182 222 195 183 222 196 184 222 196 185 222 197 186 222 198 187 222 198 188 222 199 189 222 200 190 222 200 191 222 201 192 222 202 193 222 202 194 222 203 195 222 204 196 222 204 197 222 205 198 222 206 199 222 206 200 222 207 201 222 208 202 222 208 203 222 209 204 222 210 205 222 210 206 222 211 207 222 212 208 222 212 209 222 213 210 222 214 211 222 214 212 222 215 213 222 216 214 222 216 215 222 217 216 222 218 217 222 218 218 222 219 219 222 220 220 222 220 221 222 221 222 222 222 223 222 222 224 222 223 225 222 224 226 222 224 227 222 225 228 222 226 229 222 226 230 222 227 231 222 228 232 222 228 233 222 229 234 222 230 235 222 230 236 222 231 237 222 232 238 222 232 239 222 233 240 222 234 241 222 234 242 222 235 243 222 236 244 222 236 245 222 237 246 222 238 247 222 238 248 222 239 249 222 240 250 222 240 251 222 241 252 222 242 253 222 242 254 222 243 255 222 244
0 224 74 1 224 75 2 224 76 3 224 76 4 224 77 5 224 78 6 224 78 7 224 79 8 224 80 9 224 80 10 224 81 11 224 82 12 224 82 13 224 83 14 224 84 15 224 84 16 224 85 17 224 86 18 224 86 19 224 87 20 224 88 21 224 88 22 224 89 23 224 90 24 224 90 25 224 91 26 224 92 27 224 92 28 224 93 29 224 94 30 224 94 31 224 95 32 224 96 33 224 96 34 224 97 35 224 98 36 224 98 37 224 99 38 224 100 39 224 100 40 224 101 41 224 102 42 224 102 43 224 103 44 224 104 45 224 104 46 224 105 47 224 106 48 224 106 49 224 107 50 224 108 51 224 108 52 224 109 53 224 110 54 224 110 55 224 111 56 224 112 57 224 112 58 224 113 59 224 114 60 224 114 61 224 115 62 224 116 63 224 116 64 224 117 65 224 118 66 224 118 67 224 119 68 224 120 69 224 120 70 224 121 71 224 122 72 224 122 73 224 123 74 224 124 75 224 124 76 224 125 77 224 126 78 224 126 79 224 127 80 224 128 81 224 128 82 224 129 83 224 130 84 224 130 85 224 131 86 224 132 87 224 132 88 224 133 89 224 134 90 224 134 91 224 135 92 224 136 93 224 136 94 224 137 95 224 138 96 224 138 97 224 139 98 224 140 99 224 140 100 224 141 101 224 142 102 224 142 103 224 143 104 224 144 105 224 144 106 224 145 107 224 146 108 224 146 109 224 147 110 224 148 111 224 148 112 224 149 113 224 150 114 224 150 115 224 151 116 224 152 117 224 152 118 224 153 119 224 154 120 224 154 121 224 155 122 224 156 123 224 156 124 224 157 125 224 158 126 224 158 127 224 159 128 224 160 129 224 160 130 224 161 131 224 162 132 224 162 133 224 163 134 224 164 135 224 164 136 224 165 137 224 166 138 224 166 139 224 167 140 224 168 141 224 168 142 224 169 143 224 170 144 224 170 145 224 171 146 224 172 147 224 172 148 224 173 149 224 174 150 224 174 151 224 175 152 224 176 153 224 176 154 224 177 155 224 178 156 224 178 157 224 179 158 224 180 159 224 180 160 224 181 161 224 182 162 224 182 163 224 183 164 224 184 165 224 184 166 224 185 167 224 186 168 224 186 169 224 187 170 224 188 171 224 188 172 224 189 173 224 190 174 224 190 175 224 191 176 224 192 177 224 192 178 224 193 179 224 194 180 224 194 181 224 195 182 224 196 183 224 196 184 224 197 185 224 198 186 224 198 187 224 199 188 224 200 189 224 200 190 224 201 191 224 202 192 224 202 193 224 203 194 224 204 195 224 204 196 224 205 197 224 206 198 224 206 199 224 207 200 224 208 201 224 208 202 224 209 203 224 210 204 224 210 205 224 211 206 224 212 207 224 212 208 224 213 209 224 214 210 224 214 211 224 215 212 224 216 213 224 216 214 224 217 215 224 218 216 224 218 217 224 219 218 224 220 219 224 220 220 224 221 221 224 222 222 224 222 223 224 223 224 224 224 225 224 224 226 224 225 227 224 226 228 224 226 229 224 227 230 224 228 231 224 228 232 224 229 233 224 230 234 224 230 235 224 231 236 224 232 237 224 232 238 224 233 239 224 234 240 224 234 241 224 235 242 224 236 243 224 236 244 224 237 245 224 238 246 224 238 247 224 239 248 224 240 249 224 240 250 224 241 251 224 242 252 224 242 253 224 243 254 224 244 255 224 244
0 226 75 1 226 76 2 226 76 3 226 77 4 226 78 5 226 78 6 226 79 7 226 80 8 226 80 9 226 81 10 226 82 11 226 82 12 226 83 13 226 84 14 226 84 15 226 85 16 226 86 17 226 86 18 226 87 19 226 88 20 226 88 21 226 89 22 226 90 23 226 90 24 226 91 25 226 92 26 226 92 27 226 93 28 226 94 29 226 94 30 226 95 31 226 96 32 226 96 33 226 97 34 226 98 35 226 98 36 226 99 37 226 100 38 226 100 39 226 101 40 226 102 41 226 102 42 226 103 43 226 104 44 226 104 45 226 105 46 226 106 47 226 106 48 226 107 49 226 108 50 226 108 51 226 109 52 226 110 53 226 110 54 226 111 55 226 112 56 226 112 57 226 113 58 226 114 59 226 114 60 226 115 61 226 116 62 226 116 63 226 117 64 226 118 65 226 118 66 226 119 67 226 120 68 226 120 69 226 121 70 226 122 71 226 122 72 226 123 73 226 124 74 226 124 75 226 125 76 226 126 77 226 126 78 226 127 79 226 128 80 226 128 81 226 129 82 226 130 83 226 130 84 226 131 85 226 132 86 226 132 87 226 133 88 226 134 89 226 134 90 226 135 91 226 136 92 226 136 93 226 137 94 226 138 95 226 138 96 226 139 97 226 140 98 226 140 99 226 141 100 226 142 101 226 142 102 226 143 103 226 144 104 226 144 105 226 145 106 226 146 107 226 146 108 226 147 109 226 148 110 226 148 111 226 149 112 226 150 113 226 150 114 226 151 115 226 152 116 226 152 117 226 153 118 226 154 119 226 154 120 226 155 121 226 156 122 226 156 123 226 157 124 226 158 125 226 158 126 226 159 127 226 160 128 226 160 129 226 161 130 226 162 131 226 162 132 226 163 133 226 164 134 226 164 135 226 165 136 226 166 137 226 166 138 226 167 139 226 168 140 226 168 141 226 169 142 226 170 143 226 170 144 226 171 145 226 172 146 226 172 147 226 173 148 226 174 149 226 174 150 226 175 151 226 176 152 226 176 153 226 177 154 226 178 155 226 178 156 226 179 157 226 180 158 226 180 159 226 181 160 226 182 161 226 182 162 226 183 163 226 184 164 226 184 165 226 185 166 226 186 167 226 186 168 226 187 169 226 188 170 226 188 171 226 189 172 226 190 173 226 190 174 226 191 175 226 192 176 226 192 177 226 193 178 226 194 179 226 194 180 226 195 181 226 196 182 226 196 183 226 197 184 226 198 185 226 198 186 226 199 187 226 200 188 226 200 189 226 201 190 226 202 191 226 202 192 226 203 193 226 204 194 226 204 195 226 205 196 226 206 197 226 206 198 226 207 199 226 208 200 226 208 201 226 209 202 226 210 203 226 210 204 226 211 205 226 212 206 226 212 207 226 213 208 226 214 209 226 214 210 226 215 211 226 216 212 226 216 213 226 217 214 226 218 215 226 218 216 226 219 217 226 220 218 226 220 219 226 221 220 226 222 221 226 222 222 226 223 223 226 224 224 226 224 225 226 225 226 226 226 227 226 226 228 226 227 229 226 228 230 226 228 231 226 229 232 226 230 233 226 230 234 226 231 235 226 232 236 226 232 237 226 233 238 226 234 239 226 234 240 226 235 241 226 236 242 226 236 243 226 237 244 226 238 245 226 238 246 226 239 247 226 240 248 226 240 249 226 241 250 226 242 251 226 242 252 226 243 253 226 244 254 226 244 255 226 245
0 228 76 1 228 76 2 228 77 3 228 78 4 228 78 5 228 79 6 228 80 7 228 80 8 228 81 9 228 82 10 228 82 11 228 83 12 228 84 13 228 84 14 228 85 15 228 86 16 228 86 17 228 87 18 228 88 19 228 88 20 228 89 21 228 90 22 228 90 23 228 91 24 228 92 25 228 92 26 228 93 27 228 94 28 228 94 29 228 95 30 228 96 31 228 96 32 228 97 33 228 98 34 228 98 35 228 99 36 228 100 37 228 100 38 228 101 39 228 102 40 228 102 41 228 103 42 228 104 43 228 104 44 228 105 45 228 106 46 228 106 47 228 107 48 228 108 49 228 108 50 228 109 51 228 110 52 228 110 53 228 111 54 228 112 55 228 112 56 228 113 57 228 114 58 228 114 59 228 115 60 228 116 61 228 116 62 228 117 63 228 118 64 228 118 65 228 119 66 228 120 67 228 120 68 228 121 69 228 122 70 228 122 71 228 123 72 228 124 73 228 124 74 228 125 75 228 126 76 228 126 77 228 127 78 228 128 79 228 128 80 228 129 81 228 130 82 228 130 83 228 131 84 228 132 85 228 132 86 228 133 87 228 134 88 228 134 89 228 135 90 228 136 91 228 136 92 228 137 93 228 138 94 228 138 95 228 139 96 228 140 97 228 140 98 228 141 99 228 142 100 228 142 101 228 143 102 228 144 103 228 144 104 228 145 105 228 146 106 228 146 107 228 147 108 228 148 109 228 148 110 228 149 111 228 150 112 228 150 113 228 151 114 228 152 115 228 152 116 228 153 117 228 154 118 228 154 119 228 155 120 228 156 121 228 156 122 228 157 123 228 158 124 228 158 125 228 159 126 228 160 127 228 160 128 228 161 129 228 162 130 228 162 131 228 163 132 228 164 133 228 164 134 228 165 135 228 166 136 228 166 137 228 167 138 228 168 139 228 168 140 228 169 141 228 170 142 228 170 143 228 171 144 228 172 145 228 172 146 228 173 147 228 174 148 228 174 149 228 175 150 228 176 151 228 176 152 228 177 153 228 178 154 228 178 155 228 179 156 228 180 157 228 180 158 228 181 159 228 182 160 228 182 161 228 183 162 228 184 163 228 184 164 228 185 165 228 186 166 228 186 167 228 187 168 228 188 169 228 188 170 228 189 171 228 190 172 228 190 173 228 191 174 228 192 175 228 192 176 228 193 177 228 194 178 228 194 179 228 195 180 228 196 181 228 196 182 228 197 183 228 198 184 228 198 185 228 199 186 228 200 187 228 200 188 228 201 189 228 202 190 228 202 191 228 203 192 228 204 193 228 204 194 228 205 195 228 206 196 228 206 197 228 207 198 228 208 199 228 208 200 228 209 201 228 210 202 228 210 203 228 211 204 228 212 205 228 212 206 228 213 207 228 214 208 228 214 209 228 215 210 228 216 211 228 216 212 228 217 213 228 218 214 228 218 215 228 219 216 228 220 217 228 220 218 228 221 219 228 222 220 228 222 221 228 223 222 228 224 223 228 224 224 228 225 225 228 226 226 228 226 227 228 227 228 228 228 229 228 228 230 228 229 231 228 230 232 228 230 233 228 231 234 228 232 235 228 232 236 228 233 237 228 234 238 228 234 239 228 235 240 228 236 241 228 236 242 228 237 243 228 238 244 228 238 245 228 239 246 228 240 247 228 240 248 228 241 249 228 242 250 228 242 251 228 243 252 228 244 253 228 244 254 228 245 255 228 246
0 230 76 1 230 77 2 230 78 3 230 78 4 230 79 5 230 80 6 230 80 7 230 81 8 230 82 9 230 82 10 230 83 11 230 84 12 230 84 13 230 85 14 230 86 15 230 86 16 230 87 17 230 88 18 230 88 19 230 89 20 230 90 21 230 90 22 230 91 23 230 92 24 230 92 25 230 93 26 230 94 27 230 94 28 230 95 29 230 96 30 230 96 31 230 97 32 230 98 33 230 98 34 230 99 35 230 100 36 230 100 37 230 101 38 230 102 39 230 102 40 230 103 41 230 104 42 230 104 43 230 105 44 230 106 45 230 106 46 230 107 47 230 108 48 230 108 49 230 109 50 230 110 51 230 110 52 230 111 53 230 112 54 230 112 55 230 113 56 230 114 57 230 114 58 230 115 59 230 116 60 230 116 61 230 117 62 230 118 63 230 118 64 230 119 65 230 120 66 230 120 67 230 121 68 230 122 69 230 122 70 230 123 71 230 124 72 230 124 73 230 125 74 230 126 75 230 126 76 230 127 77 230 128 78 230 128 79 230 129 80 230 130 81 230 130 82 230 131 83 230 132 84 230 132 85 230 133 86 230 134 87 230 134 88 230 135 89 230 136 90 230 136 91 230 137 92 230 138 93 230 138 94 230 139 95 230 140 96 230 140 97 230 141 98 230 142 99 230 142 100 230 143 101 230 144 102 230 144 103 230 145 104 230 146 105 230 146 106 230 147 107 230 148 108 230 148 109 230 149 110 230 150 111 230 150 112 230 151 113 230 152 114 230 152 115 230 153 116 230 154 117 230 154 118 230 155 119 230 156 120 230 156 121 230 157 122 230 158 123 230 158 124 230 159 125 230 160 126 230 160 127 230 161 128 230 162 129 230 162 130 230 163 131 230 164 132 230 164 133 230 165 134 230 166 135 230 166 136 230 167 137 230 168 138 230 168 139 230 169 140 230 170 141 230 170 142 230 171 143 230 172 144 230 172 145 230 173 146 230 174 147 230 174 148 230 175 149 230 176 150 230 176 151 230 177 152 230 178 153 230 178 154 230 179 155 230 180 156 230 180 157 230 181 158 230 182 159 230 182 160 230 183 161 230 184 162 230 184 163 230 185 164 230 186 165 230 186 166 230 187 167 230 188 168 230 188 169 230 189 170 230 190 171 230 190 172 230 191 173 230 192 174 230 192 175 230 193 176 230 194 177 230 194 178 230 195 179 230 196 180 230 196 181 230 197 182 230 198 183 230 198 184 230 199 185 230 200 186 230 200 187 230 201 188 230 202 189 230 202 190 230 203 191 230 204 192 230 204 193 230 205 194 230 206 195 230 206 196 230 207 197 230 208 198 230 208 199 230 209 200 230 210 201 230 210 202 230 211 203 230 212 204 230 212 205 230 213 206 230 214 207 230 214 208 230 215 209 230 216 210 230 216 211 230 217 212 230 218 213 230 218 214 230 219 215 230 220 216 230 220 217 230 221 218 230 222 219 230 222 220 230 223 221 230 224 222 230 224 223 230 225 224 230 226 225 230 226 226 230 227 227 230 228 228 230 228 229 230 229 230 230 230 231 230 230 232 230 231 233 230 232 234 230 232 235 230 233 236 230 234 237 230 234 238 230 235 239 230 236 240 230 236 241 230 237 242 230 238 243 230 238 244 230 239 245 230 240 246 230 240 247 230 241 248 230 242 249 230 242 250 230 243 251 230 244 252 230 244 253 230 245 254 230 246 255 230 246
0 232 77 1 232 78 2 232 78 3 232 79 4 232 80 5 232 80 6 232 81 7 232 82 8 232 82 9 232 83 10 232 84 11 232 84 12 232 85 13 232 86 14 232 86 15 232 87 16 232 88 17 232 88 18 232 89 19 232 90 20 232 90 21 232 91 22 232 92 23 232 92 24 232 93 25 232 94 26 232 94 27 232 95 28 232 96 29 232 96 30 232 97 31 232 98 32 232 98 33 232 99 34 232 100 35 232 100 36 232 101 37 232 102 38 232 102 39 232 103 40 232 104 41 232 104 42 232 105 43 232 106 44 232 106 45 232 107 46 232 108 47 232 108 48 232 109 49 232 110 50 232 110 51 232 111 52 232 112 53 232 112 54 232 113 55 232 114 56 232 114 57 232 115 58 232 116 59 232 116 60 232 117 61 232 118 62 232 118 63 232 119 64 232 120 65 232 120 66 232 121 67 232 122 68 232 122 69 232 123 70 232 124 71 232 124 72 232 125 73 232 126 74 232 126 75 232 127 76 232 128 77 232 128 78 232 129 79 232 130 80 232 130 81 232 131 82 232 132 83 232 132 84 232 133 85 232 134 86 232 134 87 232 135 88 232 136 89 232 136 90 232 137 91 232 138 92 232 138 93 232 139 94 232 140 95 232 140 96 232 141 97 232 142 98 232 142 99 232 143 100 232 144 101 232 144 102 232 145 103 232 146 104 232 146 105 232 147 106 232 148 107 232 148 108 232 149 109 232 150 110 232 150 111 232 151 112 232 152 113 232 152 114 232 153 115 232 154 116 232 154 117 232 155 118 232 156 119 232 156 120 232 157 121 232 158 122 232 158 123 232 159 124 232 160 125 232 160 126 232 161 127 232 162 128 232 162 129 232 163 130 232 164 131 232 164 132 232 165 133 232 166 134 232 166 135 232 167 136 232 168 137 232 168 138 232 169 139 232 170 140 232 170 141 232 171 142 232 172 143 232 172 144 232 173 145 232 174 146 232 174 147 232 175 148 232 176 149 232 176 150 232 177 151 232 178 152 232 178 153 232 179 154 232 180 155 232 180 156 232 181 157 232 182 158 232 182 159 232 183 160 232 184 161 232 184 162 232 185 163 232 186 164 232 186 165 232 187 166 232 188 167 232 188 168 232 189 169 232 190 170 232 190 171 232 191 172 232 192 173 232 192 174 232 193 175 232 194 176 232 194 177 232 195 178 232 196 179 232 196 180 232 197 181 232 198 182 232 198 183 232 199 184 232 200 185 232 200 186 232 201 187 232 202 188 232 202 189 232 203 190 232 204 191 232 204 192 232 205 193 232 206 194 232 206 195 232 207 196 232 208 197 232 208 198 232 209 199 232 210 200 232 210 201 232 211 202 232 212 203 232 212 204 232 213 205 232 214 206 232 214 207 232 215 208 232 216 209 232 216 210 232 217 211 232 218 212 232 218 213 232 219 214 232 220 215 232 220 216 232 221 217 232 222 218 232 222 219 232 223 220 232 224 221 232 224 222 232 225 223 232 226 224 232 226 225 232 227 226 232 228 227 232 228 228 232 229 229 232 230 230 232 230 231 232 231 232 232 232 233 232 232 234 232 233 235 232 234 236 232 234 237 232 235 238 232 236 239 232 236 240 232 237 241 232 238 242 232 238 243 232 239 244 232 240 245 232 240 246 232 241 247 232 242 248 232 242 249 232 243 250 232 244 251 232 244 252 232 245 253 232 246 254 232 246 255 232 247
0 234 78 1 234 78 2 234 79 3 234 80 4 234 80 5 234 81 6 234 82 7 234 82 8 234 83 9 234 84 10 234 84 11 234 85 12 234 86 13 234 86 14 234 87 15 234 88 16 234 88 17 234 89 18 234 90 19 234 90 20 234 91 21 234 92 22 234 92 23 234 93 24 234 94 25 234 94 26 234 95 27 234 96 28 234 96 29 234 97 30 234 98 31 234 98 32 234 99 33 234 100 34 234 100 35 234 101 36 234 102 37 234 102 38 234 103 39 234 104 40 234 104 41 234 105 42 234 106 43 234 106 44 234 107 45 234 108 46 234 108 47 234 109 48 234 110 49 234 110 50 234 111 51 234 112 52 234 112 53 234 113 54 234 114 55 234 114 56 234 115 57 234 116 58 234 116 59 234 117 60 234 118 61 234 118 62 234 119 63 234 120 64 234 120 65 234 121 66 234 122 67 234 122 68 234 123 69 234 124 70 234 124 71 234 125 72 234 126 73 234 126 74 234 127 75 234 128 76 234 128 77 234 129 78 234 130 79 234 130 80 234 131 81 234 132 82 234 132 83 234 133 84 234 134 85 234 134 86 234 135 87 234 136 88 234 136 89 234 137 90 234 138 91 234 138 92 234 139 93 234 140 94 234 140 95 234 141 96 234 142 97 234 142 98 234 143 99 234 144 100 234 144 101 234 145 102 234 146 103 234 146 104 234 147 105 234 148 106 234 148 107 234 149 108 234 150 109 234 150 110 234 151 111 234 152 112 234 152 113 234 153 114 234 154 115 234 154 116 234 155 117 234 156 118 234 156 119 234 157 120 234 158 121 234 158 122 234 159 123 234 160 124 234 160 125 234 161 126 234 162 127 234 162 128 234 163 129 234 164 130 234 164 131 234 165 132 234 166 133 234 166 134 234 167 135 234 168 136 234 168 137 234 169 138 234 170 139 234 170 140 234 171 141 234 172 142 234 172 143 234 173 144 234 174 145 234 174 146 234 175 147 234 176 148 234 176 149 234 177 150 234 178 151 234 178 152 234 179 153 234 180 154 234 180 155 234 181 156 234 182 157 234 182 158 234 183 159 234 184 160 234 184 161 234 185 162 234 186 163 234 186 164 234 187 165 234 188 166 234 188 167 234 189 168 234 190 169 234 190 170 234 191 171 234 192 172 234 192 173 234 193 174 234 194 175 234 194 176 234 195 177 234 196 178 234 196 179 234 197 180 234 198 181 234 198 182 234 199 183 234 200 184 234 200 185 234 201 186 234 202 187 234 202 188 234 203 189 234 204 190 234 204 191 234 205 192 234 206 193 234 206 194 234 207 195 234 208 196 234 208 197 234 209 198 234 210 199 234 210 200 234 211 201 234 212 202 234 212 203 234 213 204 234 214 205 234 214 206 234 215 207 234 216 208 234 216 209 234 217 210 234 218 211 234 218 212 234 219 213 234 220 214 234 220 215 234 221 216 234 222 217 234 222 218 234 223 219 234 224 220 234 224 221 234 225 222 234 226 223 234 226 224 234 227 225 234 228 226 234 228 227 234 229 228 234 230 229 234 230 230 234 231 231 234 232 232 234 232 233 234 233 234 234 234 235 234 234 236 234 235 237 234 236 238 234 236 239 234 237 240 234 238 241 234 238 242 234 239 243 234 240 244 234 240 245 234 241 246 234 242 247 234 242 248 234 243 249 234 244 250 234 244 251 234 245 252 234 246 253 234 246 254 234 247 255 234 248
0 236 78 1 236 79 2 236 80 3 236 80 4 236 81 5 236 82 6 236 82 7 236 83 8 236 84 9 236 84 10 236 85 11 236 86 12 236 86 13 236 87 14 236 88 15 236 88 16 236 89 17 236 90 18 236 90 19 236 91 20 236 92 21 236 92 22 236 93 23 236 94 24 236 94 25 236 95 26 236 96 27 236 96 28 236 97 29 236 98 30 236 98 31 236 99 32 236 100 33 236 100 34 236 101 35 236 102 36 236 102 37 236 103 38 236 104 39 236 104 40 236 105 41 236 106 42 236 106 43 236 107 44 236 108 45 236 108 46 236 109 47 236 110 48 236 110 49 236 111 50 236 112 51 236 112 52 236 113 53 236 114 54 236 114 55 236 115 56 236 116 57 236 116 58 236 117 59 236 118 60 236 118 61 236 119 62 236 120 63 236 120 64 236 121 65 236 122 66 236 122 67 236 123 68 236 124 69 236 124 70 236 125 71 236 126 72 236 126 73 236 127 74 236 128 75 236 128 76 236 129 77 236 130 78 236 130 79 236 131 80 236 132 81 236 132 82 236 133 83 236 134 84 236 134 85 236 135 86 236 136 87 236 136 88 236 137 89 236 138 90 236 138 91 236 139 92 236 140 93 236 140 94 236 141 95 236 142 96 236 142 97 236 143 98 236 144 99 236 144 100 236 145 101 236 146 102 236 146 103 236 147 104 236 148 105 236 148 106 236 149 107 236 150 108 236 150 109 236 151 110 236 152 111 236 152 112 236 153 113 236 154 114 236 154 115 236 155 116 236 156 117 236 156 118 236 157 119 236 158 120 236 158 121 236 159 122 236 160 123 236 160 124 236 161 125 236 162 126 236 162 127 236 163 128 236 164 129 236 164 130 236 165 131 236 166 132 236 166 133 236 167 134 236 168 135 236 168 136 236 169 137 236 170 138 236 170 139 236 171 140 236 172 141 236 172 142 236 173 143 236 174 144 236 174 145 236 175 146 236 176 147 236 176 148 236 177 149 236 178 150 236 178 151 236 179 152 236 180 153 236 180 154 236 181 155 236 182 156 236 182 157 236 183 158 236 184 159 236 184 160 236 185 161 236 186 162 236 186 163 236 187 164 236 188 165 236 188 166 236 189 167 236 190 168 236 190 169 236 191 170 236 192 171 236 192 172 236 193 173 236 194 174 236 194 175 236 195 176 236 196 177 236 196 178 236 197 179 236 198 180 236 198 181 236 199 182 236 200 183 236 200 184 236 201 185 236 202 186 236 202 187 236 203 188 236 204 189 236 204 190 236 205 191 236 206 192 236 206 193 236 207 194 236 208 195 236 208 196 236 209 197 236 210 198 236 210 199 236 211 200 236 212 201 236 212 202 236 213 203 236 214 204 236 214 205 236 215 206 236 216 207 236 216 208 236 217 209 236 218 210 236 218 211 236 219 212 236 220 213 236 220 214 236 221 215 236 222 216 236 222 217 236 223 218 236 224 219 236 224 220 236 225 221 236 226 222 236 226 223 236 227 224 236 228 225 236 228 226 236 229 227 236 230 228 236 230 229 236 231 230 236 232 231 236 232 232 236 233 233 236 234 234 236 234 235 236 235 236 236 236 237 236 236 238 236 237 239 236 238 240 236 238 241 236 239 242 236 240 243 236 240 244 236 241 245 236 242 246 236 242 247 236 243 248 236 244 249 236 244 250 236 245 251 236 246 252 236 246 253 236 247 254 236 248 255 236 248
0 238 79 1 238 80 2 238 80 3 238 81 4 238 82 5 238 82 6 238 83 7 238 84 8 238 84 9 238 85 10 238 86 11 238 86 12 238 87 13 238 88 14 238 88 15 238 89 16 238 90 17 238 90 18 238 91 19 238 92 20 238 92 21 238 93 22 238 94 23 238 94 24 238 95 25 238 96 26 238 96 27 238 97 28 238 98 29 238 98 30 238 99 31 238 100 32 238 100 33 238 101 34 238 102 35 238 102 36 238 103 37 238 104 38 238 104 39 238 105 40 238 106 41 238 106 42 238 107 43 238 108 44 238 108 45 238 109 46 238 110 47 238 110 48 238 111 49 238 112 50 238 112 51 238 113 52 238 114 53 238 114 54 238 115 55 238 116 56 238 116 57 238 117 58 238 118 59 238 118 60 238 119 61 238 120 62 238 120 63 238 121 64 238 122 65 238 122 66 238 123 67 238 124 68 238 124 69 238 125 70 238 126 71 238 126 72 238 127 73 238 128 74 238 128 75 238 129 76 238 130 77 238 130 78 238 131 79 238 132 80 238 132 81 238 133 82 238 134 83 238 134 84 238 135 85 238 136 86 238 136 87 238 137 88 238 138 89 238 138 90 238 139 91 238 140 92 238 140 93 238 141 94 238 142 95 238 142 96 238 143 97 238 144 98 238 144 99 238 145 100 238 146 101 238 146 102 238 147 103 238 148 104 238 148 105 238 149 106 238 150 107 238 150 108 238 151 109 238 152 110 238 152 111 238 153 112 238 154 113 238 154 114 238 155 115 238 156 116 238 156 117 238 157 118 238 158 119 238 158 120 238 159 121 238 160 122 238 160 123 238 161 124 238 162 125 238 162 126 238 163 127 238 164 128 238 164 129 238 165 130 238 166 131 238 166 132 238 167 133 238 168 134 238 168 135 238 169 136 238 170 137 238 170 138 238 171 139 238 172 140 238 172 141 238 173 142 238 174 143 238 174 144 238 175 145 238 176 146 238 176 147 238 177 148 238 178 149 238 178 150 238 179 151 238 180 152 238 180 153 238 181 154 238 182 155 238 182 156 238 183 157 238 184 158 238 184 159 238 185 160 238 186 161 238 186 162 238 187 163 238 188 164 238 188 165 238 189 166 238 190 167 238 190 168 238 191 169 238 192 170 238 192 171 238 193 172 238 194 173 238 194 174 238 195 175 238 196 176 238 196 177 238 197 178 238 198 179 238 198 180 238 199 181 238 200 182 238 200 183 238 201 184 238 202 185 238 202 186 238 203 187 238 204 188 238 204 189 238 205 190 238 206 191 238 206 192 238 207 193 238 208 194 238 208 195 238 209 196 238 210 197 238 210 198 238 211 199 238 212 200 238 212 201 238 213 202 238 214 203 238 214 204 238 215 205 238 216 206 238 216 207 238 217 208 238 218 209 238 218 210 238 219 211 238 220 212 238 220 213 238 221 214 238 222 215 238 222 216 238 223 217 238 224 218 238 224 219 238 225 220 238 226 221 238 226 222 238 227 223 238 228 224 238 228 225 238 229 226 238 230 227 238 230 228 238 231 229 238 232 230 238 232 231 238 233 232 238 234 233 238 234 234 238 235 235 238 236 236 238 236 237 238 237 238 238 238 239 238 238 240 238 239 241 238 240 242 238 240 243 238 241 244 238 242 245 238 242 246 238 243 247 238 244 248 238 244 249 238 245 250 238 246 251 238 246 252 238 247 253 238 248 254 238 248 255 238 249
0 240 80 1 240 80 2 240 81 3 240 82 4 240 82 5 240 83 6 240 84 7 240 84 8 240 85 9 240 86 10 240 86 11 240 87 12 240 88 13 240 88 14 240 89 15 240 90 16 240 90 17 240 91 18 240 92 19 240 92 20 240 93 21 240 94 22 240 94 23 240 95 24 240 96 25 240 96 26 240 97 27 240 98 28 240 98 29 240 99 30 240 100 31 240 100 32 240 101 33 240 102 34 240 102 35 240 103 36 240 104 37 240 104 38 240 105 39 240 106 40 240 106 41 240 107 42 240 108 43 240 108 44 240 109 45 240 110 46 240 110 47 240 111 48 240 112 49 240 112 50 240 113 51 240 114 52 240 114 53 240 115 54 240 116 55 240 116 56 240 117 57 240 118 58 240 118 59 240 119 60 240 120 61 240 120 62 240 121 63 240 122 64 240 122 65 240 123 66 240 124 67 240 124 68 240 125 69 240 126 70 240 126 71 240 127 72 240 128 73 240 128 74 240 129 75 240 130 76 240 130 77 240 131 78 240 132 79 240 132 80 240 133 81 240 134 82 240 134 83 240 135 84 240 136 85 240 136 86 240 137 87 240 138 88 240 138 89 240 139 90 240 140 91 240 140 92 240 141 93 240 142 94 240 142 95 240 143 96 240 144 97 240 144 98 240 145 99 240 146 100 240 146 101 240 147 102 240 148 103 240 148 104 240 149 105 240 150 106 240 150 107 240 151 108 240 152 109 240 152 110 240 153 111 240 154 112 240 154 113 240 155 114 240 156 115 240 156 116 240 157 117 240 158 118 240 158 119 240 159 120 240 160 121 240 160 122 240 161 123 240 162 124 240 162 125 240 163 126 240 164 127 240 164 128 240 165 129 240 166 130 240 166 131 240 167 132 240 168 133 240 168 134 240 169 135 240 170 136 240 170 137 240 171 138 240 172 139 240 172 140 240 173 141 240 174 142 240 174 143 240 175 144 240 176 145 240 176 146 240 177 147 240 178 148 240 178 149 240 179 150 240 180 151 240 180 152 240 181 153 240 182 154 240 182 155 240 183 156 240 184 157 240 184 158 240 185 159 240 186 160 240 186 161 240 187 162 240 188 163 240 188 164 240 189 165 240 190 166 240 190 167 240 191 168 240 192 169 240 192 170 240 193 171 240 194 172 240 194 173 240 195 174 240 196 175 240 196 176 240 197 177 240 198 178 240 198 179 240 199 180 240 200 181 240 200 182 240 201 183 240 202 184 240 202 185 240 203 186 240 204 187 240 204 188 240 205 189 240 206 190 240 206 191 240 207 192 240 208 193 240 208 194 240 209 195 240 210 196 240 210 197 240 211 198 240 212 199 240 212 200 240 213 201 240 214 202 240 214 203 240 215 204 240 216 205 240 216 206 240 217 207 240 218 208 240 218 209 240 219 210 240 220 211 240 220 212 240 221 213 240 222 214 240 222 215 240 223 216 240 224 217 240 224 218 240 225 219 240 226 220 240 226 221 240 227 222 240 228 223 240 228 224 240 229 225 240 230 226 240 230 227 240 231 228 240 232 229 240 232 230 240 233 231 240 234 232 240 234 233 240 235 234 240 236 235 240 236 236 240 237 237 240 238 238 240 238 239 240 239 240 240 240 241 240 240 242 240 241 243 240 242 244 240 242 245 240 243 246 240 244 247 240 244 248 240 245 249 240 246 250 240 246 251 240 247 252 240 248 253 240 248 254 240 249 255 240 250
0 242 80 1 242 81 2 242 82 3 242 82 4 242 83 5 242 84 6 242 84 7 242 85 8 242 86 9 242 86 10 242 87 11 242 88 12 242 88 13 242 89 14 242 90 15 242 90 16 242 91 17 242 92 18 242 92 19 242 93 20 242 94 21 242 94 22 242 95 23 242 96 24 242 96 25 242 97 26 242 98 27 242 98 28 242 99 29 242 100 30 242 100 31 242 101 32 242 102 33 242 102 34 242 103 35 242 104 36 242 104 37 242 105 38 242 106 39 242 106 40 242 107 41 242 108 42 242 108 43 242 109 44 242 110 45 242 110 46 242 111 47 242 112 48 242 112 49 242 113 50 242 114 51 242 114 52 242 115 53 242 116 54 242 116 55 242 117 56 242 118 57 242 118 58 242 119 59 242 120 60 242 120 61 242 121 62 242 122 63 242 122 64 242 123 65 242 124 66 242 124 67 242 125 68 242 126 69 242 126 70 242 127 71 242 128 72 242 128 73 242 129 74 242 130 75 242 130 76 242 131 77 242 132 78 242 132 79 242 133 80 242 134 81 242 134 82 242 135 83 242 136 84 242 136 85 242 137 86 242 138 87 242 138 88 242 139 89 242 140 90 242 140 91 242 141 92 242 142 93 242 142 94 242 143 95 242 144 96 242 144 97 242 145 98 242 146 99 242 146 100 242 147 101 242 148 102 242 148 103 242 149 104 242 150 105 242 150 106 242 151 107 242 152 108 242 152 109 242 153 110 242 154 111 242 154 112 242 155 113 242 156 114 242 156 115 242 157 116 242 158 117 242 158 118 242 159 119 242 160 120 242 160 121 242 161 122 242 162 123 242 162 124 242 163 125 242 164 126 242 164 127 242 165 128 242 166 129 242 166 130 242 167 131 242 168 132 242 168 133 242 169 134 242 170 135 242 170 136 242 171 137 242 172 138 242 172 139 242 173 140 242 174 141 242 174 142 242 175 143 242 176 144 242 176 145 242 177 146 242 178 147 242 178 148 242 179 149 242 180 150 242 180 151 242 181 152 242 182 153 242 182 154 242 183 155 242 184 156 242 184 157 242 185 158 242 186 159 242 186 160 242 187 161 242 188 162 242 188 163 242 189 164 242 190 165 242 190 166 242 191 167 242 192 168 242 192 169 242 193 170 242 194 171 242 194 172 242 195 173 242 196 174 242 196 175 242 197 176 242 198 177 242 198 178 242 199 179 242 200 180 242 200 181 242 201 182 242 202 183 242 202 184 242 203 185 242 204 186 242 204 187 242 205 188 242 206 189 242 206 190 242 207 191 242 208 192 242 208 193 242 209 194 242 210 195 242 210 196 242 211 197 242 212 198 242 212 199 242 213 200 242 214 201 242 214 202 242 215 203 242 216 204 242 216 205 242 217 206 242 218 207 242 218 208 242 219 209 242 220 210 242 220 211 242 221 212 242 222 213 242 222 214 242 223 215 242 224 216 242 224 217 242 225 218 242 226 219 242 226 220 242 227 221 242 228 222 242 228 223 242 229 224 242 230 225 242 230 226 242 231 227 242 232 228 242 232 229 242 233 230 242 234 231 242 234 232 242 235 233 242 236 234 242 236 235 242 237 236 242 238 237 242 238 238 242 239 239 242 240 240 242 240 241 242 241 242 242 242 243 242 242 244 242 243 245 242 244 246 242 244 247 242 245 248 242 246 249 242 246 250 242 247 251 242 248 252 242 248 253 242 249 254 242 250 255 242 250
0 244 81 1 244 82 2 244 82 3 244 83 4 244 84 5 244 84 6 244 85 7 244 86 8 244 86 9 244 87 10 244 88 11 244 88 12 244 89 13 244 90 14 244 90 15 244 91 16 244 92 17 244 92 18 244 93 19 244 94 20 244 94 21 244 95 22 244 96 23 244 96 24 244 97 25 244 98 26 244 98 27 244 99 28 244 100 29 244 100 30 244 101 31 244 102 32 244 102 33 244 103 34 244 104 35 244 104 36 244 105 37 244 106 38 244 106 39 244 107 40 244 108 41 244 108 42 244 109 43 244 110 44 244 110 45 244 111 46 244 112 47 244 112 48 244 113 49 244 114 50 244 114 51 244 115 52 244 116 53 244 116 54 244 117 55 244 118 56 244 118 57 244 119 58 244 120 59 244 120 60 244 121 61 244 122 62 244 122 63 244 123 64 244 124 65 244 124 66 244 125 67 244 126 68 244 126 69 244 127 70 244 128 71 244 128 72 244 129 73 244 130 74 244 130 75 244 131 76 244 132 77 244 132 78 244 133 79 244 134 80 244 134 81 244 135 82 244 136 83 244 136 84 244 137 85 244 138 86 244 138 87 244 139 88 244 140 89 244 140 90 244 141 91 244 142 92 244 142 93 244 143 94 244 144 95 244 144 96 244 145 97 244 146 98 244 146 99 244 147 100 244 148 101 244 148 102 244 149 103 244 150 104 244 150 105 244 151 106 244 152 107 244 152 108 244 153 109 244 154 110 244 154 111 244 155 112 244 156 113 244 156 114 244 157 115 244 158 116 244 158 117 244 159 118 244 160 119 244 160 120 244 161 121 244 162 122 244 162 123 244 163 124 244 164 125 244 164 126 244 165 127 244 166 128 244 166 129 244 167 130 244 168 131 244 168 132 244 169 133 244 170 134 244 170 135 244 171 136 244 172 137 244 172 138 244 173 139 244 174 140 244 174 141 244 175 142 244 176 143 244 176 144 244 177 145 244 178 146 244 178 147 244 179 148 244 180 149 244 180 150 244 181 151 244 182 152 244 182 153 244 183 154 244 184 155 244 184 156 244 185 157 244 186 158 244 186 159 244 187 160 244 188 161 244 188 162 244 189 163 244 190 164 244 190 165 244 191 166 244 192 167 244 192 168 244 193 169 244 194 170 244 194 171 244 195 172 244 196 173 244 196 174 244 197 175 244 198 176 244 198 177 244 199 178 244 200 179 244 200 180 244 201 181 244 202 182 244 202 183 244 203 184 244 204 185 244 204 186 244 205 187 244 206 188 244 206 189 244 207 190 244 208 191 244 208 192 244 209 193 244 210 194 244 210 195 244 211 196 244 212 197 244 212 198 244 213 199 244 214 200 244 214 201 244 215 202 244 216 203 244 216 204 244 217 205 244 218 206 244 218 207 244 219 208 244 220 209 244 220 210 244 221 211 244 222 212 244 222 213 244 223 214 244 224 215 244 224 216 244 225 217 244 226 218 244 226 219 244 227 220 244 228 221 244 228 222 244 229 223 244 230 224 244 230 225 244 231 226 244 232 227 244 232 228 244 233 229 244 234 230 244 234 231 244 235 232 244 236 233 244 236 234 244 237 235 244 238 236 244 238 237 244 239 238 244 240 239 244 240 240 244 241 241 244 242 242 244 242 243 244 243 244 244 244 245 244 244 246 244 245 247 244 246 248 244 246 249 244 247 250 244 248 251 244 248 252 244 249 253 244 250 254 244 250 255 244 251
0 246 82 1 246 82 2 246 83 3 246 84 4 246 84 5 246 85 6 246 86 7 246 86 8 246 87 9 246 88 10 246 88 11 246 89 12 246 90 13 246 90 14 246 91 15 246 92 16 246 92 17 246 93 18 246 94 19 246 94 20 246 95 21 246 96 22 246 96 23 246 97 24 246 98 25 246 98 26 246 99 27 246 100 28 246 100 29 246 101 30 246 102 31 246 102 32 246 103 33 246 104 34 246 104 35 246 105 36 246 106 37 246 106 38 246 107 39 246 108 40 246 108 41 246 109 42 246 110 43 246 110 44 246 111 45 246 112 46 246 112 47 246 113 48 246 114 49 246 114 50 246 115 51 246 116 52 246 116 53 246 117 54 246 118 55 246 118 56 246 119 57 246 120 58 246 120 59 246 121 60 246 122 61 246 122 62 246 123 63 246 124 64 246 124 65 246 125 66 246 126 67 246 126 68 246 127 69 246 128 70 246 128 71 246 129 72 246 130 73 246 130 74 246 131 75 246 132 76 246 132 77 246 133 78 246 134 79 246 134 80 246 135 81 246 136 82 246 136 83 246 137 84 246 138 85 246 138 86 246 139 87 246 140 88 246 140 89 246 141 90 246 142 91 246 142 92 246 143 93 246 144 94 246 144 95 246 145 96 246 146 97 246 146 98 246 147 99 246 148 100 246 148 101 246 149 102 246 150 103 246 150 104 246 151 105 246 152 106 246 152 107 246 153 108 246 154 109 246 154 110 246 155 111 246 156 112 246 156 113 246 157 114 246 158 115 246 158 116 246 159 117 246 160 118 246 160 119 246 161 120 246 162 121 246 162 122 246 163 123 246 164 124 246 164 125 246 165 126 246 166 127 246 166 128 246 167 129 246 168 130 246 168 131 246 169 132 246 170 133 246 170 134 246 171 135 246 172 136 246 172 137 246 173 138 246 174 139 246 174 140 246 175 141 246 176 142 246 176 143 246 177 144 246 178 145 246 178 146 246 179 147 246 180 148 246 180 149 246 181 150 246 182 151 246 182 152 246 183 153 246 184 154 246 184 155 246 185 156 246 186 157 246 186 158 246 187 159 246 188 160 246 188 161 246 189 162 246 190 163 246 190 164 246 191 165 246 192 166 246 192 167 246 193 168 246 194 169 246 194 170 246 195 171 246 196 172 246 196 173 246 197 174 246 198 175 246 198 176 246 199 177 246 200 178 246 200 179 246 201 180 246 202 181 246 202 182 246 203 183 246 204 184 246 204 185 246 205 186 246 206 187 246 206 188 246 207 189 246 208 190 246 208 191 246 209 192 246 210 193 246 210 194 246 211 195 246 212 196 246 212 197 246 213 198 246 214 199 246 214 200 246 215 201 246 216 202 246 216 203 246 217 204 246 218 205 246 218 206 246 219 207 246 220 208 246 220 209 246 221 210 246 222 211 246 222 212 246 223 213 246 224 214 246 224 215 246 225 216 246 226 217 246 226 218 246 227 219 246 228 220 246 228 221 246 229 222 246 230 223 246 230 224 246 231 225 246 232 226 246 232 227 246 233 228 246 234 229 246 234 230 246 235 231 246 236 232 246 236 233 246 237 234 246 238 235 246 238 236 246 239 237 246 240 238 246 240 239 246 241 240 246 242 241 246 242 242 246 243 243 246 244 244 246 244 245 246 245 246 246 246 247 246 246 248 246 247 249 246 248 250 246 248 251 246 249 252 246 250 253 246 250 254 246 251 255 246 252
0 248 82 1 248 83 2 248 84 3 248 84 4 248 85 5 248 86 6 248 86 7 248 87 8 248 88 9 248 88 10 248 89 11 248 90 12 248 90 13 248 91 14 248 92 15 248 92 16 248 93 17 248 94 18 248 94 19 248 95 20 248 96 21 248 96 22 248 97 23 248 98 24 248 98 25 248 99 26 248 100 27 248 100 28 248 101 29 248 102 30 248 102 31 248 103 32 248 104 33 248 104 34 248 105 35 248 106 36 248 106 37 248 107 38 248 108 39 248 108 40 248 109 41 248 110 42 248 110 43 248 111 44 248 112 45 248 112 46 248 113 47 248 114 48 248 114 49 248 115 50 248 116 51 248 116 52 248 117 53 248 118 54 248 118 55 248 119 56 248 120 57 248 120 58 248 121 59 248 122 60 248 122 61 248 123 62 248 124 63 248 124 64 248 125 65 248 126 66 248 126 67 248 127 68 248 128 69 248 128 70 248 129 71 248 130 72 248 130 73 248 131 74 248 132 75 248 132 76 248 133 77 248 134 78 248 134 79 248 135 80 248 136 81 248 136 82 248 137 83 248 138 84 248 138 85 248 139 86 248 140 87 248 140 88 248 141 89 248 142 90 248 142 91 248 143 92 248 144 93 248 144 94 248 145 95 248 146 96 248 146 97 248 147 98 248 148 99 248 148 100 248 149 101 248 150 102 248 150 103 248 151 104 248 152 105 248 152 106 248 153 107 248 154 108 248 154 109 248 155 110 248 156 111 248 156 112 248 157 113 248 158 114 248 158 115 248 159 116 248 160 117 248 160 118 248 161 119 248 162 120 248 162 121 248 163 122 248 164 123 248 164 124 248 165 125 248 166 126 248 166 127 248 167 128 248 168 129 248 168 130 248 169 131 248 170 132 248 170 133 248 171 134 248 172 135 248 172 136 248 173 137 248 174 138 248 174 139 248 175 140 248 176 141 248 176 142 248 177 143 248 178 144 248 178 145 248 179 146 248 180 147 248 180 148 248 181 149 248 182 150 248 182 151 248 183 152 248 184 153 248 184 154 248 185 155 248 186 156 248 186 157 248 187 158 248 188 159 248 188 160 248 189 161 248 190 162 248 190 163 248 191 164 248 192 165 248 192 166 248 193 167 248 194 168 248 194 169 248 195 170 248 196 171 248 196 172 248 197 173 248 198 174 248 198 175 248 199 176 248 200 177 248 200 178 248 201 179 248 202 180 248 202 181 248 203 182 248 204 183 248 204 184 248 205 185 248 206 186 248 206 187 248 207 188 248 208 189 248 208 190 248 209 191 248 210 192 248 210 193 248 211 194 248 212 195 248 212 196 248 213 197 248 214 198 248 214 199 248 215 200 248 216 201 248 216 202 248 217 203 248 218 204 248 218 205 248 219 206 248 220 207 248 220 208 248 221 209 248 222 210 248 222 211 248 223 212 248 224 213 248 224 214 248 225 215 248 226 216 248 226 217 248 227 218 248 228 219 248 228 220 248 229 221 248 230 222 248 230 223 248 231 224 248 232 225 248 232 226 248 233 227 248 234 228 248 234 229 248 235 230 248 236 231 248 236 232 248 237 233 248 238 234 248 238 235 248 239 236 248 240 237 248 240 238 248 241 239 248 242 240 248 242 241 248 243 242 248 244 243 248 244 244 248 245 245 248 246 246 248 246 247 248 247 248 248 248 249 248 248 250 248 249 251 248 250 252 248 250 253 248 251 254 248 252 255 248 252
0 250 83 1 250 84 2 250 84 3 250 85 4 250 86 5 250 86 6 250 87 7 250 88 8 250 88 9 250 89 10 250 90 11 250 90 12 250 91 13 250 92 14 250 92 15 250 93 16 250 94 17 250 94 18 250 95 19 250 96 20 250 96 21 250 97 22 250 98 23 250 98 24 250 99 25 250 100 26 250 100 27 250 101 28 250 102 29 250 102 30 250 103 31 250 104 32 250 104 33 250 105 34 250 106 35 250 106 36 250 107 37 250 108 38 250 108 39 250 109 40 250 110 41 250 110 42 250 111 43 250 112 44 250 112 45 250 113 46 250 114 47 250 114 48 250 115 49 250 116 50 250 116 51 250 117 52 250 118 53 250 118 54 250 119 55 250 120 56 250 120 57 250 121 58 250 122 59 250 122 60 250 123 61 250 124 62 250 124 63 250 125 64 250 126 65 250 126 66 250 127 67 250 128 68 250 128 69 250 129 70 250 130 71 250 130 72 250 131 73 250 132 74 250 132 75 250 133 76 250 134 77 250 134 78 250 135 79 250 136 80 250 136 81 250 137 82 250 138 83 250 138 84 250 139 85 250 140 86 250 140 87 250 141 88 250 142 89 250 142 90 250 143 91 250 144 92 250 144 93 250 145 94 250 146 95 250 146 96 250 147 97 250 148 98 250 148 99 250 149 100 250 150 101 250 150 102 250 151 103 250 152 104 250 152 105 250 153 106 250 154 107 250 154 108 250 155 109 250 156 110 250 156 111 250 157 112 250 158 113 250 158 114 250 159 115 250 160 116 250 160 117 250 161 118 250 162 119 250 162 120 250 163 121 250 164 122 250 164 123 250 165 124 250 166 125 250 166 126 250 167 127 250 168 128 250 168 129 250 169 130 250 170 131 250 170 132 250 171 133 250 172 134 250 172 135 250 173 136 250 174 137 250 174 138 250 175 139 250 176 140 250 176 141 250 177 142 250 178 143 250 178 144 250 179 145 250 180 146 250 180 147 250 181 148 250 182 149 250 182 150 250 183 151 250 184 152 250 184 153 250 185 154 250 186 155 250 186 156 250 187 157 250 188 158 250 188 159 250 189 160 250 190 161 250 190 162 250 191 163 250 192 164 250 192 165 250 193 166 250 194 167 250 194 168 250 195 169 250 196 170 250 196 171 250 197 172 250 198 173 250 198 174 250 199 175 250 200 176 250 200 177 250 201 178 250 202 179 250 202 180 250 203 181 250 204 182 250 204 183 250 205 184 250 206 185 250 206 186 250 207 187 250 208 188 250 208 189 250 209 190 250 210 191 250 210 192 250 211 193 250 212 194 250 212 195 250 213 196 250 214 197 250 214 198 250 215 199 250 216 200 250 216 201 250 217 202 250 218 203 250 218 204 250 219 205 250 220 206 250 220 207 250 221 208 250 222 209 250 222 210 250 223 211 250 224 212 250 224 213 250 225 214 250 226 215 250 226 216 250 227 217 250 228 218 250 228 219 250 229 220 250 230 221 250 230 222 250 231 223 250 232 224 250 232 225 250 233 226 250 234 227 250 234 228 250 235 229 250 236 230 250 236 231 250 237 232 250 238 233 250 238 234 250 239 235 250 240 236 250 240 237 250 241 238 250 242 239 250 242 240 250 243 241 250 244 242 250 244 243 250 245 244 250 246 245 250 246 246 250 247 247 250 248 248 250 248 249 250 249 250 250 250 251 250 250 252 250 251 253 250 252 254 250 252 255 250 253
0 252 84 1 252 84 2 252 85 3 252 86 4 252 86 5 252 87 6 252 88 7 252 88 8 252 89 9 252 90 10 252 90 11 252 91 12 252 92 13 252 92 14 252 93 15 252 94 16 252 94 17 252 95 18 252 96 19 252 96 20 252 97 21 252 98 22 252 98 23 252 99 24 252 100 25 252 100 26 252 101 27 252 102 28 252 102 29 252 103 30 252 104 31 252 104 32 252 105 33 252 106 34 252 106 35 252 107 36 252 108 37 252 108 38 252 109 39 252 110 40 252 110 41 252 111 42 252 112 43 252 112 44 252 113 45 252 114 46 252 114 47 252 115 48 252 116 49 252 116 50 252 117 51 252 118 52 252 118 53 252 119 54 252 120 55 252 120 56 252 121 57 252 122 58 252 122 59 252 123 60 252 124 61 252 124 62 252 125 63 252 126 64 252 126 65 252 127 66 252 128 67 252 128 68 252 129 69 252 130 70 252 130 71 252 131 72 252 132 73 252 132 74 252 133 75 252 134 76 252 134 77 252 135 78 252 136 79 252 136 80 252 137 81 252 138 82 252 138 83 252 139 84 252 140 85 252 140 86 252 141 87 252 142 88 252 142 89 252 143 90 252 144 91 252 144 92 252 145 93 252 146 94 252 146 95 252 147 96 252 148 97 252 148 98 252 149 99 252 150 100 252 150 101 252 151 102 252 152 103 252 152 104 252 153 105 252 154 106 252 154 107 252 155 108 252 156 109 252 156 110 252 157 111 252 158 112 252 158 113 252 159 114 252 160 115 252 160 116 252 161 117 252 162 118 252 162 119 252 163 120 252 164 121 252 164 122 252 165 123 252 166 124 252 166 125 252 167 126 252 168 127 252 168 128 252 169 129 252 170 130 252 170 131 252 171 132 252 172 133 252 172 134 252 173 135 252 174 136 252 174 137 252 175 138 252 176 139 252 176 140 252 177 141 252 178 142 252 178 143 252 179 144 252 180 145 252 180 146 252 181 147 252 182 148 252 182 149 252 183 150 252 184 151 252 184 152 252 185 153 252 186 154 252 186 155 252 187 156 252 188 157 252 188 158 252 189 159 252 190 160 252 190 161 252 191 162 252 192 163 252 192 164 252 193 165 252 194 166 252 194 167 252 195 168 252 196 169 252 196 170 252 197 171 252 198 172 252 198 173 252 199 174 252 200 175 252 200 176 252 201 177 252 202 178 252 202 179 252 203 180 252 204 181 252 204 182 252 205 183 252 206 184 252 206 185 252 207 186 252 208 187 252 208 188 252 209 189 252 210 190 252 210 191 252 211 192 252 212 193 252 212 194 252 213 195 252 214 196 252 214 197 252 215 198 252 216 199 252 216 200 252 217 201 252 218 202 252 218 203 252 219 204 252 220 205 252 220 206 252 221 207 252 222 208 252 222 209 252 223 210 252 224 211 252 224 212 252 225 213 252 226 214 252 226 215 252 227 216 252 228 217 252 228 218 252 229 219 252 230 220 252 230 221 252 231 222 252 232 223 252 232 224 252 233 225 252 234 226 252 234 227 252 235 228 252 236 229 252 236 230 252 237 231 252 238 232 252 238 233 252 239 234 252 240 235 252 240 236 252 241 237 252 242 238 252 242 239 252 243 240 252 244 241 252 244 242 252 245 243 252 246 244 252 246 245 252 247 246 252 248 247 252 248 248 252 249 249 252 250 250 252 250 251 252 251 252 252 252 253 252 252 254 252 253 255 252 254
0 255 84 1 255 85 2 255 86 3 255 86 4 255 87 5 255 88 6 255 88 7 255 89 8 255 90 9 255 90 10 255 91 11 255 92 12 255 92 13 255 93 14 255 94 15 255 94 16 255 95 17 255 96 18 255 96 19 255 97 20 255 98 21 255 98 22 255 99 23 255 100 24 255 100 25 255 101 26 255 102 27 255 102 28 255 103 29 255 104 30 255 104 31 255 105 32 255 106 33 255 106 34 255 107 35 255 108 36 255 108 37 255 109 38 255 110 39 255 110 40 255 111 41 255 112 42 255 112 43 255 113 44 255 114 45 255 114 46 255 115 47 255 116 48 255 116 49 255 117 50 255 118 51 255 118 52 255 119 53 255 120 54 255 120 55 255 121 56 255 122 57 255 122 58 255 123 59 255 124 60 255 124 61 255 125 62 255 126 63 255 126 64 255 127 65 255 128 66 255 128 67 255 129 68 255 130 69 255 130 70 255 131 71 255 132 72 255 132 73 255 133 74 255 134 75 255 134 76 255 135 77 255 136 78 255 136 79 255 137 80 255 138 81 255 138 82 255 139 83 255 140 84 255 140 85 255 141 86 255 142 87 255 142 88 255 143 89 255 144 90 255 144 91 255 145 92 255 146 93 255 146 94 255 147 95 255 148 96 255 148 97 255 149 98 255 150 99 255 150 100 255 151 101 255 152 102 255 152 103 255 153 104 255 154 105 255 154 106 255 155 107 255 156 108 255 156 109 255 157 110 255 158 111 255 158 112 255 159 113 255 160 114 255 160 115 255 161 116 255 162 117 255 162 118 255 163 119 255 164 120 255 164 121 255 165 122 255 166 123 255 166 124 255 167 125 255 168 126 255 168 127 255 169 128 255 170 129 255 170 130 255 171 131 255 172 132 255 172 133 255 173 134 255 174 135 255 174 136 255 175 137 255 176 138 255 176 139 255 177 140 255 178 141 255 178 142 255 179 143 255 180 144 255 180 145 255 181 146 255 182 147 255 182 148 255 183 149 255 184 150 255 184 151 255 185 152 255 186 153 255 186 154 255 187 155 255 188 156 255 188 157 255 189 158 255 190 159 255 190 160 255 191 161 255 192 162 255 192 163 255 193 164 255 194 165 255 194 166 255 195 167 255 196 168 255 196 169 255 197 170 255 198 171 255 198 172 255 199 173 255 200 174 255 200 175 255 201 176 255 202 177 255 202 178 255 203 179 255 204 180 255 204 181 255 205 182 255 206 183 255 206 184 255 207 185 255 208 186 255 208 187 255 209 188 255 210 189 255 210 190 255 211 191 255 212 192 255 212 193 255 213 194 255 214 195 255 214 196 255 215 197 255 216 198 255 216 199 255 217 200 255 218 201 255 218 202 255 219 203 255 220 204 255 220 205 255 221 206 255 222 207 255 222 208 255 223 209 255 224 210 255 224 211 255 225 212 255 226 213 255 226 214 255 227 215 255 228 216 255 228 217 255 229 218 255 230 219 255 230 220 255 231 221 255 232 222 255 232 223 255 233 224 255 234 225 255 234 226 255 235 227 255 236 228 255 236 229 255 237 230 255 238 231 255 238 232 255 239 233 255 240 234 255 240 235 255 241 236 255 242 237 255 242 238 255 243 239 255 244 240 255 244 241 255 245 242 255 246 243 255 246 244 255 247 245 255 248 246 255 248 247 255 249 248 255 250 249 255 250 250 255 251 251 255 252 252 255 252 253 255 253 254 255 254 255 255 255
