P3
160 90
255
0 0 0 1 0 1 3 0 2 4 0 3 6 0 4 8 0 5 9 0 6 11 0 7 12 0 8 14 0 9 16 0 10 17 0 11 19 0 12 20 0 13 22 0 14 24 0 15 25 0 16 27 0 17 28 0 18 30 0 19 32 0 20 33 0 21 35 0 22 36 0 23 38 0 24 40 0 25 41 0 26 43 0 27 44 0 28 46 0 29 48 0 30 49 0 31 51 0 32 52 0 33 54 0 34 56 0 35 57 0 37 59 0 38 60 0 39 62 0 40 64 0 41 65 0 42 67 0 43 68 0 44 70 0 45 72 0 46 73 0 47 75 0 48 76 0 49 78 0 50 80 0 51 81 0 52 83 0 53 85 0 54 86 0 55 88 0 56 89 0 57 91 0 58 93 0 59 94 0 60 96 0 61 97 0 62 99 0 63 101 0 64 102 0 65 104 0 66 105 0 67 107 0 68 109 0 69 110 0 70 112 0 71 113 0 73 115 0 74 117 0 75 118 0 76 120 0 77 121 0 78 123 0 79 125 0 80 126 0 81 128 0 82 129 0 83 131 0 84 133 0 85 134 0 86 136 0 87 137 0 88 139 0 89 141 0 90 142 0 91 144 0 92 145 0 93 147 0 94 149 0 95 150 0 96 152 0 97 153 0 98 155 0 99 157 0 100 158 0 101 160 0 102 161 0 103 163 0 104 165 0 105 166 0 106 168 0 107 170 0 108 171 0 110 173 0 111 174 0 112 176 0 113 178 0 114 179 0 115 181 0 116 182 0 117 184 0 118 186 0 119 187 0 120 189 0 121 190 0 122 192 0 123 194 0 124 195 0 125 197 0 126 198 0 127 200 0 128 202 0 129 203 0 130 205 0 131 206 0 132 208 0 133 210 0 134 211 0 135 213 0 136 214 0 137 216 0 138 218 0 139 219 0 140 221 0 141 222 0 142 224 0 143 226 0 144 227 0 146 229 0 147 230 0 148 232 0 149 234 0 150 235 0 151 237 0 152 238 0 153 240 0 154 242 0 155 243 0 156 245 0 157 246 0 158 248 0 159 250 0 160 251 0 161 253 0 162 255 0 163
0 2 1 1 2 2 3 2 3 4 2 4 6 2 5 8 2 6 9 2 7 11 2 8 12 2 9 14 2 10 16 2 11 17 2 12 19 2 13 20 2 14 22 2 15 24 2 16 25 2 17 27 2 18 28 2 19 30 2 20 32 2 21 33 2 22 35 2 23 36 2 24 38 2 25 40 2 26 41 2 27 43 2 28 44 2 29 46 2 30 48 2 31 49 2 32 51 2 33 52 2 34 54 2 35 56 2 37 57 2 38 59 2 39 60 2 40 62 2 41 64 2 42 65 2 43 67 2 44 68 2 45 70 2 46 72 2 47 73 2 48 75 2 49 76 2 50 78 2 51 80 2 52 81 2 53 83 2 54 85 2 55 86 2 56 88 2 57 89 2 58 91 2 59 93 2 60 94 2 61 96 2 62 97 2 63 99 2 64 101 2 65 102 2 66 104 2 67 105 2 68 107 2 69 109 2 70 110 2 71 112 2 73 113 2 74 115 2 75 117 2 76 118 2 77 120 2 78 121 2 79 123 2 80 125 2 81 126 2 82 128 2 83 129 2 84 131 2 85 133 2 86 134 2 87 136 2 88 137 2 89 139 2 90 141 2 91 142 2 92 144 2 93 145 2 94 147 2 95 149 2 96 150 2 97 152 2 98 153 2 99 155 2 100 157 2 101 158 2 102 160 2 103 161 2 104 163 2 105 165 2 106 166 2 107 168 2 108 170 2 110 171 2 111 173 2 112 174 2 113 176 2 114 178 2 115 179 2 116 181 2 117 182 2 118 184 2 119 186 2 120 187 2 121 189 2 122 190 2 123 192 2 124 194 2 125 195 2 126 197 2 127 198 2 128 200 2 129 202 2 130 203 2 131 205 2 132 206 2 133 208 2 134 210 2 135 211 2 136 213 2 137 214 2 138 216 2 139 218 2 140 219 2 141 221 2 142 222 2 143 224 2 144 226 2 146 227 2 147 229 2 148 230 2 149 232 2 150 234 2 151 235 2 152 237 2 153 238 2 154 240 2 155 242 2 156 243 2 157 245 2 158 246 2 159 248 2 160 250 2 161 251 2 162 253 2 163 255 2 164
0 5 2 1 5 3 3 5 4 4 5 5 6 5 6 8 5 7 9 5 8 11 5 9 12 5 10 14 5 11 16 5 12 17 5 13 19 5 14 20 5 15 22 5 16 24 5 17 25 5 18 27 5 19 28 5 20 30 5 21 32 5 22 33 5 23 35 5 24 36 5 25 38 5 26 40 5 27 41 5 28 43 5 29 44 5 30 46 5 31 48 5 32 49 5 33 51 5 34 52 5 35 54 5 37 56 5 38 57 5 39 59 5 40 60 5 41 62 5 42 64 5 43 65 5 44 67 5 45 68 5 46 70 5 47 72 5 48 73 5 49 75 5 50 76 5 51 78 5 52 80 5 53 81 5 54 83 5 55 85 5 56 86 5 57 88 5 58 89 5 59 91 5 60 93 5 61 94 5 62 96 5 63 97 5 64 99 5 65 101 5 66 102 5 67 104 5 68 105 5 69 107 5 70 109 5 71 110 5 73 112 5 74 113 5 75 115 5 76 117 5 77 118 5 78 120 5 79 121 5 80 123 5 81 125 5 82 126 5 83 128 5 84 129 5 85 131 5 86 133 5 87 134 5 88 136 5 89 137 5 90 139 5 91 141 5 92 142 5 93 144 5 94 145 5 95 147 5 96 149 5 97 150 5 98 152 5 99 153 5 100 155 5 101 157 5 102 158 5 103 160 5 104 161 5 105 163 5 106 165 5 107 166 5 108 168 5 110 170 5 111 171 5 112 173 5 113 174 5 114 176 5 115 178 5 116 179 5 117 181 5 118 182 5 119 184 5 120 186 5 121 187 5 122 189 5 123 190 5 124 192 5 125 194 5 126 195 5 127 197 5 128 198 5 129 200 5 130 202 5 131 203 5 132 205 5 133 206 5 134 208 5 135 210 5 136 211 5 137 213 5 138 214 5 139 216 5 140 218 5 141 219 5 142 221 5 143 222 5 144 224 5 146 226 5 147 227 5 148 229 5 149 230 5 150 232 5 151 234 5 152 235 5 153 237 5 154 238 5 155 240 5 156 242 5 157 243 5 158 245 5 159 246 5 160 248 5 161 250 5 162 251 5 163 253 5 164 255 5 165
0 8 3 1 8 4 3 8 5 4 8 6 6 8 7 8 8 8 9 8 9 11 8 10 12 8 11 14 8 12 16 8 13 17 8 14 19 8 15 20 8 16 22 8 17 24 8 18 25 8 19 27 8 20 28 8 21 30 8 22 32 8 23 33 8 24 35 8 25 36 8 26 38 8 27 40 8 28 41 8 29 43 8 30 44 8 31 46 8 32 48 8 33 49 8 34 51 8 35 52 8 37 54 8 38 56 8 39 57 8 40 59 8 41 60 8 42 62 8 43 64 8 44 65 8 45 67 8 46 68 8 47 70 8 48 72 8 49 73 8 50 75 8 51 76 8 52 78 8 53 80 8 54 81 8 55 83 8 56 85 8 57 86 8 58 88 8 59 89 8 60 91 8 61 93 8 62 94 8 63 96 8 64 97 8 65 99 8 66 101 8 67 102 8 68 104 8 69 105 8 70 107 8 71 109 8 73 110 8 74 112 8 75 113 8 76 115 8 77 117 8 78 118 8 79 120 8 80 121 8 81 123 8 82 125 8 83 126 8 84 128 8 85 129 8 86 131 8 87 133 8 88 134 8 89 136 8 90 137 8 91 139 8 92 141 8 93 142 8 94 144 8 95 145 8 96 147 8 97 149 8 98 150 8 99 152 8 100 153 8 101 155 8 102 157 8 103 158 8 104 160 8 105 161 8 106 163 8 107 165 8 108 166 8 110 168 8 111 170 8 112 171 8 113 173 8 114 174 8 115 176 8 116 178 8 117 179 8 118 181 8 119 182 8 120 184 8 121 186 8 122 187 8 123 189 8 124 190 8 125 192 8 126 194 8 127 195 8 128 197 8 129 198 8 130 200 8 131 202 8 132 203 8 133 205 8 134 206 8 135 208 8 136 210 8 137 211 8 138 213 8 139 214 8 140 216 8 141 218 8 142 219 8 143 221 8 144 222 8 146 224 8 147 226 8 148 227 8 149 229 8 150 230 8 151 232 8 152 234 8 153 235 8 154 237 8 155 238 8 156 240 8 157 242 8 158 243 8 159 245 8 160 246 8 161 248 8 162 250 8 163 251 8 164 253 8 165 255 8 166
0 11 4 1 11 5 3 11 6 4 11 7 6 11 8 8 11 9 9 11 10 11 11 11 12 11 12 14 11 13 16 11 14 17 11 15 19 11 16 20 11 17 22 11 18 24 11 19 25 11 20 27 11 21 28 11 22 30 11 23 32 11 24 33 11 25 35 11 26 36 11 27 38 11 28 40 11 29 41 11 30 43 11 31 44 11 32 46 11 33 48 11 34 49 11 35 51 11 37 52 11 38 54 11 39 56 11 40 57 11 41 59 11 42 60 11 43 62 11 44 64 11 45 65 11 46 67 11 47 68 11 48 70 11 49 72 11 50 73 11 51 75 11 52 76 11 53 78 11 54 80 11 55 81 11 56 83 11 57 85 11 58 86 11 59 88 11 60 89 11 61 91 11 62 93 11 63 94 11 64 96 11 65 97 11 66 99 11 67 101 11 68 102 11 69 104 11 70 105 11 71 107 11 73 109 11 74 110 11 75 112 11 76 113 11 77 115 11 78 117 11 79 118 11 80 120 11 81 121 11 82 123 11 83 125 11 84 126 11 85 128 11 86 129 11 87 131 11 88 133 11 89 134 11 90 136 11 91 137 11 92 139 11 93 141 11 94 142 11 95 144 11 96 145 11 97 147 11 98 149 11 99 150 11 100 152 11 101 153 11 102 155 11 103 157 11 104 158 11 105 160 11 106 161 11 107 163 11 108 165 11 110 166 11 111 168 11 112 170 11 113 171 11 114 173 11 115 174 11 116 176 11 117 178 11 118 179 11 119 181 11 120 182 11 121 184 11 122 186 11 123 187 11 124 189 11 125 190 11 126 192 11 127 194 11 128 195 11 129 197 11 130 198 11 131 200 11 132 202 11 133 203 11 134 205 11 135 206 11 136 208 11 137 210 11 138 211 11 139 213 11 140 214 11 141 216 11 142 218 11 143 219 11 144 221 11 146 222 11 147 224 11 148 226 11 149 227 11 150 229 11 151 230 11 152 232 11 153 234 11 154 235 11 155 237 11 156 238 11 157 240 11 158 242 11 159 243 11 160 245 11 161 246 11 162 248 11 163 250 11 164 251 11 165 253 11 166 255 11 167
0 14 5 1 14 6 3 14 7 4 14 8 6 14 9 8 14 10 9 14 11 11 14 12 12 14 13 14 14 14 16 14 15 17 14 16 19 14 17 20 14 18 22 14 19 24 14 20 25 14 21 27 14 22 28 14 23 30 14 24 32 14 25 33 14 26 35 14 27 36 14 28 38 14 29 40 14 30 41 14 31 43 14 32 44 14 33 46 14 34 48 14 35 49 14 37 51 14 38 52 14 39 54 14 40 56 14 41 57 14 42 59 14 43 60 14 44 62 14 45 64 14 46 65 14 47 67 14 48 68 14 49 70 14 50 72 14 51 73 14 52 75 14 53 76 14 54 78 14 55 80 14 56 81 14 57 83 14 58 85 14 59 86 14 60 88 14 61 89 14 62 91 14 63 93 14 64 94 14 65 96 14 66 97 14 67 99 14 68 101 14 69 102 14 70 104 14 71 105 14 73 107 14 74 109 14 75 110 14 76 112 14 77 113 14 78 115 14 79 117 14 80 118 14 81 120 14 82 121 14 83 123 14 84 125 14 85 126 14 86 128 14 87 129 14 88 131 14 89 133 14 90 134 14 91 136 14 92 137 14 93 139 14 94 141 14 95 142 14 96 144 14 97 145 14 98 147 14 99 149 14 100 150 14 101 152 14 102 153 14 103 155 14 104 157 14 105 158 14 106 160 14 107 161 14 108 163 14 110 165 14 111 166 14 112 168 14 113 170 14 114 171 14 115 173 14 116 174 14 117 176 14 118 178 14 119 179 14 120 181 14 121 182 14 122 184 14 123 186 14 124 187 14 125 189 14 126 190 14 127 192 14 128 194 14 129 195 14 130 197 14 131 198 14 132 200 14 133 202 14 134 203 14 135 205 14 136 206 14 137 208 14 138 210 14 139 211 14 140 213 14 141 214 14 142 216 14 143 218 14 144 219 14 146 221 14 147 222 14 148 224 14 149 226 14 150 227 14 151 229 14 152 230 14 153 232 14 154 234 14 155 235 14 156 237 14 157 238 14 158 240 14 159 242 14 160 243 14 161 245 14 162 246 14 163 248 14 164 250 14 165 251 14 166 253 14 167 255 14 168
0 17 6 1 17 7 3 17 8 4 17 9 6 17 10 8 17 11 9 17 12 11 17 13 12 17 14 14 17 15 16 17 16 17 17 17 19 17 18 20 17 19 22 17 20 24 17 21 25 17 22 27 17 23 28 17 24 30 17 25 32 17 26 33 17 27 35 17 28 36 17 29 38 17 30 40 17 31 41 17 32 43 17 33 44 17 34 46 17 35 48 17 37 49 17 38 51 17 39 52 17 40 54 17 41 56 17 42 57 17 43 59 17 44 60 17 45 62 17 46 64 17 47 65 17 48 67 17 49 68 17 50 70 17 51 72 17 52 73 17 53 75 17 54 76 17 55 78 17 56 80 17 57 81 17 58 83 17 59 85 17 60 86 17 61 88 17 62 89 17 63 91 17 64 93 17 65 94 17 66 96 17 67 97 17 68 99 17 69 101 17 70 102 17 71 104 17 73 105 17 74 107 17 75 109 17 76 110 17 77 112 17 78 113 17 79 115 17 80 117 17 81 118 17 82 120 17 83 121 17 84 123 17 85 125 17 86 126 17 87 128 17 88 129 17 89 131 17 90 133 17 91 134 17 92 136 17 93 137 17 94 139 17 95 141 17 96 142 17 97 144 17 98 145 17 99 147 17 100 149 17 101 150 17 102 152 17 103 153 17 104 155 17 105 157 17 106 158 17 107 160 17 108 161 17 110 163 17 111 165 17 112 166 17 113 168 17 114 170 17 115 171 17 116 173 17 117 174 17 118 176 17 119 178 17 120 179 17 121 181 17 122 182 17 123 184 17 124 186 17 125 187 17 126 189 17 127 190 17 128 192 17 129 194 17 130 195 17 131 197 17 132 198 17 133 200 17 134 202 17 135 203 17 136 205 17 137 206 17 138 208 17 139 210 17 140 211 17 141 213 17 142 214 17 143 216 17 144 218 17 146 219 17 147 221 17 148 222 17 149 224 17 150 226 17 151 227 17 152 229 17 153 230 17 154 232 17 155 234 17 156 235 17 157 237 17 158 238 17 159 240 17 160 242 17 161 243 17 162 245 17 163 246 17 164 248 17 165 250 17 166 251 17 167 253 17 168 255 17 169
0 20 7 1 20 8 3 20 9 4 20 10 6 20 11 8 20 12 9 20 13 11 20 14 12 20 15 14 20 16 16 20 17 17 20 18 19 20 19 20 20 20 22 20 21 24 20 22 25 20 23 27 20 24 28 20 25 30 20 26 32 20 27 33 20 28 35 20 29 36 20 30 38 20 31 40 20 32 41 20 33 43 20 34 44 20 35 46 20 37 48 20 38 49 20 39 51 20 40 52 20 41 54 20 42 56 20 43 57 20 44 59 20 45 60 20 46 62 20 47 64 20 48 65 20 49 67 20 50 68 20 51 70 20 52 72 20 53 73 20 54 75 20 55 76 20 56 78 20 57 80 20 58 81 20 59 83 20 60 85 20 61 86 20 62 88 20 63 89 20 64 91 20 65 93 20 66 94 20 67 96 20 68 97 20 69 99 20 70 101 20 71 102 20 73 104 20 74 105 20 75 107 20 76 109 20 77 110 20 78 112 20 79 113 20 80 115 20 81 117 20 82 118 20 83 120 20 84 121 20 85 123 20 86 125 20 87 126 20 88 128 20 89 129 20 90 131 20 91 133 20 92 134 20 93 136 20 94 137 20 95 139 20 96 141 20 97 142 20 98 144 20 99 145 20 100 147 20 101 149 20 102 150 20 103 152 20 104 153 20 105 155 20 106 157 20 107 158 20 108 160 20 110 161 20 111 163 20 112 165 20 113 166 20 114 168 20 115 170 20 116 171 20 117 173 20 118 174 20 119 176 20 120 178 20 121 179 20 122 181 20 123 182 20 124 184 20 125 186 20 126 187 20 127 189 20 128 190 20 129 192 20 130 194 20 131 195 20 132 197 20 133 198 20 134 200 20 135 202 20 136 203 20 137 205 20 138 206 20 139 208 20 140 210 20 141 211 20 142 213 20 143 214 20 144 216 20 146 218 20 147 219 20 148 221 20 149 222 20 150 224 20 151 226 20 152 227 20 153 229 20 154 230 20 155 232 20 156 234 20 157 235 20 158 237 20 159 238 20 160 240 20 161 242 20 162 243 20 163 245 20 164 246 20 165 248 20 166 250 20 167 251 20 168 253 20 169 255 20 170
0 22 8 1 22 9 3 22 10 4 22 11 6 22 12 8 22 13 9 22 14 11 22 15 12 22 16 14 22 17 16 22 18 17 22 19 19 22 20 20 22 21 22 22 22 24 22 23 25 22 24 27 22 25 28 22 26 30 22 27 32 22 28 33 22 29 35 22 30 36 22 31 38 22 32 40 22 33 41 22 34 43 22 35 44 22 37 46 22 38 48 22 39 49 22 40 51 22 41 52 22 42 54 22 43 56 22 44 57 22 45 59 22 46 60 22 47 62 22 48 64 22 49 65 22 50 67 22 51 68 22 52 70 22 53 72 22 54 73 22 55 75 22 56 76 22 57 78 22 58 80 22 59 81 22 60 83 22 61 85 22 62 86 22 63 88 22 64 89 22 65 91 22 66 93 22 67 94 22 68 96 22 69 97 22 70 99 22 71 101 22 73 102 22 74 104 22 75 105 22 76 107 22 77 109 22 78 110 22 79 112 22 80 113 22 81 115 22 82 117 22 83 118 22 84 120 22 85 121 22 86 123 22 87 125 22 88 126 22 89 128 22 90 129 22 91 131 22 92 133 22 93 134 22 94 136 22 95 137 22 96 139 22 97 141 22 98 142 22 99 144 22 100 145 22 101 147 22 102 149 22 103 150 22 104 152 22 105 153 22 106 155 22 107 157 22 108 158 22 110 160 22 111 161 22 112 163 22 113 165 22 114 166 22 115 168 22 116 170 22 117 171 22 118 173 22 119 174 22 120 176 22 121 178 22 122 179 22 123 181 22 124 182 22 125 184 22 126 186 22 127 187 22 128 189 22 129 190 22 130 192 22 131 194 22 132 195 22 133 197 22 134 198 22 135 200 22 136 202 22 137 203 22 138 205 22 139 206 22 140 208 22 141 210 22 142 211 22 143 213 22 144 214 22 146 216 22 147 218 22 148 219 22 149 221 22 150 222 22 151 224 22 152 226 22 153 227 22 154 229 22 155 230 22 156 232 22 157 234 22 158 235 22 159 237 22 160 238 22 161 240 22 162 242 22 163 243 22 164 245 22 165 246 22 166 248 22 167 250 22 168 251 22 169 253 22 170 255 22 171
0 25 9 1 25 10 3 25 11 4 25 12 6 25 13 8 25 14 9 25 15 11 25 16 12 25 17 14 25 18 16 25 19 17 25 20 19 25 21 20 25 22 22 25 23 24 25 24 25 25 25 27 25 26 28 25 27 30 25 28 32 25 29 33 25 30 35 25 31 36 25 32 38 25 33 40 25 34 41 25 35 43 25 37 44 25 38 46 25 39 48 25 40 49 25 41 51 25 42 52 25 43 54 25 44 56 25 45 57 25 46 59 25 47 60 25 48 62 25 49 64 25 50 65 25 51 67 25 52 68 25 53 70 25 54 72 25 55 73 25 56 75 25 57 76 25 58 78 25 59 80 25 60 81 25 61 83 25 62 85 25 63 86 25 64 88 25 65 89 25 66 91 25 67 93 25 68 94 25 69 96 25 70 97 25 71 99 25 73 101 25 74 102 25 75 104 25 76 105 25 77 107 25 78 109 25 79 110 25 80 112 25 81 113 25 82 115 25 83 117 25 84 118 25 85 120 25 86 121 25 87 123 25 88 125 25 89 126 25 90 128 25 91 129 25 92 131 25 93 133 25 94 134 25 95 136 25 96 137 25 97 139 25 98 141 25 99 142 25 100 144 25 101 145 25 102 147 25 103 149 25 104 150 25 105 152 25 106 153 25 107 155 25 108 157 25 110 158 25 111 160 25 112 161 25 113 163 25 114 165 25 115 166 25 116 168 25 117 170 25 118 171 25 119 173 25 120 174 25 121 176 25 122 178 25 123 179 25 124 181 25 125 182 25 126 184 25 127 186 25 128 187 25 129 189 25 130 190 25 131 192 25 132 194 25 133 195 25 134 197 25 135 198 25 136 200 25 137 202 25 138 203 25 139 205 25 140 206 25 141 208 25 142 210 25 143 211 25 144 213 25 146 214 25 147 216 25 148 218 25 149 219 25 150 221 25 151 222 25 152 224 25 153 226 25 154 227 25 155 229 25 156 230 25 157 232 25 158 234 25 159 235 25 160 237 25 161 238 25 162 240 25 163 242 25 164 243 25 165 245 25 166 246 25 167 248 25 168 250 25 169 251 25 170 253 25 171 255 25 172
0 28 10 1 28 11 3 28 12 4 28 13 6 28 14 8 28 15 9 28 16 11 28 17 12 28 18 14 28 19 16 28 20 17 28 21 19 28 22 20 28 23 22 28 24 24 28 25 25 28 26 27 28 27 28 28 28 30 28 29 32 28 30 33 28 31 35 28 32 36 28 33 38 28 34 40 28 35 41 28 37 43 28 38 44 28 39 46 28 40 48 28 41 49 28 42 51 28 43 52 28 44 54 28 45 56 28 46 57 28 47 59 28 48 60 28 49 62 28 50 64 28 51 65 28 52 67 28 53 68 28 54 70 28 55 72 28 56 73 28 57 75 28 58 76 28 59 78 28 60 80 28 61 81 28 62 83 28 63 85 28 64 86 28 65 88 28 66 89 28 67 91 28 68 93 28 69 94 28 70 96 28 71 97 28 73 99 28 74 101 28 75 102 28 76 104 28 77 105 28 78 107 28 79 109 28 80 110 28 81 112 28 82 113 28 83 115 28 84 117 28 85 118 28 86 120 28 87 121 28 88 123 28 89 125 28 90 126 28 91 128 28 92 129 28 93 131 28 94 133 28 95 134 28 96 136 28 97 137 28 98 139 28 99 141 28 100 142 28 101 144 28 102 145 28 103 147 28 104 149 28 105 150 28 106 152 28 107 153 28 108 155 28 110 157 28 111 158 28 112 160 28 113 161 28 114 163 28 115 165 28 116 166 28 117 168 28 118 170 28 119 171 28 120 173 28 121 174 28 122 176 28 123 178 28 124 179 28 125 181 28 126 182 28 127 184 28 128 186 28 129 187 28 130 189 28 131 190 28 132 192 28 133 194 28 134 195 28 135 197 28 136 198 28 137 200 28 138 202 28 139 203 28 140 205 28 141 206 28 142 208 28 143 210 28 144 211 28 146 213 28 147 214 28 148 216 28 149 218 28 150 219 28 151 221 28 152 222 28 153 224 28 154 226 28 155 227 28 156 229 28 157 230 28 158 232 28 159 234 28 160 235 28 161 237 28 162 238 28 163 240 28 164 242 28 165 243 28 166 245 28 167 246 28 168 248 28 169 250 28 170 251 28 171 253 28 172 255 28 173
0 31 11 1 31 12 3 31 13 4 31 14 6 31 15 8 31 16 9 31 17 11 31 18 12 31 19 14 31 20 16 31 21 17 31 22 19 31 23 20 31 24 22 31 25 24 31 26 25 31 27 27 31 28 28 31 29 30 31 30 32 31 31 33 31 32 35 31 33 36 31 34 38 31 35 40 31 37 41 31 38 43 31 39 44 31 40 46 31 41 48 31 42 49 31 43 51 31 44 52 31 45 54 31 46 56 31 47 57 31 48 59 31 49 60 31 50 62 31 51 64 31 52 65 31 53 67 31 54 68 31 55 70 31 56 72 31 57 73 31 58 75 31 59 76 31 60 78 31 61 80 31 62 81 31 63 83 31 64 85 31 65 86 31 66 88 31 67 89 31 68 91 31 69 93 31 70 94 31 71 96 31 73 97 31 74 99 31 75 101 31 76 102 31 77 104 31 78 105 31 79 107 31 80 109 31 81 110 31 82 112 31 83 113 31 84 115 31 85 117 31 86 118 31 87 120 31 88 121 31 89 123 31 90 125 31 91 126 31 92 128 31 93 129 31 94 131 31 95 133 31 96 134 31 97 136 31 98 137 31 99 139 31 100 141 31 101 142 31 102 144 31 103 145 31 104 147 31 105 149 31 106 150 31 107 152 31 108 153 31 110 155 31 111 157 31 112 158 31 113 160 31 114 161 31 115 163 31 116 165 31 117 166 31 118 168 31 119 170 31 120 171 31 121 173 31 122 174 31 123 176 31 124 178 31 125 179 31 126 181 31 127 182 31 128 184 31 129 186 31 130 187 31 131 189 31 132 190 31 133 192 31 134 194 31 135 195 31 136 197 31 137 198 31 138 200 31 139 202 31 140 203 31 141 205 31 142 206 31 143 208 31 144 210 31 146 211 31 147 213 31 148 214 31 149 216 31 150 218 31 151 219 31 152 221 31 153 222 31 154 224 31 155 226 31 156 227 31 157 229 31 158 230 31 159 232 31 160 234 31 161 235 31 162 237 31 163 238 31 164 240 31 165 242 31 166 243 31 167 245 31 168 246 31 169 248 31 170 250 31 171 251 31 172 253 31 173 255 31 174
0 34 12 1 34 13 3 34 14 4 34 15 6 34 16 8 34 17 9 34 18 11 34 19 12 34 20 14 34 21 16 34 22 17 34 23 19 34 24 20 34 25 22 34 26 24 34 27 25 34 28 27 34 29 28 34 30 30 34 31 32 34 32 33 34 33 35 34 34 36 34 35 38 34 37 40 34 38 41 34 39 43 34 40 44 34 41 46 34 42 48 34 43 49 34 44 51 34 45 52 34 46 54 34 47 56 34 48 57 34 49 59 34 50 60 34 51 62 34 52 64 34 53 65 34 54 67 34 55 68 34 56 70 34 57 72 34 58 73 34 59 75 34 60 76 34 61 78 34 62 80 34 63 81 34 64 83 34 65 85 34 66 86 34 67 88 34 68 89 34 69 91 34 70 93 34 71 94 34 73 96 34 74 97 34 75 99 34 76 101 34 77 102 34 78 104 34 79 105 34 80 107 34 81 109 34 82 110 34 83 112 34 84 113 34 85 115 34 86 117 34 87 118 34 88 120 34 89 121 34 90 123 34 91 125 34 92 126 34 93 128 34 94 129 34 95 131 34 96 133 34 97 134 34 98 136 34 99 137 34 100 139 34 101 141 34 102 142 34 103 144 34 104 145 34 105 147 34 106 149 34 107 150 34 108 152 34 110 153 34 111 155 34 112 157 34 113 158 34 114 160 34 115 161 34 116 163 34 117 165 34 118 166 34 119 168 34 120 170 34 121 171 34 122 173 34 123 174 34 124 176 34 125 178 34 126 179 34 127 181 34 128 182 34 129 184 34 130 186 34 131 187 34 132 189 34 133 190 34 134 192 34 135 194 34 136 195 34 137 197 34 138 198 34 139 200 34 140 202 34 141 203 34 142 205 34 143 206 34 144 208 34 146 210 34 147 211 34 148 213 34 149 214 34 150 216 34 151 218 34 152 219 34 153 221 34 154 222 34 155 224 34 156 226 34 157 227 34 158 229 34 159 230 34 160 232 34 161 234 34 162 235 34 163 237 34 164 238 34 165 240 34 166 242 34 167 243 34 168 245 34 169 246 34 170 248 34 171 250 34 172 251 34 173 253 34 174 255 34 175
0 37 13 1 37 14 3 37 15 4 37 16 6 37 17 8 37 18 9 37 19 11 37 20 12 37 21 14 37 22 16 37 23 17 37 24 19 37 25 20 37 26 22 37 27 24 37 28 25 37 29 27 37 30 28 37 31 30 37 32 32 37 33 33 37 34 35 37 35 36 37 37 38 37 38 40 37 39 41 37 40 43 37 41 44 37 42 46 37 43 48 37 44 49 37 45 51 37 46 52 37 47 54 37 48 56 37 49 57 37 50 59 37 51 60 37 52 62 37 53 64 37 54 65 37 55 67 37 56 68 37 57 70 37 58 72 37 59 73 37 60 75 37 61 76 37 62 78 37 63 80 37 64 81 37 65 83 37 66 85 37 67 86 37 68 88 37 69 89 37 70 91 37 71 93 37 73 94 37 74 96 37 75 97 37 76 99 37 77 101 37 78 102 37 79 104 37 80 105 37 81 107 37 82 109 37 83 110 37 84 112 37 85 113 37 86 115 37 87 117 37 88 118 37 89 120 37 90 121 37 91 123 37 92 125 37 93 126 37 94 128 37 95 129 37 96 131 37 97 133 37 98 134 37 99 136 37 100 137 37 101 139 37 102 141 37 103 142 37 104 144 37 105 145 37 106 147 37 107 149 37 108 150 37 110 152 37 111 153 37 112 155 37 113 157 37 114 158 37 115 160 37 116 161 37 117 163 37 118 165 37 119 166 37 120 168 37 121 170 37 122 171 37 123 173 37 124 174 37 125 176 37 126 178 37 127 179 37 128 181 37 129 182 37 130 184 37 131 186 37 132 187 37 133 189 37 134 190 37 135 192 37 136 194 37 137 195 37 138 197 37 139 198 37 140 200 37 141 202 37 142 203 37 143 205 37 144 206 37 146 208 37 147 210 37 148 211 37 149 213 37 150 214 37 151 216 37 152 218 37 153 219 37 154 221 37 155 222 37 156 224 37 157 226 37 158 227 37 159 229 37 160 230 37 161 232 37 162 234 37 163 235 37 164 237 37 165 238 37 166 240 37 167 242 37 168 243 37 169 245 37 170 246 37 171 248 37 172 250 37 173 251 37 174 253 37 175 255 37 176
0 40 14 1 40 15 3 40 16 4 40 17 6 40 18 8 40 19 9 40 20 11 40 21 12 40 22 14 40 23 16 40 24 17 40 25 19 40 26 20 40 27 22 40 28 24 40 29 25 40 30 27 40 31 28 40 32 30 40 33 32 40 34 33 40 35 35 40 37 36 40 38 38 40 39 40 40 40 41 40 41 43 40 42 44 40 43 46 40 44 48 40 45 49 40 46 51 40 47 52 40 48 54 40 49 56 40 50 57 40 51 59 40 52 60 40 53 62 40 54 64 40 55 65 40 56 67 40 57 68 40 58 70 40 59 72 40 60 73 40 61 75 40 62 76 40 63 78 40 64 80 40 65 81 40 66 83 40 67 85 40 68 86 40 69 88 40 70 89 40 71 91 40 73 93 40 74 94 40 75 96 40 76 97 40 77 99 40 78 101 40 79 102 40 80 104 40 81 105 40 82 107 40 83 109 40 84 110 40 85 112 40 86 113 40 87 115 40 88 117 40 89 118 40 90 120 40 91 121 40 92 123 40 93 125 40 94 126 40 95 128 40 96 129 40 97 131 40 98 133 40 99 134 40 100 136 40 101 137 40 102 139 40 103 141 40 104 142 40 105 144 40 106 145 40 107 147 40 108 149 40 110 150 40 111 152 40 112 153 40 113 155 40 114 157 40 115 158 40 116 160 40 117 161 40 118 163 40 119 165 40 120 166 40 121 168 40 122 170 40 123 171 40 124 173 40 125 174 40 126 176 40 127 178 40 128 179 40 129 181 40 130 182 40 131 184 40 132 186 40 133 187 40 134 189 40 135 190 40 136 192 40 137 194 40 138 195 40 139 197 40 140 198 40 141 200 40 142 202 40 143 203 40 144 205 40 146 206 40 147 208 40 148 210 40 149 211 40 150 213 40 151 214 40 152 216 40 153 218 40 154 219 40 155 221 40 156 222 40 157 224 40 158 226 40 159 227 40 160 229 40 161 230 40 162 232 40 163 234 40 164 235 40 165 237 40 166 238 40 167 240 40 168 242 40 169 243 40 170 245 40 171 246 40 172 248 40 173 250 40 174 251 40 175 253 40 176 255 40 177
0 42 15 1 42 16 3 42 17 4 42 18 6 42 19 8 42 20 9 42 21 11 42 22 12 42 23 14 42 24 16 42 25 17 42 26 19 42 27 20 42 28 22 42 29 24 42 30 25 42 31 27 42 32 28 42 33 30 42 34 32 42 35 33 42 37 35 42 38 36 42 39 38 42 40 40 42 41 41 42 42 43 42 43 44 42 44 46 42 45 48 42 46 49 42 47 51 42 48 52 42 49 54 42 50 56 42 51 57 42 52 59 42 53 60 42 54 62 42 55 64 42 56 65 42 57 67 42 58 68 42 59 70 42 60 72 42 61 73 42 62 75 42 63 76 42 64 78 42 65 80 42 66 81 42 67 83 42 68 85 42 69 86 42 70 88 42 71 89 42 73 91 42 74 93 42 75 94 42 76 96 42 77 97 42 78 99 42 79 101 42 80 102 42 81 104 42 82 105 42 83 107 42 84 109 42 85 110 42 86 112 42 87 113 42 88 115 42 89 117 42 90 118 42 91 120 42 92 121 42 93 123 42 94 125 42 95 126 42 96 128 42 97 129 42 98 131 42 99 133 42 100 134 42 101 136 42 102 137 42 103 139 42 104 141 42 105 142 42 106 144 42 107 145 42 108 147 42 110 149 42 111 150 42 112 152 42 113 153 42 114 155 42 115 157 42 116 158 42 117 160 42 118 161 42 119 163 42 120 165 42 121 166 42 122 168 42 123 170 42 124 171 42 125 173 42 126 174 42 127 176 42 128 178 42 129 179 42 130 181 42 131 182 42 132 184 42 133 186 42 134 187 42 135 189 42 136 190 42 137 192 42 138 194 42 139 195 42 140 197 42 141 198 42 142 200 42 143 202 42 144 203 42 146 205 42 147 206 42 148 208 42 149 210 42 150 211 42 151 213 42 152 214 42 153 216 42 154 218 42 155 219 42 156 221 42 157 222 42 158 224 42 159 226 42 160 227 42 161 229 42 162 230 42 163 232 42 164 234 42 165 235 42 166 237 42 167 238 42 168 240 42 169 242 42 170 243 42 171 245 42 172 246 42 173 248 42 174 250 42 175 251 42 176 253 42 177 255 42 178
0 45 16 1 45 17 3 45 18 4 45 19 6 45 20 8 45 21 9 45 22 11 45 23 12 45 24 14 45 25 16 45 26 17 45 27 19 45 28 20 45 29 22 45 30 24 45 31 25 45 32 27 45 33 28 45 34 30 45 35 32 45 37 33 45 38 35 45 39 36 45 40 38 45 41 40 45 42 41 45 43 43 45 44 44 45 45 46 45 46 48 45 47 49 45 48 51 45 49 52 45 50 54 45 51 56 45 52 57 45 53 59 45 54 60 45 55 62 45 56 64 45 57 65 45 58 67 45 59 68 45 60 70 45 61 72 45 62 73 45 63 75 45 64 76 45 65 78 45 66 80 45 67 81 45 68 83 45 69 85 45 70 86 45 71 88 45 73 89 45 74 91 45 75 93 45 76 94 45 77 96 45 78 97 45 79 99 45 80 101 45 81 102 45 82 104 45 83 105 45 84 107 45 85 109 45 86 110 45 87 112 45 88 113 45 89 115 45 90 117 45 91 118 45 92 120 45 93 121 45 94 123 45 95 125 45 96 126 45 97 128 45 98 129 45 99 131 45 100 133 45 101 134 45 102 136 45 103 137 45 104 139 45 105 141 45 106 142 45 107 144 45 108 145 45 110 147 45 111 149 45 112 150 45 113 152 45 114 153 45 115 155 45 116 157 45 117 158 45 118 160 45 119 161 45 120 163 45 121 165 45 122 166 45 123 168 45 124 170 45 125 171 45 126 173 45 127 174 45 128 176 45 129 178 45 130 179 45 131 181 45 132 182 45 133 184 45 134 186 45 135 187 45 136 189 45 137 190 45 138 192 45 139 194 45 140 195 45 141 197 45 142 198 45 143 200 45 144 202 45 146 203 45 147 205 45 148 206 45 149 208 45 150 210 45 151 211 45 152 213 45 153 214 45 154 216 45 155 218 45 156 219 45 157 221 45 158 222 45 159 224 45 160 226 45 161 227 45 162 229 45 163 230 45 164 232 45 165 234 45 166 235 45 167 237 45 168 238 45 169 240 45 170 242 45 171 243 45 172 245 45 173 246 45 174 248 45 175 250 45 176 251 45 177 253 45 178 255 45 179
0 48 17 1 48 18 3 48 19 4 48 20 6 48 21 8 48 22 9 48 23 11 48 24 12 48 25 14 48 26 16 48 27 17 48 28 19 48 29 20 48 30 22 48 31 24 48 32 25 48 33 27 48 34 28 48 35 30 48 37 32 48 38 33 48 39 35 48 40 36 48 41 38 48 42 40 48 43 41 48 44 43 48 45 44 48 46 46 48 47 48 48 48 49 48 49 51 48 50 52 48 51 54 48 52 56 48 53 57 48 54 59 48 55 60 48 56 62 48 57 64 48 58 65 48 59 67 48 60 68 48 61 70 48 62 72 48 63 73 48 64 75 48 65 76 48 66 78 48 67 80 48 68 81 48 69 83 48 70 85 48 71 86 48 73 88 48 74 89 48 75 91 48 76 93 48 77 94 48 78 96 48 79 97 48 80 99 48 81 101 48 82 102 48 83 104 48 84 105 48 85 107 48 86 109 48 87 110 48 88 112 48 89 113 48 90 115 48 91 117 48 92 118 48 93 120 48 94 121 48 95 123 48 96 125 48 97 126 48 98 128 48 99 129 48 100 131 48 101 133 48 102 134 48 103 136 48 104 137 48 105 139 48 106 141 48 107 142 48 108 144 48 110 145 48 111 147 48 112 149 48 113 150 48 114 152 48 115 153 48 116 155 48 117 157 48 118 158 48 119 160 48 120 161 48 121 163 48 122 165 48 123 166 48 124 168 48 125 170 48 126 171 48 127 173 48 128 174 48 129 176 48 130 178 48 131 179 48 132 181 48 133 182 48 134 184 48 135 186 48 136 187 48 137 189 48 138 190 48 139 192 48 140 194 48 141 195 48 142 197 48 143 198 48 144 200 48 146 202 48 147 203 48 148 205 48 149 206 48 150 208 48 151 210 48 152 211 48 153 213 48 154 214 48 155 216 48 156 218 48 157 219 48 158 221 48 159 222 48 160 224 48 161 226 48 162 227 48 163 229 48 164 230 48 165 232 48 166 234 48 167 235 48 168 237 48 169 238 48 170 240 48 171 242 48 172 243 48 173 245 48 174 246 48 175 248 48 176 250 48 177 251 48 178 253 48 179 255 48 180
0 51 18 1 51 19 3 51 20 4 51 21 6 51 22 8 51 23 9 51 24 11 51 25 12 51 26 14 51 27 16 51 28 17 51 29 19 51 30 20 51 31 22 51 32 24 51 33 25 51 34 27 51 35 28 51 37 30 51 38 32 51 39 33 51 40 35 51 41 36 51 42 38 51 43 40 51 44 41 51 45 43 51 46 44 51 47 46 51 48 48 51 49 49 51 50 51 51 51 52 51 52 54 51 53 56 51 54 57 51 55 59 51 56 60 51 57 62 51 58 64 51 59 65 51 60 67 51 61 68 51 62 70 51 63 72 51 64 73 51 65 75 51 66 76 51 67 78 51 68 80 51 69 81 51 70 83 51 71 85 51 73 86 51 74 88 51 75 89 51 76 91 51 77 93 51 78 94 51 79 96 51 80 97 51 81 99 51 82 101 51 83 102 51 84 104 51 85 105 51 86 107 51 87 109 51 88 110 51 89 112 51 90 113 51 91 115 51 92 117 51 93 118 51 94 120 51 95 121 51 96 123 51 97 125 51 98 126 51 99 128 51 100 129 51 101 131 51 102 133 51 103 134 51 104 136 51 105 137 51 106 139 51 107 141 51 108 142 51 110 144 51 111 145 51 112 147 51 113 149 51 114 150 51 115 152 51 116 153 51 117 155 51 118 157 51 119 158 51 120 160 51 121 161 51 122 163 51 123 165 51 124 166 51 125 168 51 126 170 51 127 171 51 128 173 51 129 174 51 130 176 51 131 178 51 132 179 51 133 181 51 134 182 51 135 184 51 136 186 51 137 187 51 138 189 51 139 190 51 140 192 51 141 194 51 142 195 51 143 197 51 144 198 51 146 200 51 147 202 51 148 203 51 149 205 51 150 206 51 151 208 51 152 210 51 153 211 51 154 213 51 155 214 51 156 216 51 157 218 51 158 219 51 159 221 51 160 222 51 161 224 51 162 226 51 163 227 51 164 229 51 165 230 51 166 232 51 167 234 51 168 235 51 169 237 51 170 238 51 171 240 51 172 242 51 173 243 51 174 245 51 175 246 51 176 248 51 177 250 51 178 251 51 179 253 51 180 255 51 181
0 54 19 1 54 20 3 54 21 4 54 22 6 54 23 8 54 24 9 54 25 11 54 26 12 54 27 14 54 28 16 54 29 17 54 30 19 54 31 20 54 32 22 54 33 24 54 34 25 54 35 27 54 37 28 54 38 30 54 39 32 54 40 33 54 41 35 54 42 36 54 43 38 54 44 40 54 45 41 54 46 43 54 47 44 54 48 46 54 49 48 54 50 49 54 51 51 54 52 52 54 53 54 54 54 56 54 55 57 54 56 59 54 57 60 54 58 62 54 59 64 54 60 65 54 61 67 54 62 68 54 63 70 54 64 72 54 65 73 54 66 75 54 67 76 54 68 78 54 69 80 54 70 81 54 71 83 54 73 85 54 74 86 54 75 88 54 76 89 54 77 91 54 78 93 54 79 94 54 80 96 54 81 97 54 82 99 54 83 101 54 84 102 54 85 104 54 86 105 54 87 107 54 88 109 54 89 110 54 90 112 54 91 113 54 92 115 54 93 117 54 94 118 54 95 120 54 96 121 54 97 123 54 98 125 54 99 126 54 100 128 54 101 129 54 102 131 54 103 133 54 104 134 54 105 136 54 106 137 54 107 139 54 108 141 54 110 142 54 111 144 54 112 145 54 113 147 54 114 149 54 115 150 54 116 152 54 117 153 54 118 155 54 119 157 54 120 158 54 121 160 54 122 161 54 123 163 54 124 165 54 125 166 54 126 168 54 127 170 54 128 171 54 129 173 54 130 174 54 131 176 54 132 178 54 133 179 54 134 181 54 135 182 54 136 184 54 137 186 54 138 187 54 139 189 54 140 190 54 141 192 54 142 194 54 143 195 54 144 197 54 146 198 54 147 200 54 148 202 54 149 203 54 150 205 54 151 206 54 152 208 54 153 210 54 154 211 54 155 213 54 156 214 54 157 216 54 158 218 54 159 219 54 160 221 54 161 222 54 162 224 54 163 226 54 164 227 54 165 229 54 166 230 54 167 232 54 168 234 54 169 235 54 170 237 54 171 238 54 172 240 54 173 242 54 174 243 54 175 245 54 176 246 54 177 248 54 178 250 54 179 251 54 180 253 54 181 255 54 183
0 57 20 1 57 21 3 57 22 4 57 23 6 57 24 8 57 25 9 57 26 11 57 27 12 57 28 14 57 29 16 57 30 17 57 31 19 57 32 20 57 33 22 57 34 24 57 35 25 57 37 27 57 38 28 57 39 30 57 40 32 57 41 33 57 42 35 57 43 36 57 44 38 57 45 40 57 46 41 57 47 43 57 48 44 57 49 46 57 50 48 57 51 49 57 52 51 57 53 52 57 54 54 57 55 56 57 56 57 57 57 59 57 58 60 57 59 62 57 60 64 57 61 65 57 62 67 57 63 68 57 64 70 57 65 72 57 66 73 57 67 75 57 68 76 57 69 78 57 70 80 57 71 81 57 73 83 57 74 85 57 75 86 57 76 88 57 77 89 57 78 91 57 79 93 57 80 94 57 81 96 57 82 97 57 83 99 57 84 101 57 85 102 57 86 104 57 87 105 57 88 107 57 89 109 57 90 110 57 91 112 57 92 113 57 93 115 57 94 117 57 95 118 57 96 120 57 97 121 57 98 123 57 99 125 57 100 126 57 101 128 57 102 129 57 103 131 57 104 133 57 105 134 57 106 136 57 107 137 57 108 139 57 110 141 57 111 142 57 112 144 57 113 145 57 114 147 57 115 149 57 116 150 57 117 152 57 118 153 57 119 155 57 120 157 57 121 158 57 122 160 57 123 161 57 124 163 57 125 165 57 126 166 57 127 168 57 128 170 57 129 171 57 130 173 57 131 174 57 132 176 57 133 178 57 134 179 57 135 181 57 136 182 57 137 184 57 138 186 57 139 187 57 140 189 57 141 190 57 142 192 57 143 194 57 144 195 57 146 197 57 147 198 57 148 200 57 149 202 57 150 203 57 151 205 57 152 206 57 153 208 57 154 210 57 155 211 57 156 213 57 157 214 57 158 216 57 159 218 57 160 219 57 161 221 57 162 222 57 163 224 57 164 226 57 165 227 57 166 229 57 167 230 57 168 232 57 169 234 57 170 235 57 171 237 57 172 238 57 173 240 57 174 242 57 175 243 57 176 245 57 177 246 57 178 248 57 179 250 57 180 251 57 181 253 57 183 255 57 184
0 60 21 1 60 22 3 60 23 4 60 24 6 60 25 8 60 26 9 60 27 11 60 28 12 60 29 14 60 30 16 60 31 17 60 32 19 60 33 20 60 34 22 60 35 24 60 37 25 60 38 27 60 39 28 60 40 30 60 41 32 60 42 33 60 43 35 60 44 36 60 45 38 60 46 40 60 47 41 60 48 43 60 49 44 60 50 46 60 51 48 60 52 49 60 53 51 60 54 52 60 55 54 60 56 56 60 57 57 60 58 59 60 59 60 60 60 62 60 61 64 60 62 65 60 63 67 60 64 68 60 65 70 60 66 72 60 67 73 60 68 75 60 69 76 60 70 78 60 71 80 60 73 81 60 74 83 60 75 85 60 76 86 60 77 88 60 78 89 60 79 91 60 80 93 60 81 94 60 82 96 60 83 97 60 84 99 60 85 101 60 86 102 60 87 104 60 88 105 60 89 107 60 90 109 60 91 110 60 92 112 60 93 113 60 94 115 60 95 117 60 96 118 60 97 120 60 98 121 60 99 123 60 100 125 60 101 126 60 102 128 60 103 129 60 104 131 60 105 133 60 106 134 60 107 136 60 108 137 60 110 139 60 111 141 60 112 142 60 113 144 60 114 145 60 115 147 60 116 149 60 117 150 60 118 152 60 119 153 60 120 155 60 121 157 60 122 158 60 123 160 60 124 161 60 125 163 60 126 165 60 127 166 60 128 168 60 129 170 60 130 171 60 131 173 60 132 174 60 133 176 60 134 178 60 135 179 60 136 181 60 137 182 60 138 184 60 139 186 60 140 187 60 141 189 60 142 190 60 143 192 60 144 194 60 146 195 60 147 197 60 148 198 60 149 200 60 150 202 60 151 203 60 152 205 60 153 206 60 154 208 60 155 210 60 156 211 60 157 213 60 158 214 60 159 216 60 160 218 60 161 219 60 162 221 60 163 222 60 164 224 60 165 226 60 166 227 60 167 229 60 168 230 60 169 232 60 170 234 60 171 235 60 172 237 60 173 238 60 174 240 60 175 242 60 176 243 60 177 245 60 178 246 60 179 248 60 180 250 60 181 251 60 183 253 60 184 255 60 185
0 63 22 1 63 23 3 63 24 4 63 25 6 63 26 8 63 27 9 63 28 11 63 29 12 63 30 14 63 31 16 63 32 17 63 33 19 63 34 20 63 35 22 63 37 24 63 38 25 63 39 27 63 40 28 63 41 30 63 42 32 63 43 33 63 44 35 63 45 36 63 46 38 63 47 40 63 48 41 63 49 43 63 50 44 63 51 46 63 52 48 63 53 49 63 54 51 63 55 52 63 56 54 63 57 56 63 58 57 63 59 59 63 60 60 63 61 62 63 62 64 63 63 65 63 64 67 63 65 68 63 66 70 63 67 72 63 68 73 63 69 75 63 70 76 63 71 78 63 73 80 63 74 81 63 75 83 63 76 85 63 77 86 63 78 88 63 79 89 63 80 91 63 81 93 63 82 94 63 83 96 63 84 97 63 85 99 63 86 101 63 87 102 63 88 104 63 89 105 63 90 107 63 91 109 63 92 110 63 93 112 63 94 113 63 95 115 63 96 117 63 97 118 63 98 120 63 99 121 63 100 123 63 101 125 63 102 126 63 103 128 63 104 129 63 105 131 63 106 133 63 107 134 63 108 136 63 110 137 63 111 139 63 112 141 63 113 142 63 114 144 63 115 145 63 116 147 63 117 149 63 118 150 63 119 152 63 120 153 63 121 155 63 122 157 63 123 158 63 124 160 63 125 161 63 126 163 63 127 165 63 128 166 63 129 168 63 130 170 63 131 171 63 132 173 63 133 174 63 134 176 63 135 178 63 136 179 63 137 181 63 138 182 63 139 184 63 140 186 63 141 187 63 142 189 63 143 190 63 144 192 63 146 194 63 147 195 63 148 197 63 149 198 63 150 200 63 151 202 63 152 203 63 153 205 63 154 206 63 155 208 63 156 210 63 157 211 63 158 213 63 159 214 63 160 216 63 161 218 63 162 219 63 163 221 63 164 222 63 165 224 63 166 226 63 167 227 63 168 229 63 169 230 63 170 232 63 171 234 63 172 235 63 173 237 63 174 238 63 175 240 63 176 242 63 177 243 63 178 245 63 179 246 63 180 248 63 181 250 63 183 251 63 184 253 63 185 255 63 186
0 65 23 1 65 24 3 65 25 4 65 26 6 65 27 8 65 28 9 65 29 11 65 30 12 65 31 14 65 32 16 65 33 17 65 34 19 65 35 20 65 37 22 65 38 24 65 39 25 65 40 27 65 41 28 65 42 30 65 43 32 65 44 33 65 45 35 65 46 36 65 47 38 65 48 40 65 49 41 65 50 43 65 51 44 65 52 46 65 53 48 65 54 49 65 55 51 65 56 52 65 57 54 65 58 56 65 59 57 65 60 59 65 61 60 65 62 62 65 63 64 65 64 65 65 65 67 65 66 68 65 67 70 65 68 72 65 69 73 65 70 75 65 71 76 65 73 78 65 74 80 65 75 81 65 76 83 65 77 85 65 78 86 65 79 88 65 80 89 65 81 91 65 82 93 65 83 94 65 84 96 65 85 97 65 86 99 65 87 101 65 88 102 65 89 104 65 90 105 65 91 107 65 92 109 65 93 110 65 94 112 65 95 113 65 96 115 65 97 117 65 98 118 65 99 120 65 100 121 65 101 123 65 102 125 65 103 126 65 104 128 65 105 129 65 106 131 65 107 133 65 108 134 65 110 136 65 111 137 65 112 139 65 113 141 65 114 142 65 115 144 65 116 145 65 117 147 65 118 149 65 119 150 65 120 152 65 121 153 65 122 155 65 123 157 65 124 158 65 125 160 65 126 161 65 127 163 65 128 165 65 129 166 65 130 168 65 131 170 65 132 171 65 133 173 65 134 174 65 135 176 65 136 178 65 137 179 65 138 181 65 139 182 65 140 184 65 141 186 65 142 187 65 143 189 65 144 190 65 146 192 65 147 194 65 148 195 65 149 197 65 150 198 65 151 200 65 152 202 65 153 203 65 154 205 65 155 206 65 156 208 65 157 210 65 158 211 65 159 213 65 160 214 65 161 216 65 162 218 65 163 219 65 164 221 65 165 222 65 166 224 65 167 226 65 168 227 65 169 229 65 170 230 65 171 232 65 172 234 65 173 235 65 174 237 65 175 238 65 176 240 65 177 242 65 178 243 65 179 245 65 180 246 65 181 248 65 183 250 65 184 251 65 185 253 65 186 255 65 187
0 68 24 1 68 25 3 68 26 4 68 27 6 68 28 8 68 29 9 68 30 11 68 31 12 68 32 14 68 33 16 68 34 17 68 35 19 68 37 20 68 38 22 68 39 24 68 40 25 68 41 27 68 42 28 68 43 30 68 44 32 68 45 33 68 46 35 68 47 36 68 48 38 68 49 40 68 50 41 68 51 43 68 52 44 68 53 46 68 54 48 68 55 49 68 56 51 68 57 52 68 58 54 68 59 56 68 60 57 68 61 59 68 62 60 68 63 62 68 64 64 68 65 65 68 66 67 68 67 68 68 68 70 68 69 72 68 70 73 68 71 75 68 73 76 68 74 78 68 75 80 68 76 81 68 77 83 68 78 85 68 79 86 68 80 88 68 81 89 68 82 91 68 83 93 68 84 94 68 85 96 68 86 97 68 87 99 68 88 101 68 89 102 68 90 104 68 91 105 68 92 107 68 93 109 68 94 110 68 95 112 68 96 113 68 97 115 68 98 117 68 99 118 68 100 120 68 101 121 68 102 123 68 103 125 68 104 126 68 105 128 68 106 129 68 107 131 68 108 133 68 110 134 68 111 136 68 112 137 68 113 139 68 114 141 68 115 142 68 116 144 68 117 145 68 118 147 68 119 149 68 120 150 68 121 152 68 122 153 68 123 155 68 124 157 68 125 158 68 126 160 68 127 161 68 128 163 68 129 165 68 130 166 68 131 168 68 132 170 68 133 171 68 134 173 68 135 174 68 136 176 68 137 178 68 138 179 68 139 181 68 140 182 68 141 184 68 142 186 68 143 187 68 144 189 68 146 190 68 147 192 68 148 194 68 149 195 68 150 197 68 151 198 68 152 200 68 153 202 68 154 203 68 155 205 68 156 206 68 157 208 68 158 210 68 159 211 68 160 213 68 161 214 68 162 216 68 163 218 68 164 219 68 165 221 68 166 222 68 167 224 68 168 226 68 169 227 68 170 229 68 171 230 68 172 232 68 173 234 68 174 235 68 175 237 68 176 238 68 177 240 68 178 242 68 179 243 68 180 245 68 181 246 68 183 248 68 184 250 68 185 251 68 186 253 68 187 255 68 188
0 71 25 1 71 26 3 71 27 4 71 28 6 71 29 8 71 30 9 71 31 11 71 32 12 71 33 14 71 34 16 71 35 17 71 37 19 71 38 20 71 39 22 71 40 24 71 41 25 71 42 27 71 43 28 71 44 30 71 45 32 71 46 33 71 47 35 71 48 36 71 49 38 71 50 40 71 51 41 71 52 43 71 53 44 71 54 46 71 55 48 71 56 49 71 57 51 71 58 52 71 59 54 71 60 56 71 61 57 71 62 59 71 63 60 71 64 62 71 65 64 71 66 65 71 67 67 71 68 68 71 69 70 71 70 72 71 71 73 71 73 75 71 74 76 71 75 78 71 76 80 71 77 81 71 78 83 71 79 85 71 80 86 71 81 88 71 82 89 71 83 91 71 84 93 71 85 94 71 86 96 71 87 97 71 88 99 71 89 101 71 90 102 71 91 104 71 92 105 71 93 107 71 94 109 71 95 110 71 96 112 71 97 113 71 98 115 71 99 117 71 100 118 71 101 120 71 102 121 71 103 123 71 104 125 71 105 126 71 106 128 71 107 129 71 108 131 71 110 133 71 111 134 71 112 136 71 113 137 71 114 139 71 115 141 71 116 142 71 117 144 71 118 145 71 119 147 71 120 149 71 121 150 71 122 152 71 123 153 71 124 155 71 125 157 71 126 158 71 127 160 71 128 161 71 129 163 71 130 165 71 131 166 71 132 168 71 133 170 71 134 171 71 135 173 71 136 174 71 137 176 71 138 178 71 139 179 71 140 181 71 141 182 71 142 184 71 143 186 71 144 187 71 146 189 71 147 190 71 148 192 71 149 194 71 150 195 71 151 197 71 152 198 71 153 200 71 154 202 71 155 203 71 156 205 71 157 206 71 158 208 71 159 210 71 160 211 71 161 213 71 162 214 71 163 216 71 164 218 71 165 219 71 166 221 71 167 222 71 168 224 71 169 226 71 170 227 71 171 229 71 172 230 71 173 232 71 174 234 71 175 235 71 176 237 71 177 238 71 178 240 71 179 242 71 180 243 71 181 245 71 183 246 71 184 248 71 185 250 71 186 251 71 187 253 71 188 255 71 189
0 74 26 1 74 27 3 74 28 4 74 29 6 74 30 8 74 31 9 74 32 11 74 33 12 74 34 14 74 35 16 74 37 17 74 38 19 74 39 20 74 40 22 74 41 24 74 42 25 74 43 27 74 44 28 74 45 30 74 46 32 74 47 33 74 48 35 74 49 36 74 50 38 74 51 40 74 52 41 74 53 43 74 54 44 74 55 46 74 56 48 74 57 49 74 58 51 74 59 52 74 60 54 74 61 56 74 62 57 74 63 59 74 64 60 74 65 62 74 66 64 74 67 65 74 68 67 74 69 68 74 70 70 74 71 72 74 73 73 74 74 75 74 75 76 74 76 78 74 77 80 74 78 81 74 79 83 74 80 85 74 81 86 74 82 88 74 83 89 74 84 91 74 85 93 74 86 94 74 87 96 74 88 97 74 89 99 74 90 101 74 91 102 74 92 104 74 93 105 74 94 107 74 95 109 74 96 110 74 97 112 74 98 113 74 99 115 74 100 117 74 101 118 74 102 120 74 103 121 74 104 123 74 105 125 74 106 126 74 107 128 74 108 129 74 110 131 74 111 133 74 112 134 74 113 136 74 114 137 74 115 139 74 116 141 74 117 142 74 118 144 74 119 145 74 120 147 74 121 149 74 122 150 74 123 152 74 124 153 74 125 155 74 126 157 74 127 158 74 128 160 74 129 161 74 130 163 74 131 165 74 132 166 74 133 168 74 134 170 74 135 171 74 136 173 74 137 174 74 138 176 74 139 178 74 140 179 74 141 181 74 142 182 74 143 184 74 144 186 74 146 187 74 147 189 74 148 190 74 149 192 74 150 194 74 151 195 74 152 197 74 153 198 74 154 200 74 155 202 74 156 203 74 157 205 74 158 206 74 159 208 74 160 210 74 161 211 74 162 213 74 163 214 74 164 216 74 165 218 74 166 219 74 167 221 74 168 222 74 169 224 74 170 226 74 171 227 74 172 229 74 173 230 74 174 232 74 175 234 74 176 235 74 177 237 74 178 238 74 179 240 74 180 242 74 181 243 74 183 245 74 184 246 74 185 248 74 186 250 74 187 251 74 188 253 74 189 255 74 190
0 77 27 1 77 28 3 77 29 4 77 30 6 77 31 8 77 32 9 77 33 11 77 34 12 77 35 14 77 37 16 77 38 17 77 39 19 77 40 20 77 41 22 77 42 24 77 43 25 77 44 27 77 45 28 77 46 30 77 47 32 77 48 33 77 49 35 77 50 36 77 51 38 77 52 40 77 53 41 77 54 43 77 55 44 77 56 46 77 57 48 77 58 49 77 59 51 77 60 52 77 61 54 77 62 56 77 63 57 77 64 59 77 65 60 77 66 62 77 67 64 77 68 65 77 69 67 77 70 68 77 71 70 77 73 72 77 74 73 77 75 75 77 76 76 77 77 78 77 78 80 77 79 81 77 80 83 77 81 85 77 82 86 77 83 88 77 84 89 77 85 91 77 86 93 77 87 94 77 88 96 77 89 97 77 90 99 77 91 101 77 92 102 77 93 104 77 94 105 77 95 107 77 96 109 77 97 110 77 98 112 77 99 113 77 100 115 77 101 117 77 102 118 77 103 120 77 104 121 77 105 123 77 106 125 77 107 126 77 108 128 77 110 129 77 111 131 77 112 133 77 113 134 77 114 136 77 115 137 77 116 139 77 117 141 77 118 142 77 119 144 77 120 145 77 121 147 77 122 149 77 123 150 77 124 152 77 125 153 77 126 155 77 127 157 77 128 158 77 129 160 77 130 161 77 131 163 77 132 165 77 133 166 77 134 168 77 135 170 77 136 171 77 137 173 77 138 174 77 139 176 77 140 178 77 141 179 77 142 181 77 143 182 77 144 184 77 146 186 77 147 187 77 148 189 77 149 190 77 150 192 77 151 194 77 152 195 77 153 197 77 154 198 77 155 200 77 156 202 77 157 203 77 158 205 77 159 206 77 160 208 77 161 210 77 162 211 77 163 213 77 164 214 77 165 216 77 166 218 77 167 219 77 168 221 77 169 222 77 170 224 77 171 226 77 172 227 77 173 229 77 174 230 77 175 232 77 176 234 77 177 235 77 178 237 77 179 238 77 180 240 77 181 242 77 183 243 77 184 245 77 185 246 77 186 248 77 187 250 77 188 251 77 189 253 77 190 255 77 191
0 80 28 1 80 29 3 80 30 4 80 31 6 80 32 8 80 33 9 80 34 11 80 35 12 80 37 14 80 38 16 80 39 17 80 40 19 80 41 20 80 42 22 80 43 24 80 44 25 80 45 27 80 46 28 80 47 30 80 48 32 80 49 33 80 50 35 80 51 36 80 52 38 80 53 40 80 54 41 80 55 43 80 56 44 80 57 46 80 58 48 80 59 49 80 60 51 80 61 52 80 62 54 80 63 56 80 64 57 80 65 59 80 66 60 80 67 62 80 68 64 80 69 65 80 70 67 80 71 68 80 73 70 80 74 72 80 75 73 80 76 75 80 77 76 80 78 78 80 79 80 80 80 81 80 81 83 80 82 85 80 83 86 80 84 88 80 85 89 80 86 91 80 87 93 80 88 94 80 89 96 80 90 97 80 91 99 80 92 101 80 93 102 80 94 104 80 95 105 80 96 107 80 97 109 80 98 110 80 99 112 80 100 113 80 101 115 80 102 117 80 103 118 80 104 120 80 105 121 80 106 123 80 107 125 80 108 126 80 110 128 80 111 129 80 112 131 80 113 133 80 114 134 80 115 136 80 116 137 80 117 139 80 118 141 80 119 142 80 120 144 80 121 145 80 122 147 80 123 149 80 124 150 80 125 152 80 126 153 80 127 155 80 128 157 80 129 158 80 130 160 80 131 161 80 132 163 80 133 165 80 134 166 80 135 168 80 136 170 80 137 171 80 138 173 80 139 174 80 140 176 80 141 178 80 142 179 80 143 181 80 144 182 80 146 184 80 147 186 80 148 187 80 149 189 80 150 190 80 151 192 80 152 194 80 153 195 80 154 197 80 155 198 80 156 200 80 157 202 80 158 203 80 159 205 80 160 206 80 161 208 80 162 210 80 163 211 80 164 213 80 165 214 80 166 216 80 167 218 80 168 219 80 169 221 80 170 222 80 171 224 80 172 226 80 173 227 80 174 229 80 175 230 80 176 232 80 177 234 80 178 235 80 179 237 80 180 238 80 181 240 80 183 242 80 184 243 80 185 245 80 186 246 80 187 248 80 188 250 80 189 251 80 190 253 80 191 255 80 192
0 83 29 1 83 30 3 83 31 4 83 32 6 83 33 8 83 34 9 83 35 11 83 37 12 83 38 14 83 39 16 83 40 17 83 41 19 83 42 20 83 43 22 83 44 24 83 45 25 83 46 27 83 47 28 83 48 30 83 49 32 83 50 33 83 51 35 83 52 36 83 53 38 83 54 40 83 55 41 83 56 43 83 57 44 83 58 46 83 59 48 83 60 49 83 61 51 83 62 52 83 63 54 83 64 56 83 65 57 83 66 59 83 67 60 83 68 62 83 69 64 83 70 65 83 71 67 83 73 68 83 74 70 83 75 72 83 76 73 83 77 75 83 78 76 83 79 78 83 80 80 83 81 81 83 82 83 83 83 85 83 84 86 83 85 88 83 86 89 83 87 91 83 88 93 83 89 94 83 90 96 83 91 97 83 92 99 83 93 101 83 94 102 83 95 104 83 96 105 83 97 107 83 98 109 83 99 110 83 100 112 83 101 113 83 102 115 83 103 117 83 104 118 83 105 120 83 106 121 83 107 123 83 108 125 83 110 126 83 111 128 83 112 129 83 113 131 83 114 133 83 115 134 83 116 136 83 117 137 83 118 139 83 119 141 83 120 142 83 121 144 83 122 145 83 123 147 83 124 149 83 125 150 83 126 152 83 127 153 83 128 155 83 129 157 83 130 158 83 131 160 83 132 161 83 133 163 83 134 165 83 135 166 83 136 168 83 137 170 83 138 171 83 139 173 83 140 174 83 141 176 83 142 178 83 143 179 83 144 181 83 146 182 83 147 184 83 148 186 83 149 187 83 150 189 83 151 190 83 152 192 83 153 194 83 154 195 83 155 197 83 156 198 83 157 200 83 158 202 83 159 203 83 160 205 83 161 206 83 162 208 83 163 210 83 164 211 83 165 213 83 166 214 83 167 216 83 168 218 83 169 219 83 170 221 83 171 222 83 172 224 83 173 226 83 174 227 83 175 229 83 176 230 83 177 232 83 178 234 83 179 235 83 180 237 83 181 238 83 183 240 83 184 242 83 185 243 83 186 245 83 187 246 83 188 248 83 189 250 83 190 251 83 191 253 83 192 255 83 193
0 85 30 1 85 31 3 85 32 4 85 33 6 85 34 8 85 35 9 85 37 11 85 38 12 85 39 14 85 40 16 85 41 17 85 42 19 85 43 20 85 44 22 85 45 24 85 46 25 85 47 27 85 48 28 85 49 30 85 50 32 85 51 33 85 52 35 85 53 36 85 54 38 85 55 40 85 56 41 85 57 43 85 58 44 85 59 46 85 60 48 85 61 49 85 62 51 85 63 52 85 64 54 85 65 56 85 66 57 85 67 59 85 68 60 85 69 62 85 70 64 85 71 65 85 73 67 85 74 68 85 75 70 85 76 72 85 77 73 85 78 75 85 79 76 85 80 78 85 81 80 85 82 81 85 83 83 85 84 85 85 85 86 85 86 88 85 87 89 85 88 91 85 89 93 85 90 94 85 91 96 85 92 97 85 93 99 85 94 101 85 95 102 85 96 104 85 97 105 85 98 107 85 99 109 85 100 110 85 101 112 85 102 113 85 103 115 85 104 117 85 105 118 85 106 120 85 107 121 85 108 123 85 110 125 85 111 126 85 112 128 85 113 129 85 114 131 85 115 133 85 116 134 85 117 136 85 118 137 85 119 139 85 120 141 85 121 142 85 122 144 85 123 145 85 124 147 85 125 149 85 126 150 85 127 152 85 128 153 85 129 155 85 130 157 85 131 158 85 132 160 85 133 161 85 134 163 85 135 165 85 136 166 85 137 168 85 138 170 85 139 171 85 140 173 85 141 174 85 142 176 85 143 178 85 144 179 85 146 181 85 147 182 85 148 184 85 149 186 85 150 187 85 151 189 85 152 190 85 153 192 85 154 194 85 155 195 85 156 197 85 157 198 85 158 200 85 159 202 85 160 203 85 161 205 85 162 206 85 163 208 85 164 210 85 165 211 85 166 213 85 167 214 85 168 216 85 169 218 85 170 219 85 171 221 85 172 222 85 173 224 85 174 226 85 175 227 85 176 229 85 177 230 85 178 232 85 179 234 85 180 235 85 181 237 85 183 238 85 184 240 85 185 242 85 186 243 85 187 245 85 188 246 85 189 248 85 190 250 85 191 251 85 192 253 85 193 255 85 194
0 88 31 1 88 32 3 88 33 4 88 34 6 88 35 8 88 37 9 88 38 11 88 39 12 88 40 14 88 41 16 88 42 17 88 43 19 88 44 20 88 45 22 88 46 24 88 47 25 88 48 27 88 49 28 88 50 30 88 51 32 88 52 33 88 53 35 88 54 36 88 55 38 88 56 40 88 57 41 88 58 43 88 59 44 88 60 46 88 61 48 88 62 49 88 63 51 88 64 52 88 65 54 88 66 56 88 67 57 88 68 59 88 69 60 88 70 62 88 71 64 88 73 65 88 74 67 88 75 68 88 76 70 88 77 72 88 78 73 88 79 75 88 80 76 88 81 78 88 82 80 88 83 81 88 84 83 88 85 85 88 86 86 88 87 88 88 88 89 88 89 91 88 90 93 88 91 94 88 92 96 88 93 97 88 94 99 88 95 101 88 96 102 88 97 104 88 98 105 88 99 107 88 100 109 88 101 110 88 102 112 88 103 113 88 104 115 88 105 117 88 106 118 88 107 120 88 108 121 88 110 123 88 111 125 88 112 126 88 113 128 88 114 129 88 115 131 88 116 133 88 117 134 88 118 136 88 119 137 88 120 139 88 121 141 88 122 142 88 123 144 88 124 145 88 125 147 88 126 149 88 127 150 88 128 152 88 129 153 88 130 155 88 131 157 88 132 158 88 133 160 88 134 161 88 135 163 88 136 165 88 137 166 88 138 168 88 139 170 88 140 171 88 141 173 88 142 174 88 143 176 88 144 178 88 146 179 88 147 181 88 148 182 88 149 184 88 150 186 88 151 187 88 152 189 88 153 190 88 154 192 88 155 194 88 156 195 88 157 197 88 158 198 88 159 200 88 160 202 88 161 203 88 162 205 88 163 206 88 164 208 88 165 210 88 166 211 88 167 213 88 168 214 88 169 216 88 170 218 88 171 219 88 172 221 88 173 222 88 174 224 88 175 226 88 176 227 88 177 229 88 178 230 88 179 232 88 180 234 88 181 235 88 183 237 88 184 238 88 185 240 88 186 242 88 187 243 88 188 245 88 189 246 88 190 248 88 191 250 88 192 251 88 193 253 88 194 255 88 195
0 91 32 1 91 33 3 91 34 4 91 35 6 91 37 8 91 38 9 91 39 11 91 40 12 91 41 14 91 42 16 91 43 17 91 44 19 91 45 20 91 46 22 91 47 24 91 48 25 91 49 27 91 50 28 91 51 30 91 52 32 91 53 33 91 54 35 91 55 36 91 56 38 91 57 40 91 58 41 91 59 43 91 60 44 91 61 46 91 62 48 91 63 49 91 64 51 91 65 52 91 66 54 91 67 56 91 68 57 91 69 59 91 70 60 91 71 62 91 73 64 91 74 65 91 75 67 91 76 68 91 77 70 91 78 72 91 79 73 91 80 75 91 81 76 91 82 78 91 83 80 91 84 81 91 85 83 91 86 85 91 87 86 91 88 88 91 89 89 91 90 91 91 91 93 91 92 94 91 93 96 91 94 97 91 95 99 91 96 101 91 97 102 91 98 104 91 99 105 91 100 107 91 101 109 91 102 110 91 103 112 91 104 113 91 105 115 91 106 117 91 107 118 91 108 120 91 110 121 91 111 123 91 112 125 91 113 126 91 114 128 91 115 129 91 116 131 91 117 133 91 118 134 91 119 136 91 120 137 91 121 139 91 122 141 91 123 142 91 124 144 91 125 145 91 126 147 91 127 149 91 128 150 91 129 152 91 130 153 91 131 155 91 132 157 91 133 158 91 134 160 91 135 161 91 136 163 91 137 165 91 138 166 91 139 168 91 140 170 91 141 171 91 142 173 91 143 174 91 144 176 91 146 178 91 147 179 91 148 181 91 149 182 91 150 184 91 151 186 91 152 187 91 153 189 91 154 190 91 155 192 91 156 194 91 157 195 91 158 197 91 159 198 91 160 200 91 161 202 91 162 203 91 163 205 91 164 206 91 165 208 91 166 210 91 167 211 91 168 213 91 169 214 91 170 216 91 171 218 91 172 219 91 173 221 91 174 222 91 175 224 91 176 226 91 177 227 91 178 229 91 179 230 91 180 232 91 181 234 91 183 235 91 184 237 91 185 238 91 186 240 91 187 242 91 188 243 91 189 245 91 190 246 91 191 248 91 192 250 91 193 251 91 194 253 91 195 255 91 196
0 94 33 1 94 34 3 94 35 4 94 37 6 94 38 8 94 39 9 94 40 11 94 41 12 94 42 14 94 43 16 94 44 17 94 45 19 94 46 20 94 47 22 94 48 24 94 49 25 94 50 27 94 51 28 94 52 30 94 53 32 94 54 33 94 55 35 94 56 36 94 57 38 94 58 40 94 59 41 94 60 43 94 61 44 94 62 46 94 63 48 94 64 49 94 65 51 94 66 52 94 67 54 94 68 56 94 69 57 94 70 59 94 71 60 94 73 62 94 74 64 94 75 65 94 76 67 94 77 68 94 78 70 94 79 72 94 80 73 94 81 75 94 82 76 94 83 78 94 84 80 94 85 81 94 86 83 94 87 85 94 88 86 94 89 88 94 90 89 94 91 91 94 92 93 94 93 94 94 94 96 94 95 97 94 96 99 94 97 101 94 98 102 94 99 104 94 100 105 94 101 107 94 102 109 94 103 110 94 104 112 94 105 113 94 106 115 94 107 117 94 108 118 94 110 120 94 111 121 94 112 123 94 113 125 94 114 126 94 115 128 94 116 129 94 117 131 94 118 133 94 119 134 94 120 136 94 121 137 94 122 139 94 123 141 94 124 142 94 125 144 94 126 145 94 127 147 94 128 149 94 129 150 94 130 152 94 131 153 94 132 155 94 133 157 94 134 158 94 135 160 94 136 161 94 137 163 94 138 165 94 139 166 94 140 168 94 141 170 94 142 171 94 143 173 94 144 174 94 146 176 94 147 178 94 148 179 94 149 181 94 150 182 94 151 184 94 152 186 94 153 187 94 154 189 94 155 190 94 156 192 94 157 194 94 158 195 94 159 197 94 160 198 94 161 200 94 162 202 94 163 203 94 164 205 94 165 206 94 166 208 94 167 210 94 168 211 94 169 213 94 170 214 94 171 216 94 172 218 94 173 219 94 174 221 94 175 222 94 176 224 94 177 226 94 178 227 94 179 229 94 180 230 94 181 232 94 183 234 94 184 235 94 185 237 94 186 238 94 187 240 94 188 242 94 189 243 94 190 245 94 191 246 94 192 248 94 193 250 94 194 251 94 195 253 94 196 255 94 197
0 97 34 1 97 35 3 97 37 4 97 38 6 97 39 8 97 40 9 97 41 11 97 42 12 97 43 14 97 44 16 97 45 17 97 46 19 97 47 20 97 48 22 97 49 24 97 50 25 97 51 27 97 52 28 97 53 30 97 54 32 97 55 33 97 56 35 97 57 36 97 58 38 97 59 40 97 60 41 97 61 43 97 62 44 97 63 46 97 64 48 97 65 49 97 66 51 97 67 52 97 68 54 97 69 56 97 70 57 97 71 59 97 73 60 97 74 62 97 75 64 97 76 65 97 77 67 97 78 68 97 79 70 97 80 72 97 81 73 97 82 75 97 83 76 97 84 78 97 85 80 97 86 81 97 87 83 97 88 85 97 89 86 97 90 88 97 91 89 97 92 91 97 93 93 97 94 94 97 95 96 97 96 97 97 97 99 97 98 101 97 99 102 97 100 104 97 101 105 97 102 107 97 103 109 97 104 110 97 105 112 97 106 113 97 107 115 97 108 117 97 110 118 97 111 120 97 112 121 97 113 123 97 114 125 97 115 126 97 116 128 97 117 129 97 118 131 97 119 133 97 120 134 97 121 136 97 122 137 97 123 139 97 124 141 97 125 142 97 126 144 97 127 145 97 128 147 97 129 149 97 130 150 97 131 152 97 132 153 97 133 155 97 134 157 97 135 158 97 136 160 97 137 161 97 138 163 97 139 165 97 140 166 97 141 168 97 142 170 97 143 171 97 144 173 97 146 174 97 147 176 97 148 178 97 149 179 97 150 181 97 151 182 97 152 184 97 153 186 97 154 187 97 155 189 97 156 190 97 157 192 97 158 194 97 159 195 97 160 197 97 161 198 97 162 200 97 163 202 97 164 203 97 165 205 97 166 206 97 167 208 97 168 210 97 169 211 97 170 213 97 171 214 97 172 216 97 173 218 97 174 219 97 175 221 97 176 222 97 177 224 97 178 226 97 179 227 97 180 229 97 181 230 97 183 232 97 184 234 97 185 235 97 186 237 97 187 238 97 188 240 97 189 242 97 190 243 97 191 245 97 192 246 97 193 248 97 194 250 97 195 251 97 196 253 97 197 255 97 198
0 100 35 1 100 37 3 100 38 4 100 39 6 100 40 8 100 41 9 100 42 11 100 43 12 100 44 14 100 45 16 100 46 17 100 47 19 100 48 20 100 49 22 100 50 24 100 51 25 100 52 27 100 53 28 100 54 30 100 55 32 100 56 33 100 57 35 100 58 36 100 59 38 100 60 40 100 61 41 100 62 43 100 63 44 100 64 46 100 65 48 100 66 49 100 67 51 100 68 52 100 69 54 100 70 56 100 71 57 100 73 59 100 74 60 100 75 62 100 76 64 100 77 65 100 78 67 100 79 68 100 80 70 100 81 72 100 82 73 100 83 75 100 84 76 100 85 78 100 86 80 100 87 81 100 88 83 100 89 85 100 90 86 100 91 88 100 92 89 100 93 91 100 94 93 100 95 94 100 96 96 100 97 97 100 98 99 100 99 101 100 100 102 100 101 104 100 102 105 100 103 107 100 104 109 100 105 110 100 106 112 100 107 113 100 108 115 100 110 117 100 111 118 100 112 120 100 113 121 100 114 123 100 115 125 100 116 126 100 117 128 100 118 129 100 119 131 100 120 133 100 121 134 100 122 136 100 123 137 100 124 139 100 125 141 100 126 142 100 127 144 100 128 145 100 129 147 100 130 149 100 131 150 100 132 152 100 133 153 100 134 155 100 135 157 100 136 158 100 137 160 100 138 161 100 139 163 100 140 165 100 141 166 100 142 168 100 143 170 100 144 171 100 146 173 100 147 174 100 148 176 100 149 178 100 150 179 100 151 181 100 152 182 100 153 184 100 154 186 100 155 187 100 156 189 100 157 190 100 158 192 100 159 194 100 160 195 100 161 197 100 162 198 100 163 200 100 164 202 100 165 203 100 166 205 100 167 206 100 168 208 100 169 210 100 170 211 100 171 213 100 172 214 100 173 216 100 174 218 100 175 219 100 176 221 100 177 222 100 178 224 100 179 226 100 180 227 100 181 229 100 183 230 100 184 232 100 185 234 100 186 235 100 187 237 100 188 238 100 189 240 100 190 242 100 191 243 100 192 245 100 193 246 100 194 248 100 195 250 100 196 251 100 197 253 100 198 255 100 199
0 103 37 1 103 38 3 103 39 4 103 40 6 103 41 8 103 42 9 103 43 11 103 44 12 103 45 14 103 46 16 103 47 17 103 48 19 103 49 20 103 50 22 103 51 24 103 52 25 103 53 27 103 54 28 103 55 30 103 56 32 103 57 33 103 58 35 103 59 36 103 60 38 103 61 40 103 62 41 103 63 43 103 64 44 103 65 46 103 66 48 103 67 49 103 68 51 103 69 52 103 70 54 103 71 56 103 73 57 103 74 59 103 75 60 103 76 62 103 77 64 103 78 65 103 79 67 103 80 68 103 81 70 103 82 72 103 83 73 103 84 75 103 85 76 103 86 78 103 87 80 103 88 81 103 89 83 103 90 85 103 91 86 103 92 88 103 93 89 103 94 91 103 95 93 103 96 94 103 97 96 103 98 97 103 99 99 103 100 101 103 101 102 103 102 104 103 103 105 103 104 107 103 105 109 103 106 110 103 107 112 103 108 113 103 110 115 103 111 117 103 112 118 103 113 120 103 114 121 103 115 123 103 116 125 103 117 126 103 118 128 103 119 129 103 120 131 103 121 133 103 122 134 103 123 136 103 124 137 103 125 139 103 126 141 103 127 142 103 128 144 103 129 145 103 130 147 103 131 149 103 132 150 103 133 152 103 134 153 103 135 155 103 136 157 103 137 158 103 138 160 103 139 161 103 140 163 103 141 165 103 142 166 103 143 168 103 144 170 103 146 171 103 147 173 103 148 174 103 149 176 103 150 178 103 151 179 103 152 181 103 153 182 103 154 184 103 155 186 103 156 187 103 157 189 103 158 190 103 159 192 103 160 194 103 161 195 103 162 197 103 163 198 103 164 200 103 165 202 103 166 203 103 167 205 103 168 206 103 169 208 103 170 210 103 171 211 103 172 213 103 173 214 103 174 216 103 175 218 103 176 219 103 177 221 103 178 222 103 179 224 103 180 226 103 181 227 103 183 229 103 184 230 103 185 232 103 186 234 103 187 235 103 188 237 103 189 238 103 190 240 103 191 242 103 192 243 103 193 245 103 194 246 103 195 248 103 196 250 103 197 251 103 198 253 103 199 255 103 200
0 106 38 1 106 39 3 106 40 4 106 41 6 106 42 8 106 43 9 106 44 11 106 45 12 106 46 14 106 47 16 106 48 17 106 49 19 106 50 20 106 51 22 106 52 24 106 53 25 106 54 27 106 55 28 106 56 30 106 57 32 106 58 33 106 59 35 106 60 36 106 61 38 106 62 40 106 63 41 106 64 43 106 65 44 106 66 46 106 67 48 106 68 49 106 69 51 106 70 52 106 71 54 106 73 56 106 74 57 106 75 59 106 76 60 106 77 62 106 78 64 106 79 65 106 80 67 106 81 68 106 82 70 106 83 72 106 84 73 106 85 75 106 86 76 106 87 78 106 88 80 106 89 81 106 90 83 106 91 85 106 92 86 106 93 88 106 94 89 106 95 91 106 96 93 106 97 94 106 98 96 106 99 97 106 100 99 106 101 101 106 102 102 106 103 104 106 104 105 106 105 107 106 106 109 106 107 110 106 108 112 106 110 113 106 111 115 106 112 117 106 113 118 106 114 120 106 115 121 106 116 123 106 117 125 106 118 126 106 119 128 106 120 129 106 121 131 106 122 133 106 123 134 106 124 136 106 125 137 106 126 139 106 127 141 106 128 142 106 129 144 106 130 145 106 131 147 106 132 149 106 133 150 106 134 152 106 135 153 106 136 155 106 137 157 106 138 158 106 139 160 106 140 161 106 141 163 106 142 165 106 143 166 106 144 168 106 146 170 106 147 171 106 148 173 106 149 174 106 150 176 106 151 178 106 152 179 106 153 181 106 154 182 106 155 184 106 156 186 106 157 187 106 158 189 106 159 190 106 160 192 106 161 194 106 162 195 106 163 197 106 164 198 106 165 200 106 166 202 106 167 203 106 168 205 106 169 206 106 170 208 106 171 210 106 172 211 106 173 213 106 174 214 106 175 216 106 176 218 106 177 219 106 178 221 106 179 222 106 180 224 106 181 226 106 183 227 106 184 229 106 185 230 106 186 232 106 187 234 106 188 235 106 189 237 106 190 238 106 191 240 106 192 242 106 193 243 106 194 245 106 195 246 106 196 248 106 197 250 106 198 251 106 199 253 106 200 255 106 201
0 108 39 1 108 40 3 108 41 4 108 42 6 108 43 8 108 44 9 108 45 11 108 46 12 108 47 14 108 48 16 108 49 17 108 50 19 108 51 20 108 52 22 108 53 24 108 54 25 108 55 27 108 56 28 108 57 30 108 58 32 108 59 33 108 60 35 108 61 36 108 62 38 108 63 40 108 64 41 108 65 43 108 66 44 108 67 46 108 68 48 108 69 49 108 70 51 108 71 52 108 73 54 108 74 56 108 75 57 108 76 59 108 77 60 108 78 62 108 79 64 108 80 65 108 81 67 108 82 68 108 83 70 108 84 72 108 85 73 108 86 75 108 87 76 108 88 78 108 89 80 108 90 81 108 91 83 108 92 85 108 93 86 108 94 88 108 95 89 108 96 91 108 97 93 108 98 94 108 99 96 108 100 97 108 101 99 108 102 101 108 103 102 108 104 104 108 105 105 108 106 107 108 107 109 108 108 110 108 110 112 108 111 113 108 112 115 108 113 117 108 114 118 108 115 120 108 116 121 108 117 123 108 118 125 108 119 126 108 120 128 108 121 129 108 122 131 108 123 133 108 124 134 108 125 136 108 126 137 108 127 139 108 128 141 108 129 142 108 130 144 108 131 145 108 132 147 108 133 149 108 134 150 108 135 152 108 136 153 108 137 155 108 138 157 108 139 158 108 140 160 108 141 161 108 142 163 108 143 165 108 144 166 108 146 168 108 147 170 108 148 171 108 149 173 108 150 174 108 151 176 108 152 178 108 153 179 108 154 181 108 155 182 108 156 184 108 157 186 108 158 187 108 159 189 108 160 190 108 161 192 108 162 194 108 163 195 108 164 197 108 165 198 108 166 200 108 167 202 108 168 203 108 169 205 108 170 206 108 171 208 108 172 210 108 173 211 108 174 213 108 175 214 108 176 216 108 177 218 108 178 219 108 179 221 108 180 222 108 181 224 108 183 226 108 184 227 108 185 229 108 186 230 108 187 232 108 188 234 108 189 235 108 190 237 108 191 238 108 192 240 108 193 242 108 194 243 108 195 245 108 196 246 108 197 248 108 198 250 108 199 251 108 200 253 108 201 255 108 202
0 111 40 1 111 41 3 111 42 4 111 43 6 111 44 8 111 45 9 111 46 11 111 47 12 111 48 14 111 49 16 111 50 17 111 51 19 111 52 20 111 53 22 111 54 24 111 55 25 111 56 27 111 57 28 111 58 30 111 59 32 111 60 33 111 61 35 111 62 36 111 63 38 111 64 40 111 65 41 111 66 43 111 67 44 111 68 46 111 69 48 111 70 49 111 71 51 111 73 52 111 74 54 111 75 56 111 76 57 111 77 59 111 78 60 111 79 62 111 80 64 111 81 65 111 82 67 111 83 68 111 84 70 111 85 72 111 86 73 111 87 75 111 88 76 111 89 78 111 90 80 111 91 81 111 92 83 111 93 85 111 94 86 111 95 88 111 96 89 111 97 91 111 98 93 111 99 94 111 100 96 111 101 97 111 102 99 111 103 101 111 104 102 111 105 104 111 106 105 111 107 107 111 108 109 111 110 110 111 111 112 111 112 113 111 113 115 111 114 117 111 115 118 111 116 120 111 117 121 111 118 123 111 119 125 111 120 126 111 121 128 111 122 129 111 123 131 111 124 133 111 125 134 111 126 136 111 127 137 111 128 139 111 129 141 111 130 142 111 131 144 111 132 145 111 133 147 111 134 149 111 135 150 111 136 152 111 137 153 111 138 155 111 139 157 111 140 158 111 141 160 111 142 161 111 143 163 111 144 165 111 146 166 111 147 168 111 148 170 111 149 171 111 150 173 111 151 174 111 152 176 111 153 178 111 154 179 111 155 181 111 156 182 111 157 184 111 158 186 111 159 187 111 160 189 111 161 190 111 162 192 111 163 194 111 164 195 111 165 197 111 166 198 111 167 200 111 168 202 111 169 203 111 170 205 111 171 206 111 172 208 111 173 210 111 174 211 111 175 213 111 176 214 111 177 216 111 178 218 111 179 219 111 180 221 111 181 222 111 183 224 111 184 226 111 185 227 111 186 229 111 187 230 111 188 232 111 189 234 111 190 235 111 191 237 111 192 238 111 193 240 111 194 242 111 195 243 111 196 245 111 197 246 111 198 248 111 199 250 111 200 251 111 201 253 111 202 255 111 203
0 114 41 1 114 42 3 114 43 4 114 44 6 114 45 8 114 46 9 114 47 11 114 48 12 114 49 14 114 50 16 114 51 17 114 52 19 114 53 20 114 54 22 114 55 24 114 56 25 114 57 27 114 58 28 114 59 30 114 60 32 114 61 33 114 62 35 114 63 36 114 64 38 114 65 40 114 66 41 114 67 43 114 68 44 114 69 46 114 70 48 114 71 49 114 73 51 114 74 52 114 75 54 114 76 56 114 77 57 114 78 59 114 79 60 114 80 62 114 81 64 114 82 65 114 83 67 114 84 68 114 85 70 114 86 72 114 87 73 114 88 75 114 89 76 114 90 78 114 91 80 114 92 81 114 93 83 114 94 85 114 95 86 114 96 88 114 97 89 114 98 91 114 99 93 114 100 94 114 101 96 114 102 97 114 103 99 114 104 101 114 105 102 114 106 104 114 107 105 114 108 107 114 110 109 114 111 110 114 112 112 114 113 113 114 114 115 114 115 117 114 116 118 114 117 120 114 118 121 114 119 123 114 120 125 114 121 126 114 122 128 114 123 129 114 124 131 114 125 133 114 126 134 114 127 136 114 128 137 114 129 139 114 130 141 114 131 142 114 132 144 114 133 145 114 134 147 114 135 149 114 136 150 114 137 152 114 138 153 114 139 155 114 140 157 114 141 158 114 142 160 114 143 161 114 144 163 114 146 165 114 147 166 114 148 168 114 149 170 114 150 171 114 151 173 114 152 174 114 153 176 114 154 178 114 155 179 114 156 181 114 157 182 114 158 184 114 159 186 114 160 187 114 161 189 114 162 190 114 163 192 114 164 194 114 165 195 114 166 197 114 167 198 114 168 200 114 169 202 114 170 203 114 171 205 114 172 206 114 173 208 114 174 210 114 175 211 114 176 213 114 177 214 114 178 216 114 179 218 114 180 219 114 181 221 114 183 222 114 184 224 114 185 226 114 186 227 114 187 229 114 188 230 114 189 232 114 190 234 114 191 235 114 192 237 114 193 238 114 194 240 114 195 242 114 196 243 114 197 245 114 198 246 114 199 248 114 200 250 114 201 251 114 202 253 114 203 255 114 204
0 117 42 1 117 43 3 117 44 4 117 45 6 117 46 8 117 47 9 117 48 11 117 49 12 117 50 14 117 51 16 117 52 17 117 53 19 117 54 20 117 55 22 117 56 24 117 57 25 117 58 27 117 59 28 117 60 30 117 61 32 117 62 33 117 63 35 117 64 36 117 65 38 117 66 40 117 67 41 117 68 43 117 69 44 117 70 46 117 71 48 117 73 49 117 74 51 117 75 52 117 76 54 117 77 56 117 78 57 117 79 59 117 80 60 117 81 62 117 82 64 117 83 65 117 84 67 117 85 68 117 86 70 117 87 72 117 88 73 117 89 75 117 90 76 117 91 78 117 92 80 117 93 81 117 94 83 117 95 85 117 96 86 117 97 88 117 98 89 117 99 91 117 100 93 117 101 94 117 102 96 117 103 97 117 104 99 117 105 101 117 106 102 117 107 104 117 108 105 117 110 107 117 111 109 117 112 110 117 113 112 117 114 113 117 115 115 117 116 117 117 117 118 117 118 120 117 119 121 117 120 123 117 121 125 117 122 126 117 123 128 117 124 129 117 125 131 117 126 133 117 127 134 117 128 136 117 129 137 117 130 139 117 131 141 117 132 142 117 133 144 117 134 145 117 135 147 117 136 149 117 137 150 117 138 152 117 139 153 117 140 155 117 141 157 117 142 158 117 143 160 117 144 161 117 146 163 117 147 165 117 148 166 117 149 168 117 150 170 117 151 171 117 152 173 117 153 174 117 154 176 117 155 178 117 156 179 117 157 181 117 158 182 117 159 184 117 160 186 117 161 187 117 162 189 117 163 190 117 164 192 117 165 194 117 166 195 117 167 197 117 168 198 117 169 200 117 170 202 117 171 203 117 172 205 117 173 206 117 174 208 117 175 210 117 176 211 117 177 213 117 178 214 117 179 216 117 180 218 117 181 219 117 183 221 117 184 222 117 185 224 117 186 226 117 187 227 117 188 229 117 189 230 117 190 232 117 191 234 117 192 235 117 193 237 117 194 238 117 195 240 117 196 242 117 197 243 117 198 245 117 199 246 117 200 248 117 201 250 117 202 251 117 203 253 117 204 255 117 205
0 120 43 1 120 44 3 120 45 4 120 46 6 120 47 8 120 48 9 120 49 11 120 50 12 120 51 14 120 52 16 120 53 17 120 54 19 120 55 20 120 56 22 120 57 24 120 58 25 120 59 27 120 60 28 120 61 30 120 62 32 120 63 33 120 64 35 120 65 36 120 66 38 120 67 40 120 68 41 120 69 43 120 70 44 120 71 46 120 73 48 120 74 49 120 75 51 120 76 52 120 77 54 120 78 56 120 79 57 120 80 59 120 81 60 120 82 62 120 83 64 120 84 65 120 85 67 120 86 68 120 87 70 120 88 72 120 89 73 120 90 75 120 91 76 120 92 78 120 93 80 120 94 81 120 95 83 120 96 85 120 97 86 120 98 88 120 99 89 120 100 91 120 101 93 120 102 94 120 103 96 120 104 97 120 105 99 120 106 101 120 107 102 120 108 104 120 110 105 120 111 107 120 112 109 120 113 110 120 114 112 120 115 113 120 116 115 120 117 117 120 118 118 120 119 120 120 120 121 120 121 123 120 122 125 120 123 126 120 124 128 120 125 129 120 126 131 120 127 133 120 128 134 120 129 136 120 130 137 120 131 139 120 132 141 120 133 142 120 134 144 120 135 145 120 136 147 120 137 149 120 138 150 120 139 152 120 140 153 120 141 155 120 142 157 120 143 158 120 144 160 120 146 161 120 147 163 120 148 165 120 149 166 120 150 168 120 151 170 120 152 171 120 153 173 120 154 174 120 155 176 120 156 178 120 157 179 120 158 181 120 159 182 120 160 184 120 161 186 120 162 187 120 163 189 120 164 190 120 165 192 120 166 194 120 167 195 120 168 197 120 169 198 120 170 200 120 171 202 120 172 203 120 173 205 120 174 206 120 175 208 120 176 210 120 177 211 120 178 213 120 179 214 120 180 216 120 181 218 120 183 219 120 184 221 120 185 222 120 186 224 120 187 226 120 188 227 120 189 229 120 190 230 120 191 232 120 192 234 120 193 235 120 194 237 120 195 238 120 196 240 120 197 242 120 198 243 120 199 245 120 200 246 120 201 248 120 202 250 120 203 251 120 204 253 120 205 255 120 206
0 123 44 1 123 45 3 123 46 4 123 47 6 123 48 8 123 49 9 123 50 11 123 51 12 123 52 14 123 53 16 123 54 17 123 55 19 123 56 20 123 57 22 123 58 24 123 59 25 123 60 27 123 61 28 123 62 30 123 63 32 123 64 33 123 65 35 123 66 36 123 67 38 123 68 40 123 69 41 123 70 43 123 71 44 123 73 46 123 74 48 123 75 49 123 76 51 123 77 52 123 78 54 123 79 56 123 80 57 123 81 59 123 82 60 123 83 62 123 84 64 123 85 65 123 86 67 123 87 68 123 88 70 123 89 72 123 90 73 123 91 75 123 92 76 123 93 78 123 94 80 123 95 81 123 96 83 123 97 85 123 98 86 123 99 88 123 100 89 123 101 91 123 102 93 123 103 94 123 104 96 123 105 97 123 106 99 123 107 101 123 108 102 123 110 104 123 111 105 123 112 107 123 113 109 123 114 110 123 115 112 123 116 113 123 117 115 123 118 117 123 119 118 123 120 120 123 121 121 123 122 123 123 123 125 123 124 126 123 125 128 123 126 129 123 127 131 123 128 133 123 129 134 123 130 136 123 131 137 123 132 139 123 133 141 123 134 142 123 135 144 123 136 145 123 137 147 123 138 149 123 139 150 123 140 152 123 141 153 123 142 155 123 143 157 123 144 158 123 146 160 123 147 161 123 148 163 123 149 165 123 150 166 123 151 168 123 152 170 123 153 171 123 154 173 123 155 174 123 156 176 123 157 178 123 158 179 123 159 181 123 160 182 123 161 184 123 162 186 123 163 187 123 164 189 123 165 190 123 166 192 123 167 194 123 168 195 123 169 197 123 170 198 123 171 200 123 172 202 123 173 203 123 174 205 123 175 206 123 176 208 123 177 210 123 178 211 123 179 213 123 180 214 123 181 216 123 183 218 123 184 219 123 185 221 123 186 222 123 187 224 123 188 226 123 189 227 123 190 229 123 191 230 123 192 232 123 193 234 123 194 235 123 195 237 123 196 238 123 197 240 123 198 242 123 199 243 123 200 245 123 201 246 123 202 248 123 203 250 123 204 251 123 205 253 123 206 255 123 207
0 126 45 1 126 46 3 126 47 4 126 48 6 126 49 8 126 50 9 126 51 11 126 52 12 126 53 14 126 54 16 126 55 17 126 56 19 126 57 20 126 58 22 126 59 24 126 60 25 126 61 27 126 62 28 126 63 30 126 64 32 126 65 33 126 66 35 126 67 36 126 68 38 126 69 40 126 70 41 126 71 43 126 73 44 126 74 46 126 75 48 126 76 49 126 77 51 126 78 52 126 79 54 126 80 56 126 81 57 126 82 59 126 83 60 126 84 62 126 85 64 126 86 65 126 87 67 126 88 68 126 89 70 126 90 72 126 91 73 126 92 75 126 93 76 126 94 78 126 95 80 126 96 81 126 97 83 126 98 85 126 99 86 126 100 88 126 101 89 126 102 91 126 103 93 126 104 94 126 105 96 126 106 97 126 107 99 126 108 101 126 110 102 126 111 104 126 112 105 126 113 107 126 114 109 126 115 110 126 116 112 126 117 113 126 118 115 126 119 117 126 120 118 126 121 120 126 122 121 126 123 123 126 124 125 126 125 126 126 126 128 126 127 129 126 128 131 126 129 133 126 130 134 126 131 136 126 132 137 126 133 139 126 134 141 126 135 142 126 136 144 126 137 145 126 138 147 126 139 149 126 140 150 126 141 152 126 142 153 126 143 155 126 144 157 126 146 158 126 147 160 126 148 161 126 149 163 126 150 165 126 151 166 126 152 168 126 153 170 126 154 171 126 155 173 126 156 174 126 157 176 126 158 178 126 159 179 126 160 181 126 161 182 126 162 184 126 163 186 126 164 187 126 165 189 126 166 190 126 167 192 126 168 194 126 169 195 126 170 197 126 171 198 126 172 200 126 173 202 126 174 203 126 175 205 126 176 206 126 177 208 126 178 210 126 179 211 126 180 213 126 181 214 126 183 216 126 184 218 126 185 219 126 186 221 126 187 222 126 188 224 126 189 226 126 190 227 126 191 229 126 192 230 126 193 232 126 194 234 126 195 235 126 196 237 126 197 238 126 198 240 126 199 242 126 200 243 126 201 245 126 202 246 126 203 248 126 204 250 126 205 251 126 206 253 126 207 255 126 208
0 128 46 1 128 47 3 128 48 4 128 49 6 128 50 8 128 51 9 128 52 11 128 53 12 128 54 14 128 55 16 128 56 17 128 57 19 128 58 20 128 59 22 128 60 24 128 61 25 128 62 27 128 63 28 128 64 30 128 65 32 128 66 33 128 67 35 128 68 36 128 69 38 128 70 40 128 71 41 128 73 43 128 74 44 128 75 46 128 76 48 128 77 49 128 78 51 128 79 52 128 80 54 128 81 56 128 82 57 128 83 59 128 84 60 128 85 62 128 86 64 128 87 65 128 88 67 128 89 68 128 90 70 128 91 72 128 92 73 128 93 75 128 94 76 128 95 78 128 96 80 128 97 81 128 98 83 128 99 85 128 100 86 128 101 88 128 102 89 128 103 91 128 104 93 128 105 94 128 106 96 128 107 97 128 108 99 128 110 101 128 111 102 128 112 104 128 113 105 128 114 107 128 115 109 128 116 110 128 117 112 128 118 113 128 119 115 128 120 117 128 121 118 128 122 120 128 123 121 128 124 123 128 125 125 128 126 126 128 127 128 128 128 129 128 129 131 128 130 133 128 131 134 128 132 136 128 133 137 128 134 139 128 135 141 128 136 142 128 137 144 128 138 145 128 139 147 128 140 149 128 141 150 128 142 152 128 143 153 128 144 155 128 146 157 128 147 158 128 148 160 128 149 161 128 150 163 128 151 165 128 152 166 128 153 168 128 154 170 128 155 171 128 156 173 128 157 174 128 158 176 128 159 178 128 160 179 128 161 181 128 162 182 128 163 184 128 164 186 128 165 187 128 166 189 128 167 190 128 168 192 128 169 194 128 170 195 128 171 197 128 172 198 128 173 200 128 174 202 128 175 203 128 176 205 128 177 206 128 178 208 128 179 210 128 180 211 128 181 213 128 183 214 128 184 216 128 185 218 128 186 219 128 187 221 128 188 222 128 189 224 128 190 226 128 191 227 128 192 229 128 193 230 128 194 232 128 195 234 128 196 235 128 197 237 128 198 238 128 199 240 128 200 242 128 201 243 128 202 245 128 203 246 128 204 248 128 205 250 128 206 251 128 207 253 128 208 255 128 209
0 131 47 1 131 48 3 131 49 4 131 50 6 131 51 8 131 52 9 131 53 11 131 54 12 131 55 14 131 56 16 131 57 17 131 58 19 131 59 20 131 60 22 131 61 24 131 62 25 131 63 27 131 64 28 131 65 30 131 66 32 131 67 33 131 68 35 131 69 36 131 70 38 131 71 40 131 73 41 131 74 43 131 75 44 131 76 46 131 77 48 131 78 49 131 79 51 131 80 52 131 81 54 131 82 56 131 83 57 131 84 59 131 85 60 131 86 62 131 87 64 131 88 65 131 89 67 131 90 68 131 91 70 131 92 72 131 93 73 131 94 75 131 95 76 131 96 78 131 97 80 131 98 81 131 99 83 131 100 85 131 101 86 131 102 88 131 103 89 131 104 91 131 105 93 131 106 94 131 107 96 131 108 97 131 110 99 131 111 101 131 112 102 131 113 104 131 114 105 131 115 107 131 116 109 131 117 110 131 118 112 131 119 113 131 120 115 131 121 117 131 122 118 131 123 120 131 124 121 131 125 123 131 126 125 131 127 126 131 128 128 131 129 129 131 130 131 131 131 133 131 132 134 131 133 136 131 134 137 131 135 139 131 136 141 131 137 142 131 138 144 131 139 145 131 140 147 131 141 149 131 142 150 131 143 152 131 144 153 131 146 155 131 147 157 131 148 158 131 149 160 131 150 161 131 151 163 131 152 165 131 153 166 131 154 168 131 155 170 131 156 171 131 157 173 131 158 174 131 159 176 131 160 178 131 161 179 131 162 181 131 163 182 131 164 184 131 165 186 131 166 187 131 167 189 131 168 190 131 169 192 131 170 194 131 171 195 131 172 197 131 173 198 131 174 200 131 175 202 131 176 203 131 177 205 131 178 206 131 179 208 131 180 210 131 181 211 131 183 213 131 184 214 131 185 216 131 186 218 131 187 219 131 188 221 131 189 222 131 190 224 131 191 226 131 192 227 131 193 229 131 194 230 131 195 232 131 196 234 131 197 235 131 198 237 131 199 238 131 200 240 131 201 242 131 202 243 131 203 245 131 204 246 131 205 248 131 206 250 131 207 251 131 208 253 131 209 255 131 210
0 134 48 1 134 49 3 134 50 4 134 51 6 134 52 8 134 53 9 134 54 11 134 55 12 134 56 14 134 57 16 134 58 17 134 59 19 134 60 20 134 61 22 134 62 24 134 63 25 134 64 27 134 65 28 134 66 30 134 67 32 134 68 33 134 69 35 134 70 36 134 71 38 134 73 40 134 74 41 134 75 43 134 76 44 134 77 46 134 78 48 134 79 49 134 80 51 134 81 52 134 82 54 134 83 56 134 84 57 134 85 59 134 86 60 134 87 62 134 88 64 134 89 65 134 90 67 134 91 68 134 92 70 134 93 72 134 94 73 134 95 75 134 96 76 134 97 78 134 98 80 134 99 81 134 100 83 134 101 85 134 102 86 134 103 88 134 104 89 134 105 91 134 106 93 134 107 94 134 108 96 134 110 97 134 111 99 134 112 101 134 113 102 134 114 104 134 115 105 134 116 107 134 117 109 134 118 110 134 119 112 134 120 113 134 121 115 134 122 117 134 123 118 134 124 120 134 125 121 134 126 123 134 127 125 134 128 126 134 129 128 134 130 129 134 131 131 134 132 133 134 133 134 134 134 136 134 135 137 134 136 139 134 137 141 134 138 142 134 139 144 134 140 145 134 141 147 134 142 149 134 143 150 134 144 152 134 146 153 134 147 155 134 148 157 134 149 158 134 150 160 134 151 161 134 152 163 134 153 165 134 154 166 134 155 168 134 156 170 134 157 171 134 158 173 134 159 174 134 160 176 134 161 178 134 162 179 134 163 181 134 164 182 134 165 184 134 166 186 134 167 187 134 168 189 134 169 190 134 170 192 134 171 194 134 172 195 134 173 197 134 174 198 134 175 200 134 176 202 134 177 203 134 178 205 134 179 206 134 180 208 134 181 210 134 183 211 134 184 213 134 185 214 134 186 216 134 187 218 134 188 219 134 189 221 134 190 222 134 191 224 134 192 226 134 193 227 134 194 229 134 195 230 134 196 232 134 197 234 134 198 235 134 199 237 134 200 238 134 201 240 134 202 242 134 203 243 134 204 245 134 205 246 134 206 248 134 207 250 134 208 251 134 209 253 134 210 255 134 211
0 137 49 1 137 50 3 137 51 4 137 52 6 137 53 8 137 54 9 137 55 11 137 56 12 137 57 14 137 58 16 137 59 17 137 60 19 137 61 20 137 62 22 137 63 24 137 64 25 137 65 27 137 66 28 137 67 30 137 68 32 137 69 33 137 70 35 137 71 36 137 73 38 137 74 40 137 75 41 137 76 43 137 77 44 137 78 46 137 79 48 137 80 49 137 81 51 137 82 52 137 83 54 137 84 56 137 85 57 137 86 59 137 87 60 137 88 62 137 89 64 137 90 65 137 91 67 137 92 68 137 93 70 137 94 72 137 95 73 137 96 75 137 97 76 137 98 78 137 99 80 137 100 81 137 101 83 137 102 85 137 103 86 137 104 88 137 105 89 137 106 91 137 107 93 137 108 94 137 110 96 137 111 97 137 112 99 137 113 101 137 114 102 137 115 104 137 116 105 137 117 107 137 118 109 137 119 110 137 120 112 137 121 113 137 122 115 137 123 117 137 124 118 137 125 120 137 126 121 137 127 123 137 128 125 137 129 126 137 130 128 137 131 129 137 132 131 137 133 133 137 134 134 137 135 136 137 136 137 137 137 139 137 138 141 137 139 142 137 140 144 137 141 145 137 142 147 137 143 149 137 144 150 137 146 152 137 147 153 137 148 155 137 149 157 137 150 158 137 151 160 137 152 161 137 153 163 137 154 165 137 155 166 137 156 168 137 157 170 137 158 171 137 159 173 137 160 174 137 161 176 137 162 178 137 163 179 137 164 181 137 165 182 137 166 184 137 167 186 137 168 187 137 169 189 137 170 190 137 171 192 137 172 194 137 173 195 137 174 197 137 175 198 137 176 200 137 177 202 137 178 203 137 179 205 137 180 206 137 181 208 137 183 210 137 184 211 137 185 213 137 186 214 137 187 216 137 188 218 137 189 219 137 190 221 137 191 222 137 192 224 137 193 226 137 194 227 137 195 229 137 196 230 137 197 232 137 198 234 137 199 235 137 200 237 137 201 238 137 202 240 137 203 242 137 204 243 137 205 245 137 206 246 137 207 248 137 208 250 137 209 251 137 210 253 137 211 255 137 212
0 140 50 1 140 51 3 140 52 4 140 53 6 140 54 8 140 55 9 140 56 11 140 57 12 140 58 14 140 59 16 140 60 17 140 61 19 140 62 20 140 63 22 140 64 24 140 65 25 140 66 27 140 67 28 140 68 30 140 69 32 140 70 33 140 71 35 140 73 36 140 74 38 140 75 40 140 76 41 140 77 43 140 78 44 140 79 46 140 80 48 140 81 49 140 82 51 140 83 52 140 84 54 140 85 56 140 86 57 140 87 59 140 88 60 140 89 62 140 90 64 140 91 65 140 92 67 140 93 68 140 94 70 140 95 72 140 96 73 140 97 75 140 98 76 140 99 78 140 100 80 140 101 81 140 102 83 140 103 85 140 104 86 140 105 88 140 106 89 140 107 91 140 108 93 140 110 94 140 111 96 140 112 97 140 113 99 140 114 101 140 115 102 140 116 104 140 117 105 140 118 107 140 119 109 140 120 110 140 121 112 140 122 113 140 123 115 140 124 117 140 125 118 140 126 120 140 127 121 140 128 123 140 129 125 140 130 126 140 131 128 140 132 129 140 133 131 140 134 133 140 135 134 140 136 136 140 137 137 140 138 139 140 139 141 140 140 142 140 141 144 140 142 145 140 143 147 140 144 149 140 146 150 140 147 152 140 148 153 140 149 155 140 150 157 140 151 158 140 152 160 140 153 161 140 154 163 140 155 165 140 156 166 140 157 168 140 158 170 140 159 171 140 160 173 140 161 174 140 162 176 140 163 178 140 164 179 140 165 181 140 166 182 140 167 184 140 168 186 140 169 187 140 170 189 140 171 190 140 172 192 140 173 194 140 174 195 140 175 197 140 176 198 140 177 200 140 178 202 140 179 203 140 180 205 140 181 206 140 183 208 140 184 210 140 185 211 140 186 213 140 187 214 140 188 216 140 189 218 140 190 219 140 191 221 140 192 222 140 193 224 140 194 226 140 195 227 140 196 229 140 197 230 140 198 232 140 199 234 140 200 235 140 201 237 140 202 238 140 203 240 140 204 242 140 205 243 140 206 245 140 207 246 140 208 248 140 209 250 140 210 251 140 211 253 140 212 255 140 213
0 143 51 1 143 52 3 143 53 4 143 54 6 143 55 8 143 56 9 143 57 11 143 58 12 143 59 14 143 60 16 143 61 17 143 62 19 143 63 20 143 64 22 143 65 24 143 66 25 143 67 27 143 68 28 143 69 30 143 70 32 143 71 33 143 73 35 143 74 36 143 75 38 143 76 40 143 77 41 143 78 43 143 79 44 143 80 46 143 81 48 143 82 49 143 83 51 143 84 52 143 85 54 143 86 56 143 87 57 143 88 59 143 89 60 143 90 62 143 91 64 143 92 65 143 93 67 143 94 68 143 95 70 143 96 72 143 97 73 143 98 75 143 99 76 143 100 78 143 101 80 143 102 81 143 103 83 143 104 85 143 105 86 143 106 88 143 107 89 143 108 91 143 110 93 143 111 94 143 112 96 143 113 97 143 114 99 143 115 101 143 116 102 143 117 104 143 118 105 143 119 107 143 120 109 143 121 110 143 122 112 143 123 113 143 124 115 143 125 117 143 126 118 143 127 120 143 128 121 143 129 123 143 130 125 143 131 126 143 132 128 143 133 129 143 134 131 143 135 133 143 136 134 143 137 136 143 138 137 143 139 139 143 140 141 143 141 142 143 142 144 143 143 145 143 144 147 143 146 149 143 147 150 143 148 152 143 149 153 143 150 155 143 151 157 143 152 158 143 153 160 143 154 161 143 155 163 143 156 165 143 157 166 143 158 168 143 159 170 143 160 171 143 161 173 143 162 174 143 163 176 143 164 178 143 165 179 143 166 181 143 167 182 143 168 184 143 169 186 143 170 187 143 171 189 143 172 190 143 173 192 143 174 194 143 175 195 143 176 197 143 177 198 143 178 200 143 179 202 143 180 203 143 181 205 143 183 206 143 184 208 143 185 210 143 186 211 143 187 213 143 188 214 143 189 216 143 190 218 143 191 219 143 192 221 143 193 222 143 194 224 143 195 226 143 196 227 143 197 229 143 198 230 143 199 232 143 200 234 143 201 235 143 202 237 143 203 238 143 204 240 143 205 242 143 206 243 143 207 245 143 208 246 143 209 248 143 210 250 143 211 251 143 212 253 143 213 255 143 214
0 146 52 1 146 53 3 146 54 4 146 55 6 146 56 8 146 57 9 146 58 11 146 59 12 146 60 14 146 61 16 146 62 17 146 63 19 146 64 20 146 65 22 146 66 24 146 67 25 146 68 27 146 69 28 146 70 30 146 71 32 146 73 33 146 74 35 146 75 36 146 76 38 146 77 40 146 78 41 146 79 43 146 80 44 146 81 46 146 82 48 146 83 49 146 84 51 146 85 52 146 86 54 146 87 56 146 88 57 146 89 59 146 90 60 146 91 62 146 92 64 146 93 65 146 94 67 146 95 68 146 96 70 146 97 72 146 98 73 146 99 75 146 100 76 146 101 78 146 102 80 146 103 81 146 104 83 146 105 85 146 106 86 146 107 88 146 108 89 146 110 91 146 111 93 146 112 94 146 113 96 146 114 97 146 115 99 146 116 101 146 117 102 146 118 104 146 119 105 146 120 107 146 121 109 146 122 110 146 123 112 146 124 113 146 125 115 146 126 117 146 127 118 146 128 120 146 129 121 146 130 123 146 131 125 146 132 126 146 133 128 146 134 129 146 135 131 146 136 133 146 137 134 146 138 136 146 139 137 146 140 139 146 141 141 146 142 142 146 143 144 146 144 145 146 146 147 146 147 149 146 148 150 146 149 152 146 150 153 146 151 155 146 152 157 146 153 158 146 154 160 146 155 161 146 156 163 146 157 165 146 158 166 146 159 168 146 160 170 146 161 171 146 162 173 146 163 174 146 164 176 146 165 178 146 166 179 146 167 181 146 168 182 146 169 184 146 170 186 146 171 187 146 172 189 146 173 190 146 174 192 146 175 194 146 176 195 146 177 197 146 178 198 146 179 200 146 180 202 146 181 203 146 183 205 146 184 206 146 185 208 146 186 210 146 187 211 146 188 213 146 189 214 146 190 216 146 191 218 146 192 219 146 193 221 146 194 222 146 195 224 146 196 226 146 197 227 146 198 229 146 199 230 146 200 232 146 201 234 146 202 235 146 203 237 146 204 238 146 205 240 146 206 242 146 207 243 146 208 245 146 209 246 146 210 248 146 211 250 146 212 251 146 213 253 146 214 255 146 215
0 148 53 1 148 54 3 148 55 4 148 56 6 148 57 8 148 58 9 148 59 11 148 60 12 148 61 14 148 62 16 148 63 17 148 64 19 148 65 20 148 66 22 148 67 24 148 68 25 148 69 27 148 70 28 148 71 30 148 73 32 148 74 33 148 75 35 148 76 36 148 77 38 148 78 40 148 79 41 148 80 43 148 81 44 148 82 46 148 83 48 148 84 49 148 85 51 148 86 52 148 87 54 148 88 56 148 89 57 148 90 59 148 91 60 148 92 62 148 93 64 148 94 65 148 95 67 148 96 68 148 97 70 148 98 72 148 99 73 148 100 75 148 101 76 148 102 78 148 103 80 148 104 81 148 105 83 148 106 85 148 107 86 148 108 88 148 110 89 148 111 91 148 112 93 148 113 94 148 114 96 148 115 97 148 116 99 148 117 101 148 118 102 148 119 104 148 120 105 148 121 107 148 122 109 148 123 110 148 124 112 148 125 113 148 126 115 148 127 117 148 128 118 148 129 120 148 130 121 148 131 123 148 132 125 148 133 126 148 134 128 148 135 129 148 136 131 148 137 133 148 138 134 148 139 136 148 140 137 148 141 139 148 142 141 148 143 142 148 144 144 148 146 145 148 147 147 148 148 149 148 149 150 148 150 152 148 151 153 148 152 155 148 153 157 148 154 158 148 155 160 148 156 161 148 157 163 148 158 165 148 159 166 148 160 168 148 161 170 148 162 171 148 163 173 148 164 174 148 165 176 148 166 178 148 167 179 148 168 181 148 169 182 148 170 184 148 171 186 148 172 187 148 173 189 148 174 190 148 175 192 148 176 194 148 177 195 148 178 197 148 179 198 148 180 200 148 181 202 148 183 203 148 184 205 148 185 206 148 186 208 148 187 210 148 188 211 148 189 213 148 190 214 148 191 216 148 192 218 148 193 219 148 194 221 148 195 222 148 196 224 148 197 226 148 198 227 148 199 229 148 200 230 148 201 232 148 202 234 148 203 235 148 204 237 148 205 238 148 206 240 148 207 242 148 208 243 148 209 245 148 210 246 148 211 248 148 212 250 148 213 251 148 214 253 148 215 255 148 216
0 151 54 1 151 55 3 151 56 4 151 57 6 151 58 8 151 59 9 151 60 11 151 61 12 151 62 14 151 63 16 151 64 17 151 65 19 151 66 20 151 67 22 151 68 24 151 69 25 151 70 27 151 71 28 151 73 30 151 74 32 151 75 33 151 76 35 151 77 36 151 78 38 151 79 40 151 80 41 151 81 43 151 82 44 151 83 46 151 84 48 151 85 49 151 86 51 151 87 52 151 88 54 151 89 56 151 90 57 151 91 59 151 92 60 151 93 62 151 94 64 151 95 65 151 96 67 151 97 68 151 98 70 151 99 72 151 100 73 151 101 75 151 102 76 151 103 78 151 104 80 151 105 81 151 106 83 151 107 85 151 108 86 151 110 88 151 111 89 151 112 91 151 113 93 151 114 94 151 115 96 151 116 97 151 117 99 151 118 101 151 119 102 151 120 104 151 121 105 151 122 107 151 123 109 151 124 110 151 125 112 151 126 113 151 127 115 151 128 117 151 129 118 151 130 120 151 131 121 151 132 123 151 133 125 151 134 126 151 135 128 151 136 129 151 137 131 151 138 133 151 139 134 151 140 136 151 141 137 151 142 139 151 143 141 151 144 142 151 146 144 151 147 145 151 148 147 151 149 149 151 150 150 151 151 152 151 152 153 151 153 155 151 154 157 151 155 158 151 156 160 151 157 161 151 158 163 151 159 165 151 160 166 151 161 168 151 162 170 151 163 171 151 164 173 151 165 174 151 166 176 151 167 178 151 168 179 151 169 181 151 170 182 151 171 184 151 172 186 151 173 187 151 174 189 151 175 190 151 176 192 151 177 194 151 178 195 151 179 197 151 180 198 151 181 200 151 183 202 151 184 203 151 185 205 151 186 206 151 187 208 151 188 210 151 189 211 151 190 213 151 191 214 151 192 216 151 193 218 151 194 219 151 195 221 151 196 222 151 197 224 151 198 226 151 199 227 151 200 229 151 201 230 151 202 232 151 203 234 151 204 235 151 205 237 151 206 238 151 207 240 151 208 242 151 209 243 151 210 245 151 211 246 151 212 248 151 213 250 151 214 251 151 215 253 151 216 255 151 217
0 154 55 1 154 56 3 154 57 4 154 58 6 154 59 8 154 60 9 154 61 11 154 62 12 154 63 14 154 64 16 154 65 17 154 66 19 154 67 20 154 68 22 154 69 24 154 70 25 154 71 27 154 73 28 154 74 30 154 75 32 154 76 33 154 77 35 154 78 36 154 79 38 154 80 40 154 81 41 154 82 43 154 83 44 154 84 46 154 85 48 154 86 49 154 87 51 154 88 52 154 89 54 154 90 56 154 91 57 154 92 59 154 93 60 154 94 62 154 95 64 154 96 65 154 97 67 154 98 68 154 99 70 154 100 72 154 101 73 154 102 75 154 103 76 154 104 78 154 105 80 154 106 81 154 107 83 154 108 85 154 110 86 154 111 88 154 112 89 154 113 91 154 114 93 154 115 94 154 116 96 154 117 97 154 118 99 154 119 101 154 120 102 154 121 104 154 122 105 154 123 107 154 124 109 154 125 110 154 126 112 154 127 113 154 128 115 154 129 117 154 130 118 154 131 120 154 132 121 154 133 123 154 134 125 154 135 126 154 136 128 154 137 129 154 138 131 154 139 133 154 140 134 154 141 136 154 142 137 154 143 139 154 144 141 154 146 142 154 147 144 154 148 145 154 149 147 154 150 149 154 151 150 154 152 152 154 153 153 154 154 155 154 155 157 154 156 158 154 157 160 154 158 161 154 159 163 154 160 165 154 161 166 154 162 168 154 163 170 154 164 171 154 165 173 154 166 174 154 167 176 154 168 178 154 169 179 154 170 181 154 171 182 154 172 184 154 173 186 154 174 187 154 175 189 154 176 190 154 177 192 154 178 194 154 179 195 154 180 197 154 181 198 154 183 200 154 184 202 154 185 203 154 186 205 154 187 206 154 188 208 154 189 210 154 190 211 154 191 213 154 192 214 154 193 216 154 194 218 154 195 219 154 196 221 154 197 222 154 198 224 154 199 226 154 200 227 154 201 229 154 202 230 154 203 232 154 204 234 154 205 235 154 206 237 154 207 238 154 208 240 154 209 242 154 210 243 154 211 245 154 212 246 154 213 248 154 214 250 154 215 251 154 216 253 154 217 255 154 219
0 157 56 1 157 57 3 157 58 4 157 59 6 157 60 8 157 61 9 157 62 11 157 63 12 157 64 14 157 65 16 157 66 17 157 67 19 157 68 20 157 69 22 157 70 24 157 71 25 157 73 27 157 74 28 157 75 30 157 76 32 157 77 33 157 78 35 157 79 36 157 80 38 157 81 40 157 82 41 157 83 43 157 84 44 157 85 46 157 86 48 157 87 49 157 88 51 157 89 52 157 90 54 157 91 56 157 92 57 157 93 59 157 94 60 157 95 62 157 96 64 157 97 65 157 98 67 157 99 68 157 100 70 157 101 72 157 102 73 157 103 75 157 104 76 157 105 78 157 106 80 157 107 81 157 108 83 157 110 85 157 111 86 157 112 88 157 113 89 157 114 91 157 115 93 157 116 94 157 117 96 157 118 97 157 119 99 157 120 101 157 121 102 157 122 104 157 123 105 157 124 107 157 125 109 157 126 110 157 127 112 157 128 113 157 129 115 157 130 117 157 131 118 157 132 120 157 133 121 157 134 123 157 135 125 157 136 126 157 137 128 157 138 129 157 139 131 157 140 133 157 141 134 157 142 136 157 143 137 157 144 139 157 146 141 157 147 142 157 148 144 157 149 145 157 150 147 157 151 149 157 152 150 157 153 152 157 154 153 157 155 155 157 156 157 157 157 158 157 158 160 157 159 161 157 160 163 157 161 165 157 162 166 157 163 168 157 164 170 157 165 171 157 166 173 157 167 174 157 168 176 157 169 178 157 170 179 157 171 181 157 172 182 157 173 184 157 174 186 157 175 187 157 176 189 157 177 190 157 178 192 157 179 194 157 180 195 157 181 197 157 183 198 157 184 200 157 185 202 157 186 203 157 187 205 157 188 206 157 189 208 157 190 210 157 191 211 157 192 213 157 193 214 157 194 216 157 195 218 157 196 219 157 197 221 157 198 222 157 199 224 157 200 226 157 201 227 157 202 229 157 203 230 157 204 232 157 205 234 157 206 235 157 207 237 157 208 238 157 209 240 157 210 242 157 211 243 157 212 245 157 213 246 157 214 248 157 215 250 157 216 251 157 217 253 157 219 255 157 220
0 160 57 1 160 58 3 160 59 4 160 60 6 160 61 8 160 62 9 160 63 11 160 64 12 160 65 14 160 66 16 160 67 17 160 68 19 160 69 20 160 70 22 160 71 24 160 73 25 160 74 27 160 75 28 160 76 30 160 77 32 160 78 33 160 79 35 160 80 36 160 81 38 160 82 40 160 83 41 160 84 43 160 85 44 160 86 46 160 87 48 160 88 49 160 89 51 160 90 52 160 91 54 160 92 56 160 93 57 160 94 59 160 95 60 160 96 62 160 97 64 160 98 65 160 99 67 160 100 68 160 101 70 160 102 72 160 103 73 160 104 75 160 105 76 160 106 78 160 107 80 160 108 81 160 110 83 160 111 85 160 112 86 160 113 88 160 114 89 160 115 91 160 116 93 160 117 94 160 118 96 160 119 97 160 120 99 160 121 101 160 122 102 160 123 104 160 124 105 160 125 107 160 126 109 160 127 110 160 128 112 160 129 113 160 130 115 160 131 117 160 132 118 160 133 120 160 134 121 160 135 123 160 136 125 160 137 126 160 138 128 160 139 129 160 140 131 160 141 133 160 142 134 160 143 136 160 144 137 160 146 139 160 147 141 160 148 142 160 149 144 160 150 145 160 151 147 160 152 149 160 153 150 160 154 152 160 155 153 160 156 155 160 157 157 160 158 158 160 159 160 160 160 161 160 161 163 160 162 165 160 163 166 160 164 168 160 165 170 160 166 171 160 167 173 160 168 174 160 169 176 160 170 178 160 171 179 160 172 181 160 173 182 160 174 184 160 175 186 160 176 187 160 177 189 160 178 190 160 179 192 160 180 194 160 181 195 160 183 197 160 184 198 160 185 200 160 186 202 160 187 203 160 188 205 160 189 206 160 190 208 160 191 210 160 192 211 160 193 213 160 194 214 160 195 216 160 196 218 160 197 219 160 198 221 160 199 222 160 200 224 160 201 226 160 202 227 160 203 229 160 204 230 160 205 232 160 206 234 160 207 235 160 208 237 160 209 238 160 210 240 160 211 242 160 212 243 160 213 245 160 214 246 160 215 248 160 216 250 160 217 251 160 219 253 160 220 255 160 221
0 163 58 1 163 59 3 163 60 4 163 61 6 163 62 8 163 63 9 163 64 11 163 65 12 163 66 14 163 67 16 163 68 17 163 69 19 163 70 20 163 71 22 163 73 24 163 74 25 163 75 27 163 76 28 163 77 30 163 78 32 163 79 33 163 80 35 163 81 36 163 82 38 163 83 40 163 84 41 163 85 43 163 86 44 163 87 46 163 88 48 163 89 49 163 90 51 163 91 52 163 92 54 163 93 56 163 94 57 163 95 59 163 96 60 163 97 62 163 98 64 163 99 65 163 100 67 163 101 68 163 102 70 163 103 72 163 104 73 163 105 75 163 106 76 163 107 78 163 108 80 163 110 81 163 111 83 163 112 85 163 113 86 163 114 88 163 115 89 163 116 91 163 117 93 163 118 94 163 119 96 163 120 97 163 121 99 163 122 101 163 123 102 163 124 104 163 125 105 163 126 107 163 127 109 163 128 110 163 129 112 163 130 113 163 131 115 163 132 117 163 133 118 163 134 120 163 135 121 163 136 123 163 137 125 163 138 126 163 139 128 163 140 129 163 141 131 163 142 133 163 143 134 163 144 136 163 146 137 163 147 139 163 148 141 163 149 142 163 150 144 163 151 145 163 152 147 163 153 149 163 154 150 163 155 152 163 156 153 163 157 155 163 158 157 163 159 158 163 160 160 163 161 161 163 162 163 163 163 165 163 164 166 163 165 168 163 166 170 163 167 171 163 168 173 163 169 174 163 170 176 163 171 178 163 172 179 163 173 181 163 174 182 163 175 184 163 176 186 163 177 187 163 178 189 163 179 190 163 180 192 163 181 194 163 183 195 163 184 197 163 185 198 163 186 200 163 187 202 163 188 203 163 189 205 163 190 206 163 191 208 163 192 210 163 193 211 163 194 213 163 195 214 163 196 216 163 197 218 163 198 219 163 199 221 163 200 222 163 201 224 163 202 226 163 203 227 163 204 229 163 205 230 163 206 232 163 207 234 163 208 235 163 209 237 163 210 238 163 211 240 163 212 242 163 213 243 163 214 245 163 215 246 163 216 248 163 217 250 163 219 251 163 220 253 163 221 255 163 222
0 166 59 1 166 60 3 166 61 4 166 62 6 166 63 8 166 64 9 166 65 11 166 66 12 166 67 14 166 68 16 166 69 17 166 70 19 166 71 20 166 73 22 166 74 24 166 75 25 166 76 27 166 77 28 166 78 30 166 79 32 166 80 33 166 81 35 166 82 36 166 83 38 166 84 40 166 85 41 166 86 43 166 87 44 166 88 46 166 89 48 166 90 49 166 91 51 166 92 52 166 93 54 166 94 56 166 95 57 166 96 59 166 97 60 166 98 62 166 99 64 166 100 65 166 101 67 166 102 68 166 103 70 166 104 72 166 105 73 166 106 75 166 107 76 166 108 78 166 110 80 166 111 81 166 112 83 166 113 85 166 114 86 166 115 88 166 116 89 166 117 91 166 118 93 166 119 94 166 120 96 166 121 97 166 122 99 166 123 101 166 124 102 166 125 104 166 126 105 166 127 107 166 128 109 166 129 110 166 130 112 166 131 113 166 132 115 166 133 117 166 134 118 166 135 120 166 136 121 166 137 123 166 138 125 166 139 126 166 140 128 166 141 129 166 142 131 166 143 133 166 144 134 166 146 136 166 147 137 166 148 139 166 149 141 166 150 142 166 151 144 166 152 145 166 153 147 166 154 149 166 155 150 166 156 152 166 157 153 166 158 155 166 159 157 166 160 158 166 161 160 166 162 161 166 163 163 166 164 165 166 165 166 166 166 168 166 167 170 166 168 171 166 169 173 166 170 174 166 171 176 166 172 178 166 173 179 166 174 181 166 175 182 166 176 184 166 177 186 166 178 187 166 179 189 166 180 190 166 181 192 166 183 194 166 184 195 166 185 197 166 186 198 166 187 200 166 188 202 166 189 203 166 190 205 166 191 206 166 192 208 166 193 210 166 194 211 166 195 213 166 196 214 166 197 216 166 198 218 166 199 219 166 200 221 166 201 222 166 202 224 166 203 226 166 204 227 166 205 229 166 206 230 166 207 232 166 208 234 166 209 235 166 210 237 166 211 238 166 212 240 166 213 242 166 214 243 166 215 245 166 216 246 166 217 248 166 219 250 166 220 251 166 221 253 166 222 255 166 223
0 169 60 1 169 61 3 169 62 4 169 63 6 169 64 8 169 65 9 169 66 11 169 67 12 169 68 14 169 69 16 169 70 17 169 71 19 169 73 20 169 74 22 169 75 24 169 76 25 169 77 27 169 78 28 169 79 30 169 80 32 169 81 33 169 82 35 169 83 36 169 84 38 169 85 40 169 86 41 169 87 43 169 88 44 169 89 46 169 90 48 169 91 49 169 92 51 169 93 52 169 94 54 169 95 56 169 96 57 169 97 59 169 98 60 169 99 62 169 100 64 169 101 65 169 102 67 169 103 68 169 104 70 169 105 72 169 106 73 169 107 75 169 108 76 169 110 78 169 111 80 169 112 81 169 113 83 169 114 85 169 115 86 169 116 88 169 117 89 169 118 91 169 119 93 169 120 94 169 121 96 169 122 97 169 123 99 169 124 101 169 125 102 169 126 104 169 127 105 169 128 107 169 129 109 169 130 110 169 131 112 169 132 113 169 133 115 169 134 117 169 135 118 169 136 120 169 137 121 169 138 123 169 139 125 169 140 126 169 141 128 169 142 129 169 143 131 169 144 133 169 146 134 169 147 136 169 148 137 169 149 139 169 150 141 169 151 142 169 152 144 169 153 145 169 154 147 169 155 149 169 156 150 169 157 152 169 158 153 169 159 155 169 160 157 169 161 158 169 162 160 169 163 161 169 164 163 169 165 165 169 166 166 169 167 168 169 168 170 169 169 171 169 170 173 169 171 174 169 172 176 169 173 178 169 174 179 169 175 181 169 176 182 169 177 184 169 178 186 169 179 187 169 180 189 169 181 190 169 183 192 169 184 194 169 185 195 169 186 197 169 187 198 169 188 200 169 189 202 169 190 203 169 191 205 169 192 206 169 193 208 169 194 210 169 195 211 169 196 213 169 197 214 169 198 216 169 199 218 169 200 219 169 201 221 169 202 222 169 203 224 169 204 226 169 205 227 169 206 229 169 207 230 169 208 232 169 209 234 169 210 235 169 211 237 169 212 238 169 213 240 169 214 242 169 215 243 169 216 245 169 217 246 169 219 248 169 220 250 169 221 251 169 222 253 169 223 255 169 224
0 171 61 1 171 62 3 171 63 4 171 64 6 171 65 8 171 66 9 171 67 11 171 68 12 171 69 14 171 70 16 171 71 17 171 73 19 171 74 20 171 75 22 171 76 24 171 77 25 171 78 27 171 79 28 171 80 30 171 81 32 171 82 33 171 83 35 171 84 36 171 85 38 171 86 40 171 87 41 171 88 43 171 89 44 171 90 46 171 91 48 171 92 49 171 93 51 171 94 52 171 95 54 171 96 56 171 97 57 171 98 59 171 99 60 171 100 62 171 101 64 171 102 65 171 103 67 171 104 68 171 105 70 171 106 72 171 107 73 171 108 75 171 110 76 171 111 78 171 112 80 171 113 81 171 114 83 171 115 85 171 116 86 171 117 88 171 118 89 171 119 91 171 120 93 171 121 94 171 122 96 171 123 97 171 124 99 171 125 101 171 126 102 171 127 104 171 128 105 171 129 107 171 130 109 171 131 110 171 132 112 171 133 113 171 134 115 171 135 117 171 136 118 171 137 120 171 138 121 171 139 123 171 140 125 171 141 126 171 142 128 171 143 129 171 144 131 171 146 133 171 147 134 171 148 136 171 149 137 171 150 139 171 151 141 171 152 142 171 153 144 171 154 145 171 155 147 171 156 149 171 157 150 171 158 152 171 159 153 171 160 155 171 161 157 171 162 158 171 163 160 171 164 161 171 165 163 171 166 165 171 167 166 171 168 168 171 169 170 171 170 171 171 171 173 171 172 174 171 173 176 171 174 178 171 175 179 171 176 181 171 177 182 171 178 184 171 179 186 171 180 187 171 181 189 171 183 190 171 184 192 171 185 194 171 186 195 171 187 197 171 188 198 171 189 200 171 190 202 171 191 203 171 192 205 171 193 206 171 194 208 171 195 210 171 196 211 171 197 213 171 198 214 171 199 216 171 200 218 171 201 219 171 202 221 171 203 222 171 204 224 171 205 226 171 206 227 171 207 229 171 208 230 171 209 232 171 210 234 171 211 235 171 212 237 171 213 238 171 214 240 171 215 242 171 216 243 171 217 245 171 219 246 171 220 248 171 221 250 171 222 251 171 223 253 171 224 255 171 225
0 174 62 1 174 63 3 174 64 4 174 65 6 174 66 8 174 67 9 174 68 11 174 69 12 174 70 14 174 71 16 174 73 17 174 74 19 174 75 20 174 76 22 174 77 24 174 78 25 174 79 27 174 80 28 174 81 30 174 82 32 174 83 33 174 84 35 174 85 36 174 86 38 174 87 40 174 88 41 174 89 43 174 90 44 174 91 46 174 92 48 174 93 49 174 94 51 174 95 52 174 96 54 174 97 56 174 98 57 174 99 59 174 100 60 174 101 62 174 102 64 174 103 65 174 104 67 174 105 68 174 106 70 174 107 72 174 108 73 174 110 75 174 111 76 174 112 78 174 113 80 174 114 81 174 115 83 174 116 85 174 117 86 174 118 88 174 119 89 174 120 91 174 121 93 174 122 94 174 123 96 174 124 97 174 125 99 174 126 101 174 127 102 174 128 104 174 129 105 174 130 107 174 131 109 174 132 110 174 133 112 174 134 113 174 135 115 174 136 117 174 137 118 174 138 120 174 139 121 174 140 123 174 141 125 174 142 126 174 143 128 174 144 129 174 146 131 174 147 133 174 148 134 174 149 136 174 150 137 174 151 139 174 152 141 174 153 142 174 154 144 174 155 145 174 156 147 174 157 149 174 158 150 174 159 152 174 160 153 174 161 155 174 162 157 174 163 158 174 164 160 174 165 161 174 166 163 174 167 165 174 168 166 174 169 168 174 170 170 174 171 171 174 172 173 174 173 174 174 174 176 174 175 178 174 176 179 174 177 181 174 178 182 174 179 184 174 180 186 174 181 187 174 183 189 174 184 190 174 185 192 174 186 194 174 187 195 174 188 197 174 189 198 174 190 200 174 191 202 174 192 203 174 193 205 174 194 206 174 195 208 174 196 210 174 197 211 174 198 213 174 199 214 174 200 216 174 201 218 174 202 219 174 203 221 174 204 222 174 205 224 174 206 226 174 207 227 174 208 229 174 209 230 174 210 232 174 211 234 174 212 235 174 213 237 174 214 238 174 215 240 174 216 242 174 217 243 174 219 245 174 220 246 174 221 248 174 222 250 174 223 251 174 224 253 174 225 255 174 226
0 177 63 1 177 64 3 177 65 4 177 66 6 177 67 8 177 68 9 177 69 11 177 70 12 177 71 14 177 73 16 177 74 17 177 75 19 177 76 20 177 77 22 177 78 24 177 79 25 177 80 27 177 81 28 177 82 30 177 83 32 177 84 33 177 85 35 177 86 36 177 87 38 177 88 40 177 89 41 177 90 43 177 91 44 177 92 46 177 93 48 177 94 49 177 95 51 177 96 52 177 97 54 177 98 56 177 99 57 177 100 59 177 101 60 177 102 62 177 103 64 177 104 65 177 105 67 177 106 68 177 107 70 177 108 72 177 110 73 177 111 75 177 112 76 177 113 78 177 114 80 177 115 81 177 116 83 177 117 85 177 118 86 177 119 88 177 120 89 177 121 91 177 122 93 177 123 94 177 124 96 177 125 97 177 126 99 177 127 101 177 128 102 177 129 104 177 130 105 177 131 107 177 132 109 177 133 110 177 134 112 177 135 113 177 136 115 177 137 117 177 138 118 177 139 120 177 140 121 177 141 123 177 142 125 177 143 126 177 144 128 177 146 129 177 147 131 177 148 133 177 149 134 177 150 136 177 151 137 177 152 139 177 153 141 177 154 142 177 155 144 177 156 145 177 157 147 177 158 149 177 159 150 177 160 152 177 161 153 177 162 155 177 163 157 177 164 158 177 165 160 177 166 161 177 167 163 177 168 165 177 169 166 177 170 168 177 171 170 177 172 171 177 173 173 177 174 174 177 175 176 177 176 178 177 177 179 177 178 181 177 179 182 177 180 184 177 181 186 177 183 187 177 184 189 177 185 190 177 186 192 177 187 194 177 188 195 177 189 197 177 190 198 177 191 200 177 192 202 177 193 203 177 194 205 177 195 206 177 196 208 177 197 210 177 198 211 177 199 213 177 200 214 177 201 216 177 202 218 177 203 219 177 204 221 177 205 222 177 206 224 177 207 226 177 208 227 177 209 229 177 210 230 177 211 232 177 212 234 177 213 235 177 214 237 177 215 238 177 216 240 177 217 242 177 219 243 177 220 245 177 221 246 177 222 248 177 223 250 177 224 251 177 225 253 177 226 255 177 227
0 180 64 1 180 65 3 180 66 4 180 67 6 180 68 8 180 69 9 180 70 11 180 71 12 180 73 14 180 74 16 180 75 17 180 76 19 180 77 20 180 78 22 180 79 24 180 80 25 180 81 27 180 82 28 180 83 30 180 84 32 180 85 33 180 86 35 180 87 36 180 88 38 180 89 40 180 90 41 180 91 43 180 92 44 180 93 46 180 94 48 180 95 49 180 96 51 180 97 52 180 98 54 180 99 56 180 100 57 180 101 59 180 102 60 180 103 62 180 104 64 180 105 65 180 106 67 180 107 68 180 108 70 180 110 72 180 111 73 180 112 75 180 113 76 180 114 78 180 115 80 180 116 81 180 117 83 180 118 85 180 119 86 180 120 88 180 121 89 180 122 91 180 123 93 180 124 94 180 125 96 180 126 97 180 127 99 180 128 101 180 129 102 180 130 104 180 131 105 180 132 107 180 133 109 180 134 110 180 135 112 180 136 113 180 137 115 180 138 117 180 139 118 180 140 120 180 141 121 180 142 123 180 143 125 180 144 126 180 146 128 180 147 129 180 148 131 180 149 133 180 150 134 180 151 136 180 152 137 180 153 139 180 154 141 180 155 142 180 156 144 180 157 145 180 158 147 180 159 149 180 160 150 180 161 152 180 162 153 180 163 155 180 164 157 180 165 158 180 166 160 180 167 161 180 168 163 180 169 165 180 170 166 180 171 168 180 172 170 180 173 171 180 174 173 180 175 174 180 176 176 180 177 178 180 178 179 180 179 181 180 180 182 180 181 184 180 183 186 180 184 187 180 185 189 180 186 190 180 187 192 180 188 194 180 189 195 180 190 197 180 191 198 180 192 200 180 193 202 180 194 203 180 195 205 180 196 206 180 197 208 180 198 210 180 199 211 180 200 213 180 201 214 180 202 216 180 203 218 180 204 219 180 205 221 180 206 222 180 207 224 180 208 226 180 209 227 180 210 229 180 211 230 180 212 232 180 213 234 180 214 235 180 215 237 180 216 238 180 217 240 180 219 242 180 220 243 180 221 245 180 222 246 180 223 248 180 224 250 180 225 251 180 226 253 180 227 255 180 228
0 183 65 1 183 66 3 183 67 4 183 68 6 183 69 8 183 70 9 183 71 11 183 73 12 183 74 14 183 75 16 183 76 17 183 77 19 183 78 20 183 79 22 183 80 24 183 81 25 183 82 27 183 83 28 183 84 30 183 85 32 183 86 33 183 87 35 183 88 36 183 89 38 183 90 40 183 91 41 183 92 43 183 93 44 183 94 46 183 95 48 183 96 49 183 97 51 183 98 52 183 99 54 183 100 56 183 101 57 183 102 59 183 103 60 183 104 62 183 105 64 183 106 65 183 107 67 183 108 68 183 110 70 183 111 72 183 112 73 183 113 75 183 114 76 183 115 78 183 116 80 183 117 81 183 118 83 183 119 85 183 120 86 183 121 88 183 122 89 183 123 91 183 124 93 183 125 94 183 126 96 183 127 97 183 128 99 183 129 101 183 130 102 183 131 104 183 132 105 183 133 107 183 134 109 183 135 110 183 136 112 183 137 113 183 138 115 183 139 117 183 140 118 183 141 120 183 142 121 183 143 123 183 144 125 183 146 126 183 147 128 183 148 129 183 149 131 183 150 133 183 151 134 183 152 136 183 153 137 183 154 139 183 155 141 183 156 142 183 157 144 183 158 145 183 159 147 183 160 149 183 161 150 183 162 152 183 163 153 183 164 155 183 165 157 183 166 158 183 167 160 183 168 161 183 169 163 183 170 165 183 171 166 183 172 168 183 173 170 183 174 171 183 175 173 183 176 174 183 177 176 183 178 178 183 179 179 183 180 181 183 181 182 183 183 184 183 184 186 183 185 187 183 186 189 183 187 190 183 188 192 183 189 194 183 190 195 183 191 197 183 192 198 183 193 200 183 194 202 183 195 203 183 196 205 183 197 206 183 198 208 183 199 210 183 200 211 183 201 213 183 202 214 183 203 216 183 204 218 183 205 219 183 206 221 183 207 222 183 208 224 183 209 226 183 210 227 183 211 229 183 212 230 183 213 232 183 214 234 183 215 235 183 216 237 183 217 238 183 219 240 183 220 242 183 221 243 183 222 245 183 223 246 183 224 248 183 225 250 183 226 251 183 227 253 183 228 255 183 229
0 186 66 1 186 67 3 186 68 4 186 69 6 186 70 8 186 71 9 186 73 11 186 74 12 186 75 14 186 76 16 186 77 17 186 78 19 186 79 20 186 80 22 186 81 24 186 82 25 186 83 27 186 84 28 186 85 30 186 86 32 186 87 33 186 88 35 186 89 36 186 90 38 186 91 40 186 92 41 186 93 43 186 94 44 186 95 46 186 96 48 186 97 49 186 98 51 186 99 52 186 100 54 186 101 56 186 102 57 186 103 59 186 104 60 186 105 62 186 106 64 186 107 65 186 108 67 186 110 68 186 111 70 186 112 72 186 113 73 186 114 75 186 115 76 186 116 78 186 117 80 186 118 81 186 119 83 186 120 85 186 121 86 186 122 88 186 123 89 186 124 91 186 125 93 186 126 94 186 127 96 186 128 97 186 129 99 186 130 101 186 131 102 186 132 104 186 133 105 186 134 107 186 135 109 186 136 110 186 137 112 186 138 113 186 139 115 186 140 117 186 141 118 186 142 120 186 143 121 186 144 123 186 146 125 186 147 126 186 148 128 186 149 129 186 150 131 186 151 133 186 152 134 186 153 136 186 154 137 186 155 139 186 156 141 186 157 142 186 158 144 186 159 145 186 160 147 186 161 149 186 162 150 186 163 152 186 164 153 186 165 155 186 166 157 186 167 158 186 168 160 186 169 161 186 170 163 186 171 165 186 172 166 186 173 168 186 174 170 186 175 171 186 176 173 186 177 174 186 178 176 186 179 178 186 180 179 186 181 181 186 183 182 186 184 184 186 185 186 186 186 187 186 187 189 186 188 190 186 189 192 186 190 194 186 191 195 186 192 197 186 193 198 186 194 200 186 195 202 186 196 203 186 197 205 186 198 206 186 199 208 186 200 210 186 201 211 186 202 213 186 203 214 186 204 216 186 205 218 186 206 219 186 207 221 186 208 222 186 209 224 186 210 226 186 211 227 186 212 229 186 213 230 186 214 232 186 215 234 186 216 235 186 217 237 186 219 238 186 220 240 186 221 242 186 222 243 186 223 245 186 224 246 186 225 248 186 226 250 186 227 251 186 228 253 186 229 255 186 230
0 189 67 1 189 68 3 189 69 4 189 70 6 189 71 8 189 73 9 189 74 11 189 75 12 189 76 14 189 77 16 189 78 17 189 79 19 189 80 20 189 81 22 189 82 24 189 83 25 189 84 27 189 85 28 189 86 30 189 87 32 189 88 33 189 89 35 189 90 36 189 91 38 189 92 40 189 93 41 189 94 43 189 95 44 189 96 46 189 97 48 189 98 49 189 99 51 189 100 52 189 101 54 189 102 56 189 103 57 189 104 59 189 105 60 189 106 62 189 107 64 189 108 65 189 110 67 189 111 68 189 112 70 189 113 72 189 114 73 189 115 75 189 116 76 189 117 78 189 118 80 189 119 81 189 120 83 189 121 85 189 122 86 189 123 88 189 124 89 189 125 91 189 126 93 189 127 94 189 128 96 189 129 97 189 130 99 189 131 101 189 132 102 189 133 104 189 134 105 189 135 107 189 136 109 189 137 110 189 138 112 189 139 113 189 140 115 189 141 117 189 142 118 189 143 120 189 144 121 189 146 123 189 147 125 189 148 126 189 149 128 189 150 129 189 151 131 189 152 133 189 153 134 189 154 136 189 155 137 189 156 139 189 157 141 189 158 142 189 159 144 189 160 145 189 161 147 189 162 149 189 163 150 189 164 152 189 165 153 189 166 155 189 167 157 189 168 158 189 169 160 189 170 161 189 171 163 189 172 165 189 173 166 189 174 168 189 175 170 189 176 171 189 177 173 189 178 174 189 179 176 189 180 178 189 181 179 189 183 181 189 184 182 189 185 184 189 186 186 189 187 187 189 188 189 189 189 190 189 190 192 189 191 194 189 192 195 189 193 197 189 194 198 189 195 200 189 196 202 189 197 203 189 198 205 189 199 206 189 200 208 189 201 210 189 202 211 189 203 213 189 204 214 189 205 216 189 206 218 189 207 219 189 208 221 189 209 222 189 210 224 189 211 226 189 212 227 189 213 229 189 214 230 189 215 232 189 216 234 189 217 235 189 219 237 189 220 238 189 221 240 189 222 242 189 223 243 189 224 245 189 225 246 189 226 248 189 227 250 189 228 251 189 229 253 189 230 255 189 231
0 191 68 1 191 69 3 191 70 4 191 71 6 191 73 8 191 74 9 191 75 11 191 76 12 191 77 14 191 78 16 191 79 17 191 80 19 191 81 20 191 82 22 191 83 24 191 84 25 191 85 27 191 86 28 191 87 30 191 88 32 191 89 33 191 90 35 191 91 36 191 92 38 191 93 40 191 94 41 191 95 43 191 96 44 191 97 46 191 98 48 191 99 49 191 100 51 191 101 52 191 102 54 191 103 56 191 104 57 191 105 59 191 106 60 191 107 62 191 108 64 191 110 65 191 111 67 191 112 68 191 113 70 191 114 72 191 115 73 191 116 75 191 117 76 191 118 78 191 119 80 191 120 81 191 121 83 191 122 85 191 123 86 191 124 88 191 125 89 191 126 91 191 127 93 191 128 94 191 129 96 191 130 97 191 131 99 191 132 101 191 133 102 191 134 104 191 135 105 191 136 107 191 137 109 191 138 110 191 139 112 191 140 113 191 141 115 191 142 117 191 143 118 191 144 120 191 146 121 191 147 123 191 148 125 191 149 126 191 150 128 191 151 129 191 152 131 191 153 133 191 154 134 191 155 136 191 156 137 191 157 139 191 158 141 191 159 142 191 160 144 191 161 145 191 162 147 191 163 149 191 164 150 191 165 152 191 166 153 191 167 155 191 168 157 191 169 158 191 170 160 191 171 161 191 172 163 191 173 165 191 174 166 191 175 168 191 176 170 191 177 171 191 178 173 191 179 174 191 180 176 191 181 178 191 183 179 191 184 181 191 185 182 191 186 184 191 187 186 191 188 187 191 189 189 191 190 190 191 191 192 191 192 194 191 193 195 191 194 197 191 195 198 191 196 200 191 197 202 191 198 203 191 199 205 191 200 206 191 201 208 191 202 210 191 203 211 191 204 213 191 205 214 191 206 216 191 207 218 191 208 219 191 209 221 191 210 222 191 211 224 191 212 226 191 213 227 191 214 229 191 215 230 191 216 232 191 217 234 191 219 235 191 220 237 191 221 238 191 222 240 191 223 242 191 224 243 191 225 245 191 226 246 191 227 248 191 228 250 191 229 251 191 230 253 191 231 255 191 232
0 194 69 1 194 70 3 194 71 4 194 73 6 194 74 8 194 75 9 194 76 11 194 77 12 194 78 14 194 79 16 194 80 17 194 81 19 194 82 20 194 83 22 194 84 24 194 85 25 194 86 27 194 87 28 194 88 30 194 89 32 194 90 33 194 91 35 194 92 36 194 93 38 194 94 40 194 95 41 194 96 43 194 97 44 194 98 46 194 99 48 194 100 49 194 101 51 194 102 52 194 103 54 194 104 56 194 105 57 194 106 59 194 107 60 194 108 62 194 110 64 194 111 65 194 112 67 194 113 68 194 114 70 194 115 72 194 116 73 194 117 75 194 118 76 194 119 78 194 120 80 194 121 81 194 122 83 194 123 85 194 124 86 194 125 88 194 126 89 194 127 91 194 128 93 194 129 94 194 130 96 194 131 97 194 132 99 194 133 101 194 134 102 194 135 104 194 136 105 194 137 107 194 138 109 194 139 110 194 140 112 194 141 113 194 142 115 194 143 117 194 144 118 194 146 120 194 147 121 194 148 123 194 149 125 194 150 126 194 151 128 194 152 129 194 153 131 194 154 133 194 155 134 194 156 136 194 157 137 194 158 139 194 159 141 194 160 142 194 161 144 194 162 145 194 163 147 194 164 149 194 165 150 194 166 152 194 167 153 194 168 155 194 169 157 194 170 158 194 171 160 194 172 161 194 173 163 194 174 165 194 175 166 194 176 168 194 177 170 194 178 171 194 179 173 194 180 174 194 181 176 194 183 178 194 184 179 194 185 181 194 186 182 194 187 184 194 188 186 194 189 187 194 190 189 194 191 190 194 192 192 194 193 194 194 194 195 194 195 197 194 196 198 194 197 200 194 198 202 194 199 203 194 200 205 194 201 206 194 202 208 194 203 210 194 204 211 194 205 213 194 206 214 194 207 216 194 208 218 194 209 219 194 210 221 194 211 222 194 212 224 194 213 226 194 214 227 194 215 229 194 216 230 194 217 232 194 219 234 194 220 235 194 221 237 194 222 238 194 223 240 194 224 242 194 225 243 194 226 245 194 227 246 194 228 248 194 229 250 194 230 251 194 231 253 194 232 255 194 233
0 197 70 1 197 71 3 197 73 4 197 74 6 197 75 8 197 76 9 197 77 11 197 78 12 197 79 14 197 80 16 197 81 17 197 82 19 197 83 20 197 84 22 197 85 24 197 86 25 197 87 27 197 88 28 197 89 30 197 90 32 197 91 33 197 92 35 197 93 36 197 94 38 197 95 40 197 96 41 197 97 43 197 98 44 197 99 46 197 100 48 197 101 49 197 102 51 197 103 52 197 104 54 197 105 56 197 106 57 197 107 59 197 108 60 197 110 62 197 111 64 197 112 65 197 113 67 197 114 68 197 115 70 197 116 72 197 117 73 197 118 75 197 119 76 197 120 78 197 121 80 197 122 81 197 123 83 197 124 85 197 125 86 197 126 88 197 127 89 197 128 91 197 129 93 197 130 94 197 131 96 197 132 97 197 133 99 197 134 101 197 135 102 197 136 104 197 137 105 197 138 107 197 139 109 197 140 110 197 141 112 197 142 113 197 143 115 197 144 117 197 146 118 197 147 120 197 148 121 197 149 123 197 150 125 197 151 126 197 152 128 197 153 129 197 154 131 197 155 133 197 156 134 197 157 136 197 158 137 197 159 139 197 160 141 197 161 142 197 162 144 197 163 145 197 164 147 197 165 149 197 166 150 197 167 152 197 168 153 197 169 155 197 170 157 197 171 158 197 172 160 197 173 161 197 174 163 197 175 165 197 176 166 197 177 168 197 178 170 197 179 171 197 180 173 197 181 174 197 183 176 197 184 178 197 185 179 197 186 181 197 187 182 197 188 184 197 189 186 197 190 187 197 191 189 197 192 190 197 193 192 197 194 194 197 195 195 197 196 197 197 197 198 197 198 200 197 199 202 197 200 203 197 201 205 197 202 206 197 203 208 197 204 210 197 205 211 197 206 213 197 207 214 197 208 216 197 209 218 197 210 219 197 211 221 197 212 222 197 213 224 197 214 226 197 215 227 197 216 229 197 217 230 197 219 232 197 220 234 197 221 235 197 222 237 197 223 238 197 224 240 197 225 242 197 226 243 197 227 245 197 228 246 197 229 248 197 230 250 197 231 251 197 232 253 197 233 255 197 234
0 200 71 1 200 73 3 200 74 4 200 75 6 200 76 8 200 77 9 200 78 11 200 79 12 200 80 14 200 81 16 200 82 17 200 83 19 200 84 20 200 85 22 200 86 24 200 87 25 200 88 27 200 89 28 200 90 30 200 91 32 200 92 33 200 93 35 200 94 36 200 95 38 200 96 40 200 97 41 200 98 43 200 99 44 200 100 46 200 101 48 200 102 49 200 103 51 200 104 52 200 105 54 200 106 56 200 107 57 200 108 59 200 110 60 200 111 62 200 112 64 200 113 65 200 114 67 200 115 68 200 116 70 200 117 72 200 118 73 200 119 75 200 120 76 200 121 78 200 122 80 200 123 81 200 124 83 200 125 85 200 126 86 200 127 88 200 128 89 200 129 91 200 130 93 200 131 94 200 132 96 200 133 97 200 134 99 200 135 101 200 136 102 200 137 104 200 138 105 200 139 107 200 140 109 200 141 110 200 142 112 200 143 113 200 144 115 200 146 117 200 147 118 200 148 120 200 149 121 200 150 123 200 151 125 200 152 126 200 153 128 200 154 129 200 155 131 200 156 133 200 157 134 200 158 136 200 159 137 200 160 139 200 161 141 200 162 142 200 163 144 200 164 145 200 165 147 200 166 149 200 167 150 200 168 152 200 169 153 200 170 155 200 171 157 200 172 158 200 173 160 200 174 161 200 175 163 200 176 165 200 177 166 200 178 168 200 179 170 200 180 171 200 181 173 200 183 174 200 184 176 200 185 178 200 186 179 200 187 181 200 188 182 200 189 184 200 190 186 200 191 187 200 192 189 200 193 190 200 194 192 200 195 194 200 196 195 200 197 197 200 198 198 200 199 200 200 200 202 200 201 203 200 202 205 200 203 206 200 204 208 200 205 210 200 206 211 200 207 213 200 208 214 200 209 216 200 210 218 200 211 219 200 212 221 200 213 222 200 214 224 200 215 226 200 216 227 200 217 229 200 219 230 200 220 232 200 221 234 200 222 235 200 223 237 200 224 238 200 225 240 200 226 242 200 227 243 200 228 245 200 229 246 200 230 248 200 231 250 200 232 251 200 233 253 200 234 255 200 235
0 203 73 1 203 74 3 203 75 4 203 76 6 203 77 8 203 78 9 203 79 11 203 80 12 203 81 14 203 82 16 203 83 17 203 84 19 203 85 20 203 86 22 203 87 24 203 88 25 203 89 27 203 90 28 203 91 30 203 92 32 203 93 33 203 94 35 203 95 36 203 96 38 203 97 40 203 98 41 203 99 43 203 100 44 203 101 46 203 102 48 203 103 49 203 104 51 203 105 52 203 106 54 203 107 56 203 108 57 203 110 59 203 111 60 203 112 62 203 113 64 203 114 65 203 115 67 203 116 68 203 117 70 203 118 72 203 119 73 203 120 75 203 121 76 203 122 78 203 123 80 203 124 81 203 125 83 203 126 85 203 127 86 203 128 88 203 129 89 203 130 91 203 131 93 203 132 94 203 133 96 203 134 97 203 135 99 203 136 101 203 137 102 203 138 104 203 139 105 203 140 107 203 141 109 203 142 110 203 143 112 203 144 113 203 146 115 203 147 117 203 148 118 203 149 120 203 150 121 203 151 123 203 152 125 203 153 126 203 154 128 203 155 129 203 156 131 203 157 133 203 158 134 203 159 136 203 160 137 203 161 139 203 162 141 203 163 142 203 164 144 203 165 145 203 166 147 203 167 149 203 168 150 203 169 152 203 170 153 203 171 155 203 172 157 203 173 158 203 174 160 203 175 161 203 176 163 203 177 165 203 178 166 203 179 168 203 180 170 203 181 171 203 183 173 203 184 174 203 185 176 203 186 178 203 187 179 203 188 181 203 189 182 203 190 184 203 191 186 203 192 187 203 193 189 203 194 190 203 195 192 203 196 194 203 197 195 203 198 197 203 199 198 203 200 200 203 201 202 203 202 203 203 203 205 203 204 206 203 205 208 203 206 210 203 207 211 203 208 213 203 209 214 203 210 216 203 211 218 203 212 219 203 213 221 203 214 222 203 215 224 203 216 226 203 217 227 203 219 229 203 220 230 203 221 232 203 222 234 203 223 235 203 224 237 203 225 238 203 226 240 203 227 242 203 228 243 203 229 245 203 230 246 203 231 248 203 232 250 203 233 251 203 234 253 203 235 255 203 236
0 206 74 1 206 75 3 206 76 4 206 77 6 206 78 8 206 79 9 206 80 11 206 81 12 206 82 14 206 83 16 206 84 17 206 85 19 206 86 20 206 87 22 206 88 24 206 89 25 206 90 27 206 91 28 206 92 30 206 93 32 206 94 33 206 95 35 206 96 36 206 97 38 206 98 40 206 99 41 206 100 43 206 101 44 206 102 46 206 103 48 206 104 49 206 105 51 206 106 52 206 107 54 206 108 56 206 110 57 206 111 59 206 112 60 206 113 62 206 114 64 206 115 65 206 116 67 206 117 68 206 118 70 206 119 72 206 120 73 206 121 75 206 122 76 206 123 78 206 124 80 206 125 81 206 126 83 206 127 85 206 128 86 206 129 88 206 130 89 206 131 91 206 132 93 206 133 94 206 134 96 206 135 97 206 136 99 206 137 101 206 138 102 206 139 104 206 140 105 206 141 107 206 142 109 206 143 110 206 144 112 206 146 113 206 147 115 206 148 117 206 149 118 206 150 120 206 151 121 206 152 123 206 153 125 206 154 126 206 155 128 206 156 129 206 157 131 206 158 133 206 159 134 206 160 136 206 161 137 206 162 139 206 163 141 206 164 142 206 165 144 206 166 145 206 167 147 206 168 149 206 169 150 206 170 152 206 171 153 206 172 155 206 173 157 206 174 158 206 175 160 206 176 161 206 177 163 206 178 165 206 179 166 206 180 168 206 181 170 206 183 171 206 184 173 206 185 174 206 186 176 206 187 178 206 188 179 206 189 181 206 190 182 206 191 184 206 192 186 206 193 187 206 194 189 206 195 190 206 196 192 206 197 194 206 198 195 206 199 197 206 200 198 206 201 200 206 202 202 206 203 203 206 204 205 206 205 206 206 206 208 206 207 210 206 208 211 206 209 213 206 210 214 206 211 216 206 212 218 206 213 219 206 214 221 206 215 222 206 216 224 206 217 226 206 219 227 206 220 229 206 221 230 206 222 232 206 223 234 206 224 235 206 225 237 206 226 238 206 227 240 206 228 242 206 229 243 206 230 245 206 231 246 206 232 248 206 233 250 206 234 251 206 235 253 206 236 255 206 237
0 209 75 1 209 76 3 209 77 4 209 78 6 209 79 8 209 80 9 209 81 11 209 82 12 209 83 14 209 84 16 209 85 17 209 86 19 209 87 20 209 88 22 209 89 24 209 90 25 209 91 27 209 92 28 209 93 30 209 94 32 209 95 33 209 96 35 209 97 36 209 98 38 209 99 40 209 100 41 209 101 43 209 102 44 209 103 46 209 104 48 209 105 49 209 106 51 209 107 52 209 108 54 209 110 56 209 111 57 209 112 59 209 113 60 209 114 62 209 115 64 209 116 65 209 117 67 209 118 68 209 119 70 209 120 72 209 121 73 209 122 75 209 123 76 209 124 78 209 125 80 209 126 81 209 127 83 209 128 85 209 129 86 209 130 88 209 131 89 209 132 91 209 133 93 209 134 94 209 135 96 209 136 97 209 137 99 209 138 101 209 139 102 209 140 104 209 141 105 209 142 107 209 143 109 209 144 110 209 146 112 209 147 113 209 148 115 209 149 117 209 150 118 209 151 120 209 152 121 209 153 123 209 154 125 209 155 126 209 156 128 209 157 129 209 158 131 209 159 133 209 160 134 209 161 136 209 162 137 209 163 139 209 164 141 209 165 142 209 166 144 209 167 145 209 168 147 209 169 149 209 170 150 209 171 152 209 172 153 209 173 155 209 174 157 209 175 158 209 176 160 209 177 161 209 178 163 209 179 165 209 180 166 209 181 168 209 183 170 209 184 171 209 185 173 209 186 174 209 187 176 209 188 178 209 189 179 209 190 181 209 191 182 209 192 184 209 193 186 209 194 187 209 195 189 209 196 190 209 197 192 209 198 194 209 199 195 209 200 197 209 201 198 209 202 200 209 203 202 209 204 203 209 205 205 209 206 206 209 207 208 209 208 210 209 209 211 209 210 213 209 211 214 209 212 216 209 213 218 209 214 219 209 215 221 209 216 222 209 217 224 209 219 226 209 220 227 209 221 229 209 222 230 209 223 232 209 224 234 209 225 235 209 226 237 209 227 238 209 228 240 209 229 242 209 230 243 209 231 245 209 232 246 209 233 248 209 234 250 209 235 251 209 236 253 209 237 255 209 238
0 212 76 1 212 77 3 212 78 4 212 79 6 212 80 8 212 81 9 212 82 11 212 83 12 212 84 14 212 85 16 212 86 17 212 87 19 212 88 20 212 89 22 212 90 24 212 91 25 212 92 27 212 93 28 212 94 30 212 95 32 212 96 33 212 97 35 212 98 36 212 99 38 212 100 40 212 101 41 212 102 43 212 103 44 212 104 46 212 105 48 212 106 49 212 107 51 212 108 52 212 110 54 212 111 56 212 112 57 212 113 59 212 114 60 212 115 62 212 116 64 212 117 65 212 118 67 212 119 68 212 120 70 212 121 72 212 122 73 212 123 75 212 124 76 212 125 78 212 126 80 212 127 81 212 128 83 212 129 85 212 130 86 212 131 88 212 132 89 212 133 91 212 134 93 212 135 94 212 136 96 212 137 97 212 138 99 212 139 101 212 140 102 212 141 104 212 142 105 212 143 107 212 144 109 212 146 110 212 147 112 212 148 113 212 149 115 212 150 117 212 151 118 212 152 120 212 153 121 212 154 123 212 155 125 212 156 126 212 157 128 212 158 129 212 159 131 212 160 133 212 161 134 212 162 136 212 163 137 212 164 139 212 165 141 212 166 142 212 167 144 212 168 145 212 169 147 212 170 149 212 171 150 212 172 152 212 173 153 212 174 155 212 175 157 212 176 158 212 177 160 212 178 161 212 179 163 212 180 165 212 181 166 212 183 168 212 184 170 212 185 171 212 186 173 212 187 174 212 188 176 212 189 178 212 190 179 212 191 181 212 192 182 212 193 184 212 194 186 212 195 187 212 196 189 212 197 190 212 198 192 212 199 194 212 200 195 212 201 197 212 202 198 212 203 200 212 204 202 212 205 203 212 206 205 212 207 206 212 208 208 212 209 210 212 210 211 212 211 213 212 212 214 212 213 216 212 214 218 212 215 219 212 216 221 212 217 222 212 219 224 212 220 226 212 221 227 212 222 229 212 223 230 212 224 232 212 225 234 212 226 235 212 227 237 212 228 238 212 229 240 212 230 242 212 231 243 212 232 245 212 233 246 212 234 248 212 235 250 212 236 251 212 237 253 212 238 255 212 239
0 214 77 1 214 78 3 214 79 4 214 80 6 214 81 8 214 82 9 214 83 11 214 84 12 214 85 14 214 86 16 214 87 17 214 88 19 214 89 20 214 90 22 214 91 24 214 92 25 214 93 27 214 94 28 214 95 30 214 96 32 214 97 33 214 98 35 214 99 36 214 100 38 214 101 40 214 102 41 214 103 43 214 104 44 214 105 46 214 106 48 214 107 49 214 108 51 214 110 52 214 111 54 214 112 56 214 113 57 214 114 59 214 115 60 214 116 62 214 117 64 214 118 65 214 119 67 214 120 68 214 121 70 214 122 72 214 123 73 214 124 75 214 125 76 214 126 78 214 127 80 214 128 81 214 129 83 214 130 85 214 131 86 214 132 88 214 133 89 214 134 91 214 135 93 214 136 94 214 137 96 214 138 97 214 139 99 214 140 101 214 141 102 214 142 104 214 143 105 214 144 107 214 146 109 214 147 110 214 148 112 214 149 113 214 150 115 214 151 117 214 152 118 214 153 120 214 154 121 214 155 123 214 156 125 214 157 126 214 158 128 214 159 129 214 160 131 214 161 133 214 162 134 214 163 136 214 164 137 214 165 139 214 166 141 214 167 142 214 168 144 214 169 145 214 170 147 214 171 149 214 172 150 214 173 152 214 174 153 214 175 155 214 176 157 214 177 158 214 178 160 214 179 161 214 180 163 214 181 165 214 183 166 214 184 168 214 185 170 214 186 171 214 187 173 214 188 174 214 189 176 214 190 178 214 191 179 214 192 181 214 193 182 214 194 184 214 195 186 214 196 187 214 197 189 214 198 190 214 199 192 214 200 194 214 201 195 214 202 197 214 203 198 214 204 200 214 205 202 214 206 203 214 207 205 214 208 206 214 209 208 214 210 210 214 211 211 214 212 213 214 213 214 214 214 216 214 215 218 214 216 219 214 217 221 214 219 222 214 220 224 214 221 226 214 222 227 214 223 229 214 224 230 214 225 232 214 226 234 214 227 235 214 228 237 214 229 238 214 230 240 214 231 242 214 232 243 214 233 245 214 234 246 214 235 248 214 236 250 214 237 251 214 238 253 214 239 255 214 240
0 217 78 1 217 79 3 217 80 4 217 81 6 217 82 8 217 83 9 217 84 11 217 85 12 217 86 14 217 87 16 217 88 17 217 89 19 217 90 20 217 91 22 217 92 24 217 93 25 217 94 27 217 95 28 217 96 30 217 97 32 217 98 33 217 99 35 217 100 36 217 101 38 217 102 40 217 103 41 217 104 43 217 105 44 217 106 46 217 107 48 217 108 49 217 110 51 217 111 52 217 112 54 217 113 56 217 114 57 217 115 59 217 116 60 217 117 62 217 118 64 217 119 65 217 120 67 217 121 68 217 122 70 217 123 72 217 124 73 217 125 75 217 126 76 217 127 78 217 128 80 217 129 81 217 130 83 217 131 85 217 132 86 217 133 88 217 134 89 217 135 91 217 136 93 217 137 94 217 138 96 217 139 97 217 140 99 217 141 101 217 142 102 217 143 104 217 144 105 217 146 107 217 147 109 217 148 110 217 149 112 217 150 113 217 151 115 217 152 117 217 153 118 217 154 120 217 155 121 217 156 123 217 157 125 217 158 126 217 159 128 217 160 129 217 161 131 217 162 133 217 163 134 217 164 136 217 165 137 217 166 139 217 167 141 217 168 142 217 169 144 217 170 145 217 171 147 217 172 149 217 173 150 217 174 152 217 175 153 217 176 155 217 177 157 217 178 158 217 179 160 217 180 161 217 181 163 217 183 165 217 184 166 217 185 168 217 186 170 217 187 171 217 188 173 217 189 174 217 190 176 217 191 178 217 192 179 217 193 181 217 194 182 217 195 184 217 196 186 217 197 187 217 198 189 217 199 190 217 200 192 217 201 194 217 202 195 217 203 197 217 204 198 217 205 200 217 206 202 217 207 203 217 208 205 217 209 206 217 210 208 217 211 210 217 212 211 217 213 213 217 214 214 217 215 216 217 216 218 217 217 219 217 219 221 217 220 222 217 221 224 217 222 226 217 223 227 217 224 229 217 225 230 217 226 232 217 227 234 217 228 235 217 229 237 217 230 238 217 231 240 217 232 242 217 233 243 217 234 245 217 235 246 217 236 248 217 237 250 217 238 251 217 239 253 217 240 255 217 241
0 220 79 1 220 80 3 220 81 4 220 82 6 220 83 8 220 84 9 220 85 11 220 86 12 220 87 14 220 88 16 220 89 17 220 90 19 220 91 20 220 92 22 220 93 24 220 94 25 220 95 27 220 96 28 220 97 30 220 98 32 220 99 33 220 100 35 220 101 36 220 102 38 220 103 40 220 104 41 220 105 43 220 106 44 220 107 46 220 108 48 220 110 49 220 111 51 220 112 52 220 113 54 220 114 56 220 115 57 220 116 59 220 117 60 220 118 62 220 119 64 220 120 65 220 121 67 220 122 68 220 123 70 220 124 72 220 125 73 220 126 75 220 127 76 220 128 78 220 129 80 220 130 81 220 131 83 220 132 85 220 133 86 220 134 88 220 135 89 220 136 91 220 137 93 220 138 94 220 139 96 220 140 97 220 141 99 220 142 101 220 143 102 220 144 104 220 146 105 220 147 107 220 148 109 220 149 110 220 150 112 220 151 113 220 152 115 220 153 117 220 154 118 220 155 120 220 156 121 220 157 123 220 158 125 220 159 126 220 160 128 220 161 129 220 162 131 220 163 133 220 164 134 220 165 136 220 166 137 220 167 139 220 168 141 220 169 142 220 170 144 220 171 145 220 172 147 220 173 149 220 174 150 220 175 152 220 176 153 220 177 155 220 178 157 220 179 158 220 180 160 220 181 161 220 183 163 220 184 165 220 185 166 220 186 168 220 187 170 220 188 171 220 189 173 220 190 174 220 191 176 220 192 178 220 193 179 220 194 181 220 195 182 220 196 184 220 197 186 220 198 187 220 199 189 220 200 190 220 201 192 220 202 194 220 203 195 220 204 197 220 205 198 220 206 200 220 207 202 220 208 203 220 209 205 220 210 206 220 211 208 220 212 210 220 213 211 220 214 213 220 215 214 220 216 216 220 217 218 220 219 219 220 220 221 220 221 222 220 222 224 220 223 226 220 224 227 220 225 229 220 226 230 220 227 232 220 228 234 220 229 235 220 230 237 220 231 238 220 232 240 220 233 242 220 234 243 220 235 245 220 236 246 220 237 248 220 238 250 220 239 251 220 240 253 220 241 255 220 242
0 223 80 1 223 81 3 223 82 4 223 83 6 223 84 8 223 85 9 223 86 11 223 87 12 223 88 14 223 89 16 223 90 17 223 91 19 223 92 20 223 93 22 223 94 24 223 95 25 223 96 27 223 97 28 223 98 30 223 99 32 223 100 33 223 101 35 223 102 36 223 103 38 223 104 40 223 105 41 223 106 43 223 107 44 223 108 46 223 110 48 223 111 49 223 112 51 223 113 52 223 114 54 223 115 56 223 116 57 223 117 59 223 118 60 223 119 62 223 120 64 223 121 65 223 122 67 223 123 68 223 124 70 223 125 72 223 126 73 223 127 75 223 128 76 223 129 78 223 130 80 223 131 81 223 132 83 223 133 85 223 134 86 223 135 88 223 136 89 223 137 91 223 138 93 223 139 94 223 140 96 223 141 97 223 142 99 223 143 101 223 144 102 223 146 104 223 147 105 223 148 107 223 149 109 223 150 110 223 151 112 223 152 113 223 153 115 223 154 117 223 155 118 223 156 120 223 157 121 223 158 123 223 159 125 223 160 126 223 161 128 223 162 129 223 163 131 223 164 133 223 165 134 223 166 136 223 167 137 223 168 139 223 169 141 223 170 142 223 171 144 223 172 145 223 173 147 223 174 149 223 175 150 223 176 152 223 177 153 223 178 155 223 179 157 223 180 158 223 181 160 223 183 161 223 184 163 223 185 165 223 186 166 223 187 168 223 188 170 223 189 171 223 190 173 223 191 174 223 192 176 223 193 178 223 194 179 223 195 181 223 196 182 223 197 184 223 198 186 223 199 187 223 200 189 223 201 190 223 202 192 223 203 194 223 204 195 223 205 197 223 206 198 223 207 200 223 208 202 223 209 203 223 210 205 223 211 206 223 212 208 223 213 210 223 214 211 223 215 213 223 216 214 223 217 216 223 219 218 223 220 219 223 221 221 223 222 222 223 223 224 223 224 226 223 225 227 223 226 229 223 227 230 223 228 232 223 229 234 223 230 235 223 231 237 223 232 238 223 233 240 223 234 242 223 235 243 223 236 245 223 237 246 223 238 248 223 239 250 223 240 251 223 241 253 223 242 255 223 243
0 226 81 1 226 82 3 226 83 4 226 84 6 226 85 8 226 86 9 226 87 11 226 88 12 226 89 14 226 90 16 226 91 17 226 92 19 226 93 20 226 94 22 226 95 24 226 96 25 226 97 27 226 98 28 226 99 30 226 100 32 226 101 33 226 102 35 226 103 36 226 104 38 226 105 40 226 106 41 226 107 43 226 108 44 226 110 46 226 111 48 226 112 49 226 113 51 226 114 52 226 115 54 226 116 56 226 117 57 226 118 59 226 119 60 226 120 62 226 121 64 226 122 65 226 123 67 226 124 68 226 125 70 226 126 72 226 127 73 226 128 75 226 129 76 226 130 78 226 131 80 226 132 81 226 133 83 226 134 85 226 135 86 226 136 88 226 137 89 226 138 91 226 139 93 226 140 94 226 141 96 226 142 97 226 143 99 226 144 101 226 146 102 226 147 104 226 148 105 226 149 107 226 150 109 226 151 110 226 152 112 226 153 113 226 154 115 226 155 117 226 156 118 226 157 120 226 158 121 226 159 123 226 160 125 226 161 126 226 162 128 226 163 129 226 164 131 226 165 133 226 166 134 226 167 136 226 168 137 226 169 139 226 170 141 226 171 142 226 172 144 226 173 145 226 174 147 226 175 149 226 176 150 226 177 152 226 178 153 226 179 155 226 180 157 226 181 158 226 183 160 226 184 161 226 185 163 226 186 165 226 187 166 226 188 168 226 189 170 226 190 171 226 191 173 226 192 174 226 193 176 226 194 178 226 195 179 226 196 181 226 197 182 226 198 184 226 199 186 226 200 187 226 201 189 226 202 190 226 203 192 226 204 194 226 205 195 226 206 197 226 207 198 226 208 200 226 209 202 226 210 203 226 211 205 226 212 206 226 213 208 226 214 210 226 215 211 226 216 213 226 217 214 226 219 216 226 220 218 226 221 219 226 222 221 226 223 222 226 224 224 226 225 226 226 226 227 226 227 229 226 228 230 226 229 232 226 230 234 226 231 235 226 232 237 226 233 238 226 234 240 226 235 242 226 236 243 226 237 245 226 238 246 226 239 248 226 240 250 226 241 251 226 242 253 226 243 255 226 244
0 229 82 1 229 83 3 229 84 4 229 85 6 229 86 8 229 87 9 229 88 11 229 89 12 229 90 14 229 91 16 229 92 17 229 93 19 229 94 20 229 95 22 229 96 24 229 97 25 229 98 27 229 99 28 229 100 30 229 101 32 229 102 33 229 103 35 229 104 36 229 105 38 229 106 40 229 107 41 229 108 43 229 110 44 229 111 46 229 112 48 229 113 49 229 114 51 229 115 52 229 116 54 229 117 56 229 118 57 229 119 59 229 120 60 229 121 62 229 122 64 229 123 65 229 124 67 229 125 68 229 126 70 229 127 72 229 128 73 229 129 75 229 130 76 229 131 78 229 132 80 229 133 81 229 134 83 229 135 85 229 136 86 229 137 88 229 138 89 229 139 91 229 140 93 229 141 94 229 142 96 229 143 97 229 144 99 229 146 101 229 147 102 229 148 104 229 149 105 229 150 107 229 151 109 229 152 110 229 153 112 229 154 113 229 155 115 229 156 117 229 157 118 229 158 120 229 159 121 229 160 123 229 161 125 229 162 126 229 163 128 229 164 129 229 165 131 229 166 133 229 167 134 229 168 136 229 169 137 229 170 139 229 171 141 229 172 142 229 173 144 229 174 145 229 175 147 229 176 149 229 177 150 229 178 152 229 179 153 229 180 155 229 181 157 229 183 158 229 184 160 229 185 161 229 186 163 229 187 165 229 188 166 229 189 168 229 190 170 229 191 171 229 192 173 229 193 174 229 194 176 229 195 178 229 196 179 229 197 181 229 198 182 229 199 184 229 200 186 229 201 187 229 202 189 229 203 190 229 204 192 229 205 194 229 206 195 229 207 197 229 208 198 229 209 200 229 210 202 229 211 203 229 212 205 229 213 206 229 214 208 229 215 210 229 216 211 229 217 213 229 219 214 229 220 216 229 221 218 229 222 219 229 223 221 229 224 222 229 225 224 229 226 226 229 227 227 229 228 229 229 229 230 229 230 232 229 231 234 229 232 235 229 233 237 229 234 238 229 235 240 229 236 242 229 237 243 229 238 245 229 239 246 229 240 248 229 241 250 229 242 251 229 243 253 229 244 255 229 245
0 232 83 1 232 84 3 232 85 4 232 86 6 232 87 8 232 88 9 232 89 11 232 90 12 232 91 14 232 92 16 232 93 17 232 94 19 232 95 20 232 96 22 232 97 24 232 98 25 232 99 27 232 100 28 232 101 30 232 102 32 232 103 33 232 104 35 232 105 36 232 106 38 232 107 40 232 108 41 232 110 43 232 111 44 232 112 46 232 113 48 232 114 49 232 115 51 232 116 52 232 117 54 232 118 56 232 119 57 232 120 59 232 121 60 232 122 62 232 123 64 232 124 65 232 125 67 232 126 68 232 127 70 232 128 72 232 129 73 232 130 75 232 131 76 232 132 78 232 133 80 232 134 81 232 135 83 232 136 85 232 137 86 232 138 88 232 139 89 232 140 91 232 141 93 232 142 94 232 143 96 232 144 97 232 146 99 232 147 101 232 148 102 232 149 104 232 150 105 232 151 107 232 152 109 232 153 110 232 154 112 232 155 113 232 156 115 232 157 117 232 158 118 232 159 120 232 160 121 232 161 123 232 162 125 232 163 126 232 164 128 232 165 129 232 166 131 232 167 133 232 168 134 232 169 136 232 170 137 232 171 139 232 172 141 232 173 142 232 174 144 232 175 145 232 176 147 232 177 149 232 178 150 232 179 152 232 180 153 232 181 155 232 183 157 232 184 158 232 185 160 232 186 161 232 187 163 232 188 165 232 189 166 232 190 168 232 191 170 232 192 171 232 193 173 232 194 174 232 195 176 232 196 178 232 197 179 232 198 181 232 199 182 232 200 184 232 201 186 232 202 187 232 203 189 232 204 190 232 205 192 232 206 194 232 207 195 232 208 197 232 209 198 232 210 200 232 211 202 232 212 203 232 213 205 232 214 206 232 215 208 232 216 210 232 217 211 232 219 213 232 220 214 232 221 216 232 222 218 232 223 219 232 224 221 232 225 222 232 226 224 232 227 226 232 228 227 232 229 229 232 230 230 232 231 232 232 232 234 232 233 235 232 234 237 232 235 238 232 236 240 232 237 242 232 238 243 232 239 245 232 240 246 232 241 248 232 242 250 232 243 251 232 244 253 232 245 255 232 246
0 234 84 1 234 85 3 234 86 4 234 87 6 234 88 8 234 89 9 234 90 11 234 91 12 234 92 14 234 93 16 234 94 17 234 95 19 234 96 20 234 97 22 234 98 24 234 99 25 234 100 27 234 101 28 234 102 30 234 103 32 234 104 33 234 105 35 234 106 36 234 107 38 234 108 40 234 110 41 234 111 43 234 112 44 234 113 46 234 114 48 234 115 49 234 116 51 234 117 52 234 118 54 234 119 56 234 120 57 234 121 59 234 122 60 234 123 62 234 124 64 234 125 65 234 126 67 234 127 68 234 128 70 234 129 72 234 130 73 234 131 75 234 132 76 234 133 78 234 134 80 234 135 81 234 136 83 234 137 85 234 138 86 234 139 88 234 140 89 234 141 91 234 142 93 234 143 94 234 144 96 234 146 97 234 147 99 234 148 101 234 149 102 234 150 104 234 151 105 234 152 107 234 153 109 234 154 110 234 155 112 234 156 113 234 157 115 234 158 117 234 159 118 234 160 120 234 161 121 234 162 123 234 163 125 234 164 126 234 165 128 234 166 129 234 167 131 234 168 133 234 169 134 234 170 136 234 171 137 234 172 139 234 173 141 234 174 142 234 175 144 234 176 145 234 177 147 234 178 149 234 179 150 234 180 152 234 181 153 234 183 155 234 184 157 234 185 158 234 186 160 234 187 161 234 188 163 234 189 165 234 190 166 234 191 168 234 192 170 234 193 171 234 194 173 234 195 174 234 196 176 234 197 178 234 198 179 234 199 181 234 200 182 234 201 184 234 202 186 234 203 187 234 204 189 234 205 190 234 206 192 234 207 194 234 208 195 234 209 197 234 210 198 234 211 200 234 212 202 234 213 203 234 214 205 234 215 206 234 216 208 234 217 210 234 219 211 234 220 213 234 221 214 234 222 216 234 223 218 234 224 219 234 225 221 234 226 222 234 227 224 234 228 226 234 229 227 234 230 229 234 231 230 234 232 232 234 233 234 234 234 235 234 235 237 234 236 238 234 237 240 234 238 242 234 239 243 234 240 245 234 241 246 234 242 248 234 243 250 234 244 251 234 245 253 234 246 255 234 247
0 237 85 1 237 86 3 237 87 4 237 88 6 237 89 8 237 90 9 237 91 11 237 92 12 237 93 14 237 94 16 237 95 17 237 96 19 237 97 20 237 98 22 237 99 24 237 100 25 237 101 27 237 102 28 237 103 30 237 104 32 237 105 33 237 106 35 237 107 36 237 108 38 237 110 40 237 111 41 237 112 43 237 113 44 237 114 46 237 115 48 237 116 49 237 117 51 237 118 52 237 119 54 237 120 56 237 121 57 237 122 59 237 123 60 237 124 62 237 125 64 237 126 65 237 127 67 237 128 68 237 129 70 237 130 72 237 131 73 237 132 75 237 133 76 237 134 78 237 135 80 237 136 81 237 137 83 237 138 85 237 139 86 237 140 88 237 141 89 237 142 91 237 143 93 237 144 94 237 146 96 237 147 97 237 148 99 237 149 101 237 150 102 237 151 104 237 152 105 237 153 107 237 154 109 237 155 110 237 156 112 237 157 113 237 158 115 237 159 117 237 160 118 237 161 120 237 162 121 237 163 123 237 164 125 237 165 126 237 166 128 237 167 129 237 168 131 237 169 133 237 170 134 237 171 136 237 172 137 237 173 139 237 174 141 237 175 142 237 176 144 237 177 145 237 178 147 237 179 149 237 180 150 237 181 152 237 183 153 237 184 155 237 185 157 237 186 158 237 187 160 237 188 161 237 189 163 237 190 165 237 191 166 237 192 168 237 193 170 237 194 171 237 195 173 237 196 174 237 197 176 237 198 178 237 199 179 237 200 181 237 201 182 237 202 184 237 203 186 237 204 187 237 205 189 237 206 190 237 207 192 237 208 194 237 209 195 237 210 197 237 211 198 237 212 200 237 213 202 237 214 203 237 215 205 237 216 206 237 217 208 237 219 210 237 220 211 237 221 213 237 222 214 237 223 216 237 224 218 237 225 219 237 226 221 237 227 222 237 228 224 237 229 226 237 230 227 237 231 229 237 232 230 237 233 232 237 234 234 237 235 235 237 236 237 237 237 238 237 238 240 237 239 242 237 240 243 237 241 245 237 242 246 237 243 248 237 244 250 237 245 251 237 246 253 237 247 255 237 248
0 240 86 1 240 87 3 240 88 4 240 89 6 240 90 8 240 91 9 240 92 11 240 93 12 240 94 14 240 95 16 240 96 17 240 97 19 240 98 20 240 99 22 240 100 24 240 101 25 240 102 27 240 103 28 240 104 30 240 105 32 240 106 33 240 107 35 240 108 36 240 110 38 240 111 40 240 112 41 240 113 43 240 114 44 240 115 46 240 116 48 240 117 49 240 118 51 240 119 52 240 120 54 240 121 56 240 122 57 240 123 59 240 124 60 240 125 62 240 126 64 240 127 65 240 128 67 240 129 68 240 130 70 240 131 72 240 132 73 240 133 75 240 134 76 240 135 78 240 136 80 240 137 81 240 138 83 240 139 85 240 140 86 240 141 88 240 142 89 240 143 91 240 144 93 240 146 94 240 147 96 240 148 97 240 149 99 240 150 101 240 151 102 240 152 104 240 153 105 240 154 107 240 155 109 240 156 110 240 157 112 240 158 113 240 159 115 240 160 117 240 161 118 240 162 120 240 163 121 240 164 123 240 165 125 240 166 126 240 167 128 240 168 129 240 169 131 240 170 133 240 171 134 240 172 136 240 173 137 240 174 139 240 175 141 240 176 142 240 177 144 240 178 145 240 179 147 240 180 149 240 181 150 240 183 152 240 184 153 240 185 155 240 186 157 240 187 158 240 188 160 240 189 161 240 190 163 240 191 165 240 192 166 240 193 168 240 194 170 240 195 171 240 196 173 240 197 174 240 198 176 240 199 178 240 200 179 240 201 181 240 202 182 240 203 184 240 204 186 240 205 187 240 206 189 240 207 190 240 208 192 240 209 194 240 210 195 240 211 197 240 212 198 240 213 200 240 214 202 240 215 203 240 216 205 240 217 206 240 219 208 240 220 210 240 221 211 240 222 213 240 223 214 240 224 216 240 225 218 240 226 219 240 227 221 240 228 222 240 229 224 240 230 226 240 231 227 240 232 229 240 233 230 240 234 232 240 235 234 240 236 235 240 237 237 240 238 238 240 239 240 240 240 242 240 241 243 240 242 245 240 243 246 240 244 248 240 245 250 240 246 251 240 247 253 240 248 255 240 249
0 243 87 1 243 88 3 243 89 4 243 90 6 243 91 8 243 92 9 243 93 11 243 94 12 243 95 14 243 96 16 243 97 17 243 98 19 243 99 20 243 100 22 243 101 24 243 102 25 243 103 27 243 104 28 243 105 30 243 106 32 243 107 33 243 108 35 243 110 36 243 111 38 243 112 40 243 113 41 243 114 43 243 115 44 243 116 46 243 117 48 243 118 49 243 119 51 243 120 52 243 121 54 243 122 56 243 123 57 243 124 59 243 125 60 243 126 62 243 127 64 243 128 65 243 129 67 243 130 68 243 131 70 243 132 72 243 133 73 243 134 75 243 135 76 243 136 78 243 137 80 243 138 81 243 139 83 243 140 85 243 141 86 243 142 88 243 143 89 243 144 91 243 146 93 243 147 94 243 148 96 243 149 97 243 150 99 243 151 101 243 152 102 243 153 104 243 154 105 243 155 107 243 156 109 243 157 110 243 158 112 243 159 113 243 160 115 243 161 117 243 162 118 243 163 120 243 164 121 243 165 123 243 166 125 243 167 126 243 168 128 243 169 129 243 170 131 243 171 133 243 172 134 243 173 136 243 174 137 243 175 139 243 176 141 243 177 142 243 178 144 243 179 145 243 180 147 243 181 149 243 183 150 243 184 152 243 185 153 243 186 155 243 187 157 243 188 158 243 189 160 243 190 161 243 191 163 243 192 165 243 193 166 243 194 168 243 195 170 243 196 171 243 197 173 243 198 174 243 199 176 243 200 178 243 201 179 243 202 181 243 203 182 243 204 184 243 205 186 243 206 187 243 207 189 243 208 190 243 209 192 243 210 194 243 211 195 243 212 197 243 213 198 243 214 200 243 215 202 243 216 203 243 217 205 243 219 206 243 220 208 243 221 210 243 222 211 243 223 213 243 224 214 243 225 216 243 226 218 243 227 219 243 228 221 243 229 222 243 230 224 243 231 226 243 232 227 243 233 229 243 234 230 243 235 232 243 236 234 243 237 235 243 238 237 243 239 238 243 240 240 243 241 242 243 242 243 243 243 245 243 244 246 243 245 248 243 246 250 243 247 251 243 248 253 243 249 255 243 250
0 246 88 1 246 89 3 246 90 4 246 91 6 246 92 8 246 93 9 246 94 11 246 95 12 246 96 14 246 97 16 246 98 17 246 99 19 246 100 20 246 101 22 246 102 24 246 103 25 246 104 27 246 105 28 246 106 30 246 107 32 246 108 33 246 110 35 246 111 36 246 112 38 246 113 40 246 114 41 246 115 43 246 116 44 246 117 46 246 118 48 246 119 49 246 120 51 246 121 52 246 122 54 246 123 56 246 124 57 246 125 59 246 126 60 246 127 62 246 128 64 246 129 65 246 130 67 246 131 68 246 132 70 246 133 72 246 134 73 246 135 75 246 136 76 246 137 78 246 138 80 246 139 81 246 140 83 246 141 85 246 142 86 246 143 88 246 144 89 246 146 91 246 147 93 246 148 94 246 149 96 246 150 97 246 151 99 246 152 101 246 153 102 246 154 104 246 155 105 246 156 107 246 157 109 246 158 110 246 159 112 246 160 113 246 161 115 246 162 117 246 163 118 246 164 120 246 165 121 246 166 123 246 167 125 246 168 126 246 169 128 246 170 129 246 171 131 246 172 133 246 173 134 246 174 136 246 175 137 246 176 139 246 177 141 246 178 142 246 179 144 246 180 145 246 181 147 246 183 149 246 184 150 246 185 152 246 186 153 246 187 155 246 188 157 246 189 158 246 190 160 246 191 161 246 192 163 246 193 165 246 194 166 246 195 168 246 196 170 246 197 171 246 198 173 246 199 174 246 200 176 246 201 178 246 202 179 246 203 181 246 204 182 246 205 184 246 206 186 246 207 187 246 208 189 246 209 190 246 210 192 246 211 194 246 212 195 246 213 197 246 214 198 246 215 200 246 216 202 246 217 203 246 219 205 246 220 206 246 221 208 246 222 210 246 223 211 246 224 213 246 225 214 246 226 216 246 227 218 246 228 219 246 229 221 246 230 222 246 231 224 246 232 226 246 233 227 246 234 229 246 235 230 246 236 232 246 237 234 246 238 235 246 239 237 246 240 238 246 241 240 246 242 242 246 243 243 246 244 245 246 245 246 246 246 248 246 247 250 246 248 251 246 249 253 246 250 255 246 251
0 249 89 1 249 90 3 249 91 4 249 92 6 249 93 8 249 94 9 249 95 11 249 96 12 249 97 14 249 98 16 249 99 17 249 100 19 249 101 20 249 102 22 249 103 24 249 104 25 249 105 27 249 106 28 249 107 30 249 108 32 249 110 33 249 111 35 249 112 36 249 113 38 249 114 40 249 115 41 249 116 43 249 117 44 249 118 46 249 119 48 249 120 49 249 121 51 249 122 52 249 123 54 249 124 56 249 125 57 249 126 59 249 127 60 249 128 62 249 129 64 249 130 65 249 131 67 249 132 68 249 133 70 249 134 72 249 135 73 249 136 75 249 137 76 249 138 78 249 139 80 249 140 81 249 141 83 249 142 85 249 143 86 249 144 88 249 146 89 249 147 91 249 148 93 249 149 94 249 150 96 249 151 97 249 152 99 249 153 101 249 154 102 249 155 104 249 156 105 249 157 107 249 158 109 249 159 110 249 160 112 249 161 113 249 162 115 249 163 117 249 164 118 249 165 120 249 166 121 249 167 123 249 168 125 249 169 126 249 170 128 249 171 129 249 172 131 249 173 133 249 174 134 249 175 136 249 176 137 249 177 139 249 178 141 249 179 142 249 180 144 249 181 145 249 183 147 249 184 149 249 185 150 249 186 152 249 187 153 249 188 155 249 189 157 249 190 158 249 191 160 249 192 161 249 193 163 249 194 165 249 195 166 249 196 168 249 197 170 249 198 171 249 199 173 249 200 174 249 201 176 249 202 178 249 203 179 249 204 181 249 205 182 249 206 184 249 207 186 249 208 187 249 209 189 249 210 190 249 211 192 249 212 194 249 213 195 249 214 197 249 215 198 249 216 200 249 217 202 249 219 203 249 220 205 249 221 206 249 222 208 249 223 210 249 224 211 249 225 213 249 226 214 249 227 216 249 228 218 249 229 219 249 230 221 249 231 222 249 232 224 249 233 226 249 234 227 249 235 229 249 236 230 249 237 232 249 238 234 249 239 235 249 240 237 249 241 238 249 242 240 249 243 242 249 244 243 249 245 245 249 246 246 249 247 248 249 248 250 249 249 251 249 250 253 249 251 255 249 252
0 252 90 1 252 91 3 252 92 4 252 93 6 252 94 8 252 95 9 252 96 11 252 97 12 252 98 14 252 99 16 252 100 17 252 101 19 252 102 20 252 103 22 252 104 24 252 105 25 252 106 27 252 107 28 252 108 30 252 110 32 252 111 33 252 112 35 252 113 36 252 114 38 252 115 40 252 116 41 252 117 43 252 118 44 252 119 46 252 120 48 252 121 49 252 122 51 252 123 52 252 124 54 252 125 56 252 126 57 252 127 59 252 128 60 252 129 62 252 130 64 252 131 65 252 132 67 252 133 68 252 134 70 252 135 72 252 136 73 252 137 75 252 138 76 252 139 78 252 140 80 252 141 81 252 142 83 252 143 85 252 144 86 252 146 88 252 147 89 252 148 91 252 149 93 252 150 94 252 151 96 252 152 97 252 153 99 252 154 101 252 155 102 252 156 104 252 157 105 252 158 107 252 159 109 252 160 110 252 161 112 252 162 113 252 163 115 252 164 117 252 165 118 252 166 120 252 167 121 252 168 123 252 169 125 252 170 126 252 171 128 252 172 129 252 173 131 252 174 133 252 175 134 252 176 136 252 177 137 252 178 139 252 179 141 252 180 142 252 181 144 252 183 145 252 184 147 252 185 149 252 186 150 252 187 152 252 188 153 252 189 155 252 190 157 252 191 158 252 192 160 252 193 161 252 194 163 252 195 165 252 196 166 252 197 168 252 198 170 252 199 171 252 200 173 252 201 174 252 202 176 252 203 178 252 204 179 252 205 181 252 206 182 252 207 184 252 208 186 252 209 187 252 210 189 252 211 190 252 212 192 252 213 194 252 214 195 252 215 197 252 216 198 252 217 200 252 219 202 252 220 203 252 221 205 252 222 206 252 223 208 252 224 210 252 225 211 252 226 213 252 227 214 252 228 216 252 229 218 252 230 219 252 231 221 252 232 222 252 233 224 252 234 226 252 235 227 252 236 229 252 237 230 252 238 232 252 239 234 252 240 235 252 241 237 252 242 238 252 243 240 252 244 242 252 245 243 252 246 245 252 247 246 252 248 248 252 249 250 252 250 251 252 251 253 252 252 255 252 253
0 255 91 1 255 92 3 255 93 4 255 94 6 255 95 8 255 96 9 255 97 11 255 98 12 255 99 14 255 100 16 255 101 17 255 102 19 255 103 20 255 104 22 255 105 24 255 106 25 255 107 27 255 108 28 255 110 30 255 111 32 255 112 33 255 113 35 255 114 36 255 115 38 255 116 40 255 117 41 255 118 43 255 119 44 255 120 46 255 121 48 255 122 49 255 123 51 255 124 52 255 125 54 255 126 56 255 127 57 255 128 59 255 129 60 255 130 62 255 131 64 255 132 65 255 133 67 255 134 68 255 135 70 255 136 72 255 137 73 255 138 75 255 139 76 255 140 78 255 141 80 255 142 81 255 143 83 255 144 85 255 146 86 255 147 88 255 148 89 255 149 91 255 150 93 255 151 94 255 152 96 255 153 97 255 154 99 255 155 101 255 156 102 255 157 104 255 158 105 255 159 107 255 160 109 255 161 110 255 162 112 255 163 113 255 164 115 255 165 117 255 166 118 255 167 120 255 168 121 255 169 123 255 170 125 255 171 126 255 172 128 255 173 129 255 174 131 255 175 133 255 176 134 255 177 136 255 178 137 255 179 139 255 180 141 255 181 142 255 183 144 255 184 145 255 185 147 255 186 149 255 187 150 255 188 152 255 189 153 255 190 155 255 191 157 255 192 158 255 193 160 255 194 161 255 195 163 255 196 165 255 197 166 255 198 168 255 199 170 255 200 171 255 201 173 255 202 174 255 203 176 255 204 178 255 205 179 255 206 181 255 207 182 255 208 184 255 209 186 255 210 187 255 211 189 255 212 190 255 213 192 255 214 194 255 215 195 255 216 197 255 217 198 255 219 200 255 220 202 255 221 203 255 222 205 255 223 206 255 224 208 255 225 210 255 226 211 255 227 213 255 228 214 255 229 216 255 230 218 255 231 219 255 232 221 255 233 222 255 234 224 255 235 226 255 236 227 255 237 229 255 238 230 255 239 232 255 240 234 255 241 235 255 242 237 255 243 238 255 244 240 255 245 242 255 246 243 255 247 245 255 248 246 255 249 248 255 250 250 255 251 251 255 252 253 255 253 255 255 255
