P3
16 16
255
0 128 255 0 128 255 0 128 255 0 128 255 0 128 255 0 128 255 0 128 255 0 128 255 0 128 255 0 128 255 0 128 255 0 128 255 0 128 255 0 128 255 0 128 255 0 128 255
17 128 238 17 128 238 17 128 238 17 128 238 17 128 238 17 128 238 17 128 238 17 128 238 17 128 238 17 128 238 17 128 238 17 128 238 17 128 238 17 128 238 17 128 238 17 128 238
34 128 221 34 128 221 34 128 221 34 128 221 34 128 221 34 128 221 34 128 221 34 128 221 34 128 221 34 128 221 34 128 221 34 128 221 34 128 221 34 128 221 34 128 221 34 128 221
51 128 204 51 128 204 51 128 204 51 128 204 51 128 204 51 128 204 51 128 204 51 128 204 51 128 204 51 128 204 51 128 204 51 128 204 51 128 204 51 128 204 51 128 204 51 128 204
68 128 187 68 128 187 68 128 187 68 128 187 68 128 187 68 128 187 68 128 187 68 128 187 68 128 187 68 128 187 68 128 187 68 128 187 68 128 187 68 128 187 68 128 187 68 128 187
85 128 170 85 128 170 85 128 170 85 128 170 85 128 170 85 128 170 85 128 170 85 128 170 85 128 170 85 128 170 85 128 170 85 128 170 85 128 170 85 128 170 85 128 170 85 128 170
102 128 153 102 128 153 102 128 153 102 128 153 102 128 153 102 128 153 102 128 153 102 128 153 102 128 153 102 128 153 102 128 153 102 128 153 102 128 153 102 128 153 102 128 153 102 128 153
119 128 136 119 128 136 119 128 136 119 128 136 119 128 136 119 128 136 119 128 136 119 128 136 119 128 136 119 128 136 119 128 136 119 128 136 119 128 136 119 128 136 119 128 136 119 128 136
136 128 119 136 128 119 136 128 119 136 128 119 136 128 119 136 128 119 136 128 119 136 128 119 136 128 119 136 128 119 136 128 119 136 128 119 136 128 119 136 128 119 136 128 119 136 128 119
153 128 102 153 128 102 153 128 102 153 128 102 153 128 102 153 128 102 153 128 102 153 128 102 153 128 102 153 128 102 153 128 102 153 128 102 153 128 102 153 128 102 153 128 102 153 128 102
170 128 85 170 128 85 170 128 85 170 128 85 170 128 85 170 128 85 170 128 85 170 128 85 170 128 85 170 128 85 170 128 85 170 128 85 170 128 85 170 128 85 170 128 85 170 128 85
187 128 68 187 128 68 187 128 68 187 128 68 187 128 68 187 128 68 187 128 68 187 128 68 187 128 68 187 128 68 187 128 68 187 128 68 187 128 68 187 128 68 187 128 68 187 128 68
204 128 51 204 128 51 204 128 51 204 128 51 204 128 51 204 128 51 204 128 51 204 128 51 204 128 51 204 128 51 204 128 51 204 128 51 204 128 51 204 128 51 204 128 51 204 128 51
221 128 34 221 128 34 221 128 34 221 128 34 221 128 34 221 128 34 221 128 34 221 128 34 221 128 34 221 128 34 221 128 34 221 128 34 221 128 34 221 128 34 221 128 34 221 128 34
238 128 17 238 128 17 238 128 17 238 128 17 238 128 17 238 128 17 238 128 17 238 128 17 238 128 17 238 128 17 238 128 17 238 128 17 238 128 17 238 128 17 238 128 17 238 128 17
255 128 0 255 128 0 255 128 0 255 128 0 255 128 0 255 128 0 255 128 0 255 128 0 255 128 0 255 128 0 255 128 0 255 128 0 255 128 0 255 128 0 255 128 0 255 128 0
