P3
24 24
255
16 32 239 16 32 239 15 30 240 15 30 240 14 28 241 13 26 242 13 26 242 13 26 242 12 24 243 12 24 243 12 24 243 12 24 243 12 24 243 12 24 243 12 24 243 12 24 243 12 24 243 13 26 242 13 26 242 13 26 242 14 28 241 15 30 240 15 30 240 16 32 239
16 32 239 15 30 240 14 28 241 14 28 241 13 26 242 13 26 242 12 24 243 12 24 243 11 22 244 11 22 244 11 22 244 11 22 244 11 22 244 11 22 244 11 22 244 11 22 244 11 22 244 12 24 243 12 24 243 13 26 242 13 26 242 14 28 241 14 28 241 15 30 240
15 30 240 14 28 241 14 28 241 13 26 242 12 24 243 12 24 243 11 22 244 11 22 244 10 20 245 10 20 245 10 20 245 10 20 245 10 20 245 10 20 245 10 20 245 10 20 245 10 20 245 11 22 244 11 22 244 12 24 243 12 24 243 13 26 242 14 28 241 14 28 241
15 30 240 14 28 241 13 26 242 12 24 243 12 24 243 11 22 244 10 20 245 10 20 245 9 18 246 9 18 246 9 18 246 9 18 246 9 18 246 9 18 246 9 18 246 9 18 246 9 18 246 10 20 245 10 20 245 11 22 244 12 24 243 12 24 243 13 26 242 14 28 241
14 28 241 13 26 242 12 24 243 12 24 243 11 22 244 10 20 245 10 20 245 9 18 246 8 16 247 8 16 247 8 16 247 8 16 247 8 16 247 8 16 247 8 16 247 8 16 247 8 16 247 9 18 246 10 20 245 10 20 245 11 22 244 12 24 243 12 24 243 13 26 242
13 26 242 13 26 242 12 24 243 11 22 244 10 20 245 9 18 246 9 18 246 8 16 247 8 16 247 7 14 248 7 14 248 7 14 248 7 14 248 7 14 248 7 14 248 7 14 248 8 16 247 8 16 247 9 18 246 9 18 246 10 20 245 11 22 244 12 24 243 13 26 242
13 26 242 12 24 243 11 22 244 10 20 245 10 20 245 9 18 246 8 16 247 7 14 248 7 14 248 6 12 249 6 12 249 6 12 249 6 12 249 6 12 249 6 12 249 6 12 249 7 14 248 7 14 248 8 16 247 9 18 246 10 20 245 10 20 245 11 22 244 12 24 243
13 26 242 12 24 243 11 22 244 10 20 245 9 18 246 8 16 247 7 14 248 7 14 248 6 12 249 5 10 250 5 10 250 5 10 250 5 10 250 5 10 250 5 10 250 5 10 250 6 12 249 7 14 248 7 14 248 8 16 247 9 18 246 10 20 245 11 22 244 12 24 243
12 24 243 11 22 244 10 20 245 9 18 246 8 16 247 8 16 247 7 14 248 6 12 249 5 10 250 5 10 250 4 8 251 4 8 251 4 8 251 4 8 251 4 8 251 5 10 250 5 10 250 6 12 249 7 14 248 8 16 247 8 16 247 9 18 246 10 20 245 11 22 244
12 24 243 11 22 244 10 20 245 9 18 246 8 16 247 7 14 248 6 12 249 5 10 250 5 10 250 4 8 251 3 6 252 3 6 252 3 6 252 3 6 252 3 6 252 4 8 251 5 10 250 5 10 250 6 12 249 7 14 248 8 16 247 9 18 246 10 20 245 11 22 244
12 24 243 11 22 244 10 20 245 9 18 246 8 16 247 7 14 248 6 12 249 5 10 250 4 8 251 3 6 252 2 4 253 2 4 253 2 4 253 2 4 253 2 4 253 3 6 252 4 8 251 5 10 250 6 12 249 7 14 248 8 16 247 9 18 246 10 20 245 11 22 244
12 24 243 11 22 244 10 20 245 9 18 246 8 16 247 7 14 248 6 12 249 5 10 250 4 8 251 3 6 252 2 4 253 1 2 254 1 2 254 1 2 254 2 4 253 3 6 252 4 8 251 5 10 250 6 12 249 7 14 248 8 16 247 9 18 246 10 20 245 11 22 244
12 24 243 11 22 244 10 20 245 9 18 246 8 16 247 7 14 248 6 12 249 5 10 250 4 8 251 3 6 252 2 4 253 1 2 254 0 0 255 1 2 254 2 4 253 3 6 252 4 8 251 5 10 250 6 12 249 7 14 248 8 16 247 9 18 246 10 20 245 11 22 244
12 24 243 11 22 244 10 20 245 9 18 246 8 16 247 7 14 248 6 12 249 5 10 250 4 8 251 3 6 252 2 4 253 1 2 254 1 2 254 1 2 254 2 4 253 3 6 252 4 8 251 5 10 250 6 12 249 7 14 248 8 16 247 9 18 246 10 20 245 11 22 244
12 24 243 11 22 244 10 20 245 9 18 246 8 16 247 7 14 248 6 12 249 5 10 250 4 8 251 3 6 252 2 4 253 2 4 253 2 4 253 2 4 253 2 4 253 3 6 252 4 8 251 5 10 250 6 12 249 7 14 248 8 16 247 9 18 246 10 20 245 11 22 244
12 24 243 11 22 244 10 20 245 9 18 246 8 16 247 7 14 248 6 12 249 5 10 250 5 10 250 4 8 251 3 6 252 3 6 252 3 6 252 3 6 252 3 6 252 4 8 251 5 10 250 5 10 250 6 12 249 7 14 248 8 16 247 9 18 246 10 20 245 11 22 244
12 24 243 11 22 244 10 20 245 9 18 246 8 16 247 8 16 247 7 14 248 6 12 249 5 10 250 5 10 250 4 8 251 4 8 251 4 8 251 4 8 251 4 8 251 5 10 250 5 10 250 6 12 249 7 14 248 8 16 247 8 16 247 9 18 246 10 20 245 11 22 244
13 26 242 12 24 243 11 22 244 10 20 245 9 18 246 8 16 247 7 14 248 7 14 248 6 12 249 5 10 250 5 10 250 5 10 250 5 10 250 5 10 250 5 10 250 5 10 250 6 12 249 7 14 248 7 14 248 8 16 247 9 18 246 10 20 245 11 22 244 12 24 243
13 26 242 12 24 243 11 22 244 10 20 245 10 20 245 9 18 246 8 16 247 7 14 248 7 14 248 6 12 249 6 12 249 6 12 249 6 12 249 6 12 249 6 12 249 6 12 249 7 14 248 7 14 248 8 16 247 9 18 246 10 20 245 10 20 245 11 22 244 12 24 243
13 26 242 13 26 242 12 24 243 11 22 244 10 20 245 9 18 246 9 18 246 8 16 247 8 16 247 7 14 248 7 14 248 7 14 248 7 14 248 7 14 248 7 14 248 7 14 248 8 16 247 8 16 247 9 18 246 9 18 246 10 20 245 11 22 244 12 24 243 13 26 242
14 28 241 13 26 242 12 24 243 12 24 243 11 22 244 10 20 245 10 20 245 9 18 246 8 16 247 8 16 247 8 16 247 8 16 247 8 16 247 8 16 247 8 16 247 8 16 247 8 16 247 9 18 246 10 20 245 10 20 245 11 22 244 12 24 243 12 24 243 13 26 242
15 30 240 14 28 241 13 26 242 12 24 243 12 24 243 11 22 244 10 20 245 10 20 245 9 18 246 9 18 246 9 18 246 9 18 246 9 18 246 9 18 246 9 18 246 9 18 246 9 18 246 10 20 245 10 20 245 11 22 244 12 24 243 12 24 243 13 26 242 14 28 241
15 30 240 14 28 241 14 28 241 13 26 242 12 24 243 12 24 243 11 22 244 11 22 244 10 20 245 10 20 245 10 20 245 10 20 245 10 20 245 10 20 245 10 20 245 10 20 245 10 20 245 11 22 244 11 22 244 12 24 243 12 24 243 13 26 242 14 28 241 14 28 241
16 32 239 15 30 240 14 28 241 14 28 241 13 26 242 13 26 242 12 24 243 12 24 243 11 22 244 11 22 244 11 22 244 11 22 244 11 22 244 11 22 244 11 22 244 11 22 244 11 22 244 12 24 243 12 24 243 13 26 242 13 26 242 14 28 241 14 28 241 15 30 240
