P3
13 7
255
103 204 174 22 22 110 43 102 8 45 213 124 33 83 32 185 173 211 224 19 205 255 195 71 127 189 84 104 3 221 249 175 157 33 56 104 222 135 69
6 101 5 230 16 74 4 95 78 98 77 76 89 71 206 147 140 2 95 106 28 141 163 208 161 187 128 232 206 204 239 184 147 172 174 155 242 223 39
160 178 33 85 131 18 44 8 143 1 60 110 130 244 82 72 215 25 122 148 199 133 101 33 115 222 15 86 176 76 65 20 135 174 167 59 173 19 144
22 233 28 118 233 40 128 161 48 146 215 233 94 101 203 123 221 2 62 143 158 3 181 101 61 111 122 187 156 219 12 65 153 43 37 193 177 169 18
217 197 201 181 12 180 34 103 183 248 182 170 110 40 152 75 158 119 11 54 251 137 125 59 33 213 7 221 38 233 239 71 194 253 187 102 135 11 177
205 214 68 226 74 205 227 225 237 119 18 255 38 125 207 180 103 54 150 35 68 26 228 246 231 117 142 163 5 220 138 77 82 230 92 80 149 52 198
247 121 38 111 156 215 64 9 221 57 144 251 137 140 232 60 246 163 157 86 34 56 180 129 158 250 12 139 158 8 20 134 126 154 146 221 241 54 52
