P3
8 8
255
0 255 0 1 254 2 2 253 4 3 252 6 4 251 8 5 250 10 6 249 12 7 248 14
1 254 2 2 253 4 3 252 6 4 251 8 5 250 10 6 249 12 7 248 14 8 247 16
2 253 4 3 252 6 4 251 8 5 250 10 6 249 12 7 248 14 8 247 16 9 246 18
3 252 6 4 251 8 5 250 10 6 249 12 7 248 14 8 247 16 9 246 18 10 245 20
4 251 8 5 250 10 6 249 12 7 248 14 8 247 16 9 246 18 10 245 20 11 244 22
5 250 10 6 249 12 7 248 14 8 247 16 9 246 18 10 245 20 11 244 22 12 243 24
6 249 12 7 248 14 8 247 16 9 246 18 10 245 20 11 244 22 12 243 24 13 242 26
7 248 14 8 247 16 9 246 18 10 245 20 11 244 22 12 243 24 13 242 26 14 241 28
