P3
256 128
255
13 101 214 13 101 214 13 101 214 13 101 214 13 101 214 13 101 214 13 101 214 13 101 214 13 101 214 13 101 214 13 101 214 13 101 214 13 101 214 13 101 214 13 101 214 13 101 214 13 101 214 13 101 214 13 101 214 13 101 214 13 101 214 13 101 214 13 101 214 13 101 214 13 101 214 13 101 214 13 101 214 13 101 214 13 101 214 13 101 214 13 101 214 13 101 214 13 101 214 13 101 214 13 101 214 13 101 214 13 101 214 13 101 214 13 101 214 13 101 214 13 101 214 13 101 214 13 101 214 13 101 214 13 101 214 13 101 214 13 101 214 13 101 214 13 101 214 13 101 214 13 101 214 13 101 214 13 101 214 13 101 214 13 101 214 13 101 214 13 101 214 13 101 214 13 101 214 13 101 214 13 101 214 13 101 214 13 101 214 13 101 214 13 101 214 13 101 214 13 101 214 13 101 214 13 101 214 13 101 214 13 101 214 13 101 214 13 101 214 13 101 214 13 101 214 13 101 214 13 101 214 13 101 214 13 101 214 13 101 214 13 101 214 13 101 214 13 101 214 13 101 214 13 101 214 13 101 214 13 101 214 13 101 214 13 101 214 13 101 214 13 101 214 13 101 214 13 101 214 13 101 214 13 101 214 13 101 214 13 101 214 13 101 214 13 101 214 13 101 214 13 101 214 13 101 214 13 101 214 13 101 214 13 101 214 13 101 214 13 101 214 13 101 214 13 101 214 13 101 214 13 101 214 13 101 214 13 101 214 13 101 214 13 101 214 13 101 214 13 101 214 13 101 214 13 101 214 13 101 214 13 101 214 13 101 214 13 101 214 13 101 214 13 101 214 13 101 214 13 101 214 13 101 214 13 101 214 13 101 214 13 101 214 13 101 214 13 101 214 13 101 214 13 101 214 13 101 214 13 101 214 13 101 214 13 101 214 13 101 214 13 101 214 13 101 214 13 101 214 13 101 214 13 101 214 13 101 214 13 101 214 13 101 214 13 101 214 13 101 214 13 101 214 13 101 214 13 101 214 13 101 214 13 101 214 13 101 214 13 101 214 13 101 214 13 101 214 13 101 214 13 101 214 13 101 214 13 101 214 13 101 214 13 101 214 13 101 214 13 101 214 13 101 214 13 101 214 13 101 214 13 101 214 13 101 214 13 101 214 13 101 214 13 101 214 13 101 214 13 101 214 13 101 214 13 101 214 13 101 214 13 101 214 13 101 214 13 101 214 13 101 214 13 101 214 13 101 214 13 101 214 13 101 214 13 101 214 13 101 214 13 101 214 13 101 214 13 101 214 13 101 214 13 101 214 13 101 214 13 101 214 13 101 214 13 101 214 13 101 214 13 101 214 13 101 214 13 101 214 13 101 214 13 101 214 13 101 214 13 101 214 13 101 214 13 101 214 13 101 214 13 101 214 13 101 214 13 101 214 13 101 214 13 101 214 13 101 214 13 101 214 13 101 214 13 101 214 13 101 214 13 101 214 13 101 214 13 101 214 13 101 214 13 101 214 13 101 214 13 101 214 13 101 214 13 101 214 13 101 214 13 101 214 13 101 214 13 101 214 13 101 214 13 101 214 13 101 214 13 101 214 13 101 214 13 101 214 13 101 214 13 101 214 13 101 214 13 101 214 13 101 214 13 101 214 13 101 214 13 101 214 13 101 214 13 101 214 13 101 214 13 101 214 13 101 214 13 101 214 13 101 214 13 101 214 13 101 214
13 101 214 13 101 214 13 101 214 13 101 214 13 101 214 13 101 214 13 101 214 13 101 214 13 101 214 13 101 214 13 101 214 13 101 214 13 101 214 13 101 214 13 101 214 13 101 214 13 101 214 13 101 214 13 101 214 13 101 214 13 101 214 13 101 214 13 101 214 13 101 214 13 101 214 13 101 214 13 101 214 13 101 214 13 101 214 13 101 214 13 101 214 13 101 214 13 101 214 13 101 214 13 101 214 13 101 214 13 101 214 13 101 214 13 101 214 13 101 214 13 101 214 13 101 214 13 101 214 13 101 214 13 101 214 13 101 214 13 101 214 13 101 214 13 101 214 13 101 214 13 101 214 13 101 214 13 101 214 13 101 214 13 101 214 13 101 214 13 101 214 13 101 214 13 101 214 13 101 214 13 101 214 13 101 214 13 101 214 13 101 214 13 101 214 13 101 214 13 101 214 13 101 214 13 101 214 13 101 214 13 101 214 13 101 214 13 101 214 13 101 214 13 101 214 13 101 214 13 101 214 13 101 214 13 101 214 13 101 214 13 101 214 13 101 214 13 101 214 13 101 214 13 101 214 13 101 214 13 101 214 13 101 214 13 101 214 13 101 214 13 101 214 13 101 214 13 101 214 13 101 214 13 101 214 13 101 214 13 101 214 13 101 214 13 101 214 13 101 214 13 101 214 13 101 214 13 101 214 13 101 214 13 101 214 13 101 214 13 101 214 13 101 214 13 101 214 13 101 214 13 101 214 13 101 214 13 101 214 13 101 214 13 101 214 13 101 214 13 101 214 13 101 214 13 101 214 13 101 214 13 101 214 13 101 214 13 101 214 13 101 214 13 101 214 13 101 214 13 101 214 13 101 214 13 101 214 13 101 214 13 101 214 13 101 214 13 101 214 13 101 214 13 101 214 13 101 214 13 101 214 13 101 214 13 101 214 13 101 214 13 101 214 13 101 214 13 101 214 13 101 214 13 101 214 13 101 214 13 101 214 13 101 214 13 101 214 13 101 214 13 101 214 13 101 214 13 101 214 13 101 214 13 101 214 13 101 214 13 101 214 13 101 214 13 101 214 13 101 214 13 101 214 13 101 214 13 101 214 13 101 214 13 101 214 13 101 214 13 101 214 13 101 214 13 101 214 13 101 214 13 101 214 13 101 214 13 101 214 13 101 214 13 101 214 13 101 214 13 101 214 13 101 214 13 101 214 13 101 214 13 101 214 13 101 214 13 101 214 13 101 214 13 101 214 13 101 214 13 101 214 13 101 214 13 101 214 13 101 214 13 101 214 13 101 214 13 101 214 13 101 214 13 101 214 13 101 214 13 101 214 13 101 214 13 101 214 13 101 214 13 101 214 13 101 214 13 101 214 13 101 214 13 101 214 13 101 214 13 101 214 13 101 214 13 101 214 13 101 214 13 101 214 13 101 214 13 101 214 13 101 214 13 101 214 13 101 214 13 101 214 13 101 214 13 101 214 13 101 214 13 101 214 13 101 214 13 101 214 13 101 214 13 101 214 13 101 214 13 101 214 13 101 214 13 101 214 13 101 214 13 101 214 13 101 214 13 101 214 13 101 214 13 101 214 13 101 214 13 101 214 13 101 214 13 101 214 13 101 214 13 101 214 13 101 214 13 101 214 13 101 214 13 101 214 13 101 214 13 101 214 13 101 214 13 101 214 13 101 214 13 101 214 13 101 214 13 101 214 13 101 214 13 101 214 13 101 214
13 101 214 13 101 214 13 101 214 13 101 214 13 101 214 13 101 214 13 101 214 13 101 214 13 101 214 13 101 214 13 101 214 13 101 214 13 101 214 13 101 214 13 101 214 13 101 214 13 101 214 13 101 214 13 101 214 13 101 214 13 101 214 13 101 214 13 101 214 13 101 214 13 101 214 13 101 214 13 101 214 13 101 214 13 101 214 13 101 214 13 101 214 13 101 214 13 101 214 13 101 214 13 101 214 13 101 214 13 101 214 13 101 214 13 101 214 13 101 214 13 101 214 13 101 214 13 101 214 13 101 214 13 101 214 13 101 214 13 101 214 13 101 214 13 101 214 13 101 214 13 101 214 13 101 214 13 101 214 13 101 214 13 101 214 13 101 214 13 101 214 13 101 214 13 101 214 13 101 214 13 101 214 13 101 214 13 101 214 13 101 214 13 101 214 13 101 214 13 101 214 13 101 214 13 101 214 13 101 214 13 101 214 13 101 214 13 101 214 13 101 214 13 101 214 13 101 214 13 101 214 13 101 214 13 101 214 13 101 214 13 101 214 13 101 214 13 101 214 13 101 214 13 101 214 13 101 214 13 101 214 13 101 214 13 101 214 13 101 214 13 101 214 13 101 214 13 101 214 13 101 214 13 101 214 13 101 214 13 101 214 13 101 214 13 101 214 13 101 214 13 101 214 13 101 214 13 101 214 13 101 214 13 101 214 13 101 214 13 101 214 13 101 214 13 101 214 13 101 214 13 101 214 13 101 214 13 101 214 13 101 214 13 101 214 13 101 214 13 101 214 13 101 214 13 101 214 13 101 214 13 101 214 13 101 214 13 101 214 13 101 214 13 101 214 13 101 214 13 101 214 13 101 214 13 101 214 13 101 214 13 101 214 13 101 214 13 101 214 13 101 214 13 101 214 13 101 214 13 101 214 13 101 214 13 101 214 13 101 214 13 101 214 13 101 214 13 101 214 13 101 214 13 101 214 13 101 214 13 101 214 13 101 214 13 101 214 13 101 214 13 101 214 13 101 214 13 101 214 13 101 214 13 101 214 13 101 214 13 101 214 13 101 214 13 101 214 13 101 214 13 101 214 13 101 214 13 101 214 13 101 214 13 101 214 13 101 214 13 101 214 13 101 214 13 101 214 13 101 214 13 101 214 13 101 214 13 101 214 13 101 214 13 101 214 13 101 214 13 101 214 13 101 214 13 101 214 13 101 214 13 101 214 13 101 214 13 101 214 13 101 214 13 101 214 13 101 214 13 101 214 13 101 214 13 101 214 13 101 214 13 101 214 13 101 214 13 101 214 13 101 214 13 101 214 13 101 214 13 101 214 13 101 214 13 101 214 13 101 214 13 101 214 13 101 214 13 101 214 13 101 214 13 101 214 13 101 214 13 101 214 13 101 214 13 101 214 13 101 214 13 101 214 13 101 214 13 101 214 13 101 214 13 101 214 13 101 214 13 101 214 13 101 214 13 101 214 13 101 214 13 101 214 13 101 214 13 101 214 13 101 214 13 101 214 13 101 214 13 101 214 13 101 214 13 101 214 13 101 214 13 101 214 13 101 214 13 101 214 13 101 214 13 101 214 13 101 214 13 101 214 13 101 214 13 101 214 13 101 214 13 101 214 13 101 214 13 101 214 13 101 214 13 101 214 13 101 214 13 101 214 13 101 214 13 101 214 13 101 214 13 101 214 13 101 214 13 101 214 13 101 214 13 101 214 13 101 214
13 101 214 13 101 214 13 101 214 13 101 214 13 101 214 13 101 214 13 101 214 13 101 214 13 101 214 13 101 214 13 101 214 13 101 214 13 101 214 13 101 214 13 101 214 13 101 214 13 101 214 13 101 214 13 101 214 13 101 214 13 101 214 13 101 214 13 101 214 13 101 214 13 101 214 13 101 214 13 101 214 13 101 214 13 101 214 13 101 214 13 101 214 13 101 214 13 101 214 13 101 214 13 101 214 13 101 214 13 101 214 13 101 214 13 101 214 13 101 214 13 101 214 13 101 214 13 101 214 13 101 214 13 101 214 13 101 214 13 101 214 13 101 214 13 101 214 13 101 214 13 101 214 13 101 214 13 101 214 13 101 214 13 101 214 13 101 214 13 101 214 13 101 214 13 101 214 13 101 214 13 101 214 13 101 214 13 101 214 13 101 214 13 101 214 13 101 214 13 101 214 13 101 214 13 101 214 13 101 214 13 101 214 13 101 214 13 101 214 13 101 214 13 101 214 13 101 214 13 101 214 13 101 214 13 101 214 13 101 214 13 101 214 13 101 214 13 101 214 13 101 214 13 101 214 13 101 214 13 101 214 13 101 214 13 101 214 13 101 214 13 101 214 13 101 214 13 101 214 13 101 214 13 101 214 13 101 214 13 101 214 13 101 214 13 101 214 13 101 214 13 101 214 13 101 214 13 101 214 13 101 214 13 101 214 13 101 214 13 101 214 13 101 214 13 101 214 13 101 214 13 101 214 13 101 214 13 101 214 13 101 214 13 101 214 13 101 214 13 101 214 13 101 214 13 101 214 13 101 214 13 101 214 13 101 214 13 101 214 13 101 214 13 101 214 13 101 214 13 101 214 13 101 214 13 101 214 13 101 214 13 101 214 13 101 214 13 101 214 13 101 214 13 101 214 13 101 214 13 101 214 13 101 214 13 101 214 13 101 214 13 101 214 13 101 214 13 101 214 13 101 214 13 101 214 13 101 214 13 101 214 13 101 214 13 101 214 13 101 214 13 101 214 13 101 214 13 101 214 13 101 214 13 101 214 13 101 214 13 101 214 13 101 214 13 101 214 13 101 214 13 101 214 13 101 214 13 101 214 13 101 214 13 101 214 13 101 214 13 101 214 13 101 214 13 101 214 13 101 214 13 101 214 13 101 214 13 101 214 13 101 214 13 101 214 13 101 214 13 101 214 13 101 214 13 101 214 13 101 214 13 101 214 13 101 214 13 101 214 13 101 214 13 101 214 13 101 214 13 101 214 13 101 214 13 101 214 13 101 214 13 101 214 13 101 214 13 101 214 13 101 214 13 101 214 13 101 214 13 101 214 13 101 214 13 101 214 13 101 214 13 101 214 13 101 214 13 101 214 13 101 214 13 101 214 13 101 214 13 101 214 13 101 214 13 101 214 13 101 214 13 101 214 13 101 214 13 101 214 13 101 214 13 101 214 13 101 214 13 101 214 13 101 214 13 101 214 13 101 214 13 101 214 13 101 214 13 101 214 13 101 214 13 101 214 13 101 214 13 101 214 13 101 214 13 101 214 13 101 214 13 101 214 13 101 214 13 101 214 13 101 214 13 101 214 13 101 214 13 101 214 13 101 214 13 101 214 13 101 214 13 101 214 13 101 214 13 101 214 13 101 214 13 101 214 13 101 214 13 101 214 13 101 214 13 101 214 13 101 214 13 101 214 13 101 214 13 101 214 13 101 214 13 101 214 13 101 214
13 101 214 13 101 214 13 101 214 13 101 214 13 101 214 13 101 214 13 101 214 13 101 214 13 101 214 13 101 214 13 101 214 13 101 214 13 101 214 13 101 214 13 101 214 13 101 214 13 101 214 13 101 214 13 101 214 13 101 214 13 101 214 13 101 214 13 101 214 13 101 214 13 101 214 13 101 214 13 101 214 13 101 214 13 101 214 13 101 214 13 101 214 13 101 214 13 101 214 13 101 214 13 101 214 13 101 214 13 101 214 13 101 214 13 101 214 13 101 214 13 101 214 13 101 214 13 101 214 13 101 214 13 101 214 13 101 214 13 101 214 13 101 214 13 101 214 13 101 214 13 101 214 13 101 214 13 101 214 13 101 214 13 101 214 13 101 214 13 101 214 13 101 214 13 101 214 13 101 214 13 101 214 13 101 214 13 101 214 13 101 214 13 101 214 13 101 214 13 101 214 13 101 214 13 101 214 13 101 214 13 101 214 13 101 214 13 101 214 13 101 214 13 101 214 13 101 214 13 101 214 13 101 214 13 101 214 13 101 214 13 101 214 13 101 214 13 101 214 13 101 214 13 101 214 13 101 214 13 101 214 13 101 214 13 101 214 13 101 214 13 101 214 13 101 214 13 101 214 13 101 214 13 101 214 13 101 214 13 101 214 13 101 214 13 101 214 13 101 214 13 101 214 13 101 214 13 101 214 13 101 214 13 101 214 13 101 214 13 101 214 13 101 214 13 101 214 13 101 214 13 101 214 13 101 214 13 101 214 13 101 214 13 101 214 13 101 214 13 101 214 13 101 214 13 101 214 13 101 214 13 101 214 13 101 214 13 101 214 13 101 214 13 101 214 13 101 214 13 101 214 13 101 214 13 101 214 13 101 214 13 101 214 13 101 214 13 101 214 13 101 214 13 101 214 13 101 214 13 101 214 13 101 214 13 101 214 13 101 214 13 101 214 13 101 214 13 101 214 13 101 214 13 101 214 13 101 214 13 101 214 13 101 214 13 101 214 13 101 214 13 101 214 13 101 214 13 101 214 13 101 214 13 101 214 13 101 214 13 101 214 13 101 214 13 101 214 13 101 214 13 101 214 13 101 214 13 101 214 13 101 214 13 101 214 13 101 214 13 101 214 13 101 214 13 101 214 13 101 214 13 101 214 13 101 214 13 101 214 13 101 214 13 101 214 13 101 214 13 101 214 13 101 214 13 101 214 13 101 214 13 101 214 13 101 214 13 101 214 13 101 214 13 101 214 13 101 214 13 101 214 13 101 214 13 101 214 13 101 214 13 101 214 13 101 214 13 101 214 13 101 214 13 101 214 13 101 214 13 101 214 13 101 214 13 101 214 13 101 214 13 101 214 13 101 214 13 101 214 13 101 214 13 101 214 13 101 214 13 101 214 13 101 214 13 101 214 13 101 214 13 101 214 13 101 214 13 101 214 13 101 214 13 101 214 13 101 214 13 101 214 13 101 214 13 101 214 13 101 214 13 101 214 13 101 214 13 101 214 13 101 214 13 101 214 13 101 214 13 101 214 13 101 214 13 101 214 13 101 214 13 101 214 13 101 214 13 101 214 13 101 214 13 101 214 13 101 214 13 101 214 13 101 214 13 101 214 13 101 214 13 101 214 13 101 214 13 101 214 13 101 214 13 101 214 13 101 214 13 101 214 13 101 214 13 101 214 13 101 214 13 101 214 13 101 214 13 101 214 13 101 214 13 101 214 13 101 214
13 101 214 13 101 214 13 101 214 13 101 214 13 101 214 13 101 214 13 101 214 13 101 214 13 101 214 13 101 214 13 101 214 13 101 214 13 101 214 13 101 214 13 101 214 13 101 214 13 101 214 13 101 214 13 101 214 13 101 214 13 101 214 13 101 214 13 101 214 13 101 214 13 101 214 13 101 214 13 101 214 13 101 214 13 101 214 13 101 214 13 101 214 13 101 214 13 101 214 13 101 214 13 101 214 13 101 214 13 101 214 13 101 214 13 101 214 13 101 214 13 101 214 13 101 214 13 101 214 13 101 214 13 101 214 13 101 214 13 101 214 13 101 214 13 101 214 13 101 214 13 101 214 13 101 214 13 101 214 13 101 214 13 101 214 13 101 214 13 101 214 13 101 214 13 101 214 13 101 214 13 101 214 13 101 214 13 101 214 13 101 214 13 101 214 13 101 214 13 101 214 13 101 214 13 101 214 13 101 214 13 101 214 13 101 214 13 101 214 13 101 214 13 101 214 13 101 214 13 101 214 13 101 214 13 101 214 13 101 214 13 101 214 13 101 214 13 101 214 13 101 214 13 101 214 13 101 214 13 101 214 13 101 214 13 101 214 13 101 214 13 101 214 13 101 214 13 101 214 13 101 214 13 101 214 13 101 214 13 101 214 13 101 214 13 101 214 13 101 214 13 101 214 13 101 214 13 101 214 13 101 214 13 101 214 13 101 214 13 101 214 13 101 214 13 101 214 13 101 214 13 101 214 13 101 214 13 101 214 13 101 214 13 101 214 13 101 214 13 101 214 13 101 214 13 101 214 13 101 214 13 101 214 13 101 214 13 101 214 13 101 214 13 101 214 13 101 214 13 101 214 13 101 214 13 101 214 13 101 214 13 101 214 13 101 214 13 101 214 13 101 214 13 101 214 13 101 214 13 101 214 13 101 214 13 101 214 13 101 214 13 101 214 13 101 214 13 101 214 13 101 214 13 101 214 13 101 214 13 101 214 13 101 214 13 101 214 13 101 214 13 101 214 13 101 214 13 101 214 13 101 214 13 101 214 13 101 214 13 101 214 13 101 214 13 101 214 13 101 214 13 101 214 13 101 214 13 101 214 13 101 214 13 101 214 13 101 214 13 101 214 13 101 214 13 101 214 13 101 214 13 101 214 13 101 214 13 101 214 13 101 214 13 101 214 13 101 214 13 101 214 13 101 214 13 101 214 13 101 214 13 101 214 13 101 214 13 101 214 13 101 214 13 101 214 13 101 214 13 101 214 13 101 214 13 101 214 13 101 214 13 101 214 13 101 214 13 101 214 13 101 214 13 101 214 13 101 214 13 101 214 13 101 214 13 101 214 13 101 214 13 101 214 13 101 214 13 101 214 13 101 214 13 101 214 13 101 214 13 101 214 13 101 214 13 101 214 13 101 214 13 101 214 13 101 214 13 101 214 13 101 214 13 101 214 13 101 214 13 101 214 13 101 214 13 101 214 13 101 214 13 101 214 13 101 214 13 101 214 13 101 214 13 101 214 13 101 214 13 101 214 13 101 214 13 101 214 13 101 214 13 101 214 13 101 214 13 101 214 13 101 214 13 101 214 13 101 214 13 101 214 13 101 214 13 101 214 13 101 214 13 101 214 13 101 214 13 101 214 13 101 214 13 101 214 13 101 214 13 101 214 13 101 214 13 101 214 13 101 214 13 101 214 13 101 214 13 101 214 13 101 214 13 101 214 13 101 214
13 101 214 13 101 214 13 101 214 13 101 214 13 101 214 13 101 214 13 101 214 13 101 214 13 101 214 13 101 214 13 101 214 13 101 214 13 101 214 13 101 214 13 101 214 13 101 214 13 101 214 13 101 214 13 101 214 13 101 214 13 101 214 13 101 214 13 101 214 13 101 214 13 101 214 13 101 214 13 101 214 13 101 214 13 101 214 13 101 214 13 101 214 13 101 214 13 101 214 13 101 214 13 101 214 13 101 214 13 101 214 13 101 214 13 101 214 13 101 214 13 101 214 13 101 214 13 101 214 13 101 214 13 101 214 13 101 214 13 101 214 13 101 214 13 101 214 13 101 214 13 101 214 13 101 214 13 101 214 13 101 214 13 101 214 13 101 214 13 101 214 13 101 214 13 101 214 13 101 214 13 101 214 13 101 214 13 101 214 13 101 214 13 101 214 13 101 214 13 101 214 13 101 214 13 101 214 13 101 214 13 101 214 13 101 214 13 101 214 13 101 214 13 101 214 13 101 214 13 101 214 13 101 214 13 101 214 13 101 214 13 101 214 13 101 214 13 101 214 13 101 214 13 101 214 13 101 214 13 101 214 13 101 214 13 101 214 13 101 214 13 101 214 13 101 214 13 101 214 13 101 214 13 101 214 13 101 214 13 101 214 13 101 214 13 101 214 13 101 214 13 101 214 13 101 214 13 101 214 13 101 214 13 101 214 13 101 214 13 101 214 13 101 214 13 101 214 13 101 214 13 101 214 13 101 214 13 101 214 13 101 214 13 101 214 13 101 214 13 101 214 13 101 214 13 101 214 13 101 214 13 101 214 13 101 214 13 101 214 13 101 214 13 101 214 13 101 214 13 101 214 13 101 214 13 101 214 13 101 214 13 101 214 13 101 214 13 101 214 13 101 214 13 101 214 13 101 214 13 101 214 13 101 214 13 101 214 13 101 214 13 101 214 13 101 214 13 101 214 13 101 214 13 101 214 13 101 214 13 101 214 13 101 214 13 101 214 13 101 214 13 101 214 13 101 214 13 101 214 13 101 214 13 101 214 13 101 214 13 101 214 13 101 214 13 101 214 13 101 214 13 101 214 13 101 214 13 101 214 13 101 214 13 101 214 13 101 214 13 101 214 13 101 214 13 101 214 13 101 214 13 101 214 13 101 214 13 101 214 13 101 214 13 101 214 13 101 214 13 101 214 13 101 214 13 101 214 13 101 214 13 101 214 13 101 214 13 101 214 13 101 214 13 101 214 13 101 214 13 101 214 13 101 214 13 101 214 13 101 214 13 101 214 13 101 214 13 101 214 13 101 214 13 101 214 13 101 214 13 101 214 13 101 214 13 101 214 13 101 214 13 101 214 13 101 214 13 101 214 13 101 214 13 101 214 13 101 214 13 101 214 13 101 214 13 101 214 13 101 214 13 101 214 13 101 214 13 101 214 13 101 214 13 101 214 13 101 214 13 101 214 13 101 214 13 101 214 13 101 214 13 101 214 13 101 214 13 101 214 13 101 214 13 101 214 13 101 214 13 101 214 13 101 214 13 101 214 13 101 214 13 101 214 13 101 214 13 101 214 13 101 214 13 101 214 13 101 214 13 101 214 13 101 214 13 101 214 13 101 214 13 101 214 13 101 214 13 101 214 13 101 214 13 101 214 13 101 214 13 101 214 13 101 214 13 101 214 13 101 214 13 101 214 13 101 214 13 101 214 13 101 214 13 101 214 13 101 214
13 101 214 13 101 214 13 101 214 13 101 214 13 101 214 13 101 214 13 101 214 13 101 214 13 101 214 13 101 214 13 101 214 13 101 214 13 101 214 13 101 214 13 101 214 13 101 214 13 101 214 13 101 214 13 101 214 13 101 214 13 101 214 13 101 214 13 101 214 13 101 214 13 101 214 13 101 214 13 101 214 13 101 214 13 101 214 13 101 214 13 101 214 13 101 214 13 101 214 13 101 214 13 101 214 13 101 214 13 101 214 13 101 214 13 101 214 13 101 214 13 101 214 13 101 214 13 101 214 13 101 214 13 101 214 13 101 214 13 101 214 13 101 214 13 101 214 13 101 214 13 101 214 13 101 214 13 101 214 13 101 214 13 101 214 13 101 214 13 101 214 13 101 214 13 101 214 13 101 214 13 101 214 13 101 214 13 101 214 13 101 214 13 101 214 13 101 214 13 101 214 13 101 214 13 101 214 13 101 214 13 101 214 13 101 214 13 101 214 13 101 214 13 101 214 13 101 214 13 101 214 13 101 214 13 101 214 13 101 214 13 101 214 13 101 214 13 101 214 13 101 214 13 101 214 13 101 214 13 101 214 13 101 214 13 101 214 13 101 214 13 101 214 13 101 214 13 101 214 13 101 214 13 101 214 13 101 214 13 101 214 13 101 214 13 101 214 13 101 214 13 101 214 13 101 214 13 101 214 13 101 214 13 101 214 13 101 214 13 101 214 13 101 214 13 101 214 13 101 214 13 101 214 13 101 214 13 101 214 13 101 214 13 101 214 13 101 214 13 101 214 13 101 214 13 101 214 13 101 214 13 101 214 13 101 214 13 101 214 13 101 214 13 101 214 13 101 214 13 101 214 13 101 214 13 101 214 13 101 214 13 101 214 13 101 214 13 101 214 13 101 214 13 101 214 13 101 214 13 101 214 13 101 214 13 101 214 13 101 214 13 101 214 13 101 214 13 101 214 13 101 214 13 101 214 13 101 214 13 101 214 13 101 214 13 101 214 13 101 214 13 101 214 13 101 214 13 101 214 13 101 214 13 101 214 13 101 214 13 101 214 13 101 214 13 101 214 13 101 214 13 101 214 13 101 214 13 101 214 13 101 214 13 101 214 13 101 214 13 101 214 13 101 214 13 101 214 13 101 214 13 101 214 13 101 214 13 101 214 13 101 214 13 101 214 13 101 214 13 101 214 13 101 214 13 101 214 13 101 214 13 101 214 13 101 214 13 101 214 13 101 214 13 101 214 13 101 214 13 101 214 13 101 214 13 101 214 13 101 214 13 101 214 13 101 214 13 101 214 13 101 214 13 101 214 13 101 214 13 101 214 13 101 214 13 101 214 13 101 214 13 101 214 13 101 214 13 101 214 13 101 214 13 101 214 13 101 214 13 101 214 13 101 214 13 101 214 13 101 214 13 101 214 13 101 214 13 101 214 13 101 214 13 101 214 13 101 214 13 101 214 13 101 214 13 101 214 13 101 214 13 101 214 13 101 214 13 101 214 13 101 214 13 101 214 13 101 214 13 101 214 13 101 214 13 101 214 13 101 214 13 101 214 13 101 214 13 101 214 13 101 214 13 101 214 13 101 214 13 101 214 13 101 214 13 101 214 13 101 214 13 101 214 13 101 214 13 101 214 13 101 214 13 101 214 13 101 214 13 101 214 13 101 214 13 101 214 13 101 214 13 101 214 13 101 214 13 101 214 13 101 214 13 101 214 13 101 214
13 101 214 13 101 214 13 101 214 13 101 214 13 101 214 13 101 214 13 101 214 13 101 214 13 101 214 13 101 214 13 101 214 13 101 214 13 101 214 13 101 214 13 101 214 13 101 214 13 101 214 13 101 214 13 101 214 13 101 214 13 101 214 13 101 214 13 101 214 13 101 214 13 101 214 13 101 214 13 101 214 13 101 214 13 101 214 13 101 214 13 101 214 13 101 214 13 101 214 13 101 214 13 101 214 13 101 214 13 101 214 13 101 214 13 101 214 13 101 214 13 101 214 13 101 214 13 101 214 13 101 214 13 101 214 13 101 214 13 101 214 13 101 214 13 101 214 13 101 214 13 101 214 13 101 214 13 101 214 13 101 214 13 101 214 13 101 214 13 101 214 13 101 214 13 101 214 13 101 214 13 101 214 13 101 214 13 101 214 13 101 214 13 101 214 13 101 214 13 101 214 13 101 214 13 101 214 13 101 214 13 101 214 13 101 214 13 101 214 13 101 214 13 101 214 13 101 214 13 101 214 13 101 214 13 101 214 13 101 214 13 101 214 13 101 214 13 101 214 13 101 214 13 101 214 13 101 214 13 101 214 13 101 214 13 101 214 13 101 214 13 101 214 13 101 214 13 101 214 13 101 214 13 101 214 13 101 214 13 101 214 13 101 214 13 101 214 13 101 214 13 101 214 13 101 214 13 101 214 13 101 214 13 101 214 13 101 214 13 101 214 13 101 214 13 101 214 13 101 214 13 101 214 13 101 214 13 101 214 13 101 214 13 101 214 13 101 214 13 101 214 13 101 214 13 101 214 13 101 214 13 101 214 13 101 214 13 101 214 13 101 214 13 101 214 13 101 214 13 101 214 13 101 214 13 101 214 13 101 214 13 101 214 13 101 214 13 101 214 13 101 214 13 101 214 13 101 214 13 101 214 13 101 214 13 101 214 13 101 214 13 101 214 13 101 214 13 101 214 13 101 214 13 101 214 13 101 214 13 101 214 13 101 214 13 101 214 13 101 214 13 101 214 13 101 214 13 101 214 13 101 214 13 101 214 13 101 214 13 101 214 13 101 214 13 101 214 13 101 214 13 101 214 13 101 214 13 101 214 13 101 214 13 101 214 13 101 214 13 101 214 13 101 214 13 101 214 13 101 214 13 101 214 13 101 214 13 101 214 13 101 214 13 101 214 13 101 214 13 101 214 13 101 214 13 101 214 13 101 214 13 101 214 13 101 214 13 101 214 13 101 214 13 101 214 13 101 214 13 101 214 13 101 214 13 101 214 13 101 214 13 101 214 13 101 214 13 101 214 13 101 214 13 101 214 13 101 214 13 101 214 13 101 214 13 101 214 13 101 214 13 101 214 13 101 214 13 101 214 13 101 214 13 101 214 13 101 214 13 101 214 13 101 214 13 101 214 13 101 214 13 101 214 13 101 214 13 101 214 13 101 214 13 101 214 13 101 214 13 101 214 13 101 214 13 101 214 13 101 214 13 101 214 13 101 214 13 101 214 13 101 214 13 101 214 13 101 214 13 101 214 13 101 214 13 101 214 13 101 214 13 101 214 13 101 214 13 101 214 13 101 214 13 101 214 13 101 214 13 101 214 13 101 214 13 101 214 13 101 214 13 101 214 13 101 214 13 101 214 13 101 214 13 101 214 13 101 214 13 101 214 13 101 214 13 101 214 13 101 214 13 101 214 13 101 214 13 101 214 13 101 214 13 101 214 13 101 214
13 101 214 13 101 214 13 101 214 13 101 214 13 101 214 13 101 214 13 101 214 13 101 214 13 101 214 13 101 214 13 101 214 13 101 214 13 101 214 13 101 214 13 101 214 13 101 214 13 101 214 13 101 214 13 101 214 13 101 214 13 101 214 13 101 214 13 101 214 13 101 214 13 101 214 13 101 214 13 101 214 13 101 214 13 101 214 13 101 214 13 101 214 13 101 214 13 101 214 13 101 214 13 101 214 13 101 214 13 101 214 13 101 214 13 101 214 13 101 214 13 101 214 13 101 214 13 101 214 13 101 214 13 101 214 13 101 214 13 101 214 13 101 214 13 101 214 13 101 214 13 101 214 13 101 214 13 101 214 13 101 214 13 101 214 13 101 214 13 101 214 13 101 214 13 101 214 13 101 214 13 101 214 13 101 214 13 101 214 13 101 214 13 101 214 13 101 214 13 101 214 13 101 214 13 101 214 13 101 214 13 101 214 13 101 214 13 101 214 13 101 214 13 101 214 13 101 214 13 101 214 13 101 214 13 101 214 13 101 214 13 101 214 13 101 214 13 101 214 13 101 214 13 101 214 13 101 214 13 101 214 13 101 214 13 101 214 13 101 214 13 101 214 13 101 214 13 101 214 13 101 214 13 101 214 13 101 214 13 101 214 13 101 214 13 101 214 13 101 214 13 101 214 13 101 214 13 101 214 13 101 214 13 101 214 13 101 214 13 101 214 13 101 214 13 101 214 13 101 214 13 101 214 13 101 214 13 101 214 13 101 214 13 101 214 13 101 214 13 101 214 13 101 214 13 101 214 13 101 214 13 101 214 13 101 214 13 101 214 13 101 214 13 101 214 13 101 214 13 101 214 13 101 214 13 101 214 13 101 214 13 101 214 13 101 214 13 101 214 13 101 214 13 101 214 13 101 214 13 101 214 13 101 214 13 101 214 13 101 214 13 101 214 13 101 214 13 101 214 13 101 214 13 101 214 13 101 214 13 101 214 13 101 214 13 101 214 13 101 214 13 101 214 13 101 214 13 101 214 13 101 214 13 101 214 13 101 214 13 101 214 13 101 214 13 101 214 13 101 214 13 101 214 13 101 214 13 101 214 13 101 214 13 101 214 13 101 214 13 101 214 13 101 214 13 101 214 13 101 214 13 101 214 13 101 214 13 101 214 13 101 214 13 101 214 13 101 214 13 101 214 13 101 214 13 101 214 13 101 214 13 101 214 13 101 214 13 101 214 13 101 214 13 101 214 13 101 214 13 101 214 13 101 214 13 101 214 13 101 214 13 101 214 13 101 214 13 101 214 13 101 214 13 101 214 13 101 214 13 101 214 13 101 214 13 101 214 13 101 214 13 101 214 13 101 214 13 101 214 13 101 214 13 101 214 13 101 214 13 101 214 13 101 214 13 101 214 13 101 214 13 101 214 13 101 214 13 101 214 13 101 214 13 101 214 13 101 214 13 101 214 13 101 214 13 101 214 13 101 214 13 101 214 13 101 214 13 101 214 13 101 214 13 101 214 13 101 214 13 101 214 13 101 214 13 101 214 13 101 214 13 101 214 13 101 214 13 101 214 13 101 214 13 101 214 13 101 214 13 101 214 13 101 214 13 101 214 13 101 214 13 101 214 13 101 214 13 101 214 13 101 214 13 101 214 13 101 214 13 101 214 13 101 214 13 101 214 13 101 214 13 101 214 13 101 214 13 101 214 13 101 214 13 101 214 13 101 214
13 101 214 13 101 214 13 101 214 13 101 214 13 101 214 13 101 214 13 101 214 13 101 214 13 101 214 13 101 214 13 101 214 13 101 214 13 101 214 13 101 214 13 101 214 13 101 214 13 101 214 13 101 214 13 101 214 13 101 214 13 101 214 13 101 214 13 101 214 13 101 214 13 101 214 13 101 214 13 101 214 13 101 214 13 101 214 13 101 214 13 101 214 13 101 214 13 101 214 13 101 214 13 101 214 13 101 214 13 101 214 13 101 214 13 101 214 13 101 214 13 101 214 13 101 214 13 101 214 13 101 214 13 101 214 13 101 214 13 101 214 13 101 214 13 101 214 13 101 214 13 101 214 13 101 214 13 101 214 13 101 214 13 101 214 13 101 214 13 101 214 13 101 214 13 101 214 13 101 214 13 101 214 13 101 214 13 101 214 13 101 214 13 101 214 13 101 214 13 101 214 13 101 214 13 101 214 13 101 214 13 101 214 13 101 214 13 101 214 13 101 214 13 101 214 13 101 214 13 101 214 13 101 214 13 101 214 13 101 214 13 101 214 13 101 214 13 101 214 13 101 214 13 101 214 13 101 214 13 101 214 13 101 214 13 101 214 13 101 214 13 101 214 13 101 214 13 101 214 13 101 214 13 101 214 13 101 214 13 101 214 13 101 214 13 101 214 13 101 214 13 101 214 13 101 214 13 101 214 13 101 214 13 101 214 13 101 214 13 101 214 13 101 214 13 101 214 13 101 214 13 101 214 13 101 214 13 101 214 13 101 214 13 101 214 13 101 214 13 101 214 13 101 214 13 101 214 13 101 214 13 101 214 13 101 214 13 101 214 13 101 214 13 101 214 13 101 214 13 101 214 13 101 214 13 101 214 13 101 214 13 101 214 13 101 214 13 101 214 13 101 214 13 101 214 13 101 214 13 101 214 13 101 214 13 101 214 13 101 214 13 101 214 13 101 214 13 101 214 13 101 214 13 101 214 13 101 214 13 101 214 13 101 214 13 101 214 13 101 214 13 101 214 13 101 214 13 101 214 13 101 214 13 101 214 13 101 214 13 101 214 13 101 214 13 101 214 13 101 214 13 101 214 13 101 214 13 101 214 13 101 214 13 101 214 13 101 214 13 101 214 13 101 214 13 101 214 13 101 214 13 101 214 13 101 214 13 101 214 13 101 214 13 101 214 13 101 214 13 101 214 13 101 214 13 101 214 13 101 214 13 101 214 13 101 214 13 101 214 13 101 214 13 101 214 13 101 214 13 101 214 13 101 214 13 101 214 13 101 214 13 101 214 13 101 214 13 101 214 13 101 214 13 101 214 13 101 214 13 101 214 13 101 214 13 101 214 13 101 214 13 101 214 13 101 214 13 101 214 13 101 214 13 101 214 13 101 214 13 101 214 13 101 214 13 101 214 13 101 214 13 101 214 13 101 214 13 101 214 13 101 214 13 101 214 13 101 214 13 101 214 13 101 214 13 101 214 13 101 214 13 101 214 13 101 214 13 101 214 13 101 214 13 101 214 13 101 214 13 101 214 13 101 214 13 101 214 13 101 214 13 101 214 13 101 214 13 101 214 13 101 214 13 101 214 13 101 214 13 101 214 13 101 214 13 101 214 13 101 214 13 101 214 13 101 214 13 101 214 13 101 214 13 101 214 13 101 214 13 101 214 13 101 214 13 101 214 13 101 214 13 101 214 13 101 214 13 101 214 13 101 214 13 101 214 13 101 214
13 101 214 13 101 214 13 101 214 13 101 214 13 101 214 13 101 214 13 101 214 13 101 214 13 101 214 13 101 214 13 101 214 13 101 214 13 101 214 13 101 214 13 101 214 13 101 214 13 101 214 13 101 214 13 101 214 13 101 214 13 101 214 13 101 214 13 101 214 13 101 214 13 101 214 13 101 214 13 101 214 13 101 214 13 101 214 13 101 214 13 101 214 13 101 214 13 101 214 13 101 214 13 101 214 13 101 214 13 101 214 13 101 214 13 101 214 13 101 214 13 101 214 13 101 214 13 101 214 13 101 214 13 101 214 13 101 214 13 101 214 13 101 214 13 101 214 13 101 214 13 101 214 13 101 214 13 101 214 13 101 214 13 101 214 13 101 214 13 101 214 13 101 214 13 101 214 13 101 214 13 101 214 13 101 214 13 101 214 13 101 214 13 101 214 13 101 214 13 101 214 13 101 214 13 101 214 13 101 214 13 101 214 13 101 214 13 101 214 13 101 214 13 101 214 13 101 214 13 101 214 13 101 214 13 101 214 13 101 214 13 101 214 13 101 214 13 101 214 13 101 214 13 101 214 13 101 214 13 101 214 13 101 214 13 101 214 13 101 214 13 101 214 13 101 214 13 101 214 13 101 214 13 101 214 13 101 214 13 101 214 13 101 214 13 101 214 13 101 214 13 101 214 13 101 214 13 101 214 13 101 214 13 101 214 13 101 214 13 101 214 13 101 214 13 101 214 13 101 214 13 101 214 13 101 214 13 101 214 13 101 214 13 101 214 13 101 214 13 101 214 13 101 214 13 101 214 13 101 214 13 101 214 13 101 214 13 101 214 13 101 214 13 101 214 13 101 214 13 101 214 13 101 214 13 101 214 13 101 214 13 101 214 13 101 214 13 101 214 13 101 214 13 101 214 13 101 214 13 101 214 13 101 214 13 101 214 13 101 214 13 101 214 13 101 214 13 101 214 13 101 214 13 101 214 13 101 214 13 101 214 13 101 214 13 101 214 13 101 214 13 101 214 13 101 214 13 101 214 13 101 214 13 101 214 13 101 214 13 101 214 13 101 214 13 101 214 13 101 214 13 101 214 13 101 214 13 101 214 13 101 214 13 101 214 13 101 214 13 101 214 13 101 214 13 101 214 13 101 214 13 101 214 13 101 214 13 101 214 13 101 214 13 101 214 13 101 214 13 101 214 13 101 214 13 101 214 13 101 214 13 101 214 13 101 214 13 101 214 13 101 214 13 101 214 13 101 214 13 101 214 13 101 214 13 101 214 13 101 214 13 101 214 13 101 214 13 101 214 13 101 214 13 101 214 13 101 214 13 101 214 13 101 214 13 101 214 13 101 214 13 101 214 13 101 214 13 101 214 13 101 214 13 101 214 13 101 214 13 101 214 13 101 214 13 101 214 13 101 214 13 101 214 13 101 214 13 101 214 13 101 214 13 101 214 13 101 214 13 101 214 13 101 214 13 101 214 13 101 214 13 101 214 13 101 214 13 101 214 13 101 214 13 101 214 13 101 214 13 101 214 13 101 214 13 101 214 13 101 214 13 101 214 13 101 214 13 101 214 13 101 214 13 101 214 13 101 214 13 101 214 13 101 214 13 101 214 13 101 214 13 101 214 13 101 214 13 101 214 13 101 214 13 101 214 13 101 214 13 101 214 13 101 214 13 101 214 13 101 214 13 101 214 13 101 214 13 101 214 13 101 214 13 101 214 13 101 214
13 101 214 13 101 214 13 101 214 13 101 214 13 101 214 13 101 214 13 101 214 13 101 214 13 101 214 13 101 214 13 101 214 13 101 214 13 101 214 13 101 214 13 101 214 13 101 214 13 101 214 13 101 214 13 101 214 13 101 214 13 101 214 13 101 214 13 101 214 13 101 214 13 101 214 13 101 214 13 101 214 13 101 214 13 101 214 13 101 214 13 101 214 13 101 214 13 101 214 13 101 214 13 101 214 13 101 214 13 101 214 13 101 214 13 101 214 13 101 214 13 101 214 13 101 214 13 101 214 13 101 214 13 101 214 13 101 214 13 101 214 13 101 214 13 101 214 13 101 214 13 101 214 13 101 214 13 101 214 13 101 214 13 101 214 13 101 214 13 101 214 13 101 214 13 101 214 13 101 214 13 101 214 13 101 214 13 101 214 13 101 214 13 101 214 13 101 214 13 101 214 13 101 214 13 101 214 13 101 214 13 101 214 13 101 214 13 101 214 13 101 214 13 101 214 13 101 214 13 101 214 13 101 214 13 101 214 13 101 214 13 101 214 13 101 214 13 101 214 13 101 214 13 101 214 13 101 214 13 101 214 13 101 214 13 101 214 13 101 214 13 101 214 13 101 214 13 101 214 13 101 214 13 101 214 13 101 214 13 101 214 13 101 214 13 101 214 13 101 214 13 101 214 13 101 214 13 101 214 13 101 214 13 101 214 13 101 214 13 101 214 13 101 214 13 101 214 13 101 214 13 101 214 13 101 214 13 101 214 13 101 214 13 101 214 13 101 214 13 101 214 13 101 214 13 101 214 13 101 214 13 101 214 13 101 214 13 101 214 13 101 214 13 101 214 13 101 214 13 101 214 13 101 214 13 101 214 13 101 214 13 101 214 13 101 214 13 101 214 13 101 214 13 101 214 13 101 214 13 101 214 13 101 214 13 101 214 13 101 214 13 101 214 13 101 214 13 101 214 13 101 214 13 101 214 13 101 214 13 101 214 13 101 214 13 101 214 13 101 214 13 101 214 13 101 214 13 101 214 13 101 214 13 101 214 13 101 214 13 101 214 13 101 214 13 101 214 13 101 214 13 101 214 13 101 214 13 101 214 13 101 214 13 101 214 13 101 214 13 101 214 13 101 214 13 101 214 13 101 214 13 101 214 13 101 214 13 101 214 13 101 214 13 101 214 13 101 214 13 101 214 13 101 214 13 101 214 13 101 214 13 101 214 13 101 214 13 101 214 13 101 214 13 101 214 13 101 214 13 101 214 13 101 214 13 101 214 13 101 214 13 101 214 13 101 214 13 101 214 13 101 214 13 101 214 13 101 214 13 101 214 13 101 214 13 101 214 13 101 214 13 101 214 13 101 214 13 101 214 13 101 214 13 101 214 13 101 214 13 101 214 13 101 214 13 101 214 13 101 214 13 101 214 13 101 214 13 101 214 13 101 214 13 101 214 13 101 214 13 101 214 13 101 214 13 101 214 13 101 214 13 101 214 13 101 214 13 101 214 13 101 214 13 101 214 13 101 214 13 101 214 13 101 214 13 101 214 13 101 214 13 101 214 13 101 214 13 101 214 13 101 214 13 101 214 13 101 214 13 101 214 13 101 214 13 101 214 13 101 214 13 101 214 13 101 214 13 101 214 13 101 214 13 101 214 13 101 214 13 101 214 13 101 214 13 101 214 13 101 214 13 101 214 13 101 214 13 101 214 13 101 214 13 101 214 13 101 214
13 101 214 13 101 214 13 101 214 13 101 214 13 101 214 13 101 214 13 101 214 13 101 214 13 101 214 13 101 214 13 101 214 13 101 214 13 101 214 13 101 214 13 101 214 13 101 214 13 101 214 13 101 214 13 101 214 13 101 214 13 101 214 13 101 214 13 101 214 13 101 214 13 101 214 13 101 214 13 101 214 13 101 214 13 101 214 13 101 214 13 101 214 13 101 214 13 101 214 13 101 214 13 101 214 13 101 214 13 101 214 13 101 214 13 101 214 13 101 214 13 101 214 13 101 214 13 101 214 13 101 214 13 101 214 13 101 214 13 101 214 13 101 214 13 101 214 13 101 214 13 101 214 13 101 214 13 101 214 13 101 214 13 101 214 13 101 214 13 101 214 13 101 214 13 101 214 13 101 214 13 101 214 13 101 214 13 101 214 13 101 214 13 101 214 13 101 214 13 101 214 13 101 214 13 101 214 13 101 214 13 101 214 13 101 214 13 101 214 13 101 214 13 101 214 13 101 214 13 101 214 13 101 214 13 101 214 13 101 214 13 101 214 13 101 214 13 101 214 13 101 214 13 101 214 13 101 214 13 101 214 13 101 214 13 101 214 13 101 214 13 101 214 13 101 214 13 101 214 13 101 214 13 101 214 13 101 214 13 101 214 13 101 214 13 101 214 13 101 214 13 101 214 13 101 214 13 101 214 13 101 214 13 101 214 13 101 214 13 101 214 13 101 214 13 101 214 13 101 214 13 101 214 13 101 214 13 101 214 13 101 214 13 101 214 13 101 214 13 101 214 13 101 214 13 101 214 13 101 214 13 101 214 13 101 214 13 101 214 13 101 214 13 101 214 13 101 214 13 101 214 13 101 214 13 101 214 13 101 214 13 101 214 13 101 214 13 101 214 13 101 214 13 101 214 13 101 214 13 101 214 13 101 214 13 101 214 13 101 214 13 101 214 13 101 214 13 101 214 13 101 214 13 101 214 13 101 214 13 101 214 13 101 214 13 101 214 13 101 214 13 101 214 13 101 214 13 101 214 13 101 214 13 101 214 13 101 214 13 101 214 13 101 214 13 101 214 13 101 214 13 101 214 13 101 214 13 101 214 13 101 214 13 101 214 13 101 214 13 101 214 13 101 214 13 101 214 13 101 214 13 101 214 13 101 214 13 101 214 13 101 214 13 101 214 13 101 214 13 101 214 13 101 214 13 101 214 13 101 214 13 101 214 13 101 214 13 101 214 13 101 214 13 101 214 13 101 214 13 101 214 13 101 214 13 101 214 13 101 214 13 101 214 13 101 214 13 101 214 13 101 214 13 101 214 13 101 214 13 101 214 13 101 214 13 101 214 13 101 214 13 101 214 13 101 214 13 101 214 13 101 214 13 101 214 13 101 214 13 101 214 13 101 214 13 101 214 13 101 214 13 101 214 13 101 214 13 101 214 13 101 214 13 101 214 13 101 214 13 101 214 13 101 214 13 101 214 13 101 214 13 101 214 13 101 214 13 101 214 13 101 214 13 101 214 13 101 214 13 101 214 13 101 214 13 101 214 13 101 214 13 101 214 13 101 214 13 101 214 13 101 214 13 101 214 13 101 214 13 101 214 13 101 214 13 101 214 13 101 214 13 101 214 13 101 214 13 101 214 13 101 214 13 101 214 13 101 214 13 101 214 13 101 214 13 101 214 13 101 214 13 101 214 13 101 214 13 101 214 13 101 214 13 101 214 13 101 214
13 101 214 13 101 214 13 101 214 13 101 214 13 101 214 13 101 214 13 101 214 13 101 214 13 101 214 13 101 214 13 101 214 13 101 214 13 101 214 13 101 214 13 101 214 13 101 214 13 101 214 13 101 214 13 101 214 13 101 214 13 101 214 13 101 214 13 101 214 13 101 214 13 101 214 13 101 214 13 101 214 13 101 214 13 101 214 13 101 214 13 101 214 13 101 214 13 101 214 13 101 214 13 101 214 13 101 214 13 101 214 13 101 214 13 101 214 13 101 214 13 101 214 13 101 214 13 101 214 13 101 214 13 101 214 13 101 214 13 101 214 13 101 214 13 101 214 13 101 214 13 101 214 13 101 214 13 101 214 13 101 214 13 101 214 13 101 214 13 101 214 13 101 214 13 101 214 13 101 214 13 101 214 13 101 214 13 101 214 13 101 214 13 101 214 13 101 214 13 101 214 13 101 214 13 101 214 13 101 214 13 101 214 13 101 214 13 101 214 13 101 214 13 101 214 13 101 214 13 101 214 13 101 214 13 101 214 13 101 214 13 101 214 13 101 214 13 101 214 13 101 214 13 101 214 13 101 214 13 101 214 13 101 214 13 101 214 13 101 214 13 101 214 13 101 214 13 101 214 13 101 214 13 101 214 13 101 214 13 101 214 13 101 214 13 101 214 13 101 214 13 101 214 13 101 214 13 101 214 13 101 214 13 101 214 13 101 214 13 101 214 13 101 214 13 101 214 13 101 214 13 101 214 13 101 214 13 101 214 13 101 214 13 101 214 13 101 214 13 101 214 13 101 214 13 101 214 13 101 214 13 101 214 13 101 214 13 101 214 13 101 214 13 101 214 13 101 214 13 101 214 13 101 214 13 101 214 13 101 214 13 101 214 13 101 214 13 101 214 13 101 214 13 101 214 13 101 214 13 101 214 13 101 214 13 101 214 13 101 214 13 101 214 13 101 214 13 101 214 13 101 214 13 101 214 13 101 214 13 101 214 13 101 214 13 101 214 13 101 214 13 101 214 13 101 214 13 101 214 13 101 214 13 101 214 13 101 214 13 101 214 13 101 214 13 101 214 13 101 214 13 101 214 13 101 214 13 101 214 13 101 214 13 101 214 13 101 214 13 101 214 13 101 214 13 101 214 13 101 214 13 101 214 13 101 214 13 101 214 13 101 214 13 101 214 13 101 214 13 101 214 13 101 214 13 101 214 13 101 214 13 101 214 13 101 214 13 101 214 13 101 214 13 101 214 13 101 214 13 101 214 13 101 214 13 101 214 13 101 214 13 101 214 13 101 214 13 101 214 13 101 214 13 101 214 13 101 214 13 101 214 13 101 214 13 101 214 13 101 214 13 101 214 13 101 214 13 101 214 13 101 214 13 101 214 13 101 214 13 101 214 13 101 214 13 101 214 13 101 214 13 101 214 13 101 214 13 101 214 13 101 214 13 101 214 13 101 214 13 101 214 13 101 214 13 101 214 13 101 214 13 101 214 13 101 214 13 101 214 13 101 214 13 101 214 13 101 214 13 101 214 13 101 214 13 101 214 13 101 214 13 101 214 13 101 214 13 101 214 13 101 214 13 101 214 13 101 214 13 101 214 13 101 214 13 101 214 13 101 214 13 101 214 13 101 214 13 101 214 13 101 214 13 101 214 13 101 214 13 101 214 13 101 214 13 101 214 13 101 214 13 101 214 13 101 214 13 101 214 13 101 214 13 101 214 13 101 214
13 101 214 13 101 214 13 101 214 13 101 214 13 101 214 13 101 214 13 101 214 13 101 214 13 101 214 13 101 214 13 101 214 13 101 214 13 101 214 13 101 214 13 101 214 13 101 214 13 101 214 13 101 214 13 101 214 13 101 214 13 101 214 13 101 214 13 101 214 13 101 214 13 101 214 13 101 214 13 101 214 13 101 214 13 101 214 13 101 214 13 101 214 13 101 214 13 101 214 13 101 214 13 101 214 13 101 214 13 101 214 13 101 214 13 101 214 13 101 214 13 101 214 13 101 214 13 101 214 13 101 214 13 101 214 13 101 214 13 101 214 13 101 214 13 101 214 13 101 214 13 101 214 13 101 214 13 101 214 13 101 214 13 101 214 13 101 214 13 101 214 13 101 214 13 101 214 13 101 214 13 101 214 13 101 214 13 101 214 13 101 214 13 101 214 13 101 214 13 101 214 13 101 214 13 101 214 13 101 214 13 101 214 13 101 214 13 101 214 13 101 214 13 101 214 13 101 214 13 101 214 13 101 214 13 101 214 13 101 214 13 101 214 13 101 214 13 101 214 13 101 214 13 101 214 13 101 214 13 101 214 13 101 214 13 101 214 13 101 214 13 101 214 13 101 214 13 101 214 13 101 214 13 101 214 13 101 214 13 101 214 13 101 214 13 101 214 13 101 214 13 101 214 13 101 214 13 101 214 13 101 214 13 101 214 13 101 214 13 101 214 13 101 214 13 101 214 13 101 214 13 101 214 13 101 214 13 101 214 13 101 214 13 101 214 13 101 214 13 101 214 13 101 214 13 101 214 13 101 214 13 101 214 13 101 214 13 101 214 13 101 214 13 101 214 13 101 214 13 101 214 13 101 214 13 101 214 13 101 214 13 101 214 13 101 214 13 101 214 13 101 214 13 101 214 13 101 214 13 101 214 13 101 214 13 101 214 13 101 214 13 101 214 13 101 214 13 101 214 13 101 214 13 101 214 13 101 214 13 101 214 13 101 214 13 101 214 13 101 214 13 101 214 13 101 214 13 101 214 13 101 214 13 101 214 13 101 214 13 101 214 13 101 214 13 101 214 13 101 214 13 101 214 13 101 214 13 101 214 13 101 214 13 101 214 13 101 214 13 101 214 13 101 214 13 101 214 13 101 214 13 101 214 13 101 214 13 101 214 13 101 214 13 101 214 13 101 214 13 101 214 13 101 214 13 101 214 13 101 214 13 101 214 13 101 214 13 101 214 13 101 214 13 101 214 13 101 214 13 101 214 13 101 214 13 101 214 13 101 214 13 101 214 13 101 214 13 101 214 13 101 214 13 101 214 13 101 214 13 101 214 13 101 214 13 101 214 13 101 214 13 101 214 13 101 214 13 101 214 13 101 214 13 101 214 13 101 214 13 101 214 13 101 214 13 101 214 13 101 214 13 101 214 13 101 214 13 101 214 13 101 214 13 101 214 13 101 214 13 101 214 13 101 214 13 101 214 13 101 214 13 101 214 13 101 214 13 101 214 13 101 214 13 101 214 13 101 214 13 101 214 13 101 214 13 101 214 13 101 214 13 101 214 13 101 214 13 101 214 13 101 214 13 101 214 13 101 214 13 101 214 13 101 214 13 101 214 13 101 214 13 101 214 13 101 214 13 101 214 13 101 214 13 101 214 13 101 214 13 101 214 13 101 214 13 101 214 13 101 214 13 101 214 13 101 214 13 101 214 13 101 214 13 101 214 13 101 214
13 101 214 13 101 214 13 101 214 13 101 214 13 101 214 13 101 214 13 101 214 13 101 214 13 101 214 13 101 214 13 101 214 13 101 214 13 101 214 13 101 214 13 101 214 13 101 214 13 101 214 13 101 214 13 101 214 13 101 214 13 101 214 13 101 214 13 101 214 13 101 214 13 101 214 13 101 214 13 101 214 13 101 214 13 101 214 13 101 214 13 101 214 13 101 214 13 101 214 13 101 214 13 101 214 13 101 214 13 101 214 13 101 214 13 101 214 13 101 214 13 101 214 13 101 214 13 101 214 13 101 214 13 101 214 13 101 214 13 101 214 13 101 214 13 101 214 13 101 214 13 101 214 13 101 214 13 101 214 13 101 214 13 101 214 13 101 214 13 101 214 13 101 214 13 101 214 13 101 214 13 101 214 13 101 214 13 101 214 13 101 214 13 101 214 13 101 214 13 101 214 13 101 214 13 101 214 13 101 214 13 101 214 13 101 214 13 101 214 13 101 214 13 101 214 13 101 214 13 101 214 13 101 214 13 101 214 13 101 214 13 101 214 13 101 214 13 101 214 13 101 214 13 101 214 13 101 214 13 101 214 13 101 214 13 101 214 13 101 214 13 101 214 13 101 214 13 101 214 13 101 214 13 101 214 13 101 214 13 101 214 13 101 214 13 101 214 13 101 214 13 101 214 13 101 214 13 101 214 13 101 214 13 101 214 13 101 214 13 101 214 13 101 214 13 101 214 13 101 214 13 101 214 13 101 214 13 101 214 13 101 214 13 101 214 13 101 214 13 101 214 13 101 214 13 101 214 13 101 214 13 101 214 13 101 214 13 101 214 13 101 214 13 101 214 13 101 214 13 101 214 13 101 214 13 101 214 13 101 214 13 101 214 13 101 214 13 101 214 13 101 214 13 101 214 13 101 214 13 101 214 13 101 214 13 101 214 13 101 214 13 101 214 13 101 214 13 101 214 13 101 214 13 101 214 13 101 214 13 101 214 13 101 214 13 101 214 13 101 214 13 101 214 13 101 214 13 101 214 13 101 214 13 101 214 13 101 214 13 101 214 13 101 214 13 101 214 13 101 214 13 101 214 13 101 214 13 101 214 13 101 214 13 101 214 13 101 214 13 101 214 13 101 214 13 101 214 13 101 214 13 101 214 13 101 214 13 101 214 13 101 214 13 101 214 13 101 214 13 101 214 13 101 214 13 101 214 13 101 214 13 101 214 13 101 214 13 101 214 13 101 214 13 101 214 13 101 214 13 101 214 13 101 214 13 101 214 13 101 214 13 101 214 13 101 214 13 101 214 13 101 214 13 101 214 13 101 214 13 101 214 13 101 214 13 101 214 13 101 214 13 101 214 13 101 214 13 101 214 13 101 214 13 101 214 13 101 214 13 101 214 13 101 214 13 101 214 13 101 214 13 101 214 13 101 214 13 101 214 13 101 214 13 101 214 13 101 214 13 101 214 13 101 214 13 101 214 13 101 214 13 101 214 13 101 214 13 101 214 13 101 214 13 101 214 13 101 214 13 101 214 13 101 214 13 101 214 13 101 214 13 101 214 13 101 214 13 101 214 13 101 214 13 101 214 13 101 214 13 101 214 13 101 214 13 101 214 13 101 214 13 101 214 13 101 214 13 101 214 13 101 214 13 101 214 13 101 214 13 101 214 13 101 214 13 101 214 13 101 214 13 101 214 13 101 214 13 101 214 13 101 214 13 101 214 13 101 214
13 101 214 13 101 214 13 101 214 13 101 214 13 101 214 13 101 214 13 101 214 13 101 214 13 101 214 13 101 214 13 101 214 13 101 214 13 101 214 13 101 214 13 101 214 13 101 214 13 101 214 13 101 214 13 101 214 13 101 214 13 101 214 13 101 214 13 101 214 13 101 214 13 101 214 13 101 214 13 101 214 13 101 214 13 101 214 13 101 214 13 101 214 13 101 214 13 101 214 13 101 214 13 101 214 13 101 214 13 101 214 13 101 214 13 101 214 13 101 214 13 101 214 13 101 214 13 101 214 13 101 214 13 101 214 13 101 214 13 101 214 13 101 214 13 101 214 13 101 214 13 101 214 13 101 214 13 101 214 13 101 214 13 101 214 13 101 214 13 101 214 13 101 214 13 101 214 13 101 214 13 101 214 13 101 214 13 101 214 13 101 214 13 101 214 13 101 214 13 101 214 13 101 214 13 101 214 13 101 214 13 101 214 13 101 214 13 101 214 13 101 214 13 101 214 13 101 214 13 101 214 13 101 214 13 101 214 13 101 214 13 101 214 13 101 214 13 101 214 13 101 214 13 101 214 13 101 214 13 101 214 13 101 214 13 101 214 13 101 214 13 101 214 13 101 214 13 101 214 13 101 214 13 101 214 13 101 214 13 101 214 13 101 214 13 101 214 13 101 214 13 101 214 13 101 214 13 101 214 13 101 214 13 101 214 13 101 214 13 101 214 13 101 214 13 101 214 13 101 214 13 101 214 13 101 214 13 101 214 13 101 214 13 101 214 13 101 214 13 101 214 13 101 214 13 101 214 13 101 214 13 101 214 13 101 214 13 101 214 13 101 214 13 101 214 13 101 214 13 101 214 13 101 214 13 101 214 13 101 214 13 101 214 13 101 214 13 101 214 13 101 214 13 101 214 13 101 214 13 101 214 13 101 214 13 101 214 13 101 214 13 101 214 13 101 214 13 101 214 13 101 214 13 101 214 13 101 214 13 101 214 13 101 214 13 101 214 13 101 214 13 101 214 13 101 214 13 101 214 13 101 214 13 101 214 13 101 214 13 101 214 13 101 214 13 101 214 13 101 214 13 101 214 13 101 214 13 101 214 13 101 214 13 101 214 13 101 214 13 101 214 13 101 214 13 101 214 13 101 214 13 101 214 13 101 214 13 101 214 13 101 214 13 101 214 13 101 214 13 101 214 13 101 214 13 101 214 13 101 214 13 101 214 13 101 214 13 101 214 13 101 214 13 101 214 13 101 214 13 101 214 13 101 214 13 101 214 13 101 214 13 101 214 13 101 214 13 101 214 13 101 214 13 101 214 13 101 214 13 101 214 13 101 214 13 101 214 13 101 214 13 101 214 13 101 214 13 101 214 13 101 214 13 101 214 13 101 214 13 101 214 13 101 214 13 101 214 13 101 214 13 101 214 13 101 214 13 101 214 13 101 214 13 101 214 13 101 214 13 101 214 13 101 214 13 101 214 13 101 214 13 101 214 13 101 214 13 101 214 13 101 214 13 101 214 13 101 214 13 101 214 13 101 214 13 101 214 13 101 214 13 101 214 13 101 214 13 101 214 13 101 214 13 101 214 13 101 214 13 101 214 13 101 214 13 101 214 13 101 214 13 101 214 13 101 214 13 101 214 13 101 214 13 101 214 13 101 214 13 101 214 13 101 214 13 101 214 13 101 214 13 101 214 13 101 214 13 101 214 13 101 214 13 101 214 13 101 214
13 101 214 13 101 214 13 101 214 13 101 214 13 101 214 13 101 214 13 101 214 13 101 214 13 101 214 13 101 214 13 101 214 13 101 214 13 101 214 13 101 214 13 101 214 13 101 214 13 101 214 13 101 214 13 101 214 13 101 214 13 101 214 13 101 214 13 101 214 13 101 214 13 101 214 13 101 214 13 101 214 13 101 214 13 101 214 13 101 214 13 101 214 13 101 214 13 101 214 13 101 214 13 101 214 13 101 214 13 101 214 13 101 214 13 101 214 13 101 214 13 101 214 13 101 214 13 101 214 13 101 214 13 101 214 13 101 214 13 101 214 13 101 214 13 101 214 13 101 214 13 101 214 13 101 214 13 101 214 13 101 214 13 101 214 13 101 214 13 101 214 13 101 214 13 101 214 13 101 214 13 101 214 13 101 214 13 101 214 13 101 214 13 101 214 13 101 214 13 101 214 13 101 214 13 101 214 13 101 214 13 101 214 13 101 214 13 101 214 13 101 214 13 101 214 13 101 214 13 101 214 13 101 214 13 101 214 13 101 214 13 101 214 13 101 214 13 101 214 13 101 214 13 101 214 13 101 214 13 101 214 13 101 214 13 101 214 13 101 214 13 101 214 13 101 214 13 101 214 13 101 214 13 101 214 13 101 214 13 101 214 13 101 214 13 101 214 13 101 214 13 101 214 13 101 214 13 101 214 13 101 214 13 101 214 13 101 214 13 101 214 13 101 214 13 101 214 13 101 214 13 101 214 13 101 214 13 101 214 13 101 214 13 101 214 13 101 214 13 101 214 13 101 214 13 101 214 13 101 214 13 101 214 13 101 214 13 101 214 13 101 214 13 101 214 13 101 214 13 101 214 13 101 214 13 101 214 13 101 214 13 101 214 13 101 214 13 101 214 13 101 214 13 101 214 13 101 214 13 101 214 13 101 214 13 101 214 13 101 214 13 101 214 13 101 214 13 101 214 13 101 214 13 101 214 13 101 214 13 101 214 13 101 214 13 101 214 13 101 214 13 101 214 13 101 214 13 101 214 13 101 214 13 101 214 13 101 214 13 101 214 13 101 214 13 101 214 13 101 214 13 101 214 13 101 214 13 101 214 13 101 214 13 101 214 13 101 214 13 101 214 13 101 214 13 101 214 13 101 214 13 101 214 13 101 214 13 101 214 13 101 214 13 101 214 13 101 214 13 101 214 13 101 214 13 101 214 13 101 214 13 101 214 13 101 214 13 101 214 13 101 214 13 101 214 13 101 214 13 101 214 13 101 214 13 101 214 13 101 214 13 101 214 13 101 214 13 101 214 13 101 214 13 101 214 13 101 214 13 101 214 13 101 214 13 101 214 13 101 214 13 101 214 13 101 214 13 101 214 13 101 214 13 101 214 13 101 214 13 101 214 13 101 214 13 101 214 13 101 214 13 101 214 13 101 214 13 101 214 13 101 214 13 101 214 13 101 214 13 101 214 13 101 214 13 101 214 13 101 214 13 101 214 13 101 214 13 101 214 13 101 214 13 101 214 13 101 214 13 101 214 13 101 214 13 101 214 13 101 214 13 101 214 13 101 214 13 101 214 13 101 214 13 101 214 13 101 214 13 101 214 13 101 214 13 101 214 13 101 214 13 101 214 13 101 214 13 101 214 13 101 214 13 101 214 13 101 214 13 101 214 13 101 214 13 101 214 13 101 214 13 101 214 13 101 214 13 101 214 13 101 214 13 101 214 13 101 214
13 101 214 13 101 214 13 101 214 13 101 214 13 101 214 13 101 214 13 101 214 13 101 214 13 101 214 13 101 214 13 101 214 13 101 214 13 101 214 13 101 214 13 101 214 13 101 214 13 101 214 13 101 214 13 101 214 13 101 214 13 101 214 13 101 214 13 101 214 13 101 214 13 101 214 13 101 214 13 101 214 13 101 214 13 101 214 13 101 214 13 101 214 13 101 214 13 101 214 13 101 214 13 101 214 13 101 214 13 101 214 13 101 214 13 101 214 13 101 214 13 101 214 13 101 214 13 101 214 13 101 214 13 101 214 13 101 214 13 101 214 13 101 214 13 101 214 13 101 214 13 101 214 13 101 214 13 101 214 13 101 214 13 101 214 13 101 214 13 101 214 13 101 214 13 101 214 13 101 214 13 101 214 13 101 214 13 101 214 13 101 214 13 101 214 13 101 214 13 101 214 13 101 214 13 101 214 13 101 214 13 101 214 13 101 214 13 101 214 13 101 214 13 101 214 13 101 214 13 101 214 13 101 214 13 101 214 13 101 214 13 101 214 13 101 214 13 101 214 13 101 214 13 101 214 13 101 214 13 101 214 13 101 214 13 101 214 13 101 214 13 101 214 13 101 214 13 101 214 13 101 214 13 101 214 13 101 214 13 101 214 13 101 214 13 101 214 13 101 214 13 101 214 13 101 214 13 101 214 13 101 214 13 101 214 13 101 214 13 101 214 13 101 214 13 101 214 13 101 214 13 101 214 13 101 214 13 101 214 13 101 214 13 101 214 13 101 214 13 101 214 13 101 214 13 101 214 13 101 214 13 101 214 13 101 214 13 101 214 13 101 214 13 101 214 13 101 214 13 101 214 13 101 214 13 101 214 13 101 214 13 101 214 13 101 214 13 101 214 13 101 214 13 101 214 13 101 214 13 101 214 13 101 214 13 101 214 13 101 214 13 101 214 13 101 214 13 101 214 13 101 214 13 101 214 13 101 214 13 101 214 13 101 214 13 101 214 13 101 214 13 101 214 13 101 214 13 101 214 13 101 214 13 101 214 13 101 214 13 101 214 13 101 214 13 101 214 13 101 214 13 101 214 13 101 214 13 101 214 13 101 214 13 101 214 13 101 214 13 101 214 13 101 214 13 101 214 13 101 214 13 101 214 13 101 214 13 101 214 13 101 214 13 101 214 13 101 214 13 101 214 13 101 214 13 101 214 13 101 214 13 101 214 13 101 214 13 101 214 13 101 214 13 101 214 13 101 214 13 101 214 13 101 214 13 101 214 13 101 214 13 101 214 13 101 214 13 101 214 13 101 214 13 101 214 13 101 214 13 101 214 13 101 214 13 101 214 13 101 214 13 101 214 13 101 214 13 101 214 13 101 214 13 101 214 13 101 214 13 101 214 13 101 214 13 101 214 13 101 214 13 101 214 13 101 214 13 101 214 13 101 214 13 101 214 13 101 214 13 101 214 13 101 214 13 101 214 13 101 214 13 101 214 13 101 214 13 101 214 13 101 214 13 101 214 13 101 214 13 101 214 13 101 214 13 101 214 13 101 214 13 101 214 13 101 214 13 101 214 13 101 214 13 101 214 13 101 214 13 101 214 13 101 214 13 101 214 13 101 214 13 101 214 13 101 214 13 101 214 13 101 214 13 101 214 13 101 214 13 101 214 13 101 214 13 101 214 13 101 214 13 101 214 13 101 214 13 101 214 13 101 214 13 101 214 13 101 214
13 101 214 13 101 214 13 101 214 13 101 214 13 101 214 13 101 214 13 101 214 13 101 214 13 101 214 13 101 214 13 101 214 13 101 214 13 101 214 13 101 214 13 101 214 13 101 214 13 101 214 13 101 214 13 101 214 13 101 214 13 101 214 13 101 214 13 101 214 13 101 214 13 101 214 13 101 214 13 101 214 13 101 214 13 101 214 13 101 214 13 101 214 13 101 214 13 101 214 13 101 214 13 101 214 13 101 214 13 101 214 13 101 214 13 101 214 13 101 214 13 101 214 13 101 214 13 101 214 13 101 214 13 101 214 13 101 214 13 101 214 13 101 214 13 101 214 13 101 214 13 101 214 13 101 214 13 101 214 13 101 214 13 101 214 13 101 214 13 101 214 13 101 214 13 101 214 13 101 214 13 101 214 13 101 214 13 101 214 13 101 214 13 101 214 13 101 214 13 101 214 13 101 214 13 101 214 13 101 214 13 101 214 13 101 214 13 101 214 13 101 214 13 101 214 13 101 214 13 101 214 13 101 214 13 101 214 13 101 214 13 101 214 13 101 214 13 101 214 13 101 214 13 101 214 13 101 214 13 101 214 13 101 214 13 101 214 13 101 214 13 101 214 13 101 214 13 101 214 13 101 214 13 101 214 13 101 214 13 101 214 13 101 214 13 101 214 13 101 214 13 101 214 13 101 214 13 101 214 13 101 214 13 101 214 13 101 214 13 101 214 13 101 214 13 101 214 13 101 214 13 101 214 13 101 214 13 101 214 13 101 214 13 101 214 13 101 214 13 101 214 13 101 214 13 101 214 13 101 214 13 101 214 13 101 214 13 101 214 13 101 214 13 101 214 13 101 214 13 101 214 13 101 214 13 101 214 13 101 214 13 101 214 13 101 214 13 101 214 13 101 214 13 101 214 13 101 214 13 101 214 13 101 214 13 101 214 13 101 214 13 101 214 13 101 214 13 101 214 13 101 214 13 101 214 13 101 214 13 101 214 13 101 214 13 101 214 13 101 214 13 101 214 13 101 214 13 101 214 13 101 214 13 101 214 13 101 214 13 101 214 13 101 214 13 101 214 13 101 214 13 101 214 13 101 214 13 101 214 13 101 214 13 101 214 13 101 214 13 101 214 13 101 214 13 101 214 13 101 214 13 101 214 13 101 214 13 101 214 13 101 214 13 101 214 13 101 214 13 101 214 13 101 214 13 101 214 13 101 214 13 101 214 13 101 214 13 101 214 13 101 214 13 101 214 13 101 214 13 101 214 13 101 214 13 101 214 13 101 214 13 101 214 13 101 214 13 101 214 13 101 214 13 101 214 13 101 214 13 101 214 13 101 214 13 101 214 13 101 214 13 101 214 13 101 214 13 101 214 13 101 214 13 101 214 13 101 214 13 101 214 13 101 214 13 101 214 13 101 214 13 101 214 13 101 214 13 101 214 13 101 214 13 101 214 13 101 214 13 101 214 13 101 214 13 101 214 13 101 214 13 101 214 13 101 214 13 101 214 13 101 214 13 101 214 13 101 214 13 101 214 13 101 214 13 101 214 13 101 214 13 101 214 13 101 214 13 101 214 13 101 214 13 101 214 13 101 214 13 101 214 13 101 214 13 101 214 13 101 214 13 101 214 13 101 214 13 101 214 13 101 214 13 101 214 13 101 214 13 101 214 13 101 214 13 101 214 13 101 214 13 101 214 13 101 214 13 101 214 13 101 214 13 101 214 13 101 214
13 101 214 13 101 214 13 101 214 13 101 214 13 101 214 13 101 214 13 101 214 13 101 214 13 101 214 13 101 214 13 101 214 13 101 214 13 101 214 13 101 214 13 101 214 13 101 214 13 101 214 13 101 214 13 101 214 13 101 214 13 101 214 13 101 214 13 101 214 13 101 214 13 101 214 13 101 214 13 101 214 13 101 214 13 101 214 13 101 214 13 101 214 13 101 214 13 101 214 13 101 214 13 101 214 13 101 214 13 101 214 13 101 214 13 101 214 13 101 214 13 101 214 13 101 214 13 101 214 13 101 214 13 101 214 13 101 214 13 101 214 13 101 214 13 101 214 13 101 214 13 101 214 13 101 214 13 101 214 13 101 214 13 101 214 13 101 214 13 101 214 13 101 214 13 101 214 13 101 214 13 101 214 13 101 214 13 101 214 13 101 214 13 101 214 13 101 214 13 101 214 13 101 214 13 101 214 13 101 214 13 101 214 13 101 214 13 101 214 13 101 214 13 101 214 13 101 214 13 101 214 13 101 214 13 101 214 13 101 214 13 101 214 13 101 214 13 101 214 13 101 214 13 101 214 13 101 214 13 101 214 13 101 214 13 101 214 13 101 214 13 101 214 13 101 214 13 101 214 13 101 214 13 101 214 13 101 214 13 101 214 13 101 214 13 101 214 13 101 214 13 101 214 13 101 214 13 101 214 13 101 214 13 101 214 13 101 214 13 101 214 13 101 214 13 101 214 13 101 214 13 101 214 13 101 214 13 101 214 13 101 214 13 101 214 13 101 214 13 101 214 13 101 214 13 101 214 13 101 214 13 101 214 13 101 214 13 101 214 13 101 214 13 101 214 13 101 214 13 101 214 13 101 214 13 101 214 13 101 214 13 101 214 13 101 214 13 101 214 13 101 214 13 101 214 13 101 214 13 101 214 13 101 214 13 101 214 13 101 214 13 101 214 13 101 214 13 101 214 13 101 214 13 101 214 13 101 214 13 101 214 13 101 214 13 101 214 13 101 214 13 101 214 13 101 214 13 101 214 13 101 214 13 101 214 13 101 214 13 101 214 13 101 214 13 101 214 13 101 214 13 101 214 13 101 214 13 101 214 13 101 214 13 101 214 13 101 214 13 101 214 13 101 214 13 101 214 13 101 214 13 101 214 13 101 214 13 101 214 13 101 214 13 101 214 13 101 214 13 101 214 13 101 214 13 101 214 13 101 214 13 101 214 13 101 214 13 101 214 13 101 214 13 101 214 13 101 214 13 101 214 13 101 214 13 101 214 13 101 214 13 101 214 13 101 214 13 101 214 13 101 214 13 101 214 13 101 214 13 101 214 13 101 214 13 101 214 13 101 214 13 101 214 13 101 214 13 101 214 13 101 214 13 101 214 13 101 214 13 101 214 13 101 214 13 101 214 13 101 214 13 101 214 13 101 214 13 101 214 13 101 214 13 101 214 13 101 214 13 101 214 13 101 214 13 101 214 13 101 214 13 101 214 13 101 214 13 101 214 13 101 214 13 101 214 13 101 214 13 101 214 13 101 214 13 101 214 13 101 214 13 101 214 13 101 214 13 101 214 13 101 214 13 101 214 13 101 214 13 101 214 13 101 214 13 101 214 13 101 214 13 101 214 13 101 214 13 101 214 13 101 214 13 101 214 13 101 214 13 101 214 13 101 214 13 101 214 13 101 214 13 101 214 13 101 214 13 101 214 13 101 214 13 101 214 13 101 214
13 101 214 13 101 214 13 101 214 13 101 214 13 101 214 13 101 214 13 101 214 13 101 214 13 101 214 13 101 214 13 101 214 13 101 214 13 101 214 13 101 214 13 101 214 13 101 214 13 101 214 13 101 214 13 101 214 13 101 214 13 101 214 13 101 214 13 101 214 13 101 214 13 101 214 13 101 214 13 101 214 13 101 214 13 101 214 13 101 214 13 101 214 13 101 214 13 101 214 13 101 214 13 101 214 13 101 214 13 101 214 13 101 214 13 101 214 13 101 214 13 101 214 13 101 214 13 101 214 13 101 214 13 101 214 13 101 214 13 101 214 13 101 214 13 101 214 13 101 214 13 101 214 13 101 214 13 101 214 13 101 214 13 101 214 13 101 214 13 101 214 13 101 214 13 101 214 13 101 214 13 101 214 13 101 214 13 101 214 13 101 214 13 101 214 13 101 214 13 101 214 13 101 214 13 101 214 13 101 214 13 101 214 13 101 214 13 101 214 13 101 214 13 101 214 13 101 214 13 101 214 13 101 214 13 101 214 13 101 214 13 101 214 13 101 214 13 101 214 13 101 214 13 101 214 13 101 214 13 101 214 13 101 214 13 101 214 13 101 214 13 101 214 13 101 214 13 101 214 13 101 214 13 101 214 13 101 214 13 101 214 13 101 214 13 101 214 13 101 214 13 101 214 13 101 214 13 101 214 13 101 214 13 101 214 13 101 214 13 101 214 13 101 214 13 101 214 13 101 214 13 101 214 13 101 214 13 101 214 13 101 214 13 101 214 13 101 214 13 101 214 13 101 214 13 101 214 13 101 214 13 101 214 13 101 214 13 101 214 13 101 214 13 101 214 13 101 214 13 101 214 13 101 214 13 101 214 13 101 214 13 101 214 13 101 214 13 101 214 13 101 214 13 101 214 13 101 214 13 101 214 13 101 214 13 101 214 13 101 214 13 101 214 13 101 214 13 101 214 13 101 214 13 101 214 13 101 214 13 101 214 13 101 214 13 101 214 13 101 214 13 101 214 13 101 214 13 101 214 13 101 214 13 101 214 13 101 214 13 101 214 13 101 214 13 101 214 13 101 214 13 101 214 13 101 214 13 101 214 13 101 214 13 101 214 13 101 214 13 101 214 13 101 214 13 101 214 13 101 214 13 101 214 13 101 214 13 101 214 13 101 214 13 101 214 13 101 214 13 101 214 13 101 214 13 101 214 13 101 214 13 101 214 13 101 214 13 101 214 13 101 214 13 101 214 13 101 214 13 101 214 13 101 214 13 101 214 13 101 214 13 101 214 13 101 214 13 101 214 13 101 214 13 101 214 13 101 214 13 101 214 13 101 214 13 101 214 13 101 214 13 101 214 13 101 214 13 101 214 13 101 214 13 101 214 13 101 214 13 101 214 13 101 214 13 101 214 13 101 214 13 101 214 13 101 214 13 101 214 13 101 214 13 101 214 13 101 214 13 101 214 13 101 214 13 101 214 13 101 214 13 101 214 13 101 214 13 101 214 13 101 214 13 101 214 13 101 214 13 101 214 13 101 214 13 101 214 13 101 214 13 101 214 13 101 214 13 101 214 13 101 214 13 101 214 13 101 214 13 101 214 13 101 214 13 101 214 13 101 214 13 101 214 13 101 214 13 101 214 13 101 214 13 101 214 13 101 214 13 101 214 13 101 214 13 101 214 13 101 214 13 101 214 13 101 214 13 101 214 13 101 214 13 101 214 13 101 214
13 101 214 13 101 214 13 101 214 13 101 214 13 101 214 13 101 214 13 101 214 13 101 214 13 101 214 13 101 214 13 101 214 13 101 214 13 101 214 13 101 214 13 101 214 13 101 214 13 101 214 13 101 214 13 101 214 13 101 214 13 101 214 13 101 214 13 101 214 13 101 214 13 101 214 13 101 214 13 101 214 13 101 214 13 101 214 13 101 214 13 101 214 13 101 214 13 101 214 13 101 214 13 101 214 13 101 214 13 101 214 13 101 214 13 101 214 13 101 214 13 101 214 13 101 214 13 101 214 13 101 214 13 101 214 13 101 214 13 101 214 13 101 214 13 101 214 13 101 214 13 101 214 13 101 214 13 101 214 13 101 214 13 101 214 13 101 214 13 101 214 13 101 214 13 101 214 13 101 214 13 101 214 13 101 214 13 101 214 13 101 214 13 101 214 13 101 214 13 101 214 13 101 214 13 101 214 13 101 214 13 101 214 13 101 214 13 101 214 13 101 214 13 101 214 13 101 214 13 101 214 13 101 214 13 101 214 13 101 214 13 101 214 13 101 214 13 101 214 13 101 214 13 101 214 13 101 214 13 101 214 13 101 214 13 101 214 13 101 214 13 101 214 13 101 214 13 101 214 13 101 214 13 101 214 13 101 214 13 101 214 13 101 214 13 101 214 13 101 214 13 101 214 13 101 214 13 101 214 13 101 214 13 101 214 13 101 214 13 101 214 13 101 214 13 101 214 13 101 214 13 101 214 13 101 214 13 101 214 13 101 214 13 101 214 13 101 214 13 101 214 13 101 214 13 101 214 13 101 214 13 101 214 13 101 214 13 101 214 13 101 214 13 101 214 13 101 214 13 101 214 13 101 214 13 101 214 13 101 214 13 101 214 13 101 214 13 101 214 13 101 214 13 101 214 13 101 214 13 101 214 13 101 214 13 101 214 13 101 214 13 101 214 13 101 214 13 101 214 13 101 214 13 101 214 13 101 214 13 101 214 13 101 214 13 101 214 13 101 214 13 101 214 13 101 214 13 101 214 13 101 214 13 101 214 13 101 214 13 101 214 13 101 214 13 101 214 13 101 214 13 101 214 13 101 214 13 101 214 13 101 214 13 101 214 13 101 214 13 101 214 13 101 214 13 101 214 13 101 214 13 101 214 13 101 214 13 101 214 13 101 214 13 101 214 13 101 214 13 101 214 13 101 214 13 101 214 13 101 214 13 101 214 13 101 214 13 101 214 13 101 214 13 101 214 13 101 214 13 101 214 13 101 214 13 101 214 13 101 214 13 101 214 13 101 214 13 101 214 13 101 214 13 101 214 13 101 214 13 101 214 13 101 214 13 101 214 13 101 214 13 101 214 13 101 214 13 101 214 13 101 214 13 101 214 13 101 214 13 101 214 13 101 214 13 101 214 13 101 214 13 101 214 13 101 214 13 101 214 13 101 214 13 101 214 13 101 214 13 101 214 13 101 214 13 101 214 13 101 214 13 101 214 13 101 214 13 101 214 13 101 214 13 101 214 13 101 214 13 101 214 13 101 214 13 101 214 13 101 214 13 101 214 13 101 214 13 101 214 13 101 214 13 101 214 13 101 214 13 101 214 13 101 214 13 101 214 13 101 214 13 101 214 13 101 214 13 101 214 13 101 214 13 101 214 13 101 214 13 101 214 13 101 214 13 101 214 13 101 214 13 101 214 13 101 214 13 101 214 13 101 214 13 101 214 13 101 214
13 101 214 13 101 214 13 101 214 13 101 214 13 101 214 13 101 214 13 101 214 13 101 214 13 101 214 13 101 214 13 101 214 13 101 214 13 101 214 13 101 214 13 101 214 13 101 214 13 101 214 13 101 214 13 101 214 13 101 214 13 101 214 13 101 214 13 101 214 13 101 214 13 101 214 13 101 214 13 101 214 13 101 214 13 101 214 13 101 214 13 101 214 13 101 214 13 101 214 13 101 214 13 101 214 13 101 214 13 101 214 13 101 214 13 101 214 13 101 214 13 101 214 13 101 214 13 101 214 13 101 214 13 101 214 13 101 214 13 101 214 13 101 214 13 101 214 13 101 214 13 101 214 13 101 214 13 101 214 13 101 214 13 101 214 13 101 214 13 101 214 13 101 214 13 101 214 13 101 214 13 101 214 13 101 214 13 101 214 13 101 214 13 101 214 13 101 214 13 101 214 13 101 214 13 101 214 13 101 214 13 101 214 13 101 214 13 101 214 13 101 214 13 101 214 13 101 214 13 101 214 13 101 214 13 101 214 13 101 214 13 101 214 13 101 214 13 101 214 13 101 214 13 101 214 13 101 214 13 101 214 13 101 214 13 101 214 13 101 214 13 101 214 13 101 214 13 101 214 13 101 214 13 101 214 13 101 214 13 101 214 13 101 214 13 101 214 13 101 214 13 101 214 13 101 214 13 101 214 13 101 214 13 101 214 13 101 214 13 101 214 13 101 214 13 101 214 13 101 214 13 101 214 13 101 214 13 101 214 13 101 214 13 101 214 13 101 214 13 101 214 13 101 214 13 101 214 13 101 214 13 101 214 13 101 214 13 101 214 13 101 214 13 101 214 13 101 214 13 101 214 13 101 214 13 101 214 13 101 214 13 101 214 13 101 214 13 101 214 13 101 214 13 101 214 13 101 214 13 101 214 13 101 214 13 101 214 13 101 214 13 101 214 13 101 214 13 101 214 13 101 214 13 101 214 13 101 214 13 101 214 13 101 214 13 101 214 13 101 214 13 101 214 13 101 214 13 101 214 13 101 214 13 101 214 13 101 214 13 101 214 13 101 214 13 101 214 13 101 214 13 101 214 13 101 214 13 101 214 13 101 214 13 101 214 13 101 214 13 101 214 13 101 214 13 101 214 13 101 214 13 101 214 13 101 214 13 101 214 13 101 214 13 101 214 13 101 214 13 101 214 13 101 214 13 101 214 13 101 214 13 101 214 13 101 214 13 101 214 13 101 214 13 101 214 13 101 214 13 101 214 13 101 214 13 101 214 13 101 214 13 101 214 13 101 214 13 101 214 13 101 214 13 101 214 13 101 214 13 101 214 13 101 214 13 101 214 13 101 214 13 101 214 13 101 214 13 101 214 13 101 214 13 101 214 13 101 214 13 101 214 13 101 214 13 101 214 13 101 214 13 101 214 13 101 214 13 101 214 13 101 214 13 101 214 13 101 214 13 101 214 13 101 214 13 101 214 13 101 214 13 101 214 13 101 214 13 101 214 13 101 214 13 101 214 13 101 214 13 101 214 13 101 214 13 101 214 13 101 214 13 101 214 13 101 214 13 101 214 13 101 214 13 101 214 13 101 214 13 101 214 13 101 214 13 101 214 13 101 214 13 101 214 13 101 214 13 101 214 13 101 214 13 101 214 13 101 214 13 101 214 13 101 214 13 101 214 13 101 214 13 101 214 13 101 214 13 101 214 13 101 214 13 101 214 13 101 214
13 101 214 13 101 214 13 101 214 13 101 214 13 101 214 13 101 214 13 101 214 13 101 214 13 101 214 13 101 214 13 101 214 13 101 214 13 101 214 13 101 214 13 101 214 13 101 214 13 101 214 13 101 214 13 101 214 13 101 214 13 101 214 13 101 214 13 101 214 13 101 214 13 101 214 13 101 214 13 101 214 13 101 214 13 101 214 13 101 214 13 101 214 13 101 214 13 101 214 13 101 214 13 101 214 13 101 214 13 101 214 13 101 214 13 101 214 13 101 214 13 101 214 13 101 214 13 101 214 13 101 214 13 101 214 13 101 214 13 101 214 13 101 214 13 101 214 13 101 214 13 101 214 13 101 214 13 101 214 13 101 214 13 101 214 13 101 214 13 101 214 13 101 214 13 101 214 13 101 214 13 101 214 13 101 214 13 101 214 13 101 214 13 101 214 13 101 214 13 101 214 13 101 214 13 101 214 13 101 214 13 101 214 13 101 214 13 101 214 13 101 214 13 101 214 13 101 214 13 101 214 13 101 214 13 101 214 13 101 214 13 101 214 13 101 214 13 101 214 13 101 214 13 101 214 13 101 214 13 101 214 13 101 214 13 101 214 13 101 214 13 101 214 13 101 214 13 101 214 13 101 214 13 101 214 13 101 214 13 101 214 13 101 214 13 101 214 13 101 214 13 101 214 13 101 214 13 101 214 13 101 214 13 101 214 13 101 214 13 101 214 13 101 214 13 101 214 13 101 214 13 101 214 13 101 214 13 101 214 13 101 214 13 101 214 13 101 214 13 101 214 13 101 214 13 101 214 13 101 214 13 101 214 13 101 214 13 101 214 13 101 214 13 101 214 13 101 214 13 101 214 13 101 214 13 101 214 13 101 214 13 101 214 13 101 214 13 101 214 13 101 214 13 101 214 13 101 214 13 101 214 13 101 214 13 101 214 13 101 214 13 101 214 13 101 214 13 101 214 13 101 214 13 101 214 13 101 214 13 101 214 13 101 214 13 101 214 13 101 214 13 101 214 13 101 214 13 101 214 13 101 214 13 101 214 13 101 214 13 101 214 13 101 214 13 101 214 13 101 214 13 101 214 13 101 214 13 101 214 13 101 214 13 101 214 13 101 214 13 101 214 13 101 214 13 101 214 13 101 214 13 101 214 13 101 214 13 101 214 13 101 214 13 101 214 13 101 214 13 101 214 13 101 214 13 101 214 13 101 214 13 101 214 13 101 214 13 101 214 13 101 214 13 101 214 13 101 214 13 101 214 13 101 214 13 101 214 13 101 214 13 101 214 13 101 214 13 101 214 13 101 214 13 101 214 13 101 214 13 101 214 13 101 214 13 101 214 13 101 214 13 101 214 13 101 214 13 101 214 13 101 214 13 101 214 13 101 214 13 101 214 13 101 214 13 101 214 13 101 214 13 101 214 13 101 214 13 101 214 13 101 214 13 101 214 13 101 214 13 101 214 13 101 214 13 101 214 13 101 214 13 101 214 13 101 214 13 101 214 13 101 214 13 101 214 13 101 214 13 101 214 13 101 214 13 101 214 13 101 214 13 101 214 13 101 214 13 101 214 13 101 214 13 101 214 13 101 214 13 101 214 13 101 214 13 101 214 13 101 214 13 101 214 13 101 214 13 101 214 13 101 214 13 101 214 13 101 214 13 101 214 13 101 214 13 101 214 13 101 214 13 101 214 13 101 214 13 101 214 13 101 214 13 101 214 13 101 214
13 101 214 13 101 214 13 101 214 13 101 214 13 101 214 13 101 214 13 101 214 13 101 214 13 101 214 13 101 214 13 101 214 13 101 214 13 101 214 13 101 214 13 101 214 13 101 214 13 101 214 13 101 214 13 101 214 13 101 214 13 101 214 13 101 214 13 101 214 13 101 214 13 101 214 13 101 214 13 101 214 13 101 214 13 101 214 13 101 214 13 101 214 13 101 214 13 101 214 13 101 214 13 101 214 13 101 214 13 101 214 13 101 214 13 101 214 13 101 214 13 101 214 13 101 214 13 101 214 13 101 214 13 101 214 13 101 214 13 101 214 13 101 214 13 101 214 13 101 214 13 101 214 13 101 214 13 101 214 13 101 214 13 101 214 13 101 214 13 101 214 13 101 214 13 101 214 13 101 214 13 101 214 13 101 214 13 101 214 13 101 214 13 101 214 13 101 214 13 101 214 13 101 214 13 101 214 13 101 214 13 101 214 13 101 214 13 101 214 13 101 214 13 101 214 13 101 214 13 101 214 13 101 214 13 101 214 13 101 214 13 101 214 13 101 214 13 101 214 13 101 214 13 101 214 13 101 214 13 101 214 13 101 214 13 101 214 13 101 214 13 101 214 13 101 214 13 101 214 13 101 214 13 101 214 13 101 214 13 101 214 13 101 214 13 101 214 13 101 214 13 101 214 13 101 214 13 101 214 13 101 214 13 101 214 13 101 214 13 101 214 13 101 214 13 101 214 13 101 214 13 101 214 13 101 214 13 101 214 13 101 214 13 101 214 13 101 214 13 101 214 13 101 214 13 101 214 13 101 214 13 101 214 13 101 214 13 101 214 13 101 214 13 101 214 13 101 214 13 101 214 13 101 214 13 101 214 13 101 214 13 101 214 13 101 214 13 101 214 13 101 214 13 101 214 13 101 214 13 101 214 13 101 214 13 101 214 13 101 214 13 101 214 13 101 214 13 101 214 13 101 214 13 101 214 13 101 214 13 101 214 13 101 214 13 101 214 13 101 214 13 101 214 13 101 214 13 101 214 13 101 214 13 101 214 13 101 214 13 101 214 13 101 214 13 101 214 13 101 214 13 101 214 13 101 214 13 101 214 13 101 214 13 101 214 13 101 214 13 101 214 13 101 214 13 101 214 13 101 214 13 101 214 13 101 214 13 101 214 13 101 214 13 101 214 13 101 214 13 101 214 13 101 214 13 101 214 13 101 214 13 101 214 13 101 214 13 101 214 13 101 214 13 101 214 13 101 214 13 101 214 13 101 214 13 101 214 13 101 214 13 101 214 13 101 214 13 101 214 13 101 214 13 101 214 13 101 214 13 101 214 13 101 214 13 101 214 13 101 214 13 101 214 13 101 214 13 101 214 13 101 214 13 101 214 13 101 214 13 101 214 13 101 214 13 101 214 13 101 214 13 101 214 13 101 214 13 101 214 13 101 214 13 101 214 13 101 214 13 101 214 13 101 214 13 101 214 13 101 214 13 101 214 13 101 214 13 101 214 13 101 214 13 101 214 13 101 214 13 101 214 13 101 214 13 101 214 13 101 214 13 101 214 13 101 214 13 101 214 13 101 214 13 101 214 13 101 214 13 101 214 13 101 214 13 101 214 13 101 214 13 101 214 13 101 214 13 101 214 13 101 214 13 101 214 13 101 214 13 101 214 13 101 214 13 101 214 13 101 214 13 101 214 13 101 214 13 101 214 13 101 214 13 101 214 13 101 214
13 101 214 13 101 214 13 101 214 13 101 214 13 101 214 13 101 214 13 101 214 13 101 214 13 101 214 13 101 214 13 101 214 13 101 214 13 101 214 13 101 214 13 101 214 13 101 214 13 101 214 13 101 214 13 101 214 13 101 214 13 101 214 13 101 214 13 101 214 13 101 214 13 101 214 13 101 214 13 101 214 13 101 214 13 101 214 13 101 214 13 101 214 13 101 214 13 101 214 13 101 214 13 101 214 13 101 214 13 101 214 13 101 214 13 101 214 13 101 214 13 101 214 13 101 214 13 101 214 13 101 214 13 101 214 13 101 214 13 101 214 13 101 214 13 101 214 13 101 214 13 101 214 13 101 214 13 101 214 13 101 214 13 101 214 13 101 214 13 101 214 13 101 214 13 101 214 13 101 214 13 101 214 13 101 214 13 101 214 13 101 214 13 101 214 13 101 214 13 101 214 13 101 214 13 101 214 13 101 214 13 101 214 13 101 214 13 101 214 13 101 214 13 101 214 13 101 214 13 101 214 13 101 214 13 101 214 13 101 214 13 101 214 13 101 214 13 101 214 13 101 214 13 101 214 13 101 214 13 101 214 13 101 214 13 101 214 13 101 214 13 101 214 13 101 214 13 101 214 13 101 214 13 101 214 13 101 214 13 101 214 13 101 214 13 101 214 13 101 214 13 101 214 13 101 214 13 101 214 13 101 214 13 101 214 13 101 214 13 101 214 13 101 214 13 101 214 13 101 214 13 101 214 13 101 214 13 101 214 13 101 214 13 101 214 13 101 214 13 101 214 13 101 214 13 101 214 13 101 214 13 101 214 13 101 214 13 101 214 13 101 214 13 101 214 13 101 214 13 101 214 13 101 214 13 101 214 13 101 214 13 101 214 13 101 214 13 101 214 13 101 214 13 101 214 13 101 214 13 101 214 13 101 214 13 101 214 13 101 214 13 101 214 13 101 214 13 101 214 13 101 214 13 101 214 13 101 214 13 101 214 13 101 214 13 101 214 13 101 214 13 101 214 13 101 214 13 101 214 13 101 214 13 101 214 13 101 214 13 101 214 13 101 214 13 101 214 13 101 214 13 101 214 13 101 214 13 101 214 13 101 214 13 101 214 13 101 214 13 101 214 13 101 214 13 101 214 13 101 214 13 101 214 13 101 214 13 101 214 13 101 214 13 101 214 13 101 214 13 101 214 13 101 214 13 101 214 13 101 214 13 101 214 13 101 214 13 101 214 13 101 214 13 101 214 13 101 214 13 101 214 13 101 214 13 101 214 13 101 214 13 101 214 13 101 214 13 101 214 13 101 214 13 101 214 13 101 214 13 101 214 13 101 214 13 101 214 13 101 214 13 101 214 13 101 214 13 101 214 13 101 214 13 101 214 13 101 214 13 101 214 13 101 214 13 101 214 13 101 214 13 101 214 13 101 214 13 101 214 13 101 214 13 101 214 13 101 214 13 101 214 13 101 214 13 101 214 13 101 214 13 101 214 13 101 214 13 101 214 13 101 214 13 101 214 13 101 214 13 101 214 13 101 214 13 101 214 13 101 214 13 101 214 13 101 214 13 101 214 13 101 214 13 101 214 13 101 214 13 101 214 13 101 214 13 101 214 13 101 214 13 101 214 13 101 214 13 101 214 13 101 214 13 101 214 13 101 214 13 101 214 13 101 214 13 101 214 13 101 214 13 101 214 13 101 214 13 101 214 13 101 214 13 101 214 13 101 214
13 101 214 13 101 214 13 101 214 13 101 214 13 101 214 13 101 214 13 101 214 13 101 214 13 101 214 13 101 214 13 101 214 13 101 214 13 101 214 13 101 214 13 101 214 13 101 214 13 101 214 13 101 214 13 101 214 13 101 214 13 101 214 13 101 214 13 101 214 13 101 214 13 101 214 13 101 214 13 101 214 13 101 214 13 101 214 13 101 214 13 101 214 13 101 214 13 101 214 13 101 214 13 101 214 13 101 214 13 101 214 13 101 214 13 101 214 13 101 214 13 101 214 13 101 214 13 101 214 13 101 214 13 101 214 13 101 214 13 101 214 13 101 214 13 101 214 13 101 214 13 101 214 13 101 214 13 101 214 13 101 214 13 101 214 13 101 214 13 101 214 13 101 214 13 101 214 13 101 214 13 101 214 13 101 214 13 101 214 13 101 214 13 101 214 13 101 214 13 101 214 13 101 214 13 101 214 13 101 214 13 101 214 13 101 214 13 101 214 13 101 214 13 101 214 13 101 214 13 101 214 13 101 214 13 101 214 13 101 214 13 101 214 13 101 214 13 101 214 13 101 214 13 101 214 13 101 214 13 101 214 13 101 214 13 101 214 13 101 214 13 101 214 13 101 214 13 101 214 13 101 214 13 101 214 13 101 214 13 101 214 13 101 214 13 101 214 13 101 214 13 101 214 13 101 214 13 101 214 13 101 214 13 101 214 13 101 214 13 101 214 13 101 214 13 101 214 13 101 214 13 101 214 13 101 214 13 101 214 13 101 214 13 101 214 13 101 214 13 101 214 13 101 214 13 101 214 13 101 214 13 101 214 13 101 214 13 101 214 13 101 214 13 101 214 13 101 214 13 101 214 13 101 214 13 101 214 13 101 214 13 101 214 13 101 214 13 101 214 13 101 214 13 101 214 13 101 214 13 101 214 13 101 214 13 101 214 13 101 214 13 101 214 13 101 214 13 101 214 13 101 214 13 101 214 13 101 214 13 101 214 13 101 214 13 101 214 13 101 214 13 101 214 13 101 214 13 101 214 13 101 214 13 101 214 13 101 214 13 101 214 13 101 214 13 101 214 13 101 214 13 101 214 13 101 214 13 101 214 13 101 214 13 101 214 13 101 214 13 101 214 13 101 214 13 101 214 13 101 214 13 101 214 13 101 214 13 101 214 13 101 214 13 101 214 13 101 214 13 101 214 13 101 214 13 101 214 13 101 214 13 101 214 13 101 214 13 101 214 13 101 214 13 101 214 13 101 214 13 101 214 13 101 214 13 101 214 13 101 214 13 101 214 13 101 214 13 101 214 13 101 214 13 101 214 13 101 214 13 101 214 13 101 214 13 101 214 13 101 214 13 101 214 13 101 214 13 101 214 13 101 214 13 101 214 13 101 214 13 101 214 13 101 214 13 101 214 13 101 214 13 101 214 13 101 214 13 101 214 13 101 214 13 101 214 13 101 214 13 101 214 13 101 214 13 101 214 13 101 214 13 101 214 13 101 214 13 101 214 13 101 214 13 101 214 13 101 214 13 101 214 13 101 214 13 101 214 13 101 214 13 101 214 13 101 214 13 101 214 13 101 214 13 101 214 13 101 214 13 101 214 13 101 214 13 101 214 13 101 214 13 101 214 13 101 214 13 101 214 13 101 214 13 101 214 13 101 214 13 101 214 13 101 214 13 101 214 13 101 214 13 101 214 13 101 214 13 101 214 13 101 214 13 101 214 13 101 214
13 101 214 13 101 214 13 101 214 13 101 214 13 101 214 13 101 214 13 101 214 13 101 214 13 101 214 13 101 214 13 101 214 13 101 214 13 101 214 13 101 214 13 101 214 13 101 214 13 101 214 13 101 214 13 101 214 13 101 214 13 101 214 13 101 214 13 101 214 13 101 214 13 101 214 13 101 214 13 101 214 13 101 214 13 101 214 13 101 214 13 101 214 13 101 214 13 101 214 13 101 214 13 101 214 13 101 214 13 101 214 13 101 214 13 101 214 13 101 214 13 101 214 13 101 214 13 101 214 13 101 214 13 101 214 13 101 214 13 101 214 13 101 214 13 101 214 13 101 214 13 101 214 13 101 214 13 101 214 13 101 214 13 101 214 13 101 214 13 101 214 13 101 214 13 101 214 13 101 214 13 101 214 13 101 214 13 101 214 13 101 214 13 101 214 13 101 214 13 101 214 13 101 214 13 101 214 13 101 214 13 101 214 13 101 214 13 101 214 13 101 214 13 101 214 13 101 214 13 101 214 13 101 214 13 101 214 13 101 214 13 101 214 13 101 214 13 101 214 13 101 214 13 101 214 13 101 214 13 101 214 13 101 214 13 101 214 13 101 214 13 101 214 13 101 214 13 101 214 13 101 214 13 101 214 13 101 214 13 101 214 13 101 214 13 101 214 13 101 214 13 101 214 13 101 214 13 101 214 13 101 214 13 101 214 13 101 214 13 101 214 13 101 214 13 101 214 13 101 214 13 101 214 13 101 214 13 101 214 13 101 214 13 101 214 13 101 214 13 101 214 13 101 214 13 101 214 13 101 214 13 101 214 13 101 214 13 101 214 13 101 214 13 101 214 13 101 214 13 101 214 13 101 214 13 101 214 13 101 214 13 101 214 13 101 214 13 101 214 13 101 214 13 101 214 13 101 214 13 101 214 13 101 214 13 101 214 13 101 214 13 101 214 13 101 214 13 101 214 13 101 214 13 101 214 13 101 214 13 101 214 13 101 214 13 101 214 13 101 214 13 101 214 13 101 214 13 101 214 13 101 214 13 101 214 13 101 214 13 101 214 13 101 214 13 101 214 13 101 214 13 101 214 13 101 214 13 101 214 13 101 214 13 101 214 13 101 214 13 101 214 13 101 214 13 101 214 13 101 214 13 101 214 13 101 214 13 101 214 13 101 214 13 101 214 13 101 214 13 101 214 13 101 214 13 101 214 13 101 214 13 101 214 13 101 214 13 101 214 13 101 214 13 101 214 13 101 214 13 101 214 13 101 214 13 101 214 13 101 214 13 101 214 13 101 214 13 101 214 13 101 214 13 101 214 13 101 214 13 101 214 13 101 214 13 101 214 13 101 214 13 101 214 13 101 214 13 101 214 13 101 214 13 101 214 13 101 214 13 101 214 13 101 214 13 101 214 13 101 214 13 101 214 13 101 214 13 101 214 13 101 214 13 101 214 13 101 214 13 101 214 13 101 214 13 101 214 13 101 214 13 101 214 13 101 214 13 101 214 13 101 214 13 101 214 13 101 214 13 101 214 13 101 214 13 101 214 13 101 214 13 101 214 13 101 214 13 101 214 13 101 214 13 101 214 13 101 214 13 101 214 13 101 214 13 101 214 13 101 214 13 101 214 13 101 214 13 101 214 13 101 214 13 101 214 13 101 214 13 101 214 13 101 214 13 101 214 13 101 214 13 101 214 13 101 214 13 101 214 13 101 214 13 101 214 13 101 214
13 101 214 13 101 214 13 101 214 13 101 214 13 101 214 13 101 214 13 101 214 13 101 214 13 101 214 13 101 214 13 101 214 13 101 214 13 101 214 13 101 214 13 101 214 13 101 214 13 101 214 13 101 214 13 101 214 13 101 214 13 101 214 13 101 214 13 101 214 13 101 214 13 101 214 13 101 214 13 101 214 13 101 214 13 101 214 13 101 214 13 101 214 13 101 214 13 101 214 13 101 214 13 101 214 13 101 214 13 101 214 13 101 214 13 101 214 13 101 214 13 101 214 13 101 214 13 101 214 13 101 214 13 101 214 13 101 214 13 101 214 13 101 214 13 101 214 13 101 214 13 101 214 13 101 214 13 101 214 13 101 214 13 101 214 13 101 214 13 101 214 13 101 214 13 101 214 13 101 214 13 101 214 13 101 214 13 101 214 13 101 214 13 101 214 13 101 214 13 101 214 13 101 214 13 101 214 13 101 214 13 101 214 13 101 214 13 101 214 13 101 214 13 101 214 13 101 214 13 101 214 13 101 214 13 101 214 13 101 214 13 101 214 13 101 214 13 101 214 13 101 214 13 101 214 13 101 214 13 101 214 13 101 214 13 101 214 13 101 214 13 101 214 13 101 214 13 101 214 13 101 214 13 101 214 13 101 214 13 101 214 13 101 214 13 101 214 13 101 214 13 101 214 13 101 214 13 101 214 13 101 214 13 101 214 13 101 214 13 101 214 13 101 214 13 101 214 13 101 214 13 101 214 13 101 214 13 101 214 13 101 214 13 101 214 13 101 214 13 101 214 13 101 214 13 101 214 13 101 214 13 101 214 13 101 214 13 101 214 13 101 214 13 101 214 13 101 214 13 101 214 13 101 214 13 101 214 13 101 214 13 101 214 13 101 214 13 101 214 13 101 214 13 101 214 13 101 214 13 101 214 13 101 214 13 101 214 13 101 214 13 101 214 13 101 214 13 101 214 13 101 214 13 101 214 13 101 214 13 101 214 13 101 214 13 101 214 13 101 214 13 101 214 13 101 214 13 101 214 13 101 214 13 101 214 13 101 214 13 101 214 13 101 214 13 101 214 13 101 214 13 101 214 13 101 214 13 101 214 13 101 214 13 101 214 13 101 214 13 101 214 13 101 214 13 101 214 13 101 214 13 101 214 13 101 214 13 101 214 13 101 214 13 101 214 13 101 214 13 101 214 13 101 214 13 101 214 13 101 214 13 101 214 13 101 214 13 101 214 13 101 214 13 101 214 13 101 214 13 101 214 13 101 214 13 101 214 13 101 214 13 101 214 13 101 214 13 101 214 13 101 214 13 101 214 13 101 214 13 101 214 13 101 214 13 101 214 13 101 214 13 101 214 13 101 214 13 101 214 13 101 214 13 101 214 13 101 214 13 101 214 13 101 214 13 101 214 13 101 214 13 101 214 13 101 214 13 101 214 13 101 214 13 101 214 13 101 214 13 101 214 13 101 214 13 101 214 13 101 214 13 101 214 13 101 214 13 101 214 13 101 214 13 101 214 13 101 214 13 101 214 13 101 214 13 101 214 13 101 214 13 101 214 13 101 214 13 101 214 13 101 214 13 101 214 13 101 214 13 101 214 13 101 214 13 101 214 13 101 214 13 101 214 13 101 214 13 101 214 13 101 214 13 101 214 13 101 214 13 101 214 13 101 214 13 101 214 13 101 214 13 101 214 13 101 214 13 101 214 13 101 214 13 101 214 13 101 214
13 101 214 13 101 214 13 101 214 13 101 214 13 101 214 13 101 214 13 101 214 13 101 214 13 101 214 13 101 214 13 101 214 13 101 214 13 101 214 13 101 214 13 101 214 13 101 214 13 101 214 13 101 214 13 101 214 13 101 214 13 101 214 13 101 214 13 101 214 13 101 214 13 101 214 13 101 214 13 101 214 13 101 214 13 101 214 13 101 214 13 101 214 13 101 214 13 101 214 13 101 214 13 101 214 13 101 214 13 101 214 13 101 214 13 101 214 13 101 214 13 101 214 13 101 214 13 101 214 13 101 214 13 101 214 13 101 214 13 101 214 13 101 214 13 101 214 13 101 214 13 101 214 13 101 214 13 101 214 13 101 214 13 101 214 13 101 214 13 101 214 13 101 214 13 101 214 13 101 214 13 101 214 13 101 214 13 101 214 13 101 214 13 101 214 13 101 214 13 101 214 13 101 214 13 101 214 13 101 214 13 101 214 13 101 214 13 101 214 13 101 214 13 101 214 13 101 214 13 101 214 13 101 214 13 101 214 13 101 214 13 101 214 13 101 214 13 101 214 13 101 214 13 101 214 13 101 214 13 101 214 13 101 214 13 101 214 13 101 214 13 101 214 13 101 214 13 101 214 13 101 214 13 101 214 13 101 214 13 101 214 13 101 214 13 101 214 13 101 214 13 101 214 13 101 214 13 101 214 13 101 214 13 101 214 13 101 214 13 101 214 13 101 214 13 101 214 13 101 214 13 101 214 13 101 214 13 101 214 13 101 214 13 101 214 13 101 214 13 101 214 13 101 214 13 101 214 13 101 214 13 101 214 13 101 214 13 101 214 13 101 214 13 101 214 13 101 214 13 101 214 13 101 214 13 101 214 13 101 214 13 101 214 13 101 214 13 101 214 13 101 214 13 101 214 13 101 214 13 101 214 13 101 214 13 101 214 13 101 214 13 101 214 13 101 214 13 101 214 13 101 214 13 101 214 13 101 214 13 101 214 13 101 214 13 101 214 13 101 214 13 101 214 13 101 214 13 101 214 13 101 214 13 101 214 13 101 214 13 101 214 13 101 214 13 101 214 13 101 214 13 101 214 13 101 214 13 101 214 13 101 214 13 101 214 13 101 214 13 101 214 13 101 214 13 101 214 13 101 214 13 101 214 13 101 214 13 101 214 13 101 214 13 101 214 13 101 214 13 101 214 13 101 214 13 101 214 13 101 214 13 101 214 13 101 214 13 101 214 13 101 214 13 101 214 13 101 214 13 101 214 13 101 214 13 101 214 13 101 214 13 101 214 13 101 214 13 101 214 13 101 214 13 101 214 13 101 214 13 101 214 13 101 214 13 101 214 13 101 214 13 101 214 13 101 214 13 101 214 13 101 214 13 101 214 13 101 214 13 101 214 13 101 214 13 101 214 13 101 214 13 101 214 13 101 214 13 101 214 13 101 214 13 101 214 13 101 214 13 101 214 13 101 214 13 101 214 13 101 214 13 101 214 13 101 214 13 101 214 13 101 214 13 101 214 13 101 214 13 101 214 13 101 214 13 101 214 13 101 214 13 101 214 13 101 214 13 101 214 13 101 214 13 101 214 13 101 214 13 101 214 13 101 214 13 101 214 13 101 214 13 101 214 13 101 214 13 101 214 13 101 214 13 101 214 13 101 214 13 101 214 13 101 214 13 101 214 13 101 214 13 101 214 13 101 214 13 101 214 13 101 214 13 101 214 13 101 214
13 101 214 13 101 214 13 101 214 13 101 214 13 101 214 13 101 214 13 101 214 13 101 214 13 101 214 13 101 214 13 101 214 13 101 214 13 101 214 13 101 214 13 101 214 13 101 214 13 101 214 13 101 214 13 101 214 13 101 214 13 101 214 13 101 214 13 101 214 13 101 214 13 101 214 13 101 214 13 101 214 13 101 214 13 101 214 13 101 214 13 101 214 13 101 214 13 101 214 13 101 214 13 101 214 13 101 214 13 101 214 13 101 214 13 101 214 13 101 214 13 101 214 13 101 214 13 101 214 13 101 214 13 101 214 13 101 214 13 101 214 13 101 214 13 101 214 13 101 214 13 101 214 13 101 214 13 101 214 13 101 214 13 101 214 13 101 214 13 101 214 13 101 214 13 101 214 13 101 214 13 101 214 13 101 214 13 101 214 13 101 214 13 101 214 13 101 214 13 101 214 13 101 214 13 101 214 13 101 214 13 101 214 13 101 214 13 101 214 13 101 214 13 101 214 13 101 214 13 101 214 13 101 214 13 101 214 13 101 214 13 101 214 13 101 214 13 101 214 13 101 214 13 101 214 13 101 214 13 101 214 13 101 214 13 101 214 13 101 214 13 101 214 13 101 214 13 101 214 13 101 214 13 101 214 13 101 214 13 101 214 13 101 214 13 101 214 13 101 214 13 101 214 13 101 214 13 101 214 13 101 214 13 101 214 13 101 214 13 101 214 13 101 214 13 101 214 13 101 214 13 101 214 13 101 214 13 101 214 13 101 214 13 101 214 13 101 214 13 101 214 13 101 214 13 101 214 13 101 214 13 101 214 13 101 214 13 101 214 13 101 214 13 101 214 13 101 214 13 101 214 13 101 214 13 101 214 13 101 214 13 101 214 13 101 214 13 101 214 13 101 214 13 101 214 13 101 214 13 101 214 13 101 214 13 101 214 13 101 214 13 101 214 13 101 214 13 101 214 13 101 214 13 101 214 13 101 214 13 101 214 13 101 214 13 101 214 13 101 214 13 101 214 13 101 214 13 101 214 13 101 214 13 101 214 13 101 214 13 101 214 13 101 214 13 101 214 13 101 214 13 101 214 13 101 214 13 101 214 13 101 214 13 101 214 13 101 214 13 101 214 13 101 214 13 101 214 13 101 214 13 101 214 13 101 214 13 101 214 13 101 214 13 101 214 13 101 214 13 101 214 13 101 214 13 101 214 13 101 214 13 101 214 13 101 214 13 101 214 13 101 214 13 101 214 13 101 214 13 101 214 13 101 214 13 101 214 13 101 214 13 101 214 13 101 214 13 101 214 13 101 214 13 101 214 13 101 214 13 101 214 13 101 214 13 101 214 13 101 214 13 101 214 13 101 214 13 101 214 13 101 214 13 101 214 13 101 214 13 101 214 13 101 214 13 101 214 13 101 214 13 101 214 13 101 214 13 101 214 13 101 214 13 101 214 13 101 214 13 101 214 13 101 214 13 101 214 13 101 214 13 101 214 13 101 214 13 101 214 13 101 214 13 101 214 13 101 214 13 101 214 13 101 214 13 101 214 13 101 214 13 101 214 13 101 214 13 101 214 13 101 214 13 101 214 13 101 214 13 101 214 13 101 214 13 101 214 13 101 214 13 101 214 13 101 214 13 101 214 13 101 214 13 101 214 13 101 214 13 101 214 13 101 214 13 101 214 13 101 214 13 101 214 13 101 214 13 101 214 13 101 214 13 101 214 13 101 214
13 101 214 13 101 214 13 101 214 13 101 214 13 101 214 13 101 214 13 101 214 13 101 214 13 101 214 13 101 214 13 101 214 13 101 214 13 101 214 13 101 214 13 101 214 13 101 214 13 101 214 13 101 214 13 101 214 13 101 214 13 101 214 13 101 214 13 101 214 13 101 214 13 101 214 13 101 214 13 101 214 13 101 214 13 101 214 13 101 214 13 101 214 13 101 214 13 101 214 13 101 214 13 101 214 13 101 214 13 101 214 13 101 214 13 101 214 13 101 214 13 101 214 13 101 214 13 101 214 13 101 214 13 101 214 13 101 214 13 101 214 13 101 214 13 101 214 13 101 214 13 101 214 13 101 214 13 101 214 13 101 214 13 101 214 13 101 214 13 101 214 13 101 214 13 101 214 13 101 214 13 101 214 13 101 214 13 101 214 13 101 214 13 101 214 13 101 214 13 101 214 13 101 214 13 101 214 13 101 214 13 101 214 13 101 214 13 101 214 13 101 214 13 101 214 13 101 214 13 101 214 13 101 214 13 101 214 13 101 214 13 101 214 13 101 214 13 101 214 13 101 214 13 101 214 13 101 214 13 101 214 13 101 214 13 101 214 13 101 214 13 101 214 13 101 214 13 101 214 13 101 214 13 101 214 13 101 214 13 101 214 13 101 214 13 101 214 13 101 214 13 101 214 13 101 214 13 101 214 13 101 214 13 101 214 13 101 214 13 101 214 13 101 214 13 101 214 13 101 214 13 101 214 13 101 214 13 101 214 13 101 214 13 101 214 13 101 214 13 101 214 13 101 214 13 101 214 13 101 214 13 101 214 13 101 214 13 101 214 13 101 214 13 101 214 13 101 214 13 101 214 13 101 214 13 101 214 13 101 214 13 101 214 13 101 214 13 101 214 13 101 214 13 101 214 13 101 214 13 101 214 13 101 214 13 101 214 13 101 214 13 101 214 13 101 214 13 101 214 13 101 214 13 101 214 13 101 214 13 101 214 13 101 214 13 101 214 13 101 214 13 101 214 13 101 214 13 101 214 13 101 214 13 101 214 13 101 214 13 101 214 13 101 214 13 101 214 13 101 214 13 101 214 13 101 214 13 101 214 13 101 214 13 101 214 13 101 214 13 101 214 13 101 214 13 101 214 13 101 214 13 101 214 13 101 214 13 101 214 13 101 214 13 101 214 13 101 214 13 101 214 13 101 214 13 101 214 13 101 214 13 101 214 13 101 214 13 101 214 13 101 214 13 101 214 13 101 214 13 101 214 13 101 214 13 101 214 13 101 214 13 101 214 13 101 214 13 101 214 13 101 214 13 101 214 13 101 214 13 101 214 13 101 214 13 101 214 13 101 214 13 101 214 13 101 214 13 101 214 13 101 214 13 101 214 13 101 214 13 101 214 13 101 214 13 101 214 13 101 214 13 101 214 13 101 214 13 101 214 13 101 214 13 101 214 13 101 214 13 101 214 13 101 214 13 101 214 13 101 214 13 101 214 13 101 214 13 101 214 13 101 214 13 101 214 13 101 214 13 101 214 13 101 214 13 101 214 13 101 214 13 101 214 13 101 214 13 101 214 13 101 214 13 101 214 13 101 214 13 101 214 13 101 214 13 101 214 13 101 214 13 101 214 13 101 214 13 101 214 13 101 214 13 101 214 13 101 214 13 101 214 13 101 214 13 101 214 13 101 214 13 101 214 13 101 214 13 101 214 13 101 214 13 101 214 13 101 214
13 101 214 13 101 214 13 101 214 13 101 214 13 101 214 13 101 214 13 101 214 13 101 214 13 101 214 13 101 214 13 101 214 13 101 214 13 101 214 13 101 214 13 101 214 13 101 214 13 101 214 13 101 214 13 101 214 13 101 214 13 101 214 13 101 214 13 101 214 13 101 214 13 101 214 13 101 214 13 101 214 13 101 214 13 101 214 13 101 214 13 101 214 13 101 214 13 101 214 13 101 214 13 101 214 13 101 214 13 101 214 13 101 214 13 101 214 13 101 214 13 101 214 13 101 214 13 101 214 13 101 214 13 101 214 13 101 214 13 101 214 13 101 214 13 101 214 13 101 214 13 101 214 13 101 214 13 101 214 13 101 214 13 101 214 13 101 214 13 101 214 13 101 214 13 101 214 13 101 214 13 101 214 13 101 214 13 101 214 13 101 214 13 101 214 13 101 214 13 101 214 13 101 214 13 101 214 13 101 214 13 101 214 13 101 214 13 101 214 13 101 214 13 101 214 13 101 214 13 101 214 13 101 214 13 101 214 13 101 214 13 101 214 13 101 214 13 101 214 13 101 214 13 101 214 13 101 214 13 101 214 13 101 214 13 101 214 13 101 214 13 101 214 13 101 214 13 101 214 13 101 214 13 101 214 13 101 214 13 101 214 13 101 214 13 101 214 13 101 214 13 101 214 13 101 214 13 101 214 13 101 214 13 101 214 13 101 214 13 101 214 13 101 214 13 101 214 13 101 214 13 101 214 13 101 214 13 101 214 13 101 214 13 101 214 13 101 214 13 101 214 13 101 214 13 101 214 13 101 214 13 101 214 13 101 214 13 101 214 13 101 214 13 101 214 13 101 214 13 101 214 13 101 214 13 101 214 13 101 214 13 101 214 13 101 214 13 101 214 13 101 214 13 101 214 13 101 214 13 101 214 13 101 214 13 101 214 13 101 214 13 101 214 13 101 214 13 101 214 13 101 214 13 101 214 13 101 214 13 101 214 13 101 214 13 101 214 13 101 214 13 101 214 13 101 214 13 101 214 13 101 214 13 101 214 13 101 214 13 101 214 13 101 214 13 101 214 13 101 214 13 101 214 13 101 214 13 101 214 13 101 214 13 101 214 13 101 214 13 101 214 13 101 214 13 101 214 13 101 214 13 101 214 13 101 214 13 101 214 13 101 214 13 101 214 13 101 214 13 101 214 13 101 214 13 101 214 13 101 214 13 101 214 13 101 214 13 101 214 13 101 214 13 101 214 13 101 214 13 101 214 13 101 214 13 101 214 13 101 214 13 101 214 13 101 214 13 101 214 13 101 214 13 101 214 13 101 214 13 101 214 13 101 214 13 101 214 13 101 214 13 101 214 13 101 214 13 101 214 13 101 214 13 101 214 13 101 214 13 101 214 13 101 214 13 101 214 13 101 214 13 101 214 13 101 214 13 101 214 13 101 214 13 101 214 13 101 214 13 101 214 13 101 214 13 101 214 13 101 214 13 101 214 13 101 214 13 101 214 13 101 214 13 101 214 13 101 214 13 101 214 13 101 214 13 101 214 13 101 214 13 101 214 13 101 214 13 101 214 13 101 214 13 101 214 13 101 214 13 101 214 13 101 214 13 101 214 13 101 214 13 101 214 13 101 214 13 101 214 13 101 214 13 101 214 13 101 214 13 101 214 13 101 214 13 101 214 13 101 214 13 101 214 13 101 214 13 101 214 13 101 214 13 101 214 13 101 214
13 101 214 13 101 214 13 101 214 13 101 214 13 101 214 13 101 214 13 101 214 13 101 214 13 101 214 13 101 214 13 101 214 13 101 214 13 101 214 13 101 214 13 101 214 13 101 214 13 101 214 13 101 214 13 101 214 13 101 214 13 101 214 13 101 214 13 101 214 13 101 214 13 101 214 13 101 214 13 101 214 13 101 214 13 101 214 13 101 214 13 101 214 13 101 214 13 101 214 13 101 214 13 101 214 13 101 214 13 101 214 13 101 214 13 101 214 13 101 214 13 101 214 13 101 214 13 101 214 13 101 214 13 101 214 13 101 214 13 101 214 13 101 214 13 101 214 13 101 214 13 101 214 13 101 214 13 101 214 13 101 214 13 101 214 13 101 214 13 101 214 13 101 214 13 101 214 13 101 214 13 101 214 13 101 214 13 101 214 13 101 214 13 101 214 13 101 214 13 101 214 13 101 214 13 101 214 13 101 214 13 101 214 13 101 214 13 101 214 13 101 214 13 101 214 13 101 214 13 101 214 13 101 214 13 101 214 13 101 214 13 101 214 13 101 214 13 101 214 13 101 214 13 101 214 13 101 214 13 101 214 13 101 214 13 101 214 13 101 214 13 101 214 13 101 214 13 101 214 13 101 214 13 101 214 13 101 214 13 101 214 13 101 214 13 101 214 13 101 214 13 101 214 13 101 214 13 101 214 13 101 214 13 101 214 13 101 214 13 101 214 13 101 214 13 101 214 13 101 214 13 101 214 13 101 214 13 101 214 13 101 214 13 101 214 13 101 214 13 101 214 13 101 214 13 101 214 13 101 214 13 101 214 13 101 214 13 101 214 13 101 214 13 101 214 13 101 214 13 101 214 13 101 214 13 101 214 13 101 214 13 101 214 13 101 214 13 101 214 13 101 214 13 101 214 13 101 214 13 101 214 13 101 214 13 101 214 13 101 214 13 101 214 13 101 214 13 101 214 13 101 214 13 101 214 13 101 214 13 101 214 13 101 214 13 101 214 13 101 214 13 101 214 13 101 214 13 101 214 13 101 214 13 101 214 13 101 214 13 101 214 13 101 214 13 101 214 13 101 214 13 101 214 13 101 214 13 101 214 13 101 214 13 101 214 13 101 214 13 101 214 13 101 214 13 101 214 13 101 214 13 101 214 13 101 214 13 101 214 13 101 214 13 101 214 13 101 214 13 101 214 13 101 214 13 101 214 13 101 214 13 101 214 13 101 214 13 101 214 13 101 214 13 101 214 13 101 214 13 101 214 13 101 214 13 101 214 13 101 214 13 101 214 13 101 214 13 101 214 13 101 214 13 101 214 13 101 214 13 101 214 13 101 214 13 101 214 13 101 214 13 101 214 13 101 214 13 101 214 13 101 214 13 101 214 13 101 214 13 101 214 13 101 214 13 101 214 13 101 214 13 101 214 13 101 214 13 101 214 13 101 214 13 101 214 13 101 214 13 101 214 13 101 214 13 101 214 13 101 214 13 101 214 13 101 214 13 101 214 13 101 214 13 101 214 13 101 214 13 101 214 13 101 214 13 101 214 13 101 214 13 101 214 13 101 214 13 101 214 13 101 214 13 101 214 13 101 214 13 101 214 13 101 214 13 101 214 13 101 214 13 101 214 13 101 214 13 101 214 13 101 214 13 101 214 13 101 214 13 101 214 13 101 214 13 101 214 13 101 214 13 101 214 13 101 214 13 101 214 13 101 214 13 101 214 13 101 214
13 101 214 13 101 214 13 101 214 13 101 214 13 101 214 13 101 214 13 101 214 13 101 214 13 101 214 13 101 214 13 101 214 13 101 214 13 101 214 13 101 214 13 101 214 13 101 214 13 101 214 13 101 214 13 101 214 13 101 214 13 101 214 13 101 214 13 101 214 13 101 214 13 101 214 13 101 214 13 101 214 13 101 214 13 101 214 13 101 214 13 101 214 13 101 214 13 101 214 13 101 214 13 101 214 13 101 214 13 101 214 13 101 214 13 101 214 13 101 214 13 101 214 13 101 214 13 101 214 13 101 214 13 101 214 13 101 214 13 101 214 13 101 214 13 101 214 13 101 214 13 101 214 13 101 214 13 101 214 13 101 214 13 101 214 13 101 214 13 101 214 13 101 214 13 101 214 13 101 214 13 101 214 13 101 214 13 101 214 13 101 214 13 101 214 13 101 214 13 101 214 13 101 214 13 101 214 13 101 214 13 101 214 13 101 214 13 101 214 13 101 214 13 101 214 13 101 214 13 101 214 13 101 214 13 101 214 13 101 214 13 101 214 13 101 214 13 101 214 13 101 214 13 101 214 13 101 214 13 101 214 13 101 214 13 101 214 13 101 214 13 101 214 13 101 214 13 101 214 13 101 214 13 101 214 13 101 214 13 101 214 13 101 214 13 101 214 13 101 214 13 101 214 13 101 214 13 101 214 13 101 214 13 101 214 13 101 214 13 101 214 13 101 214 13 101 214 13 101 214 13 101 214 13 101 214 13 101 214 13 101 214 13 101 214 13 101 214 13 101 214 13 101 214 13 101 214 13 101 214 13 101 214 13 101 214 13 101 214 13 101 214 13 101 214 13 101 214 13 101 214 13 101 214 13 101 214 13 101 214 13 101 214 13 101 214 13 101 214 13 101 214 13 101 214 13 101 214 13 101 214 13 101 214 13 101 214 13 101 214 13 101 214 13 101 214 13 101 214 13 101 214 13 101 214 13 101 214 13 101 214 13 101 214 13 101 214 13 101 214 13 101 214 13 101 214 13 101 214 13 101 214 13 101 214 13 101 214 13 101 214 13 101 214 13 101 214 13 101 214 13 101 214 13 101 214 13 101 214 13 101 214 13 101 214 13 101 214 13 101 214 13 101 214 13 101 214 13 101 214 13 101 214 13 101 214 13 101 214 13 101 214 13 101 214 13 101 214 13 101 214 13 101 214 13 101 214 13 101 214 13 101 214 13 101 214 13 101 214 13 101 214 13 101 214 13 101 214 13 101 214 13 101 214 13 101 214 13 101 214 13 101 214 13 101 214 13 101 214 13 101 214 13 101 214 13 101 214 13 101 214 13 101 214 13 101 214 13 101 214 13 101 214 13 101 214 13 101 214 13 101 214 13 101 214 13 101 214 13 101 214 13 101 214 13 101 214 13 101 214 13 101 214 13 101 214 13 101 214 13 101 214 13 101 214 13 101 214 13 101 214 13 101 214 13 101 214 13 101 214 13 101 214 13 101 214 13 101 214 13 101 214 13 101 214 13 101 214 13 101 214 13 101 214 13 101 214 13 101 214 13 101 214 13 101 214 13 101 214 13 101 214 13 101 214 13 101 214 13 101 214 13 101 214 13 101 214 13 101 214 13 101 214 13 101 214 13 101 214 13 101 214 13 101 214 13 101 214 13 101 214 13 101 214 13 101 214 13 101 214 13 101 214 13 101 214 13 101 214 13 101 214 13 101 214 13 101 214
13 101 214 13 101 214 13 101 214 13 101 214 13 101 214 13 101 214 13 101 214 13 101 214 13 101 214 13 101 214 13 101 214 13 101 214 13 101 214 13 101 214 13 101 214 13 101 214 13 101 214 13 101 214 13 101 214 13 101 214 13 101 214 13 101 214 13 101 214 13 101 214 13 101 214 13 101 214 13 101 214 13 101 214 13 101 214 13 101 214 13 101 214 13 101 214 13 101 214 13 101 214 13 101 214 13 101 214 13 101 214 13 101 214 13 101 214 13 101 214 13 101 214 13 101 214 13 101 214 13 101 214 13 101 214 13 101 214 13 101 214 13 101 214 13 101 214 13 101 214 13 101 214 13 101 214 13 101 214 13 101 214 13 101 214 13 101 214 13 101 214 13 101 214 13 101 214 13 101 214 13 101 214 13 101 214 13 101 214 13 101 214 13 101 214 13 101 214 13 101 214 13 101 214 13 101 214 13 101 214 13 101 214 13 101 214 13 101 214 13 101 214 13 101 214 13 101 214 13 101 214 13 101 214 13 101 214 13 101 214 13 101 214 13 101 214 13 101 214 13 101 214 13 101 214 13 101 214 13 101 214 13 101 214 13 101 214 13 101 214 13 101 214 13 101 214 13 101 214 13 101 214 13 101 214 13 101 214 13 101 214 13 101 214 13 101 214 13 101 214 13 101 214 13 101 214 13 101 214 13 101 214 13 101 214 13 101 214 13 101 214 13 101 214 13 101 214 13 101 214 13 101 214 13 101 214 13 101 214 13 101 214 13 101 214 13 101 214 13 101 214 13 101 214 13 101 214 13 101 214 13 101 214 13 101 214 13 101 214 13 101 214 13 101 214 13 101 214 13 101 214 13 101 214 13 101 214 13 101 214 13 101 214 13 101 214 13 101 214 13 101 214 13 101 214 13 101 214 13 101 214 13 101 214 13 101 214 13 101 214 13 101 214 13 101 214 13 101 214 13 101 214 13 101 214 13 101 214 13 101 214 13 101 214 13 101 214 13 101 214 13 101 214 13 101 214 13 101 214 13 101 214 13 101 214 13 101 214 13 101 214 13 101 214 13 101 214 13 101 214 13 101 214 13 101 214 13 101 214 13 101 214 13 101 214 13 101 214 13 101 214 13 101 214 13 101 214 13 101 214 13 101 214 13 101 214 13 101 214 13 101 214 13 101 214 13 101 214 13 101 214 13 101 214 13 101 214 13 101 214 13 101 214 13 101 214 13 101 214 13 101 214 13 101 214 13 101 214 13 101 214 13 101 214 13 101 214 13 101 214 13 101 214 13 101 214 13 101 214 13 101 214 13 101 214 13 101 214 13 101 214 13 101 214 13 101 214 13 101 214 13 101 214 13 101 214 13 101 214 13 101 214 13 101 214 13 101 214 13 101 214 13 101 214 13 101 214 13 101 214 13 101 214 13 101 214 13 101 214 13 101 214 13 101 214 13 101 214 13 101 214 13 101 214 13 101 214 13 101 214 13 101 214 13 101 214 13 101 214 13 101 214 13 101 214 13 101 214 13 101 214 13 101 214 13 101 214 13 101 214 13 101 214 13 101 214 13 101 214 13 101 214 13 101 214 13 101 214 13 101 214 13 101 214 13 101 214 13 101 214 13 101 214 13 101 214 13 101 214 13 101 214 13 101 214 13 101 214 13 101 214 13 101 214 13 101 214 13 101 214 13 101 214 13 101 214 13 101 214 13 101 214 13 101 214 13 101 214
13 101 214 13 101 214 13 101 214 13 101 214 13 101 214 13 101 214 13 101 214 13 101 214 13 101 214 13 101 214 13 101 214 13 101 214 13 101 214 13 101 214 13 101 214 13 101 214 13 101 214 13 101 214 13 101 214 13 101 214 13 101 214 13 101 214 13 101 214 13 101 214 13 101 214 13 101 214 13 101 214 13 101 214 13 101 214 13 101 214 13 101 214 13 101 214 13 101 214 13 101 214 13 101 214 13 101 214 13 101 214 13 101 214 13 101 214 13 101 214 13 101 214 13 101 214 13 101 214 13 101 214 13 101 214 13 101 214 13 101 214 13 101 214 13 101 214 13 101 214 13 101 214 13 101 214 13 101 214 13 101 214 13 101 214 13 101 214 13 101 214 13 101 214 13 101 214 13 101 214 13 101 214 13 101 214 13 101 214 13 101 214 13 101 214 13 101 214 13 101 214 13 101 214 13 101 214 13 101 214 13 101 214 13 101 214 13 101 214 13 101 214 13 101 214 13 101 214 13 101 214 13 101 214 13 101 214 13 101 214 13 101 214 13 101 214 13 101 214 13 101 214 13 101 214 13 101 214 13 101 214 13 101 214 13 101 214 13 101 214 13 101 214 13 101 214 13 101 214 13 101 214 13 101 214 13 101 214 13 101 214 13 101 214 13 101 214 13 101 214 13 101 214 13 101 214 13 101 214 13 101 214 13 101 214 13 101 214 13 101 214 13 101 214 13 101 214 13 101 214 13 101 214 13 101 214 13 101 214 13 101 214 13 101 214 13 101 214 13 101 214 13 101 214 13 101 214 13 101 214 13 101 214 13 101 214 13 101 214 13 101 214 13 101 214 13 101 214 13 101 214 13 101 214 13 101 214 13 101 214 13 101 214 13 101 214 13 101 214 13 101 214 13 101 214 13 101 214 13 101 214 13 101 214 13 101 214 13 101 214 13 101 214 13 101 214 13 101 214 13 101 214 13 101 214 13 101 214 13 101 214 13 101 214 13 101 214 13 101 214 13 101 214 13 101 214 13 101 214 13 101 214 13 101 214 13 101 214 13 101 214 13 101 214 13 101 214 13 101 214 13 101 214 13 101 214 13 101 214 13 101 214 13 101 214 13 101 214 13 101 214 13 101 214 13 101 214 13 101 214 13 101 214 13 101 214 13 101 214 13 101 214 13 101 214 13 101 214 13 101 214 13 101 214 13 101 214 13 101 214 13 101 214 13 101 214 13 101 214 13 101 214 13 101 214 13 101 214 13 101 214 13 101 214 13 101 214 13 101 214 13 101 214 13 101 214 13 101 214 13 101 214 13 101 214 13 101 214 13 101 214 13 101 214 13 101 214 13 101 214 13 101 214 13 101 214 13 101 214 13 101 214 13 101 214 13 101 214 13 101 214 13 101 214 13 101 214 13 101 214 13 101 214 13 101 214 13 101 214 13 101 214 13 101 214 13 101 214 13 101 214 13 101 214 13 101 214 13 101 214 13 101 214 13 101 214 13 101 214 13 101 214 13 101 214 13 101 214 13 101 214 13 101 214 13 101 214 13 101 214 13 101 214 13 101 214 13 101 214 13 101 214 13 101 214 13 101 214 13 101 214 13 101 214 13 101 214 13 101 214 13 101 214 13 101 214 13 101 214 13 101 214 13 101 214 13 101 214 13 101 214 13 101 214 13 101 214 13 101 214 13 101 214 13 101 214 13 101 214 13 101 214 13 101 214 13 101 214
13 101 214 13 101 214 13 101 214 13 101 214 13 101 214 13 101 214 13 101 214 13 101 214 13 101 214 13 101 214 13 101 214 13 101 214 13 101 214 13 101 214 13 101 214 13 101 214 13 101 214 13 101 214 13 101 214 13 101 214 13 101 214 13 101 214 13 101 214 13 101 214 13 101 214 13 101 214 13 101 214 13 101 214 13 101 214 13 101 214 13 101 214 13 101 214 13 101 214 13 101 214 13 101 214 13 101 214 13 101 214 13 101 214 13 101 214 13 101 214 13 101 214 13 101 214 13 101 214 13 101 214 13 101 214 13 101 214 13 101 214 13 101 214 13 101 214 13 101 214 13 101 214 13 101 214 13 101 214 13 101 214 13 101 214 13 101 214 13 101 214 13 101 214 13 101 214 13 101 214 13 101 214 13 101 214 13 101 214 13 101 214 13 101 214 13 101 214 13 101 214 13 101 214 13 101 214 13 101 214 13 101 214 13 101 214 13 101 214 13 101 214 13 101 214 13 101 214 13 101 214 13 101 214 13 101 214 13 101 214 13 101 214 13 101 214 13 101 214 13 101 214 13 101 214 13 101 214 13 101 214 13 101 214 13 101 214 13 101 214 13 101 214 13 101 214 13 101 214 13 101 214 13 101 214 13 101 214 13 101 214 13 101 214 13 101 214 13 101 214 13 101 214 13 101 214 13 101 214 13 101 214 13 101 214 13 101 214 13 101 214 13 101 214 13 101 214 13 101 214 13 101 214 13 101 214 13 101 214 13 101 214 13 101 214 13 101 214 13 101 214 13 101 214 13 101 214 13 101 214 13 101 214 13 101 214 13 101 214 13 101 214 13 101 214 13 101 214 13 101 214 13 101 214 13 101 214 13 101 214 13 101 214 13 101 214 13 101 214 13 101 214 13 101 214 13 101 214 13 101 214 13 101 214 13 101 214 13 101 214 13 101 214 13 101 214 13 101 214 13 101 214 13 101 214 13 101 214 13 101 214 13 101 214 13 101 214 13 101 214 13 101 214 13 101 214 13 101 214 13 101 214 13 101 214 13 101 214 13 101 214 13 101 214 13 101 214 13 101 214 13 101 214 13 101 214 13 101 214 13 101 214 13 101 214 13 101 214 13 101 214 13 101 214 13 101 214 13 101 214 13 101 214 13 101 214 13 101 214 13 101 214 13 101 214 13 101 214 13 101 214 13 101 214 13 101 214 13 101 214 13 101 214 13 101 214 13 101 214 13 101 214 13 101 214 13 101 214 13 101 214 13 101 214 13 101 214 13 101 214 13 101 214 13 101 214 13 101 214 13 101 214 13 101 214 13 101 214 13 101 214 13 101 214 13 101 214 13 101 214 13 101 214 13 101 214 13 101 214 13 101 214 13 101 214 13 101 214 13 101 214 13 101 214 13 101 214 13 101 214 13 101 214 13 101 214 13 101 214 13 101 214 13 101 214 13 101 214 13 101 214 13 101 214 13 101 214 13 101 214 13 101 214 13 101 214 13 101 214 13 101 214 13 101 214 13 101 214 13 101 214 13 101 214 13 101 214 13 101 214 13 101 214 13 101 214 13 101 214 13 101 214 13 101 214 13 101 214 13 101 214 13 101 214 13 101 214 13 101 214 13 101 214 13 101 214 13 101 214 13 101 214 13 101 214 13 101 214 13 101 214 13 101 214 13 101 214 13 101 214 13 101 214 13 101 214 13 101 214 13 101 214 13 101 214 13 101 214
13 101 214 13 101 214 13 101 214 13 101 214 13 101 214 13 101 214 13 101 214 13 101 214 13 101 214 13 101 214 13 101 214 13 101 214 13 101 214 13 101 214 13 101 214 13 101 214 13 101 214 13 101 214 13 101 214 13 101 214 13 101 214 13 101 214 13 101 214 13 101 214 13 101 214 13 101 214 13 101 214 13 101 214 13 101 214 13 101 214 13 101 214 13 101 214 13 101 214 13 101 214 13 101 214 13 101 214 13 101 214 13 101 214 13 101 214 13 101 214 13 101 214 13 101 214 13 101 214 13 101 214 13 101 214 13 101 214 13 101 214 13 101 214 13 101 214 13 101 214 13 101 214 13 101 214 13 101 214 13 101 214 13 101 214 13 101 214 13 101 214 13 101 214 13 101 214 13 101 214 13 101 214 13 101 214 13 101 214 13 101 214 13 101 214 13 101 214 13 101 214 13 101 214 13 101 214 13 101 214 13 101 214 13 101 214 13 101 214 13 101 214 13 101 214 13 101 214 13 101 214 13 101 214 13 101 214 13 101 214 13 101 214 13 101 214 13 101 214 13 101 214 13 101 214 13 101 214 13 101 214 13 101 214 13 101 214 13 101 214 13 101 214 13 101 214 13 101 214 13 101 214 13 101 214 13 101 214 13 101 214 13 101 214 13 101 214 13 101 214 13 101 214 13 101 214 13 101 214 13 101 214 13 101 214 13 101 214 13 101 214 13 101 214 13 101 214 13 101 214 13 101 214 13 101 214 13 101 214 13 101 214 13 101 214 13 101 214 13 101 214 13 101 214 13 101 214 13 101 214 13 101 214 13 101 214 13 101 214 13 101 214 13 101 214 13 101 214 13 101 214 13 101 214 13 101 214 13 101 214 13 101 214 13 101 214 13 101 214 13 101 214 13 101 214 13 101 214 13 101 214 13 101 214 13 101 214 13 101 214 13 101 214 13 101 214 13 101 214 13 101 214 13 101 214 13 101 214 13 101 214 13 101 214 13 101 214 13 101 214 13 101 214 13 101 214 13 101 214 13 101 214 13 101 214 13 101 214 13 101 214 13 101 214 13 101 214 13 101 214 13 101 214 13 101 214 13 101 214 13 101 214 13 101 214 13 101 214 13 101 214 13 101 214 13 101 214 13 101 214 13 101 214 13 101 214 13 101 214 13 101 214 13 101 214 13 101 214 13 101 214 13 101 214 13 101 214 13 101 214 13 101 214 13 101 214 13 101 214 13 101 214 13 101 214 13 101 214 13 101 214 13 101 214 13 101 214 13 101 214 13 101 214 13 101 214 13 101 214 13 101 214 13 101 214 13 101 214 13 101 214 13 101 214 13 101 214 13 101 214 13 101 214 13 101 214 13 101 214 13 101 214 13 101 214 13 101 214 13 101 214 13 101 214 13 101 214 13 101 214 13 101 214 13 101 214 13 101 214 13 101 214 13 101 214 13 101 214 13 101 214 13 101 214 13 101 214 13 101 214 13 101 214 13 101 214 13 101 214 13 101 214 13 101 214 13 101 214 13 101 214 13 101 214 13 101 214 13 101 214 13 101 214 13 101 214 13 101 214 13 101 214 13 101 214 13 101 214 13 101 214 13 101 214 13 101 214 13 101 214 13 101 214 13 101 214 13 101 214 13 101 214 13 101 214 13 101 214 13 101 214 13 101 214 13 101 214 13 101 214 13 101 214 13 101 214 13 101 214 13 101 214 13 101 214 13 101 214
13 101 214 13 101 214 13 101 214 13 101 214 13 101 214 13 101 214 13 101 214 13 101 214 13 101 214 13 101 214 13 101 214 13 101 214 13 101 214 13 101 214 13 101 214 13 101 214 13 101 214 13 101 214 13 101 214 13 101 214 13 101 214 13 101 214 13 101 214 13 101 214 13 101 214 13 101 214 13 101 214 13 101 214 13 101 214 13 101 214 13 101 214 13 101 214 13 101 214 13 101 214 13 101 214 13 101 214 13 101 214 13 101 214 13 101 214 13 101 214 13 101 214 13 101 214 13 101 214 13 101 214 13 101 214 13 101 214 13 101 214 13 101 214 13 101 214 13 101 214 13 101 214 13 101 214 13 101 214 13 101 214 13 101 214 13 101 214 13 101 214 13 101 214 13 101 214 13 101 214 13 101 214 13 101 214 13 101 214 13 101 214 13 101 214 13 101 214 13 101 214 13 101 214 13 101 214 13 101 214 13 101 214 13 101 214 13 101 214 13 101 214 13 101 214 13 101 214 13 101 214 13 101 214 13 101 214 13 101 214 13 101 214 13 101 214 13 101 214 13 101 214 13 101 214 13 101 214 13 101 214 13 101 214 13 101 214 13 101 214 13 101 214 13 101 214 13 101 214 13 101 214 13 101 214 13 101 214 13 101 214 13 101 214 13 101 214 13 101 214 13 101 214 13 101 214 13 101 214 13 101 214 13 101 214 13 101 214 13 101 214 13 101 214 13 101 214 13 101 214 13 101 214 13 101 214 13 101 214 13 101 214 13 101 214 13 101 214 13 101 214 13 101 214 13 101 214 13 101 214 13 101 214 13 101 214 13 101 214 13 101 214 13 101 214 13 101 214 13 101 214 13 101 214 13 101 214 13 101 214 13 101 214 13 101 214 13 101 214 13 101 214 13 101 214 13 101 214 13 101 214 13 101 214 13 101 214 13 101 214 13 101 214 13 101 214 13 101 214 13 101 214 13 101 214 13 101 214 13 101 214 13 101 214 13 101 214 13 101 214 13 101 214 13 101 214 13 101 214 13 101 214 13 101 214 13 101 214 13 101 214 13 101 214 13 101 214 13 101 214 13 101 214 13 101 214 13 101 214 13 101 214 13 101 214 13 101 214 13 101 214 13 101 214 13 101 214 13 101 214 13 101 214 13 101 214 13 101 214 13 101 214 13 101 214 13 101 214 13 101 214 13 101 214 13 101 214 13 101 214 13 101 214 13 101 214 13 101 214 13 101 214 13 101 214 13 101 214 13 101 214 13 101 214 13 101 214 13 101 214 13 101 214 13 101 214 13 101 214 13 101 214 13 101 214 13 101 214 13 101 214 13 101 214 13 101 214 13 101 214 13 101 214 13 101 214 13 101 214 13 101 214 13 101 214 13 101 214 13 101 214 13 101 214 13 101 214 13 101 214 13 101 214 13 101 214 13 101 214 13 101 214 13 101 214 13 101 214 13 101 214 13 101 214 13 101 214 13 101 214 13 101 214 13 101 214 13 101 214 13 101 214 13 101 214 13 101 214 13 101 214 13 101 214 13 101 214 13 101 214 13 101 214 13 101 214 13 101 214 13 101 214 13 101 214 13 101 214 13 101 214 13 101 214 13 101 214 13 101 214 13 101 214 13 101 214 13 101 214 13 101 214 13 101 214 13 101 214 13 101 214 13 101 214 13 101 214 13 101 214 13 101 214 13 101 214 13 101 214 13 101 214 13 101 214 13 101 214
13 101 214 13 101 214 13 101 214 13 101 214 13 101 214 13 101 214 13 101 214 13 101 214 13 101 214 13 101 214 13 101 214 13 101 214 13 101 214 13 101 214 13 101 214 13 101 214 13 101 214 13 101 214 13 101 214 13 101 214 13 101 214 13 101 214 13 101 214 13 101 214 13 101 214 13 101 214 13 101 214 13 101 214 13 101 214 13 101 214 13 101 214 13 101 214 13 101 214 13 101 214 13 101 214 13 101 214 13 101 214 13 101 214 13 101 214 13 101 214 13 101 214 13 101 214 13 101 214 13 101 214 13 101 214 13 101 214 13 101 214 13 101 214 13 101 214 13 101 214 13 101 214 13 101 214 13 101 214 13 101 214 13 101 214 13 101 214 13 101 214 13 101 214 13 101 214 13 101 214 13 101 214 13 101 214 13 101 214 13 101 214 13 101 214 13 101 214 13 101 214 13 101 214 13 101 214 13 101 214 13 101 214 13 101 214 13 101 214 13 101 214 13 101 214 13 101 214 13 101 214 13 101 214 13 101 214 13 101 214 13 101 214 13 101 214 13 101 214 13 101 214 13 101 214 13 101 214 13 101 214 13 101 214 13 101 214 13 101 214 13 101 214 13 101 214 13 101 214 13 101 214 13 101 214 13 101 214 13 101 214 13 101 214 13 101 214 13 101 214 13 101 214 13 101 214 13 101 214 13 101 214 13 101 214 13 101 214 13 101 214 13 101 214 13 101 214 13 101 214 13 101 214 13 101 214 13 101 214 13 101 214 13 101 214 13 101 214 13 101 214 13 101 214 13 101 214 13 101 214 13 101 214 13 101 214 13 101 214 13 101 214 13 101 214 13 101 214 13 101 214 13 101 214 13 101 214 13 101 214 13 101 214 13 101 214 13 101 214 13 101 214 13 101 214 13 101 214 13 101 214 13 101 214 13 101 214 13 101 214 13 101 214 13 101 214 13 101 214 13 101 214 13 101 214 13 101 214 13 101 214 13 101 214 13 101 214 13 101 214 13 101 214 13 101 214 13 101 214 13 101 214 13 101 214 13 101 214 13 101 214 13 101 214 13 101 214 13 101 214 13 101 214 13 101 214 13 101 214 13 101 214 13 101 214 13 101 214 13 101 214 13 101 214 13 101 214 13 101 214 13 101 214 13 101 214 13 101 214 13 101 214 13 101 214 13 101 214 13 101 214 13 101 214 13 101 214 13 101 214 13 101 214 13 101 214 13 101 214 13 101 214 13 101 214 13 101 214 13 101 214 13 101 214 13 101 214 13 101 214 13 101 214 13 101 214 13 101 214 13 101 214 13 101 214 13 101 214 13 101 214 13 101 214 13 101 214 13 101 214 13 101 214 13 101 214 13 101 214 13 101 214 13 101 214 13 101 214 13 101 214 13 101 214 13 101 214 13 101 214 13 101 214 13 101 214 13 101 214 13 101 214 13 101 214 13 101 214 13 101 214 13 101 214 13 101 214 13 101 214 13 101 214 13 101 214 13 101 214 13 101 214 13 101 214 13 101 214 13 101 214 13 101 214 13 101 214 13 101 214 13 101 214 13 101 214 13 101 214 13 101 214 13 101 214 13 101 214 13 101 214 13 101 214 13 101 214 13 101 214 13 101 214 13 101 214 13 101 214 13 101 214 13 101 214 13 101 214 13 101 214 13 101 214 13 101 214 13 101 214 13 101 214 13 101 214 13 101 214 13 101 214 13 101 214 13 101 214
13 101 214 13 101 214 13 101 214 13 101 214 13 101 214 13 101 214 13 101 214 13 101 214 13 101 214 13 101 214 13 101 214 13 101 214 13 101 214 13 101 214 13 101 214 13 101 214 13 101 214 13 101 214 13 101 214 13 101 214 13 101 214 13 101 214 13 101 214 13 101 214 13 101 214 13 101 214 13 101 214 13 101 214 13 101 214 13 101 214 13 101 214 13 101 214 13 101 214 13 101 214 13 101 214 13 101 214 13 101 214 13 101 214 13 101 214 13 101 214 13 101 214 13 101 214 13 101 214 13 101 214 13 101 214 13 101 214 13 101 214 13 101 214 13 101 214 13 101 214 13 101 214 13 101 214 13 101 214 13 101 214 13 101 214 13 101 214 13 101 214 13 101 214 13 101 214 13 101 214 13 101 214 13 101 214 13 101 214 13 101 214 13 101 214 13 101 214 13 101 214 13 101 214 13 101 214 13 101 214 13 101 214 13 101 214 13 101 214 13 101 214 13 101 214 13 101 214 13 101 214 13 101 214 13 101 214 13 101 214 13 101 214 13 101 214 13 101 214 13 101 214 13 101 214 13 101 214 13 101 214 13 101 214 13 101 214 13 101 214 13 101 214 13 101 214 13 101 214 13 101 214 13 101 214 13 101 214 13 101 214 13 101 214 13 101 214 13 101 214 13 101 214 13 101 214 13 101 214 13 101 214 13 101 214 13 101 214 13 101 214 13 101 214 13 101 214 13 101 214 13 101 214 13 101 214 13 101 214 13 101 214 13 101 214 13 101 214 13 101 214 13 101 214 13 101 214 13 101 214 13 101 214 13 101 214 13 101 214 13 101 214 13 101 214 13 101 214 13 101 214 13 101 214 13 101 214 13 101 214 13 101 214 13 101 214 13 101 214 13 101 214 13 101 214 13 101 214 13 101 214 13 101 214 13 101 214 13 101 214 13 101 214 13 101 214 13 101 214 13 101 214 13 101 214 13 101 214 13 101 214 13 101 214 13 101 214 13 101 214 13 101 214 13 101 214 13 101 214 13 101 214 13 101 214 13 101 214 13 101 214 13 101 214 13 101 214 13 101 214 13 101 214 13 101 214 13 101 214 13 101 214 13 101 214 13 101 214 13 101 214 13 101 214 13 101 214 13 101 214 13 101 214 13 101 214 13 101 214 13 101 214 13 101 214 13 101 214 13 101 214 13 101 214 13 101 214 13 101 214 13 101 214 13 101 214 13 101 214 13 101 214 13 101 214 13 101 214 13 101 214 13 101 214 13 101 214 13 101 214 13 101 214 13 101 214 13 101 214 13 101 214 13 101 214 13 101 214 13 101 214 13 101 214 13 101 214 13 101 214 13 101 214 13 101 214 13 101 214 13 101 214 13 101 214 13 101 214 13 101 214 13 101 214 13 101 214 13 101 214 13 101 214 13 101 214 13 101 214 13 101 214 13 101 214 13 101 214 13 101 214 13 101 214 13 101 214 13 101 214 13 101 214 13 101 214 13 101 214 13 101 214 13 101 214 13 101 214 13 101 214 13 101 214 13 101 214 13 101 214 13 101 214 13 101 214 13 101 214 13 101 214 13 101 214 13 101 214 13 101 214 13 101 214 13 101 214 13 101 214 13 101 214 13 101 214 13 101 214 13 101 214 13 101 214 13 101 214 13 101 214 13 101 214 13 101 214 13 101 214 13 101 214 13 101 214 13 101 214 13 101 214 13 101 214 13 101 214
13 101 214 13 101 214 13 101 214 13 101 214 13 101 214 13 101 214 13 101 214 13 101 214 13 101 214 13 101 214 13 101 214 13 101 214 13 101 214 13 101 214 13 101 214 13 101 214 13 101 214 13 101 214 13 101 214 13 101 214 13 101 214 13 101 214 13 101 214 13 101 214 13 101 214 13 101 214 13 101 214 13 101 214 13 101 214 13 101 214 13 101 214 13 101 214 13 101 214 13 101 214 13 101 214 13 101 214 13 101 214 13 101 214 13 101 214 13 101 214 13 101 214 13 101 214 13 101 214 13 101 214 13 101 214 13 101 214 13 101 214 13 101 214 13 101 214 13 101 214 13 101 214 13 101 214 13 101 214 13 101 214 13 101 214 13 101 214 13 101 214 13 101 214 13 101 214 13 101 214 13 101 214 13 101 214 13 101 214 13 101 214 13 101 214 13 101 214 13 101 214 13 101 214 13 101 214 13 101 214 13 101 214 13 101 214 13 101 214 13 101 214 13 101 214 13 101 214 13 101 214 13 101 214 13 101 214 13 101 214 13 101 214 13 101 214 13 101 214 13 101 214 13 101 214 13 101 214 13 101 214 13 101 214 13 101 214 13 101 214 13 101 214 13 101 214 13 101 214 13 101 214 13 101 214 13 101 214 13 101 214 13 101 214 13 101 214 13 101 214 13 101 214 13 101 214 13 101 214 13 101 214 13 101 214 13 101 214 13 101 214 13 101 214 13 101 214 13 101 214 13 101 214 13 101 214 13 101 214 13 101 214 13 101 214 13 101 214 13 101 214 13 101 214 13 101 214 13 101 214 13 101 214 13 101 214 13 101 214 13 101 214 13 101 214 13 101 214 13 101 214 13 101 214 13 101 214 13 101 214 13 101 214 13 101 214 13 101 214 13 101 214 13 101 214 13 101 214 13 101 214 13 101 214 13 101 214 13 101 214 13 101 214 13 101 214 13 101 214 13 101 214 13 101 214 13 101 214 13 101 214 13 101 214 13 101 214 13 101 214 13 101 214 13 101 214 13 101 214 13 101 214 13 101 214 13 101 214 13 101 214 13 101 214 13 101 214 13 101 214 13 101 214 13 101 214 13 101 214 13 101 214 13 101 214 13 101 214 13 101 214 13 101 214 13 101 214 13 101 214 13 101 214 13 101 214 13 101 214 13 101 214 13 101 214 13 101 214 13 101 214 13 101 214 13 101 214 13 101 214 13 101 214 13 101 214 13 101 214 13 101 214 13 101 214 13 101 214 13 101 214 13 101 214 13 101 214 13 101 214 13 101 214 13 101 214 13 101 214 13 101 214 13 101 214 13 101 214 13 101 214 13 101 214 13 101 214 13 101 214 13 101 214 13 101 214 13 101 214 13 101 214 13 101 214 13 101 214 13 101 214 13 101 214 13 101 214 13 101 214 13 101 214 13 101 214 13 101 214 13 101 214 13 101 214 13 101 214 13 101 214 13 101 214 13 101 214 13 101 214 13 101 214 13 101 214 13 101 214 13 101 214 13 101 214 13 101 214 13 101 214 13 101 214 13 101 214 13 101 214 13 101 214 13 101 214 13 101 214 13 101 214 13 101 214 13 101 214 13 101 214 13 101 214 13 101 214 13 101 214 13 101 214 13 101 214 13 101 214 13 101 214 13 101 214 13 101 214 13 101 214 13 101 214 13 101 214 13 101 214 13 101 214 13 101 214 13 101 214 13 101 214 13 101 214 13 101 214
13 101 214 13 101 214 13 101 214 13 101 214 13 101 214 13 101 214 13 101 214 13 101 214 13 101 214 13 101 214 13 101 214 13 101 214 13 101 214 13 101 214 13 101 214 13 101 214 13 101 214 13 101 214 13 101 214 13 101 214 13 101 214 13 101 214 13 101 214 13 101 214 13 101 214 13 101 214 13 101 214 13 101 214 13 101 214 13 101 214 13 101 214 13 101 214 13 101 214 13 101 214 13 101 214 13 101 214 13 101 214 13 101 214 13 101 214 13 101 214 13 101 214 13 101 214 13 101 214 13 101 214 13 101 214 13 101 214 13 101 214 13 101 214 13 101 214 13 101 214 13 101 214 13 101 214 13 101 214 13 101 214 13 101 214 13 101 214 13 101 214 13 101 214 13 101 214 13 101 214 13 101 214 13 101 214 13 101 214 13 101 214 13 101 214 13 101 214 13 101 214 13 101 214 13 101 214 13 101 214 13 101 214 13 101 214 13 101 214 13 101 214 13 101 214 13 101 214 13 101 214 13 101 214 13 101 214 13 101 214 13 101 214 13 101 214 13 101 214 13 101 214 13 101 214 13 101 214 13 101 214 13 101 214 13 101 214 13 101 214 13 101 214 13 101 214 13 101 214 13 101 214 13 101 214 13 101 214 13 101 214 13 101 214 13 101 214 13 101 214 13 101 214 13 101 214 13 101 214 13 101 214 13 101 214 13 101 214 13 101 214 13 101 214 13 101 214 13 101 214 13 101 214 13 101 214 13 101 214 13 101 214 13 101 214 13 101 214 13 101 214 13 101 214 13 101 214 13 101 214 13 101 214 13 101 214 13 101 214 13 101 214 13 101 214 13 101 214 13 101 214 13 101 214 13 101 214 13 101 214 13 101 214 13 101 214 13 101 214 13 101 214 13 101 214 13 101 214 13 101 214 13 101 214 13 101 214 13 101 214 13 101 214 13 101 214 13 101 214 13 101 214 13 101 214 13 101 214 13 101 214 13 101 214 13 101 214 13 101 214 13 101 214 13 101 214 13 101 214 13 101 214 13 101 214 13 101 214 13 101 214 13 101 214 13 101 214 13 101 214 13 101 214 13 101 214 13 101 214 13 101 214 13 101 214 13 101 214 13 101 214 13 101 214 13 101 214 13 101 214 13 101 214 13 101 214 13 101 214 13 101 214 13 101 214 13 101 214 13 101 214 13 101 214 13 101 214 13 101 214 13 101 214 13 101 214 13 101 214 13 101 214 13 101 214 13 101 214 13 101 214 13 101 214 13 101 214 13 101 214 13 101 214 13 101 214 13 101 214 13 101 214 13 101 214 13 101 214 13 101 214 13 101 214 13 101 214 13 101 214 13 101 214 13 101 214 13 101 214 13 101 214 13 101 214 13 101 214 13 101 214 13 101 214 13 101 214 13 101 214 13 101 214 13 101 214 13 101 214 13 101 214 13 101 214 13 101 214 13 101 214 13 101 214 13 101 214 13 101 214 13 101 214 13 101 214 13 101 214 13 101 214 13 101 214 13 101 214 13 101 214 13 101 214 13 101 214 13 101 214 13 101 214 13 101 214 13 101 214 13 101 214 13 101 214 13 101 214 13 101 214 13 101 214 13 101 214 13 101 214 13 101 214 13 101 214 13 101 214 13 101 214 13 101 214 13 101 214 13 101 214 13 101 214 13 101 214 13 101 214 13 101 214 13 101 214 13 101 214 13 101 214 13 101 214 13 101 214
13 101 214 13 101 214 13 101 214 13 101 214 13 101 214 13 101 214 13 101 214 13 101 214 13 101 214 13 101 214 13 101 214 13 101 214 13 101 214 13 101 214 13 101 214 13 101 214 13 101 214 13 101 214 13 101 214 13 101 214 13 101 214 13 101 214 13 101 214 13 101 214 13 101 214 13 101 214 13 101 214 13 101 214 13 101 214 13 101 214 13 101 214 13 101 214 13 101 214 13 101 214 13 101 214 13 101 214 13 101 214 13 101 214 13 101 214 13 101 214 13 101 214 13 101 214 13 101 214 13 101 214 13 101 214 13 101 214 13 101 214 13 101 214 13 101 214 13 101 214 13 101 214 13 101 214 13 101 214 13 101 214 13 101 214 13 101 214 13 101 214 13 101 214 13 101 214 13 101 214 13 101 214 13 101 214 13 101 214 13 101 214 13 101 214 13 101 214 13 101 214 13 101 214 13 101 214 13 101 214 13 101 214 13 101 214 13 101 214 13 101 214 13 101 214 13 101 214 13 101 214 13 101 214 13 101 214 13 101 214 13 101 214 13 101 214 13 101 214 13 101 214 13 101 214 13 101 214 13 101 214 13 101 214 13 101 214 13 101 214 13 101 214 13 101 214 13 101 214 13 101 214 13 101 214 13 101 214 13 101 214 13 101 214 13 101 214 13 101 214 13 101 214 13 101 214 13 101 214 13 101 214 13 101 214 13 101 214 13 101 214 13 101 214 13 101 214 13 101 214 13 101 214 13 101 214 13 101 214 13 101 214 13 101 214 13 101 214 13 101 214 13 101 214 13 101 214 13 101 214 13 101 214 13 101 214 13 101 214 13 101 214 13 101 214 13 101 214 13 101 214 13 101 214 13 101 214 13 101 214 13 101 214 13 101 214 13 101 214 13 101 214 13 101 214 13 101 214 13 101 214 13 101 214 13 101 214 13 101 214 13 101 214 13 101 214 13 101 214 13 101 214 13 101 214 13 101 214 13 101 214 13 101 214 13 101 214 13 101 214 13 101 214 13 101 214 13 101 214 13 101 214 13 101 214 13 101 214 13 101 214 13 101 214 13 101 214 13 101 214 13 101 214 13 101 214 13 101 214 13 101 214 13 101 214 13 101 214 13 101 214 13 101 214 13 101 214 13 101 214 13 101 214 13 101 214 13 101 214 13 101 214 13 101 214 13 101 214 13 101 214 13 101 214 13 101 214 13 101 214 13 101 214 13 101 214 13 101 214 13 101 214 13 101 214 13 101 214 13 101 214 13 101 214 13 101 214 13 101 214 13 101 214 13 101 214 13 101 214 13 101 214 13 101 214 13 101 214 13 101 214 13 101 214 13 101 214 13 101 214 13 101 214 13 101 214 13 101 214 13 101 214 13 101 214 13 101 214 13 101 214 13 101 214 13 101 214 13 101 214 13 101 214 13 101 214 13 101 214 13 101 214 13 101 214 13 101 214 13 101 214 13 101 214 13 101 214 13 101 214 13 101 214 13 101 214 13 101 214 13 101 214 13 101 214 13 101 214 13 101 214 13 101 214 13 101 214 13 101 214 13 101 214 13 101 214 13 101 214 13 101 214 13 101 214 13 101 214 13 101 214 13 101 214 13 101 214 13 101 214 13 101 214 13 101 214 13 101 214 13 101 214 13 101 214 13 101 214 13 101 214 13 101 214 13 101 214 13 101 214 13 101 214 13 101 214 13 101 214 13 101 214 13 101 214 13 101 214
13 101 214 13 101 214 13 101 214 13 101 214 13 101 214 13 101 214 13 101 214 13 101 214 13 101 214 13 101 214 13 101 214 13 101 214 13 101 214 13 101 214 13 101 214 13 101 214 13 101 214 13 101 214 13 101 214 13 101 214 13 101 214 13 101 214 13 101 214 13 101 214 13 101 214 13 101 214 13 101 214 13 101 214 13 101 214 13 101 214 13 101 214 13 101 214 13 101 214 13 101 214 13 101 214 13 101 214 13 101 214 13 101 214 13 101 214 13 101 214 13 101 214 13 101 214 13 101 214 13 101 214 13 101 214 13 101 214 13 101 214 13 101 214 13 101 214 13 101 214 13 101 214 13 101 214 13 101 214 13 101 214 13 101 214 13 101 214 13 101 214 13 101 214 13 101 214 13 101 214 13 101 214 13 101 214 13 101 214 13 101 214 13 101 214 13 101 214 13 101 214 13 101 214 13 101 214 13 101 214 13 101 214 13 101 214 13 101 214 13 101 214 13 101 214 13 101 214 13 101 214 13 101 214 13 101 214 13 101 214 13 101 214 13 101 214 13 101 214 13 101 214 13 101 214 13 101 214 13 101 214 13 101 214 13 101 214 13 101 214 13 101 214 13 101 214 13 101 214 13 101 214 13 101 214 13 101 214 13 101 214 13 101 214 13 101 214 13 101 214 13 101 214 13 101 214 13 101 214 13 101 214 13 101 214 13 101 214 13 101 214 13 101 214 13 101 214 13 101 214 13 101 214 13 101 214 13 101 214 13 101 214 13 101 214 13 101 214 13 101 214 13 101 214 13 101 214 13 101 214 13 101 214 13 101 214 13 101 214 13 101 214 13 101 214 13 101 214 13 101 214 13 101 214 13 101 214 13 101 214 13 101 214 13 101 214 13 101 214 13 101 214 13 101 214 13 101 214 13 101 214 13 101 214 13 101 214 13 101 214 13 101 214 13 101 214 13 101 214 13 101 214 13 101 214 13 101 214 13 101 214 13 101 214 13 101 214 13 101 214 13 101 214 13 101 214 13 101 214 13 101 214 13 101 214 13 101 214 13 101 214 13 101 214 13 101 214 13 101 214 13 101 214 13 101 214 13 101 214 13 101 214 13 101 214 13 101 214 13 101 214 13 101 214 13 101 214 13 101 214 13 101 214 13 101 214 13 101 214 13 101 214 13 101 214 13 101 214 13 101 214 13 101 214 13 101 214 13 101 214 13 101 214 13 101 214 13 101 214 13 101 214 13 101 214 13 101 214 13 101 214 13 101 214 13 101 214 13 101 214 13 101 214 13 101 214 13 101 214 13 101 214 13 101 214 13 101 214 13 101 214 13 101 214 13 101 214 13 101 214 13 101 214 13 101 214 13 101 214 13 101 214 13 101 214 13 101 214 13 101 214 13 101 214 13 101 214 13 101 214 13 101 214 13 101 214 13 101 214 13 101 214 13 101 214 13 101 214 13 101 214 13 101 214 13 101 214 13 101 214 13 101 214 13 101 214 13 101 214 13 101 214 13 101 214 13 101 214 13 101 214 13 101 214 13 101 214 13 101 214 13 101 214 13 101 214 13 101 214 13 101 214 13 101 214 13 101 214 13 101 214 13 101 214 13 101 214 13 101 214 13 101 214 13 101 214 13 101 214 13 101 214 13 101 214 13 101 214 13 101 214 13 101 214 13 101 214 13 101 214 13 101 214 13 101 214 13 101 214 13 101 214 13 101 214 13 101 214
13 101 214 13 101 214 13 101 214 13 101 214 13 101 214 13 101 214 13 101 214 13 101 214 13 101 214 13 101 214 13 101 214 13 101 214 13 101 214 13 101 214 13 101 214 13 101 214 13 101 214 13 101 214 13 101 214 13 101 214 13 101 214 13 101 214 13 101 214 13 101 214 13 101 214 13 101 214 13 101 214 13 101 214 13 101 214 13 101 214 13 101 214 13 101 214 13 101 214 13 101 214 13 101 214 13 101 214 13 101 214 13 101 214 13 101 214 13 101 214 13 101 214 13 101 214 13 101 214 13 101 214 13 101 214 13 101 214 13 101 214 13 101 214 13 101 214 13 101 214 13 101 214 13 101 214 13 101 214 13 101 214 13 101 214 13 101 214 13 101 214 13 101 214 13 101 214 13 101 214 13 101 214 13 101 214 13 101 214 13 101 214 13 101 214 13 101 214 13 101 214 13 101 214 13 101 214 13 101 214 13 101 214 13 101 214 13 101 214 13 101 214 13 101 214 13 101 214 13 101 214 13 101 214 13 101 214 13 101 214 13 101 214 13 101 214 13 101 214 13 101 214 13 101 214 13 101 214 13 101 214 13 101 214 13 101 214 13 101 214 13 101 214 13 101 214 13 101 214 13 101 214 13 101 214 13 101 214 13 101 214 13 101 214 13 101 214 13 101 214 13 101 214 13 101 214 13 101 214 13 101 214 13 101 214 13 101 214 13 101 214 13 101 214 13 101 214 13 101 214 13 101 214 13 101 214 13 101 214 13 101 214 13 101 214 13 101 214 13 101 214 13 101 214 13 101 214 13 101 214 13 101 214 13 101 214 13 101 214 13 101 214 13 101 214 13 101 214 13 101 214 13 101 214 13 101 214 13 101 214 13 101 214 13 101 214 13 101 214 13 101 214 13 101 214 13 101 214 13 101 214 13 101 214 13 101 214 13 101 214 13 101 214 13 101 214 13 101 214 13 101 214 13 101 214 13 101 214 13 101 214 13 101 214 13 101 214 13 101 214 13 101 214 13 101 214 13 101 214 13 101 214 13 101 214 13 101 214 13 101 214 13 101 214 13 101 214 13 101 214 13 101 214 13 101 214 13 101 214 13 101 214 13 101 214 13 101 214 13 101 214 13 101 214 13 101 214 13 101 214 13 101 214 13 101 214 13 101 214 13 101 214 13 101 214 13 101 214 13 101 214 13 101 214 13 101 214 13 101 214 13 101 214 13 101 214 13 101 214 13 101 214 13 101 214 13 101 214 13 101 214 13 101 214 13 101 214 13 101 214 13 101 214 13 101 214 13 101 214 13 101 214 13 101 214 13 101 214 13 101 214 13 101 214 13 101 214 13 101 214 13 101 214 13 101 214 13 101 214 13 101 214 13 101 214 13 101 214 13 101 214 13 101 214 13 101 214 13 101 214 13 101 214 13 101 214 13 101 214 13 101 214 13 101 214 13 101 214 13 101 214 13 101 214 13 101 214 13 101 214 13 101 214 13 101 214 13 101 214 13 101 214 13 101 214 13 101 214 13 101 214 13 101 214 13 101 214 13 101 214 13 101 214 13 101 214 13 101 214 13 101 214 13 101 214 13 101 214 13 101 214 13 101 214 13 101 214 13 101 214 13 101 214 13 101 214 13 101 214 13 101 214 13 101 214 13 101 214 13 101 214 13 101 214 13 101 214 13 101 214 13 101 214 13 101 214 13 101 214 13 101 214 13 101 214 13 101 214
13 101 214 13 101 214 13 101 214 13 101 214 13 101 214 13 101 214 13 101 214 13 101 214 13 101 214 13 101 214 13 101 214 13 101 214 13 101 214 13 101 214 13 101 214 13 101 214 13 101 214 13 101 214 13 101 214 13 101 214 13 101 214 13 101 214 13 101 214 13 101 214 13 101 214 13 101 214 13 101 214 13 101 214 13 101 214 13 101 214 13 101 214 13 101 214 13 101 214 13 101 214 13 101 214 13 101 214 13 101 214 13 101 214 13 101 214 13 101 214 13 101 214 13 101 214 13 101 214 13 101 214 13 101 214 13 101 214 13 101 214 13 101 214 13 101 214 13 101 214 13 101 214 13 101 214 13 101 214 13 101 214 13 101 214 13 101 214 13 101 214 13 101 214 13 101 214 13 101 214 13 101 214 13 101 214 13 101 214 13 101 214 13 101 214 13 101 214 13 101 214 13 101 214 13 101 214 13 101 214 13 101 214 13 101 214 13 101 214 13 101 214 13 101 214 13 101 214 13 101 214 13 101 214 13 101 214 13 101 214 13 101 214 13 101 214 13 101 214 13 101 214 13 101 214 13 101 214 13 101 214 13 101 214 13 101 214 13 101 214 13 101 214 13 101 214 13 101 214 13 101 214 13 101 214 13 101 214 13 101 214 13 101 214 13 101 214 13 101 214 13 101 214 13 101 214 13 101 214 13 101 214 13 101 214 13 101 214 13 101 214 13 101 214 13 101 214 13 101 214 13 101 214 13 101 214 13 101 214 13 101 214 13 101 214 13 101 214 13 101 214 13 101 214 13 101 214 13 101 214 13 101 214 13 101 214 13 101 214 13 101 214 13 101 214 13 101 214 13 101 214 13 101 214 13 101 214 13 101 214 13 101 214 13 101 214 13 101 214 13 101 214 13 101 214 13 101 214 13 101 214 13 101 214 13 101 214 13 101 214 13 101 214 13 101 214 13 101 214 13 101 214 13 101 214 13 101 214 13 101 214 13 101 214 13 101 214 13 101 214 13 101 214 13 101 214 13 101 214 13 101 214 13 101 214 13 101 214 13 101 214 13 101 214 13 101 214 13 101 214 13 101 214 13 101 214 13 101 214 13 101 214 13 101 214 13 101 214 13 101 214 13 101 214 13 101 214 13 101 214 13 101 214 13 101 214 13 101 214 13 101 214 13 101 214 13 101 214 13 101 214 13 101 214 13 101 214 13 101 214 13 101 214 13 101 214 13 101 214 13 101 214 13 101 214 13 101 214 13 101 214 13 101 214 13 101 214 13 101 214 13 101 214 13 101 214 13 101 214 13 101 214 13 101 214 13 101 214 13 101 214 13 101 214 13 101 214 13 101 214 13 101 214 13 101 214 13 101 214 13 101 214 13 101 214 13 101 214 13 101 214 13 101 214 13 101 214 13 101 214 13 101 214 13 101 214 13 101 214 13 101 214 13 101 214 13 101 214 13 101 214 13 101 214 13 101 214 13 101 214 13 101 214 13 101 214 13 101 214 13 101 214 13 101 214 13 101 214 13 101 214 13 101 214 13 101 214 13 101 214 13 101 214 13 101 214 13 101 214 13 101 214 13 101 214 13 101 214 13 101 214 13 101 214 13 101 214 13 101 214 13 101 214 13 101 214 13 101 214 13 101 214 13 101 214 13 101 214 13 101 214 13 101 214 13 101 214 13 101 214 13 101 214 13 101 214 13 101 214 13 101 214 13 101 214 13 101 214
13 101 214 13 101 214 13 101 214 13 101 214 13 101 214 13 101 214 13 101 214 13 101 214 13 101 214 13 101 214 13 101 214 13 101 214 13 101 214 13 101 214 13 101 214 13 101 214 13 101 214 13 101 214 13 101 214 13 101 214 13 101 214 13 101 214 13 101 214 13 101 214 13 101 214 13 101 214 13 101 214 13 101 214 13 101 214 13 101 214 13 101 214 13 101 214 13 101 214 13 101 214 13 101 214 13 101 214 13 101 214 13 101 214 13 101 214 13 101 214 13 101 214 13 101 214 13 101 214 13 101 214 13 101 214 13 101 214 13 101 214 13 101 214 13 101 214 13 101 214 13 101 214 13 101 214 13 101 214 13 101 214 13 101 214 13 101 214 13 101 214 13 101 214 13 101 214 13 101 214 13 101 214 13 101 214 13 101 214 13 101 214 13 101 214 13 101 214 13 101 214 13 101 214 13 101 214 13 101 214 13 101 214 13 101 214 13 101 214 13 101 214 13 101 214 13 101 214 13 101 214 13 101 214 13 101 214 13 101 214 13 101 214 13 101 214 13 101 214 13 101 214 13 101 214 13 101 214 13 101 214 13 101 214 13 101 214 13 101 214 13 101 214 13 101 214 13 101 214 13 101 214 13 101 214 13 101 214 13 101 214 13 101 214 13 101 214 13 101 214 13 101 214 13 101 214 13 101 214 13 101 214 13 101 214 13 101 214 13 101 214 13 101 214 13 101 214 13 101 214 13 101 214 13 101 214 13 101 214 13 101 214 13 101 214 13 101 214 13 101 214 13 101 214 13 101 214 13 101 214 13 101 214 13 101 214 13 101 214 13 101 214 13 101 214 13 101 214 13 101 214 13 101 214 13 101 214 13 101 214 13 101 214 13 101 214 13 101 214 13 101 214 13 101 214 13 101 214 13 101 214 13 101 214 13 101 214 13 101 214 13 101 214 13 101 214 13 101 214 13 101 214 13 101 214 13 101 214 13 101 214 13 101 214 13 101 214 13 101 214 13 101 214 13 101 214 13 101 214 13 101 214 13 101 214 13 101 214 13 101 214 13 101 214 13 101 214 13 101 214 13 101 214 13 101 214 13 101 214 13 101 214 13 101 214 13 101 214 13 101 214 13 101 214 13 101 214 13 101 214 13 101 214 13 101 214 13 101 214 13 101 214 13 101 214 13 101 214 13 101 214 13 101 214 13 101 214 13 101 214 13 101 214 13 101 214 13 101 214 13 101 214 13 101 214 13 101 214 13 101 214 13 101 214 13 101 214 13 101 214 13 101 214 13 101 214 13 101 214 13 101 214 13 101 214 13 101 214 13 101 214 13 101 214 13 101 214 13 101 214 13 101 214 13 101 214 13 101 214 13 101 214 13 101 214 13 101 214 13 101 214 13 101 214 13 101 214 13 101 214 13 101 214 13 101 214 13 101 214 13 101 214 13 101 214 13 101 214 13 101 214 13 101 214 13 101 214 13 101 214 13 101 214 13 101 214 13 101 214 13 101 214 13 101 214 13 101 214 13 101 214 13 101 214 13 101 214 13 101 214 13 101 214 13 101 214 13 101 214 13 101 214 13 101 214 13 101 214 13 101 214 13 101 214 13 101 214 13 101 214 13 101 214 13 101 214 13 101 214 13 101 214 13 101 214 13 101 214 13 101 214 13 101 214 13 101 214 13 101 214 13 101 214 13 101 214 13 101 214 13 101 214 13 101 214 13 101 214
13 101 214 13 101 214 13 101 214 13 101 214 13 101 214 13 101 214 13 101 214 13 101 214 13 101 214 13 101 214 13 101 214 13 101 214 13 101 214 13 101 214 13 101 214 13 101 214 13 101 214 13 101 214 13 101 214 13 101 214 13 101 214 13 101 214 13 101 214 13 101 214 13 101 214 13 101 214 13 101 214 13 101 214 13 101 214 13 101 214 13 101 214 13 101 214 13 101 214 13 101 214 13 101 214 13 101 214 13 101 214 13 101 214 13 101 214 13 101 214 13 101 214 13 101 214 13 101 214 13 101 214 13 101 214 13 101 214 13 101 214 13 101 214 13 101 214 13 101 214 13 101 214 13 101 214 13 101 214 13 101 214 13 101 214 13 101 214 13 101 214 13 101 214 13 101 214 13 101 214 13 101 214 13 101 214 13 101 214 13 101 214 13 101 214 13 101 214 13 101 214 13 101 214 13 101 214 13 101 214 13 101 214 13 101 214 13 101 214 13 101 214 13 101 214 13 101 214 13 101 214 13 101 214 13 101 214 13 101 214 13 101 214 13 101 214 13 101 214 13 101 214 13 101 214 13 101 214 13 101 214 13 101 214 13 101 214 13 101 214 13 101 214 13 101 214 13 101 214 13 101 214 13 101 214 13 101 214 13 101 214 13 101 214 13 101 214 13 101 214 13 101 214 13 101 214 13 101 214 13 101 214 13 101 214 13 101 214 13 101 214 13 101 214 13 101 214 13 101 214 13 101 214 13 101 214 13 101 214 13 101 214 13 101 214 13 101 214 13 101 214 13 101 214 13 101 214 13 101 214 13 101 214 13 101 214 13 101 214 13 101 214 13 101 214 13 101 214 13 101 214 13 101 214 13 101 214 13 101 214 13 101 214 13 101 214 13 101 214 13 101 214 13 101 214 13 101 214 13 101 214 13 101 214 13 101 214 13 101 214 13 101 214 13 101 214 13 101 214 13 101 214 13 101 214 13 101 214 13 101 214 13 101 214 13 101 214 13 101 214 13 101 214 13 101 214 13 101 214 13 101 214 13 101 214 13 101 214 13 101 214 13 101 214 13 101 214 13 101 214 13 101 214 13 101 214 13 101 214 13 101 214 13 101 214 13 101 214 13 101 214 13 101 214 13 101 214 13 101 214 13 101 214 13 101 214 13 101 214 13 101 214 13 101 214 13 101 214 13 101 214 13 101 214 13 101 214 13 101 214 13 101 214 13 101 214 13 101 214 13 101 214 13 101 214 13 101 214 13 101 214 13 101 214 13 101 214 13 101 214 13 101 214 13 101 214 13 101 214 13 101 214 13 101 214 13 101 214 13 101 214 13 101 214 13 101 214 13 101 214 13 101 214 13 101 214 13 101 214 13 101 214 13 101 214 13 101 214 13 101 214 13 101 214 13 101 214 13 101 214 13 101 214 13 101 214 13 101 214 13 101 214 13 101 214 13 101 214 13 101 214 13 101 214 13 101 214 13 101 214 13 101 214 13 101 214 13 101 214 13 101 214 13 101 214 13 101 214 13 101 214 13 101 214 13 101 214 13 101 214 13 101 214 13 101 214 13 101 214 13 101 214 13 101 214 13 101 214 13 101 214 13 101 214 13 101 214 13 101 214 13 101 214 13 101 214 13 101 214 13 101 214 13 101 214 13 101 214 13 101 214 13 101 214 13 101 214 13 101 214 13 101 214 13 101 214 13 101 214 13 101 214 13 101 214 13 101 214
13 101 214 13 101 214 13 101 214 13 101 214 13 101 214 13 101 214 13 101 214 13 101 214 13 101 214 13 101 214 13 101 214 13 101 214 13 101 214 13 101 214 13 101 214 13 101 214 13 101 214 13 101 214 13 101 214 13 101 214 13 101 214 13 101 214 13 101 214 13 101 214 13 101 214 13 101 214 13 101 214 13 101 214 13 101 214 13 101 214 13 101 214 13 101 214 13 101 214 13 101 214 13 101 214 13 101 214 13 101 214 13 101 214 13 101 214 13 101 214 13 101 214 13 101 214 13 101 214 13 101 214 13 101 214 13 101 214 13 101 214 13 101 214 13 101 214 13 101 214 13 101 214 13 101 214 13 101 214 13 101 214 13 101 214 13 101 214 13 101 214 13 101 214 13 101 214 13 101 214 13 101 214 13 101 214 13 101 214 13 101 214 13 101 214 13 101 214 13 101 214 13 101 214 13 101 214 13 101 214 13 101 214 13 101 214 13 101 214 13 101 214 13 101 214 13 101 214 13 101 214 13 101 214 13 101 214 13 101 214 13 101 214 13 101 214 13 101 214 13 101 214 13 101 214 13 101 214 13 101 214 13 101 214 13 101 214 13 101 214 13 101 214 13 101 214 13 101 214 13 101 214 13 101 214 13 101 214 13 101 214 13 101 214 13 101 214 13 101 214 13 101 214 13 101 214 13 101 214 13 101 214 13 101 214 13 101 214 13 101 214 13 101 214 13 101 214 13 101 214 13 101 214 13 101 214 13 101 214 13 101 214 13 101 214 13 101 214 13 101 214 13 101 214 13 101 214 13 101 214 13 101 214 13 101 214 13 101 214 13 101 214 13 101 214 13 101 214 13 101 214 13 101 214 13 101 214 13 101 214 13 101 214 13 101 214 13 101 214 13 101 214 13 101 214 13 101 214 13 101 214 13 101 214 13 101 214 13 101 214 13 101 214 13 101 214 13 101 214 13 101 214 13 101 214 13 101 214 13 101 214 13 101 214 13 101 214 13 101 214 13 101 214 13 101 214 13 101 214 13 101 214 13 101 214 13 101 214 13 101 214 13 101 214 13 101 214 13 101 214 13 101 214 13 101 214 13 101 214 13 101 214 13 101 214 13 101 214 13 101 214 13 101 214 13 101 214 13 101 214 13 101 214 13 101 214 13 101 214 13 101 214 13 101 214 13 101 214 13 101 214 13 101 214 13 101 214 13 101 214 13 101 214 13 101 214 13 101 214 13 101 214 13 101 214 13 101 214 13 101 214 13 101 214 13 101 214 13 101 214 13 101 214 13 101 214 13 101 214 13 101 214 13 101 214 13 101 214 13 101 214 13 101 214 13 101 214 13 101 214 13 101 214 13 101 214 13 101 214 13 101 214 13 101 214 13 101 214 13 101 214 13 101 214 13 101 214 13 101 214 13 101 214 13 101 214 13 101 214 13 101 214 13 101 214 13 101 214 13 101 214 13 101 214 13 101 214 13 101 214 13 101 214 13 101 214 13 101 214 13 101 214 13 101 214 13 101 214 13 101 214 13 101 214 13 101 214 13 101 214 13 101 214 13 101 214 13 101 214 13 101 214 13 101 214 13 101 214 13 101 214 13 101 214 13 101 214 13 101 214 13 101 214 13 101 214 13 101 214 13 101 214 13 101 214 13 101 214 13 101 214 13 101 214 13 101 214 13 101 214 13 101 214 13 101 214 13 101 214 13 101 214 13 101 214 13 101 214
13 101 214 13 101 214 13 101 214 13 101 214 13 101 214 13 101 214 13 101 214 13 101 214 13 101 214 13 101 214 13 101 214 13 101 214 13 101 214 13 101 214 13 101 214 13 101 214 13 101 214 13 101 214 13 101 214 13 101 214 13 101 214 13 101 214 13 101 214 13 101 214 13 101 214 13 101 214 13 101 214 13 101 214 13 101 214 13 101 214 13 101 214 13 101 214 13 101 214 13 101 214 13 101 214 13 101 214 13 101 214 13 101 214 13 101 214 13 101 214 13 101 214 13 101 214 13 101 214 13 101 214 13 101 214 13 101 214 13 101 214 13 101 214 13 101 214 13 101 214 13 101 214 13 101 214 13 101 214 13 101 214 13 101 214 13 101 214 13 101 214 13 101 214 13 101 214 13 101 214 13 101 214 13 101 214 13 101 214 13 101 214 13 101 214 13 101 214 13 101 214 13 101 214 13 101 214 13 101 214 13 101 214 13 101 214 13 101 214 13 101 214 13 101 214 13 101 214 13 101 214 13 101 214 13 101 214 13 101 214 13 101 214 13 101 214 13 101 214 13 101 214 13 101 214 13 101 214 13 101 214 13 101 214 13 101 214 13 101 214 13 101 214 13 101 214 13 101 214 13 101 214 13 101 214 13 101 214 13 101 214 13 101 214 13 101 214 13 101 214 13 101 214 13 101 214 13 101 214 13 101 214 13 101 214 13 101 214 13 101 214 13 101 214 13 101 214 13 101 214 13 101 214 13 101 214 13 101 214 13 101 214 13 101 214 13 101 214 13 101 214 13 101 214 13 101 214 13 101 214 13 101 214 13 101 214 13 101 214 13 101 214 13 101 214 13 101 214 13 101 214 13 101 214 13 101 214 13 101 214 13 101 214 13 101 214 13 101 214 13 101 214 13 101 214 13 101 214 13 101 214 13 101 214 13 101 214 13 101 214 13 101 214 13 101 214 13 101 214 13 101 214 13 101 214 13 101 214 13 101 214 13 101 214 13 101 214 13 101 214 13 101 214 13 101 214 13 101 214 13 101 214 13 101 214 13 101 214 13 101 214 13 101 214 13 101 214 13 101 214 13 101 214 13 101 214 13 101 214 13 101 214 13 101 214 13 101 214 13 101 214 13 101 214 13 101 214 13 101 214 13 101 214 13 101 214 13 101 214 13 101 214 13 101 214 13 101 214 13 101 214 13 101 214 13 101 214 13 101 214 13 101 214 13 101 214 13 101 214 13 101 214 13 101 214 13 101 214 13 101 214 13 101 214 13 101 214 13 101 214 13 101 214 13 101 214 13 101 214 13 101 214 13 101 214 13 101 214 13 101 214 13 101 214 13 101 214 13 101 214 13 101 214 13 101 214 13 101 214 13 101 214 13 101 214 13 101 214 13 101 214 13 101 214 13 101 214 13 101 214 13 101 214 13 101 214 13 101 214 13 101 214 13 101 214 13 101 214 13 101 214 13 101 214 13 101 214 13 101 214 13 101 214 13 101 214 13 101 214 13 101 214 13 101 214 13 101 214 13 101 214 13 101 214 13 101 214 13 101 214 13 101 214 13 101 214 13 101 214 13 101 214 13 101 214 13 101 214 13 101 214 13 101 214 13 101 214 13 101 214 13 101 214 13 101 214 13 101 214 13 101 214 13 101 214 13 101 214 13 101 214 13 101 214 13 101 214 13 101 214 13 101 214 13 101 214 13 101 214 13 101 214 13 101 214 13 101 214
13 101 214 13 101 214 13 101 214 13 101 214 13 101 214 13 101 214 13 101 214 13 101 214 13 101 214 13 101 214 13 101 214 13 101 214 13 101 214 13 101 214 13 101 214 13 101 214 13 101 214 13 101 214 13 101 214 13 101 214 13 101 214 13 101 214 13 101 214 13 101 214 13 101 214 13 101 214 13 101 214 13 101 214 13 101 214 13 101 214 13 101 214 13 101 214 13 101 214 13 101 214 13 101 214 13 101 214 13 101 214 13 101 214 13 101 214 13 101 214 13 101 214 13 101 214 13 101 214 13 101 214 13 101 214 13 101 214 13 101 214 13 101 214 13 101 214 13 101 214 13 101 214 13 101 214 13 101 214 13 101 214 13 101 214 13 101 214 13 101 214 13 101 214 13 101 214 13 101 214 13 101 214 13 101 214 13 101 214 13 101 214 13 101 214 13 101 214 13 101 214 13 101 214 13 101 214 13 101 214 13 101 214 13 101 214 13 101 214 13 101 214 13 101 214 13 101 214 13 101 214 13 101 214 13 101 214 13 101 214 13 101 214 13 101 214 13 101 214 13 101 214 13 101 214 13 101 214 13 101 214 13 101 214 13 101 214 13 101 214 13 101 214 13 101 214 13 101 214 13 101 214 13 101 214 13 101 214 13 101 214 13 101 214 13 101 214 13 101 214 13 101 214 13 101 214 13 101 214 13 101 214 13 101 214 13 101 214 13 101 214 13 101 214 13 101 214 13 101 214 13 101 214 13 101 214 13 101 214 13 101 214 13 101 214 13 101 214 13 101 214 13 101 214 13 101 214 13 101 214 13 101 214 13 101 214 13 101 214 13 101 214 13 101 214 13 101 214 13 101 214 13 101 214 13 101 214 13 101 214 13 101 214 13 101 214 13 101 214 13 101 214 13 101 214 13 101 214 13 101 214 13 101 214 13 101 214 13 101 214 13 101 214 13 101 214 13 101 214 13 101 214 13 101 214 13 101 214 13 101 214 13 101 214 13 101 214 13 101 214 13 101 214 13 101 214 13 101 214 13 101 214 13 101 214 13 101 214 13 101 214 13 101 214 13 101 214 13 101 214 13 101 214 13 101 214 13 101 214 13 101 214 13 101 214 13 101 214 13 101 214 13 101 214 13 101 214 13 101 214 13 101 214 13 101 214 13 101 214 13 101 214 13 101 214 13 101 214 13 101 214 13 101 214 13 101 214 13 101 214 13 101 214 13 101 214 13 101 214 13 101 214 13 101 214 13 101 214 13 101 214 13 101 214 13 101 214 13 101 214 13 101 214 13 101 214 13 101 214 13 101 214 13 101 214 13 101 214 13 101 214 13 101 214 13 101 214 13 101 214 13 101 214 13 101 214 13 101 214 13 101 214 13 101 214 13 101 214 13 101 214 13 101 214 13 101 214 13 101 214 13 101 214 13 101 214 13 101 214 13 101 214 13 101 214 13 101 214 13 101 214 13 101 214 13 101 214 13 101 214 13 101 214 13 101 214 13 101 214 13 101 214 13 101 214 13 101 214 13 101 214 13 101 214 13 101 214 13 101 214 13 101 214 13 101 214 13 101 214 13 101 214 13 101 214 13 101 214 13 101 214 13 101 214 13 101 214 13 101 214 13 101 214 13 101 214 13 101 214 13 101 214 13 101 214 13 101 214 13 101 214 13 101 214 13 101 214 13 101 214 13 101 214 13 101 214 13 101 214 13 101 214 13 101 214 13 101 214
13 101 214 13 101 214 13 101 214 13 101 214 13 101 214 13 101 214 13 101 214 13 101 214 13 101 214 13 101 214 13 101 214 13 101 214 13 101 214 13 101 214 13 101 214 13 101 214 13 101 214 13 101 214 13 101 214 13 101 214 13 101 214 13 101 214 13 101 214 13 101 214 13 101 214 13 101 214 13 101 214 13 101 214 13 101 214 13 101 214 13 101 214 13 101 214 13 101 214 13 101 214 13 101 214 13 101 214 13 101 214 13 101 214 13 101 214 13 101 214 13 101 214 13 101 214 13 101 214 13 101 214 13 101 214 13 101 214 13 101 214 13 101 214 13 101 214 13 101 214 13 101 214 13 101 214 13 101 214 13 101 214 13 101 214 13 101 214 13 101 214 13 101 214 13 101 214 13 101 214 13 101 214 13 101 214 13 101 214 13 101 214 13 101 214 13 101 214 13 101 214 13 101 214 13 101 214 13 101 214 13 101 214 13 101 214 13 101 214 13 101 214 13 101 214 13 101 214 13 101 214 13 101 214 13 101 214 13 101 214 13 101 214 13 101 214 13 101 214 13 101 214 13 101 214 13 101 214 13 101 214 13 101 214 13 101 214 13 101 214 13 101 214 13 101 214 13 101 214 13 101 214 13 101 214 13 101 214 13 101 214 13 101 214 13 101 214 13 101 214 13 101 214 13 101 214 13 101 214 13 101 214 13 101 214 13 101 214 13 101 214 13 101 214 13 101 214 13 101 214 13 101 214 13 101 214 13 101 214 13 101 214 13 101 214 13 101 214 13 101 214 13 101 214 13 101 214 13 101 214 13 101 214 13 101 214 13 101 214 13 101 214 13 101 214 13 101 214 13 101 214 13 101 214 13 101 214 13 101 214 13 101 214 13 101 214 13 101 214 13 101 214 13 101 214 13 101 214 13 101 214 13 101 214 13 101 214 13 101 214 13 101 214 13 101 214 13 101 214 13 101 214 13 101 214 13 101 214 13 101 214 13 101 214 13 101 214 13 101 214 13 101 214 13 101 214 13 101 214 13 101 214 13 101 214 13 101 214 13 101 214 13 101 214 13 101 214 13 101 214 13 101 214 13 101 214 13 101 214 13 101 214 13 101 214 13 101 214 13 101 214 13 101 214 13 101 214 13 101 214 13 101 214 13 101 214 13 101 214 13 101 214 13 101 214 13 101 214 13 101 214 13 101 214 13 101 214 13 101 214 13 101 214 13 101 214 13 101 214 13 101 214 13 101 214 13 101 214 13 101 214 13 101 214 13 101 214 13 101 214 13 101 214 13 101 214 13 101 214 13 101 214 13 101 214 13 101 214 13 101 214 13 101 214 13 101 214 13 101 214 13 101 214 13 101 214 13 101 214 13 101 214 13 101 214 13 101 214 13 101 214 13 101 214 13 101 214 13 101 214 13 101 214 13 101 214 13 101 214 13 101 214 13 101 214 13 101 214 13 101 214 13 101 214 13 101 214 13 101 214 13 101 214 13 101 214 13 101 214 13 101 214 13 101 214 13 101 214 13 101 214 13 101 214 13 101 214 13 101 214 13 101 214 13 101 214 13 101 214 13 101 214 13 101 214 13 101 214 13 101 214 13 101 214 13 101 214 13 101 214 13 101 214 13 101 214 13 101 214 13 101 214 13 101 214 13 101 214 13 101 214 13 101 214 13 101 214 13 101 214 13 101 214 13 101 214 13 101 214 13 101 214 13 101 214 13 101 214
13 101 214 13 101 214 13 101 214 13 101 214 13 101 214 13 101 214 13 101 214 13 101 214 13 101 214 13 101 214 13 101 214 13 101 214 13 101 214 13 101 214 13 101 214 13 101 214 13 101 214 13 101 214 13 101 214 13 101 214 13 101 214 13 101 214 13 101 214 13 101 214 13 101 214 13 101 214 13 101 214 13 101 214 13 101 214 13 101 214 13 101 214 13 101 214 13 101 214 13 101 214 13 101 214 13 101 214 13 101 214 13 101 214 13 101 214 13 101 214 13 101 214 13 101 214 13 101 214 13 101 214 13 101 214 13 101 214 13 101 214 13 101 214 13 101 214 13 101 214 13 101 214 13 101 214 13 101 214 13 101 214 13 101 214 13 101 214 13 101 214 13 101 214 13 101 214 13 101 214 13 101 214 13 101 214 13 101 214 13 101 214 13 101 214 13 101 214 13 101 214 13 101 214 13 101 214 13 101 214 13 101 214 13 101 214 13 101 214 13 101 214 13 101 214 13 101 214 13 101 214 13 101 214 13 101 214 13 101 214 13 101 214 13 101 214 13 101 214 13 101 214 13 101 214 13 101 214 13 101 214 13 101 214 13 101 214 13 101 214 13 101 214 13 101 214 13 101 214 13 101 214 13 101 214 13 101 214 13 101 214 13 101 214 13 101 214 13 101 214 13 101 214 13 101 214 13 101 214 13 101 214 13 101 214 13 101 214 13 101 214 13 101 214 13 101 214 13 101 214 13 101 214 13 101 214 13 101 214 13 101 214 13 101 214 13 101 214 13 101 214 13 101 214 13 101 214 13 101 214 13 101 214 13 101 214 13 101 214 13 101 214 13 101 214 13 101 214 13 101 214 13 101 214 13 101 214 13 101 214 13 101 214 13 101 214 13 101 214 13 101 214 13 101 214 13 101 214 13 101 214 13 101 214 13 101 214 13 101 214 13 101 214 13 101 214 13 101 214 13 101 214 13 101 214 13 101 214 13 101 214 13 101 214 13 101 214 13 101 214 13 101 214 13 101 214 13 101 214 13 101 214 13 101 214 13 101 214 13 101 214 13 101 214 13 101 214 13 101 214 13 101 214 13 101 214 13 101 214 13 101 214 13 101 214 13 101 214 13 101 214 13 101 214 13 101 214 13 101 214 13 101 214 13 101 214 13 101 214 13 101 214 13 101 214 13 101 214 13 101 214 13 101 214 13 101 214 13 101 214 13 101 214 13 101 214 13 101 214 13 101 214 13 101 214 13 101 214 13 101 214 13 101 214 13 101 214 13 101 214 13 101 214 13 101 214 13 101 214 13 101 214 13 101 214 13 101 214 13 101 214 13 101 214 13 101 214 13 101 214 13 101 214 13 101 214 13 101 214 13 101 214 13 101 214 13 101 214 13 101 214 13 101 214 13 101 214 13 101 214 13 101 214 13 101 214 13 101 214 13 101 214 13 101 214 13 101 214 13 101 214 13 101 214 13 101 214 13 101 214 13 101 214 13 101 214 13 101 214 13 101 214 13 101 214 13 101 214 13 101 214 13 101 214 13 101 214 13 101 214 13 101 214 13 101 214 13 101 214 13 101 214 13 101 214 13 101 214 13 101 214 13 101 214 13 101 214 13 101 214 13 101 214 13 101 214 13 101 214 13 101 214 13 101 214 13 101 214 13 101 214 13 101 214 13 101 214 13 101 214 13 101 214 13 101 214 13 101 214 13 101 214 13 101 214 13 101 214
13 101 214 13 101 214 13 101 214 13 101 214 13 101 214 13 101 214 13 101 214 13 101 214 13 101 214 13 101 214 13 101 214 13 101 214 13 101 214 13 101 214 13 101 214 13 101 214 13 101 214 13 101 214 13 101 214 13 101 214 13 101 214 13 101 214 13 101 214 13 101 214 13 101 214 13 101 214 13 101 214 13 101 214 13 101 214 13 101 214 13 101 214 13 101 214 13 101 214 13 101 214 13 101 214 13 101 214 13 101 214 13 101 214 13 101 214 13 101 214 13 101 214 13 101 214 13 101 214 13 101 214 13 101 214 13 101 214 13 101 214 13 101 214 13 101 214 13 101 214 13 101 214 13 101 214 13 101 214 13 101 214 13 101 214 13 101 214 13 101 214 13 101 214 13 101 214 13 101 214 13 101 214 13 101 214 13 101 214 13 101 214 13 101 214 13 101 214 13 101 214 13 101 214 13 101 214 13 101 214 13 101 214 13 101 214 13 101 214 13 101 214 13 101 214 13 101 214 13 101 214 13 101 214 13 101 214 13 101 214 13 101 214 13 101 214 13 101 214 13 101 214 13 101 214 13 101 214 13 101 214 13 101 214 13 101 214 13 101 214 13 101 214 13 101 214 13 101 214 13 101 214 13 101 214 13 101 214 13 101 214 13 101 214 13 101 214 13 101 214 13 101 214 13 101 214 13 101 214 13 101 214 13 101 214 13 101 214 13 101 214 13 101 214 13 101 214 13 101 214 13 101 214 13 101 214 13 101 214 13 101 214 13 101 214 13 101 214 13 101 214 13 101 214 13 101 214 13 101 214 13 101 214 13 101 214 13 101 214 13 101 214 13 101 214 13 101 214 13 101 214 13 101 214 13 101 214 13 101 214 13 101 214 13 101 214 13 101 214 13 101 214 13 101 214 13 101 214 13 101 214 13 101 214 13 101 214 13 101 214 13 101 214 13 101 214 13 101 214 13 101 214 13 101 214 13 101 214 13 101 214 13 101 214 13 101 214 13 101 214 13 101 214 13 101 214 13 101 214 13 101 214 13 101 214 13 101 214 13 101 214 13 101 214 13 101 214 13 101 214 13 101 214 13 101 214 13 101 214 13 101 214 13 101 214 13 101 214 13 101 214 13 101 214 13 101 214 13 101 214 13 101 214 13 101 214 13 101 214 13 101 214 13 101 214 13 101 214 13 101 214 13 101 214 13 101 214 13 101 214 13 101 214 13 101 214 13 101 214 13 101 214 13 101 214 13 101 214 13 101 214 13 101 214 13 101 214 13 101 214 13 101 214 13 101 214 13 101 214 13 101 214 13 101 214 13 101 214 13 101 214 13 101 214 13 101 214 13 101 214 13 101 214 13 101 214 13 101 214 13 101 214 13 101 214 13 101 214 13 101 214 13 101 214 13 101 214 13 101 214 13 101 214 13 101 214 13 101 214 13 101 214 13 101 214 13 101 214 13 101 214 13 101 214 13 101 214 13 101 214 13 101 214 13 101 214 13 101 214 13 101 214 13 101 214 13 101 214 13 101 214 13 101 214 13 101 214 13 101 214 13 101 214 13 101 214 13 101 214 13 101 214 13 101 214 13 101 214 13 101 214 13 101 214 13 101 214 13 101 214 13 101 214 13 101 214 13 101 214 13 101 214 13 101 214 13 101 214 13 101 214 13 101 214 13 101 214 13 101 214 13 101 214 13 101 214 13 101 214 13 101 214 13 101 214 13 101 214
13 101 214 13 101 214 13 101 214 13 101 214 13 101 214 13 101 214 13 101 214 13 101 214 13 101 214 13 101 214 13 101 214 13 101 214 13 101 214 13 101 214 13 101 214 13 101 214 13 101 214 13 101 214 13 101 214 13 101 214 13 101 214 13 101 214 13 101 214 13 101 214 13 101 214 13 101 214 13 101 214 13 101 214 13 101 214 13 101 214 13 101 214 13 101 214 13 101 214 13 101 214 13 101 214 13 101 214 13 101 214 13 101 214 13 101 214 13 101 214 13 101 214 13 101 214 13 101 214 13 101 214 13 101 214 13 101 214 13 101 214 13 101 214 13 101 214 13 101 214 13 101 214 13 101 214 13 101 214 13 101 214 13 101 214 13 101 214 13 101 214 13 101 214 13 101 214 13 101 214 13 101 214 13 101 214 13 101 214 13 101 214 13 101 214 13 101 214 13 101 214 13 101 214 13 101 214 13 101 214 13 101 214 13 101 214 13 101 214 13 101 214 13 101 214 13 101 214 13 101 214 13 101 214 13 101 214 13 101 214 13 101 214 13 101 214 13 101 214 13 101 214 13 101 214 13 101 214 13 101 214 13 101 214 13 101 214 13 101 214 13 101 214 13 101 214 13 101 214 13 101 214 13 101 214 13 101 214 13 101 214 13 101 214 13 101 214 13 101 214 13 101 214 13 101 214 13 101 214 13 101 214 13 101 214 13 101 214 13 101 214 13 101 214 13 101 214 13 101 214 13 101 214 13 101 214 13 101 214 13 101 214 13 101 214 13 101 214 13 101 214 13 101 214 13 101 214 13 101 214 13 101 214 13 101 214 13 101 214 13 101 214 13 101 214 13 101 214 13 101 214 13 101 214 13 101 214 13 101 214 13 101 214 13 101 214 13 101 214 13 101 214 13 101 214 13 101 214 13 101 214 13 101 214 13 101 214 13 101 214 13 101 214 13 101 214 13 101 214 13 101 214 13 101 214 13 101 214 13 101 214 13 101 214 13 101 214 13 101 214 13 101 214 13 101 214 13 101 214 13 101 214 13 101 214 13 101 214 13 101 214 13 101 214 13 101 214 13 101 214 13 101 214 13 101 214 13 101 214 13 101 214 13 101 214 13 101 214 13 101 214 13 101 214 13 101 214 13 101 214 13 101 214 13 101 214 13 101 214 13 101 214 13 101 214 13 101 214 13 101 214 13 101 214 13 101 214 13 101 214 13 101 214 13 101 214 13 101 214 13 101 214 13 101 214 13 101 214 13 101 214 13 101 214 13 101 214 13 101 214 13 101 214 13 101 214 13 101 214 13 101 214 13 101 214 13 101 214 13 101 214 13 101 214 13 101 214 13 101 214 13 101 214 13 101 214 13 101 214 13 101 214 13 101 214 13 101 214 13 101 214 13 101 214 13 101 214 13 101 214 13 101 214 13 101 214 13 101 214 13 101 214 13 101 214 13 101 214 13 101 214 13 101 214 13 101 214 13 101 214 13 101 214 13 101 214 13 101 214 13 101 214 13 101 214 13 101 214 13 101 214 13 101 214 13 101 214 13 101 214 13 101 214 13 101 214 13 101 214 13 101 214 13 101 214 13 101 214 13 101 214 13 101 214 13 101 214 13 101 214 13 101 214 13 101 214 13 101 214 13 101 214 13 101 214 13 101 214 13 101 214 13 101 214 13 101 214 13 101 214 13 101 214 13 101 214 13 101 214 13 101 214 13 101 214 13 101 214
13 101 214 13 101 214 13 101 214 13 101 214 13 101 214 13 101 214 13 101 214 13 101 214 13 101 214 13 101 214 13 101 214 13 101 214 13 101 214 13 101 214 13 101 214 13 101 214 13 101 214 13 101 214 13 101 214 13 101 214 13 101 214 13 101 214 13 101 214 13 101 214 13 101 214 13 101 214 13 101 214 13 101 214 13 101 214 13 101 214 13 101 214 13 101 214 13 101 214 13 101 214 13 101 214 13 101 214 13 101 214 13 101 214 13 101 214 13 101 214 13 101 214 13 101 214 13 101 214 13 101 214 13 101 214 13 101 214 13 101 214 13 101 214 13 101 214 13 101 214 13 101 214 13 101 214 13 101 214 13 101 214 13 101 214 13 101 214 13 101 214 13 101 214 13 101 214 13 101 214 13 101 214 13 101 214 13 101 214 13 101 214 13 101 214 13 101 214 13 101 214 13 101 214 13 101 214 13 101 214 13 101 214 13 101 214 13 101 214 13 101 214 13 101 214 13 101 214 13 101 214 13 101 214 13 101 214 13 101 214 13 101 214 13 101 214 13 101 214 13 101 214 13 101 214 13 101 214 13 101 214 13 101 214 13 101 214 13 101 214 13 101 214 13 101 214 13 101 214 13 101 214 13 101 214 13 101 214 13 101 214 13 101 214 13 101 214 13 101 214 13 101 214 13 101 214 13 101 214 13 101 214 13 101 214 13 101 214 13 101 214 13 101 214 13 101 214 13 101 214 13 101 214 13 101 214 13 101 214 13 101 214 13 101 214 13 101 214 13 101 214 13 101 214 13 101 214 13 101 214 13 101 214 13 101 214 13 101 214 13 101 214 13 101 214 13 101 214 13 101 214 13 101 214 13 101 214 13 101 214 13 101 214 13 101 214 13 101 214 13 101 214 13 101 214 13 101 214 13 101 214 13 101 214 13 101 214 13 101 214 13 101 214 13 101 214 13 101 214 13 101 214 13 101 214 13 101 214 13 101 214 13 101 214 13 101 214 13 101 214 13 101 214 13 101 214 13 101 214 13 101 214 13 101 214 13 101 214 13 101 214 13 101 214 13 101 214 13 101 214 13 101 214 13 101 214 13 101 214 13 101 214 13 101 214 13 101 214 13 101 214 13 101 214 13 101 214 13 101 214 13 101 214 13 101 214 13 101 214 13 101 214 13 101 214 13 101 214 13 101 214 13 101 214 13 101 214 13 101 214 13 101 214 13 101 214 13 101 214 13 101 214 13 101 214 13 101 214 13 101 214 13 101 214 13 101 214 13 101 214 13 101 214 13 101 214 13 101 214 13 101 214 13 101 214 13 101 214 13 101 214 13 101 214 13 101 214 13 101 214 13 101 214 13 101 214 13 101 214 13 101 214 13 101 214 13 101 214 13 101 214 13 101 214 13 101 214 13 101 214 13 101 214 13 101 214 13 101 214 13 101 214 13 101 214 13 101 214 13 101 214 13 101 214 13 101 214 13 101 214 13 101 214 13 101 214 13 101 214 13 101 214 13 101 214 13 101 214 13 101 214 13 101 214 13 101 214 13 101 214 13 101 214 13 101 214 13 101 214 13 101 214 13 101 214 13 101 214 13 101 214 13 101 214 13 101 214 13 101 214 13 101 214 13 101 214 13 101 214 13 101 214 13 101 214 13 101 214 13 101 214 13 101 214 13 101 214 13 101 214 13 101 214 13 101 214 13 101 214 13 101 214 13 101 214 13 101 214
13 101 214 13 101 214 13 101 214 13 101 214 13 101 214 13 101 214 13 101 214 13 101 214 13 101 214 13 101 214 13 101 214 13 101 214 13 101 214 13 101 214 13 101 214 13 101 214 13 101 214 13 101 214 13 101 214 13 101 214 13 101 214 13 101 214 13 101 214 13 101 214 13 101 214 13 101 214 13 101 214 13 101 214 13 101 214 13 101 214 13 101 214 13 101 214 13 101 214 13 101 214 13 101 214 13 101 214 13 101 214 13 101 214 13 101 214 13 101 214 13 101 214 13 101 214 13 101 214 13 101 214 13 101 214 13 101 214 13 101 214 13 101 214 13 101 214 13 101 214 13 101 214 13 101 214 13 101 214 13 101 214 13 101 214 13 101 214 13 101 214 13 101 214 13 101 214 13 101 214 13 101 214 13 101 214 13 101 214 13 101 214 13 101 214 13 101 214 13 101 214 13 101 214 13 101 214 13 101 214 13 101 214 13 101 214 13 101 214 13 101 214 13 101 214 13 101 214 13 101 214 13 101 214 13 101 214 13 101 214 13 101 214 13 101 214 13 101 214 13 101 214 13 101 214 13 101 214 13 101 214 13 101 214 13 101 214 13 101 214 13 101 214 13 101 214 13 101 214 13 101 214 13 101 214 13 101 214 13 101 214 13 101 214 13 101 214 13 101 214 13 101 214 13 101 214 13 101 214 13 101 214 13 101 214 13 101 214 13 101 214 13 101 214 13 101 214 13 101 214 13 101 214 13 101 214 13 101 214 13 101 214 13 101 214 13 101 214 13 101 214 13 101 214 13 101 214 13 101 214 13 101 214 13 101 214 13 101 214 13 101 214 13 101 214 13 101 214 13 101 214 13 101 214 13 101 214 13 101 214 13 101 214 13 101 214 13 101 214 13 101 214 13 101 214 13 101 214 13 101 214 13 101 214 13 101 214 13 101 214 13 101 214 13 101 214 13 101 214 13 101 214 13 101 214 13 101 214 13 101 214 13 101 214 13 101 214 13 101 214 13 101 214 13 101 214 13 101 214 13 101 214 13 101 214 13 101 214 13 101 214 13 101 214 13 101 214 13 101 214 13 101 214 13 101 214 13 101 214 13 101 214 13 101 214 13 101 214 13 101 214 13 101 214 13 101 214 13 101 214 13 101 214 13 101 214 13 101 214 13 101 214 13 101 214 13 101 214 13 101 214 13 101 214 13 101 214 13 101 214 13 101 214 13 101 214 13 101 214 13 101 214 13 101 214 13 101 214 13 101 214 13 101 214 13 101 214 13 101 214 13 101 214 13 101 214 13 101 214 13 101 214 13 101 214 13 101 214 13 101 214 13 101 214 13 101 214 13 101 214 13 101 214 13 101 214 13 101 214 13 101 214 13 101 214 13 101 214 13 101 214 13 101 214 13 101 214 13 101 214 13 101 214 13 101 214 13 101 214 13 101 214 13 101 214 13 101 214 13 101 214 13 101 214 13 101 214 13 101 214 13 101 214 13 101 214 13 101 214 13 101 214 13 101 214 13 101 214 13 101 214 13 101 214 13 101 214 13 101 214 13 101 214 13 101 214 13 101 214 13 101 214 13 101 214 13 101 214 13 101 214 13 101 214 13 101 214 13 101 214 13 101 214 13 101 214 13 101 214 13 101 214 13 101 214 13 101 214 13 101 214 13 101 214 13 101 214 13 101 214 13 101 214 13 101 214 13 101 214 13 101 214 13 101 214 13 101 214
13 101 214 13 101 214 13 101 214 13 101 214 13 101 214 13 101 214 13 101 214 13 101 214 13 101 214 13 101 214 13 101 214 13 101 214 13 101 214 13 101 214 13 101 214 13 101 214 13 101 214 13 101 214 13 101 214 13 101 214 13 101 214 13 101 214 13 101 214 13 101 214 13 101 214 13 101 214 13 101 214 13 101 214 13 101 214 13 101 214 13 101 214 13 101 214 13 101 214 13 101 214 13 101 214 13 101 214 13 101 214 13 101 214 13 101 214 13 101 214 13 101 214 13 101 214 13 101 214 13 101 214 13 101 214 13 101 214 13 101 214 13 101 214 13 101 214 13 101 214 13 101 214 13 101 214 13 101 214 13 101 214 13 101 214 13 101 214 13 101 214 13 101 214 13 101 214 13 101 214 13 101 214 13 101 214 13 101 214 13 101 214 13 101 214 13 101 214 13 101 214 13 101 214 13 101 214 13 101 214 13 101 214 13 101 214 13 101 214 13 101 214 13 101 214 13 101 214 13 101 214 13 101 214 13 101 214 13 101 214 13 101 214 13 101 214 13 101 214 13 101 214 13 101 214 13 101 214 13 101 214 13 101 214 13 101 214 13 101 214 13 101 214 13 101 214 13 101 214 13 101 214 13 101 214 13 101 214 13 101 214 13 101 214 13 101 214 13 101 214 13 101 214 13 101 214 13 101 214 13 101 214 13 101 214 13 101 214 13 101 214 13 101 214 13 101 214 13 101 214 13 101 214 13 101 214 13 101 214 13 101 214 13 101 214 13 101 214 13 101 214 13 101 214 13 101 214 13 101 214 13 101 214 13 101 214 13 101 214 13 101 214 13 101 214 13 101 214 13 101 214 13 101 214 13 101 214 13 101 214 13 101 214 13 101 214 13 101 214 13 101 214 13 101 214 13 101 214 13 101 214 13 101 214 13 101 214 13 101 214 13 101 214 13 101 214 13 101 214 13 101 214 13 101 214 13 101 214 13 101 214 13 101 214 13 101 214 13 101 214 13 101 214 13 101 214 13 101 214 13 101 214 13 101 214 13 101 214 13 101 214 13 101 214 13 101 214 13 101 214 13 101 214 13 101 214 13 101 214 13 101 214 13 101 214 13 101 214 13 101 214 13 101 214 13 101 214 13 101 214 13 101 214 13 101 214 13 101 214 13 101 214 13 101 214 13 101 214 13 101 214 13 101 214 13 101 214 13 101 214 13 101 214 13 101 214 13 101 214 13 101 214 13 101 214 13 101 214 13 101 214 13 101 214 13 101 214 13 101 214 13 101 214 13 101 214 13 101 214 13 101 214 13 101 214 13 101 214 13 101 214 13 101 214 13 101 214 13 101 214 13 101 214 13 101 214 13 101 214 13 101 214 13 101 214 13 101 214 13 101 214 13 101 214 13 101 214 13 101 214 13 101 214 13 101 214 13 101 214 13 101 214 13 101 214 13 101 214 13 101 214 13 101 214 13 101 214 13 101 214 13 101 214 13 101 214 13 101 214 13 101 214 13 101 214 13 101 214 13 101 214 13 101 214 13 101 214 13 101 214 13 101 214 13 101 214 13 101 214 13 101 214 13 101 214 13 101 214 13 101 214 13 101 214 13 101 214 13 101 214 13 101 214 13 101 214 13 101 214 13 101 214 13 101 214 13 101 214 13 101 214 13 101 214 13 101 214 13 101 214 13 101 214 13 101 214 13 101 214 13 101 214 13 101 214 13 101 214
13 101 214 13 101 214 13 101 214 13 101 214 13 101 214 13 101 214 13 101 214 13 101 214 13 101 214 13 101 214 13 101 214 13 101 214 13 101 214 13 101 214 13 101 214 13 101 214 13 101 214 13 101 214 13 101 214 13 101 214 13 101 214 13 101 214 13 101 214 13 101 214 13 101 214 13 101 214 13 101 214 13 101 214 13 101 214 13 101 214 13 101 214 13 101 214 13 101 214 13 101 214 13 101 214 13 101 214 13 101 214 13 101 214 13 101 214 13 101 214 13 101 214 13 101 214 13 101 214 13 101 214 13 101 214 13 101 214 13 101 214 13 101 214 13 101 214 13 101 214 13 101 214 13 101 214 13 101 214 13 101 214 13 101 214 13 101 214 13 101 214 13 101 214 13 101 214 13 101 214 13 101 214 13 101 214 13 101 214 13 101 214 13 101 214 13 101 214 13 101 214 13 101 214 13 101 214 13 101 214 13 101 214 13 101 214 13 101 214 13 101 214 13 101 214 13 101 214 13 101 214 13 101 214 13 101 214 13 101 214 13 101 214 13 101 214 13 101 214 13 101 214 13 101 214 13 101 214 13 101 214 13 101 214 13 101 214 13 101 214 13 101 214 13 101 214 13 101 214 13 101 214 13 101 214 13 101 214 13 101 214 13 101 214 13 101 214 13 101 214 13 101 214 13 101 214 13 101 214 13 101 214 13 101 214 13 101 214 13 101 214 13 101 214 13 101 214 13 101 214 13 101 214 13 101 214 13 101 214 13 101 214 13 101 214 13 101 214 13 101 214 13 101 214 13 101 214 13 101 214 13 101 214 13 101 214 13 101 214 13 101 214 13 101 214 13 101 214 13 101 214 13 101 214 13 101 214 13 101 214 13 101 214 13 101 214 13 101 214 13 101 214 13 101 214 13 101 214 13 101 214 13 101 214 13 101 214 13 101 214 13 101 214 13 101 214 13 101 214 13 101 214 13 101 214 13 101 214 13 101 214 13 101 214 13 101 214 13 101 214 13 101 214 13 101 214 13 101 214 13 101 214 13 101 214 13 101 214 13 101 214 13 101 214 13 101 214 13 101 214 13 101 214 13 101 214 13 101 214 13 101 214 13 101 214 13 101 214 13 101 214 13 101 214 13 101 214 13 101 214 13 101 214 13 101 214 13 101 214 13 101 214 13 101 214 13 101 214 13 101 214 13 101 214 13 101 214 13 101 214 13 101 214 13 101 214 13 101 214 13 101 214 13 101 214 13 101 214 13 101 214 13 101 214 13 101 214 13 101 214 13 101 214 13 101 214 13 101 214 13 101 214 13 101 214 13 101 214 13 101 214 13 101 214 13 101 214 13 101 214 13 101 214 13 101 214 13 101 214 13 101 214 13 101 214 13 101 214 13 101 214 13 101 214 13 101 214 13 101 214 13 101 214 13 101 214 13 101 214 13 101 214 13 101 214 13 101 214 13 101 214 13 101 214 13 101 214 13 101 214 13 101 214 13 101 214 13 101 214 13 101 214 13 101 214 13 101 214 13 101 214 13 101 214 13 101 214 13 101 214 13 101 214 13 101 214 13 101 214 13 101 214 13 101 214 13 101 214 13 101 214 13 101 214 13 101 214 13 101 214 13 101 214 13 101 214 13 101 214 13 101 214 13 101 214 13 101 214 13 101 214 13 101 214 13 101 214 13 101 214 13 101 214 13 101 214 13 101 214 13 101 214 13 101 214 13 101 214
13 101 214 13 101 214 13 101 214 13 101 214 13 101 214 13 101 214 13 101 214 13 101 214 13 101 214 13 101 214 13 101 214 13 101 214 13 101 214 13 101 214 13 101 214 13 101 214 13 101 214 13 101 214 13 101 214 13 101 214 13 101 214 13 101 214 13 101 214 13 101 214 13 101 214 13 101 214 13 101 214 13 101 214 13 101 214 13 101 214 13 101 214 13 101 214 13 101 214 13 101 214 13 101 214 13 101 214 13 101 214 13 101 214 13 101 214 13 101 214 13 101 214 13 101 214 13 101 214 13 101 214 13 101 214 13 101 214 13 101 214 13 101 214 13 101 214 13 101 214 13 101 214 13 101 214 13 101 214 13 101 214 13 101 214 13 101 214 13 101 214 13 101 214 13 101 214 13 101 214 13 101 214 13 101 214 13 101 214 13 101 214 13 101 214 13 101 214 13 101 214 13 101 214 13 101 214 13 101 214 13 101 214 13 101 214 13 101 214 13 101 214 13 101 214 13 101 214 13 101 214 13 101 214 13 101 214 13 101 214 13 101 214 13 101 214 13 101 214 13 101 214 13 101 214 13 101 214 13 101 214 13 101 214 13 101 214 13 101 214 13 101 214 13 101 214 13 101 214 13 101 214 13 101 214 13 101 214 13 101 214 13 101 214 13 101 214 13 101 214 13 101 214 13 101 214 13 101 214 13 101 214 13 101 214 13 101 214 13 101 214 13 101 214 13 101 214 13 101 214 13 101 214 13 101 214 13 101 214 13 101 214 13 101 214 13 101 214 13 101 214 13 101 214 13 101 214 13 101 214 13 101 214 13 101 214 13 101 214 13 101 214 13 101 214 13 101 214 13 101 214 13 101 214 13 101 214 13 101 214 13 101 214 13 101 214 13 101 214 13 101 214 13 101 214 13 101 214 13 101 214 13 101 214 13 101 214 13 101 214 13 101 214 13 101 214 13 101 214 13 101 214 13 101 214 13 101 214 13 101 214 13 101 214 13 101 214 13 101 214 13 101 214 13 101 214 13 101 214 13 101 214 13 101 214 13 101 214 13 101 214 13 101 214 13 101 214 13 101 214 13 101 214 13 101 214 13 101 214 13 101 214 13 101 214 13 101 214 13 101 214 13 101 214 13 101 214 13 101 214 13 101 214 13 101 214 13 101 214 13 101 214 13 101 214 13 101 214 13 101 214 13 101 214 13 101 214 13 101 214 13 101 214 13 101 214 13 101 214 13 101 214 13 101 214 13 101 214 13 101 214 13 101 214 13 101 214 13 101 214 13 101 214 13 101 214 13 101 214 13 101 214 13 101 214 13 101 214 13 101 214 13 101 214 13 101 214 13 101 214 13 101 214 13 101 214 13 101 214 13 101 214 13 101 214 13 101 214 13 101 214 13 101 214 13 101 214 13 101 214 13 101 214 13 101 214 13 101 214 13 101 214 13 101 214 13 101 214 13 101 214 13 101 214 13 101 214 13 101 214 13 101 214 13 101 214 13 101 214 13 101 214 13 101 214 13 101 214 13 101 214 13 101 214 13 101 214 13 101 214 13 101 214 13 101 214 13 101 214 13 101 214 13 101 214 13 101 214 13 101 214 13 101 214 13 101 214 13 101 214 13 101 214 13 101 214 13 101 214 13 101 214 13 101 214 13 101 214 13 101 214 13 101 214 13 101 214 13 101 214 13 101 214 13 101 214 13 101 214 13 101 214 13 101 214 13 101 214
13 101 214 13 101 214 13 101 214 13 101 214 13 101 214 13 101 214 13 101 214 13 101 214 13 101 214 13 101 214 13 101 214 13 101 214 13 101 214 13 101 214 13 101 214 13 101 214 13 101 214 13 101 214 13 101 214 13 101 214 13 101 214 13 101 214 13 101 214 13 101 214 13 101 214 13 101 214 13 101 214 13 101 214 13 101 214 13 101 214 13 101 214 13 101 214 13 101 214 13 101 214 13 101 214 13 101 214 13 101 214 13 101 214 13 101 214 13 101 214 13 101 214 13 101 214 13 101 214 13 101 214 13 101 214 13 101 214 13 101 214 13 101 214 13 101 214 13 101 214 13 101 214 13 101 214 13 101 214 13 101 214 13 101 214 13 101 214 13 101 214 13 101 214 13 101 214 13 101 214 13 101 214 13 101 214 13 101 214 13 101 214 13 101 214 13 101 214 13 101 214 13 101 214 13 101 214 13 101 214 13 101 214 13 101 214 13 101 214 13 101 214 13 101 214 13 101 214 13 101 214 13 101 214 13 101 214 13 101 214 13 101 214 13 101 214 13 101 214 13 101 214 13 101 214 13 101 214 13 101 214 13 101 214 13 101 214 13 101 214 13 101 214 13 101 214 13 101 214 13 101 214 13 101 214 13 101 214 13 101 214 13 101 214 13 101 214 13 101 214 13 101 214 13 101 214 13 101 214 13 101 214 13 101 214 13 101 214 13 101 214 13 101 214 13 101 214 13 101 214 13 101 214 13 101 214 13 101 214 13 101 214 13 101 214 13 101 214 13 101 214 13 101 214 13 101 214 13 101 214 13 101 214 13 101 214 13 101 214 13 101 214 13 101 214 13 101 214 13 101 214 13 101 214 13 101 214 13 101 214 13 101 214 13 101 214 13 101 214 13 101 214 13 101 214 13 101 214 13 101 214 13 101 214 13 101 214 13 101 214 13 101 214 13 101 214 13 101 214 13 101 214 13 101 214 13 101 214 13 101 214 13 101 214 13 101 214 13 101 214 13 101 214 13 101 214 13 101 214 13 101 214 13 101 214 13 101 214 13 101 214 13 101 214 13 101 214 13 101 214 13 101 214 13 101 214 13 101 214 13 101 214 13 101 214 13 101 214 13 101 214 13 101 214 13 101 214 13 101 214 13 101 214 13 101 214 13 101 214 13 101 214 13 101 214 13 101 214 13 101 214 13 101 214 13 101 214 13 101 214 13 101 214 13 101 214 13 101 214 13 101 214 13 101 214 13 101 214 13 101 214 13 101 214 13 101 214 13 101 214 13 101 214 13 101 214 13 101 214 13 101 214 13 101 214 13 101 214 13 101 214 13 101 214 13 101 214 13 101 214 13 101 214 13 101 214 13 101 214 13 101 214 13 101 214 13 101 214 13 101 214 13 101 214 13 101 214 13 101 214 13 101 214 13 101 214 13 101 214 13 101 214 13 101 214 13 101 214 13 101 214 13 101 214 13 101 214 13 101 214 13 101 214 13 101 214 13 101 214 13 101 214 13 101 214 13 101 214 13 101 214 13 101 214 13 101 214 13 101 214 13 101 214 13 101 214 13 101 214 13 101 214 13 101 214 13 101 214 13 101 214 13 101 214 13 101 214 13 101 214 13 101 214 13 101 214 13 101 214 13 101 214 13 101 214 13 101 214 13 101 214 13 101 214 13 101 214 13 101 214 13 101 214 13 101 214 13 101 214 13 101 214 13 101 214 13 101 214
13 101 214 13 101 214 13 101 214 13 101 214 13 101 214 13 101 214 13 101 214 13 101 214 13 101 214 13 101 214 13 101 214 13 101 214 13 101 214 13 101 214 13 101 214 13 101 214 13 101 214 13 101 214 13 101 214 13 101 214 13 101 214 13 101 214 13 101 214 13 101 214 13 101 214 13 101 214 13 101 214 13 101 214 13 101 214 13 101 214 13 101 214 13 101 214 13 101 214 13 101 214 13 101 214 13 101 214 13 101 214 13 101 214 13 101 214 13 101 214 13 101 214 13 101 214 13 101 214 13 101 214 13 101 214 13 101 214 13 101 214 13 101 214 13 101 214 13 101 214 13 101 214 13 101 214 13 101 214 13 101 214 13 101 214 13 101 214 13 101 214 13 101 214 13 101 214 13 101 214 13 101 214 13 101 214 13 101 214 13 101 214 13 101 214 13 101 214 13 101 214 13 101 214 13 101 214 13 101 214 13 101 214 13 101 214 13 101 214 13 101 214 13 101 214 13 101 214 13 101 214 13 101 214 13 101 214 13 101 214 13 101 214 13 101 214 13 101 214 13 101 214 13 101 214 13 101 214 13 101 214 13 101 214 13 101 214 13 101 214 13 101 214 13 101 214 13 101 214 13 101 214 13 101 214 13 101 214 13 101 214 13 101 214 13 101 214 13 101 214 13 101 214 13 101 214 13 101 214 13 101 214 13 101 214 13 101 214 13 101 214 13 101 214 13 101 214 13 101 214 13 101 214 13 101 214 13 101 214 13 101 214 13 101 214 13 101 214 13 101 214 13 101 214 13 101 214 13 101 214 13 101 214 13 101 214 13 101 214 13 101 214 13 101 214 13 101 214 13 101 214 13 101 214 13 101 214 13 101 214 13 101 214 13 101 214 13 101 214 13 101 214 13 101 214 13 101 214 13 101 214 13 101 214 13 101 214 13 101 214 13 101 214 13 101 214 13 101 214 13 101 214 13 101 214 13 101 214 13 101 214 13 101 214 13 101 214 13 101 214 13 101 214 13 101 214 13 101 214 13 101 214 13 101 214 13 101 214 13 101 214 13 101 214 13 101 214 13 101 214 13 101 214 13 101 214 13 101 214 13 101 214 13 101 214 13 101 214 13 101 214 13 101 214 13 101 214 13 101 214 13 101 214 13 101 214 13 101 214 13 101 214 13 101 214 13 101 214 13 101 214 13 101 214 13 101 214 13 101 214 13 101 214 13 101 214 13 101 214 13 101 214 13 101 214 13 101 214 13 101 214 13 101 214 13 101 214 13 101 214 13 101 214 13 101 214 13 101 214 13 101 214 13 101 214 13 101 214 13 101 214 13 101 214 13 101 214 13 101 214 13 101 214 13 101 214 13 101 214 13 101 214 13 101 214 13 101 214 13 101 214 13 101 214 13 101 214 13 101 214 13 101 214 13 101 214 13 101 214 13 101 214 13 101 214 13 101 214 13 101 214 13 101 214 13 101 214 13 101 214 13 101 214 13 101 214 13 101 214 13 101 214 13 101 214 13 101 214 13 101 214 13 101 214 13 101 214 13 101 214 13 101 214 13 101 214 13 101 214 13 101 214 13 101 214 13 101 214 13 101 214 13 101 214 13 101 214 13 101 214 13 101 214 13 101 214 13 101 214 13 101 214 13 101 214 13 101 214 13 101 214 13 101 214 13 101 214 13 101 214 13 101 214 13 101 214 13 101 214 13 101 214 13 101 214 13 101 214
13 101 214 13 101 214 13 101 214 13 101 214 13 101 214 13 101 214 13 101 214 13 101 214 13 101 214 13 101 214 13 101 214 13 101 214 13 101 214 13 101 214 13 101 214 13 101 214 13 101 214 13 101 214 13 101 214 13 101 214 13 101 214 13 101 214 13 101 214 13 101 214 13 101 214 13 101 214 13 101 214 13 101 214 13 101 214 13 101 214 13 101 214 13 101 214 13 101 214 13 101 214 13 101 214 13 101 214 13 101 214 13 101 214 13 101 214 13 101 214 13 101 214 13 101 214 13 101 214 13 101 214 13 101 214 13 101 214 13 101 214 13 101 214 13 101 214 13 101 214 13 101 214 13 101 214 13 101 214 13 101 214 13 101 214 13 101 214 13 101 214 13 101 214 13 101 214 13 101 214 13 101 214 13 101 214 13 101 214 13 101 214 13 101 214 13 101 214 13 101 214 13 101 214 13 101 214 13 101 214 13 101 214 13 101 214 13 101 214 13 101 214 13 101 214 13 101 214 13 101 214 13 101 214 13 101 214 13 101 214 13 101 214 13 101 214 13 101 214 13 101 214 13 101 214 13 101 214 13 101 214 13 101 214 13 101 214 13 101 214 13 101 214 13 101 214 13 101 214 13 101 214 13 101 214 13 101 214 13 101 214 13 101 214 13 101 214 13 101 214 13 101 214 13 101 214 13 101 214 13 101 214 13 101 214 13 101 214 13 101 214 13 101 214 13 101 214 13 101 214 13 101 214 13 101 214 13 101 214 13 101 214 13 101 214 13 101 214 13 101 214 13 101 214 13 101 214 13 101 214 13 101 214 13 101 214 13 101 214 13 101 214 13 101 214 13 101 214 13 101 214 13 101 214 13 101 214 13 101 214 13 101 214 13 101 214 13 101 214 13 101 214 13 101 214 13 101 214 13 101 214 13 101 214 13 101 214 13 101 214 13 101 214 13 101 214 13 101 214 13 101 214 13 101 214 13 101 214 13 101 214 13 101 214 13 101 214 13 101 214 13 101 214 13 101 214 13 101 214 13 101 214 13 101 214 13 101 214 13 101 214 13 101 214 13 101 214 13 101 214 13 101 214 13 101 214 13 101 214 13 101 214 13 101 214 13 101 214 13 101 214 13 101 214 13 101 214 13 101 214 13 101 214 13 101 214 13 101 214 13 101 214 13 101 214 13 101 214 13 101 214 13 101 214 13 101 214 13 101 214 13 101 214 13 101 214 13 101 214 13 101 214 13 101 214 13 101 214 13 101 214 13 101 214 13 101 214 13 101 214 13 101 214 13 101 214 13 101 214 13 101 214 13 101 214 13 101 214 13 101 214 13 101 214 13 101 214 13 101 214 13 101 214 13 101 214 13 101 214 13 101 214 13 101 214 13 101 214 13 101 214 13 101 214 13 101 214 13 101 214 13 101 214 13 101 214 13 101 214 13 101 214 13 101 214 13 101 214 13 101 214 13 101 214 13 101 214 13 101 214 13 101 214 13 101 214 13 101 214 13 101 214 13 101 214 13 101 214 13 101 214 13 101 214 13 101 214 13 101 214 13 101 214 13 101 214 13 101 214 13 101 214 13 101 214 13 101 214 13 101 214 13 101 214 13 101 214 13 101 214 13 101 214 13 101 214 13 101 214 13 101 214 13 101 214 13 101 214 13 101 214 13 101 214 13 101 214 13 101 214 13 101 214 13 101 214 13 101 214 13 101 214 13 101 214 13 101 214
13 101 214 13 101 214 13 101 214 13 101 214 13 101 214 13 101 214 13 101 214 13 101 214 13 101 214 13 101 214 13 101 214 13 101 214 13 101 214 13 101 214 13 101 214 13 101 214 13 101 214 13 101 214 13 101 214 13 101 214 13 101 214 13 101 214 13 101 214 13 101 214 13 101 214 13 101 214 13 101 214 13 101 214 13 101 214 13 101 214 13 101 214 13 101 214 13 101 214 13 101 214 13 101 214 13 101 214 13 101 214 13 101 214 13 101 214 13 101 214 13 101 214 13 101 214 13 101 214 13 101 214 13 101 214 13 101 214 13 101 214 13 101 214 13 101 214 13 101 214 13 101 214 13 101 214 13 101 214 13 101 214 13 101 214 13 101 214 13 101 214 13 101 214 13 101 214 13 101 214 13 101 214 13 101 214 13 101 214 13 101 214 13 101 214 13 101 214 13 101 214 13 101 214 13 101 214 13 101 214 13 101 214 13 101 214 13 101 214 13 101 214 13 101 214 13 101 214 13 101 214 13 101 214 13 101 214 13 101 214 13 101 214 13 101 214 13 101 214 13 101 214 13 101 214 13 101 214 13 101 214 13 101 214 13 101 214 13 101 214 13 101 214 13 101 214 13 101 214 13 101 214 13 101 214 13 101 214 13 101 214 13 101 214 13 101 214 13 101 214 13 101 214 13 101 214 13 101 214 13 101 214 13 101 214 13 101 214 13 101 214 13 101 214 13 101 214 13 101 214 13 101 214 13 101 214 13 101 214 13 101 214 13 101 214 13 101 214 13 101 214 13 101 214 13 101 214 13 101 214 13 101 214 13 101 214 13 101 214 13 101 214 13 101 214 13 101 214 13 101 214 13 101 214 13 101 214 13 101 214 13 101 214 13 101 214 13 101 214 13 101 214 13 101 214 13 101 214 13 101 214 13 101 214 13 101 214 13 101 214 13 101 214 13 101 214 13 101 214 13 101 214 13 101 214 13 101 214 13 101 214 13 101 214 13 101 214 13 101 214 13 101 214 13 101 214 13 101 214 13 101 214 13 101 214 13 101 214 13 101 214 13 101 214 13 101 214 13 101 214 13 101 214 13 101 214 13 101 214 13 101 214 13 101 214 13 101 214 13 101 214 13 101 214 13 101 214 13 101 214 13 101 214 13 101 214 13 101 214 13 101 214 13 101 214 13 101 214 13 101 214 13 101 214 13 101 214 13 101 214 13 101 214 13 101 214 13 101 214 13 101 214 13 101 214 13 101 214 13 101 214 13 101 214 13 101 214 13 101 214 13 101 214 13 101 214 13 101 214 13 101 214 13 101 214 13 101 214 13 101 214 13 101 214 13 101 214 13 101 214 13 101 214 13 101 214 13 101 214 13 101 214 13 101 214 13 101 214 13 101 214 13 101 214 13 101 214 13 101 214 13 101 214 13 101 214 13 101 214 13 101 214 13 101 214 13 101 214 13 101 214 13 101 214 13 101 214 13 101 214 13 101 214 13 101 214 13 101 214 13 101 214 13 101 214 13 101 214 13 101 214 13 101 214 13 101 214 13 101 214 13 101 214 13 101 214 13 101 214 13 101 214 13 101 214 13 101 214 13 101 214 13 101 214 13 101 214 13 101 214 13 101 214 13 101 214 13 101 214 13 101 214 13 101 214 13 101 214 13 101 214 13 101 214 13 101 214 13 101 214 13 101 214 13 101 214 13 101 214 13 101 214 13 101 214 13 101 214
13 101 214 13 101 214 13 101 214 13 101 214 13 101 214 13 101 214 13 101 214 13 101 214 13 101 214 13 101 214 13 101 214 13 101 214 13 101 214 13 101 214 13 101 214 13 101 214 13 101 214 13 101 214 13 101 214 13 101 214 13 101 214 13 101 214 13 101 214 13 101 214 13 101 214 13 101 214 13 101 214 13 101 214 13 101 214 13 101 214 13 101 214 13 101 214 13 101 214 13 101 214 13 101 214 13 101 214 13 101 214 13 101 214 13 101 214 13 101 214 13 101 214 13 101 214 13 101 214 13 101 214 13 101 214 13 101 214 13 101 214 13 101 214 13 101 214 13 101 214 13 101 214 13 101 214 13 101 214 13 101 214 13 101 214 13 101 214 13 101 214 13 101 214 13 101 214 13 101 214 13 101 214 13 101 214 13 101 214 13 101 214 13 101 214 13 101 214 13 101 214 13 101 214 13 101 214 13 101 214 13 101 214 13 101 214 13 101 214 13 101 214 13 101 214 13 101 214 13 101 214 13 101 214 13 101 214 13 101 214 13 101 214 13 101 214 13 101 214 13 101 214 13 101 214 13 101 214 13 101 214 13 101 214 13 101 214 13 101 214 13 101 214 13 101 214 13 101 214 13 101 214 13 101 214 13 101 214 13 101 214 13 101 214 13 101 214 13 101 214 13 101 214 13 101 214 13 101 214 13 101 214 13 101 214 13 101 214 13 101 214 13 101 214 13 101 214 13 101 214 13 101 214 13 101 214 13 101 214 13 101 214 13 101 214 13 101 214 13 101 214 13 101 214 13 101 214 13 101 214 13 101 214 13 101 214 13 101 214 13 101 214 13 101 214 13 101 214 13 101 214 13 101 214 13 101 214 13 101 214 13 101 214 13 101 214 13 101 214 13 101 214 13 101 214 13 101 214 13 101 214 13 101 214 13 101 214 13 101 214 13 101 214 13 101 214 13 101 214 13 101 214 13 101 214 13 101 214 13 101 214 13 101 214 13 101 214 13 101 214 13 101 214 13 101 214 13 101 214 13 101 214 13 101 214 13 101 214 13 101 214 13 101 214 13 101 214 13 101 214 13 101 214 13 101 214 13 101 214 13 101 214 13 101 214 13 101 214 13 101 214 13 101 214 13 101 214 13 101 214 13 101 214 13 101 214 13 101 214 13 101 214 13 101 214 13 101 214 13 101 214 13 101 214 13 101 214 13 101 214 13 101 214 13 101 214 13 101 214 13 101 214 13 101 214 13 101 214 13 101 214 13 101 214 13 101 214 13 101 214 13 101 214 13 101 214 13 101 214 13 101 214 13 101 214 13 101 214 13 101 214 13 101 214 13 101 214 13 101 214 13 101 214 13 101 214 13 101 214 13 101 214 13 101 214 13 101 214 13 101 214 13 101 214 13 101 214 13 101 214 13 101 214 13 101 214 13 101 214 13 101 214 13 101 214 13 101 214 13 101 214 13 101 214 13 101 214 13 101 214 13 101 214 13 101 214 13 101 214 13 101 214 13 101 214 13 101 214 13 101 214 13 101 214 13 101 214 13 101 214 13 101 214 13 101 214 13 101 214 13 101 214 13 101 214 13 101 214 13 101 214 13 101 214 13 101 214 13 101 214 13 101 214 13 101 214 13 101 214 13 101 214 13 101 214 13 101 214 13 101 214 13 101 214 13 101 214 13 101 214 13 101 214 13 101 214 13 101 214 13 101 214 13 101 214 13 101 214
13 101 214 13 101 214 13 101 214 13 101 214 13 101 214 13 101 214 13 101 214 13 101 214 13 101 214 13 101 214 13 101 214 13 101 214 13 101 214 13 101 214 13 101 214 13 101 214 13 101 214 13 101 214 13 101 214 13 101 214 13 101 214 13 101 214 13 101 214 13 101 214 13 101 214 13 101 214 13 101 214 13 101 214 13 101 214 13 101 214 13 101 214 13 101 214 13 101 214 13 101 214 13 101 214 13 101 214 13 101 214 13 101 214 13 101 214 13 101 214 13 101 214 13 101 214 13 101 214 13 101 214 13 101 214 13 101 214 13 101 214 13 101 214 13 101 214 13 101 214 13 101 214 13 101 214 13 101 214 13 101 214 13 101 214 13 101 214 13 101 214 13 101 214 13 101 214 13 101 214 13 101 214 13 101 214 13 101 214 13 101 214 13 101 214 13 101 214 13 101 214 13 101 214 13 101 214 13 101 214 13 101 214 13 101 214 13 101 214 13 101 214 13 101 214 13 101 214 13 101 214 13 101 214 13 101 214 13 101 214 13 101 214 13 101 214 13 101 214 13 101 214 13 101 214 13 101 214 13 101 214 13 101 214 13 101 214 13 101 214 13 101 214 13 101 214 13 101 214 13 101 214 13 101 214 13 101 214 13 101 214 13 101 214 13 101 214 13 101 214 13 101 214 13 101 214 13 101 214 13 101 214 13 101 214 13 101 214 13 101 214 13 101 214 13 101 214 13 101 214 13 101 214 13 101 214 13 101 214 13 101 214 13 101 214 13 101 214 13 101 214 13 101 214 13 101 214 13 101 214 13 101 214 13 101 214 13 101 214 13 101 214 13 101 214 13 101 214 13 101 214 13 101 214 13 101 214 13 101 214 13 101 214 13 101 214 13 101 214 13 101 214 13 101 214 13 101 214 13 101 214 13 101 214 13 101 214 13 101 214 13 101 214 13 101 214 13 101 214 13 101 214 13 101 214 13 101 214 13 101 214 13 101 214 13 101 214 13 101 214 13 101 214 13 101 214 13 101 214 13 101 214 13 101 214 13 101 214 13 101 214 13 101 214 13 101 214 13 101 214 13 101 214 13 101 214 13 101 214 13 101 214 13 101 214 13 101 214 13 101 214 13 101 214 13 101 214 13 101 214 13 101 214 13 101 214 13 101 214 13 101 214 13 101 214 13 101 214 13 101 214 13 101 214 13 101 214 13 101 214 13 101 214 13 101 214 13 101 214 13 101 214 13 101 214 13 101 214 13 101 214 13 101 214 13 101 214 13 101 214 13 101 214 13 101 214 13 101 214 13 101 214 13 101 214 13 101 214 13 101 214 13 101 214 13 101 214 13 101 214 13 101 214 13 101 214 13 101 214 13 101 214 13 101 214 13 101 214 13 101 214 13 101 214 13 101 214 13 101 214 13 101 214 13 101 214 13 101 214 13 101 214 13 101 214 13 101 214 13 101 214 13 101 214 13 101 214 13 101 214 13 101 214 13 101 214 13 101 214 13 101 214 13 101 214 13 101 214 13 101 214 13 101 214 13 101 214 13 101 214 13 101 214 13 101 214 13 101 214 13 101 214 13 101 214 13 101 214 13 101 214 13 101 214 13 101 214 13 101 214 13 101 214 13 101 214 13 101 214 13 101 214 13 101 214 13 101 214 13 101 214 13 101 214 13 101 214 13 101 214 13 101 214 13 101 214 13 101 214 13 101 214 13 101 214 13 101 214
13 101 214 13 101 214 13 101 214 13 101 214 13 101 214 13 101 214 13 101 214 13 101 214 13 101 214 13 101 214 13 101 214 13 101 214 13 101 214 13 101 214 13 101 214 13 101 214 13 101 214 13 101 214 13 101 214 13 101 214 13 101 214 13 101 214 13 101 214 13 101 214 13 101 214 13 101 214 13 101 214 13 101 214 13 101 214 13 101 214 13 101 214 13 101 214 13 101 214 13 101 214 13 101 214 13 101 214 13 101 214 13 101 214 13 101 214 13 101 214 13 101 214 13 101 214 13 101 214 13 101 214 13 101 214 13 101 214 13 101 214 13 101 214 13 101 214 13 101 214 13 101 214 13 101 214 13 101 214 13 101 214 13 101 214 13 101 214 13 101 214 13 101 214 13 101 214 13 101 214 13 101 214 13 101 214 13 101 214 13 101 214 13 101 214 13 101 214 13 101 214 13 101 214 13 101 214 13 101 214 13 101 214 13 101 214 13 101 214 13 101 214 13 101 214 13 101 214 13 101 214 13 101 214 13 101 214 13 101 214 13 101 214 13 101 214 13 101 214 13 101 214 13 101 214 13 101 214 13 101 214 13 101 214 13 101 214 13 101 214 13 101 214 13 101 214 13 101 214 13 101 214 13 101 214 13 101 214 13 101 214 13 101 214 13 101 214 13 101 214 13 101 214 13 101 214 13 101 214 13 101 214 13 101 214 13 101 214 13 101 214 13 101 214 13 101 214 13 101 214 13 101 214 13 101 214 13 101 214 13 101 214 13 101 214 13 101 214 13 101 214 13 101 214 13 101 214 13 101 214 13 101 214 13 101 214 13 101 214 13 101 214 13 101 214 13 101 214 13 101 214 13 101 214 13 101 214 13 101 214 13 101 214 13 101 214 13 101 214 13 101 214 13 101 214 13 101 214 13 101 214 13 101 214 13 101 214 13 101 214 13 101 214 13 101 214 13 101 214 13 101 214 13 101 214 13 101 214 13 101 214 13 101 214 13 101 214 13 101 214 13 101 214 13 101 214 13 101 214 13 101 214 13 101 214 13 101 214 13 101 214 13 101 214 13 101 214 13 101 214 13 101 214 13 101 214 13 101 214 13 101 214 13 101 214 13 101 214 13 101 214 13 101 214 13 101 214 13 101 214 13 101 214 13 101 214 13 101 214 13 101 214 13 101 214 13 101 214 13 101 214 13 101 214 13 101 214 13 101 214 13 101 214 13 101 214 13 101 214 13 101 214 13 101 214 13 101 214 13 101 214 13 101 214 13 101 214 13 101 214 13 101 214 13 101 214 13 101 214 13 101 214 13 101 214 13 101 214 13 101 214 13 101 214 13 101 214 13 101 214 13 101 214 13 101 214 13 101 214 13 101 214 13 101 214 13 101 214 13 101 214 13 101 214 13 101 214 13 101 214 13 101 214 13 101 214 13 101 214 13 101 214 13 101 214 13 101 214 13 101 214 13 101 214 13 101 214 13 101 214 13 101 214 13 101 214 13 101 214 13 101 214 13 101 214 13 101 214 13 101 214 13 101 214 13 101 214 13 101 214 13 101 214 13 101 214 13 101 214 13 101 214 13 101 214 13 101 214 13 101 214 13 101 214 13 101 214 13 101 214 13 101 214 13 101 214 13 101 214 13 101 214 13 101 214 13 101 214 13 101 214 13 101 214 13 101 214 13 101 214 13 101 214 13 101 214 13 101 214 13 101 214 13 101 214 13 101 214
13 101 214 13 101 214 13 101 214 13 101 214 13 101 214 13 101 214 13 101 214 13 101 214 13 101 214 13 101 214 13 101 214 13 101 214 13 101 214 13 101 214 13 101 214 13 101 214 13 101 214 13 101 214 13 101 214 13 101 214 13 101 214 13 101 214 13 101 214 13 101 214 13 101 214 13 101 214 13 101 214 13 101 214 13 101 214 13 101 214 13 101 214 13 101 214 13 101 214 13 101 214 13 101 214 13 101 214 13 101 214 13 101 214 13 101 214 13 101 214 13 101 214 13 101 214 13 101 214 13 101 214 13 101 214 13 101 214 13 101 214 13 101 214 13 101 214 13 101 214 13 101 214 13 101 214 13 101 214 13 101 214 13 101 214 13 101 214 13 101 214 13 101 214 13 101 214 13 101 214 13 101 214 13 101 214 13 101 214 13 101 214 13 101 214 13 101 214 13 101 214 13 101 214 13 101 214 13 101 214 13 101 214 13 101 214 13 101 214 13 101 214 13 101 214 13 101 214 13 101 214 13 101 214 13 101 214 13 101 214 13 101 214 13 101 214 13 101 214 13 101 214 13 101 214 13 101 214 13 101 214 13 101 214 13 101 214 13 101 214 13 101 214 13 101 214 13 101 214 13 101 214 13 101 214 13 101 214 13 101 214 13 101 214 13 101 214 13 101 214 13 101 214 13 101 214 13 101 214 13 101 214 13 101 214 13 101 214 13 101 214 13 101 214 13 101 214 13 101 214 13 101 214 13 101 214 13 101 214 13 101 214 13 101 214 13 101 214 13 101 214 13 101 214 13 101 214 13 101 214 13 101 214 13 101 214 13 101 214 13 101 214 13 101 214 13 101 214 13 101 214 13 101 214 13 101 214 13 101 214 13 101 214 13 101 214 13 101 214 13 101 214 13 101 214 13 101 214 13 101 214 13 101 214 13 101 214 13 101 214 13 101 214 13 101 214 13 101 214 13 101 214 13 101 214 13 101 214 13 101 214 13 101 214 13 101 214 13 101 214 13 101 214 13 101 214 13 101 214 13 101 214 13 101 214 13 101 214 13 101 214 13 101 214 13 101 214 13 101 214 13 101 214 13 101 214 13 101 214 13 101 214 13 101 214 13 101 214 13 101 214 13 101 214 13 101 214 13 101 214 13 101 214 13 101 214 13 101 214 13 101 214 13 101 214 13 101 214 13 101 214 13 101 214 13 101 214 13 101 214 13 101 214 13 101 214 13 101 214 13 101 214 13 101 214 13 101 214 13 101 214 13 101 214 13 101 214 13 101 214 13 101 214 13 101 214 13 101 214 13 101 214 13 101 214 13 101 214 13 101 214 13 101 214 13 101 214 13 101 214 13 101 214 13 101 214 13 101 214 13 101 214 13 101 214 13 101 214 13 101 214 13 101 214 13 101 214 13 101 214 13 101 214 13 101 214 13 101 214 13 101 214 13 101 214 13 101 214 13 101 214 13 101 214 13 101 214 13 101 214 13 101 214 13 101 214 13 101 214 13 101 214 13 101 214 13 101 214 13 101 214 13 101 214 13 101 214 13 101 214 13 101 214 13 101 214 13 101 214 13 101 214 13 101 214 13 101 214 13 101 214 13 101 214 13 101 214 13 101 214 13 101 214 13 101 214 13 101 214 13 101 214 13 101 214 13 101 214 13 101 214 13 101 214 13 101 214 13 101 214 13 101 214 13 101 214 13 101 214 13 101 214 13 101 214 13 101 214
13 101 214 13 101 214 13 101 214 13 101 214 13 101 214 13 101 214 13 101 214 13 101 214 13 101 214 13 101 214 13 101 214 13 101 214 13 101 214 13 101 214 13 101 214 13 101 214 13 101 214 13 101 214 13 101 214 13 101 214 13 101 214 13 101 214 13 101 214 13 101 214 13 101 214 13 101 214 13 101 214 13 101 214 13 101 214 13 101 214 13 101 214 13 101 214 13 101 214 13 101 214 13 101 214 13 101 214 13 101 214 13 101 214 13 101 214 13 101 214 13 101 214 13 101 214 13 101 214 13 101 214 13 101 214 13 101 214 13 101 214 13 101 214 13 101 214 13 101 214 13 101 214 13 101 214 13 101 214 13 101 214 13 101 214 13 101 214 13 101 214 13 101 214 13 101 214 13 101 214 13 101 214 13 101 214 13 101 214 13 101 214 13 101 214 13 101 214 13 101 214 13 101 214 13 101 214 13 101 214 13 101 214 13 101 214 13 101 214 13 101 214 13 101 214 13 101 214 13 101 214 13 101 214 13 101 214 13 101 214 13 101 214 13 101 214 13 101 214 13 101 214 13 101 214 13 101 214 13 101 214 13 101 214 13 101 214 13 101 214 13 101 214 13 101 214 13 101 214 13 101 214 13 101 214 13 101 214 13 101 214 13 101 214 13 101 214 13 101 214 13 101 214 13 101 214 13 101 214 13 101 214 13 101 214 13 101 214 13 101 214 13 101 214 13 101 214 13 101 214 13 101 214 13 101 214 13 101 214 13 101 214 13 101 214 13 101 214 13 101 214 13 101 214 13 101 214 13 101 214 13 101 214 13 101 214 13 101 214 13 101 214 13 101 214 13 101 214 13 101 214 13 101 214 13 101 214 13 101 214 13 101 214 13 101 214 13 101 214 13 101 214 13 101 214 13 101 214 13 101 214 13 101 214 13 101 214 13 101 214 13 101 214 13 101 214 13 101 214 13 101 214 13 101 214 13 101 214 13 101 214 13 101 214 13 101 214 13 101 214 13 101 214 13 101 214 13 101 214 13 101 214 13 101 214 13 101 214 13 101 214 13 101 214 13 101 214 13 101 214 13 101 214 13 101 214 13 101 214 13 101 214 13 101 214 13 101 214 13 101 214 13 101 214 13 101 214 13 101 214 13 101 214 13 101 214 13 101 214 13 101 214 13 101 214 13 101 214 13 101 214 13 101 214 13 101 214 13 101 214 13 101 214 13 101 214 13 101 214 13 101 214 13 101 214 13 101 214 13 101 214 13 101 214 13 101 214 13 101 214 13 101 214 13 101 214 13 101 214 13 101 214 13 101 214 13 101 214 13 101 214 13 101 214 13 101 214 13 101 214 13 101 214 13 101 214 13 101 214 13 101 214 13 101 214 13 101 214 13 101 214 13 101 214 13 101 214 13 101 214 13 101 214 13 101 214 13 101 214 13 101 214 13 101 214 13 101 214 13 101 214 13 101 214 13 101 214 13 101 214 13 101 214 13 101 214 13 101 214 13 101 214 13 101 214 13 101 214 13 101 214 13 101 214 13 101 214 13 101 214 13 101 214 13 101 214 13 101 214 13 101 214 13 101 214 13 101 214 13 101 214 13 101 214 13 101 214 13 101 214 13 101 214 13 101 214 13 101 214 13 101 214 13 101 214 13 101 214 13 101 214 13 101 214 13 101 214 13 101 214 13 101 214 13 101 214 13 101 214 13 101 214 13 101 214 13 101 214
13 101 214 13 101 214 13 101 214 13 101 214 13 101 214 13 101 214 13 101 214 13 101 214 13 101 214 13 101 214 13 101 214 13 101 214 13 101 214 13 101 214 13 101 214 13 101 214 13 101 214 13 101 214 13 101 214 13 101 214 13 101 214 13 101 214 13 101 214 13 101 214 13 101 214 13 101 214 13 101 214 13 101 214 13 101 214 13 101 214 13 101 214 13 101 214 13 101 214 13 101 214 13 101 214 13 101 214 13 101 214 13 101 214 13 101 214 13 101 214 13 101 214 13 101 214 13 101 214 13 101 214 13 101 214 13 101 214 13 101 214 13 101 214 13 101 214 13 101 214 13 101 214 13 101 214 13 101 214 13 101 214 13 101 214 13 101 214 13 101 214 13 101 214 13 101 214 13 101 214 13 101 214 13 101 214 13 101 214 13 101 214 13 101 214 13 101 214 13 101 214 13 101 214 13 101 214 13 101 214 13 101 214 13 101 214 13 101 214 13 101 214 13 101 214 13 101 214 13 101 214 13 101 214 13 101 214 13 101 214 13 101 214 13 101 214 13 101 214 13 101 214 13 101 214 13 101 214 13 101 214 13 101 214 13 101 214 13 101 214 13 101 214 13 101 214 13 101 214 13 101 214 13 101 214 13 101 214 13 101 214 13 101 214 13 101 214 13 101 214 13 101 214 13 101 214 13 101 214 13 101 214 13 101 214 13 101 214 13 101 214 13 101 214 13 101 214 13 101 214 13 101 214 13 101 214 13 101 214 13 101 214 13 101 214 13 101 214 13 101 214 13 101 214 13 101 214 13 101 214 13 101 214 13 101 214 13 101 214 13 101 214 13 101 214 13 101 214 13 101 214 13 101 214 13 101 214 13 101 214 13 101 214 13 101 214 13 101 214 13 101 214 13 101 214 13 101 214 13 101 214 13 101 214 13 101 214 13 101 214 13 101 214 13 101 214 13 101 214 13 101 214 13 101 214 13 101 214 13 101 214 13 101 214 13 101 214 13 101 214 13 101 214 13 101 214 13 101 214 13 101 214 13 101 214 13 101 214 13 101 214 13 101 214 13 101 214 13 101 214 13 101 214 13 101 214 13 101 214 13 101 214 13 101 214 13 101 214 13 101 214 13 101 214 13 101 214 13 101 214 13 101 214 13 101 214 13 101 214 13 101 214 13 101 214 13 101 214 13 101 214 13 101 214 13 101 214 13 101 214 13 101 214 13 101 214 13 101 214 13 101 214 13 101 214 13 101 214 13 101 214 13 101 214 13 101 214 13 101 214 13 101 214 13 101 214 13 101 214 13 101 214 13 101 214 13 101 214 13 101 214 13 101 214 13 101 214 13 101 214 13 101 214 13 101 214 13 101 214 13 101 214 13 101 214 13 101 214 13 101 214 13 101 214 13 101 214 13 101 214 13 101 214 13 101 214 13 101 214 13 101 214 13 101 214 13 101 214 13 101 214 13 101 214 13 101 214 13 101 214 13 101 214 13 101 214 13 101 214 13 101 214 13 101 214 13 101 214 13 101 214 13 101 214 13 101 214 13 101 214 13 101 214 13 101 214 13 101 214 13 101 214 13 101 214 13 101 214 13 101 214 13 101 214 13 101 214 13 101 214 13 101 214 13 101 214 13 101 214 13 101 214 13 101 214 13 101 214 13 101 214 13 101 214 13 101 214 13 101 214 13 101 214 13 101 214 13 101 214 13 101 214 13 101 214 13 101 214
13 101 214 13 101 214 13 101 214 13 101 214 13 101 214 13 101 214 13 101 214 13 101 214 13 101 214 13 101 214 13 101 214 13 101 214 13 101 214 13 101 214 13 101 214 13 101 214 13 101 214 13 101 214 13 101 214 13 101 214 13 101 214 13 101 214 13 101 214 13 101 214 13 101 214 13 101 214 13 101 214 13 101 214 13 101 214 13 101 214 13 101 214 13 101 214 13 101 214 13 101 214 13 101 214 13 101 214 13 101 214 13 101 214 13 101 214 13 101 214 13 101 214 13 101 214 13 101 214 13 101 214 13 101 214 13 101 214 13 101 214 13 101 214 13 101 214 13 101 214 13 101 214 13 101 214 13 101 214 13 101 214 13 101 214 13 101 214 13 101 214 13 101 214 13 101 214 13 101 214 13 101 214 13 101 214 13 101 214 13 101 214 13 101 214 13 101 214 13 101 214 13 101 214 13 101 214 13 101 214 13 101 214 13 101 214 13 101 214 13 101 214 13 101 214 13 101 214 13 101 214 13 101 214 13 101 214 13 101 214 13 101 214 13 101 214 13 101 214 13 101 214 13 101 214 13 101 214 13 101 214 13 101 214 13 101 214 13 101 214 13 101 214 13 101 214 13 101 214 13 101 214 13 101 214 13 101 214 13 101 214 13 101 214 13 101 214 13 101 214 13 101 214 13 101 214 13 101 214 13 101 214 13 101 214 13 101 214 13 101 214 13 101 214 13 101 214 13 101 214 13 101 214 13 101 214 13 101 214 13 101 214 13 101 214 13 101 214 13 101 214 13 101 214 13 101 214 13 101 214 13 101 214 13 101 214 13 101 214 13 101 214 13 101 214 13 101 214 13 101 214 13 101 214 13 101 214 13 101 214 13 101 214 13 101 214 13 101 214 13 101 214 13 101 214 13 101 214 13 101 214 13 101 214 13 101 214 13 101 214 13 101 214 13 101 214 13 101 214 13 101 214 13 101 214 13 101 214 13 101 214 13 101 214 13 101 214 13 101 214 13 101 214 13 101 214 13 101 214 13 101 214 13 101 214 13 101 214 13 101 214 13 101 214 13 101 214 13 101 214 13 101 214 13 101 214 13 101 214 13 101 214 13 101 214 13 101 214 13 101 214 13 101 214 13 101 214 13 101 214 13 101 214 13 101 214 13 101 214 13 101 214 13 101 214 13 101 214 13 101 214 13 101 214 13 101 214 13 101 214 13 101 214 13 101 214 13 101 214 13 101 214 13 101 214 13 101 214 13 101 214 13 101 214 13 101 214 13 101 214 13 101 214 13 101 214 13 101 214 13 101 214 13 101 214 13 101 214 13 101 214 13 101 214 13 101 214 13 101 214 13 101 214 13 101 214 13 101 214 13 101 214 13 101 214 13 101 214 13 101 214 13 101 214 13 101 214 13 101 214 13 101 214 13 101 214 13 101 214 13 101 214 13 101 214 13 101 214 13 101 214 13 101 214 13 101 214 13 101 214 13 101 214 13 101 214 13 101 214 13 101 214 13 101 214 13 101 214 13 101 214 13 101 214 13 101 214 13 101 214 13 101 214 13 101 214 13 101 214 13 101 214 13 101 214 13 101 214 13 101 214 13 101 214 13 101 214 13 101 214 13 101 214 13 101 214 13 101 214 13 101 214 13 101 214 13 101 214 13 101 214 13 101 214 13 101 214 13 101 214 13 101 214 13 101 214 13 101 214 13 101 214 13 101 214 13 101 214
13 101 214 13 101 214 13 101 214 13 101 214 13 101 214 13 101 214 13 101 214 13 101 214 13 101 214 13 101 214 13 101 214 13 101 214 13 101 214 13 101 214 13 101 214 13 101 214 13 101 214 13 101 214 13 101 214 13 101 214 13 101 214 13 101 214 13 101 214 13 101 214 13 101 214 13 101 214 13 101 214 13 101 214 13 101 214 13 101 214 13 101 214 13 101 214 13 101 214 13 101 214 13 101 214 13 101 214 13 101 214 13 101 214 13 101 214 13 101 214 13 101 214 13 101 214 13 101 214 13 101 214 13 101 214 13 101 214 13 101 214 13 101 214 13 101 214 13 101 214 13 101 214 13 101 214 13 101 214 13 101 214 13 101 214 13 101 214 13 101 214 13 101 214 13 101 214 13 101 214 13 101 214 13 101 214 13 101 214 13 101 214 13 101 214 13 101 214 13 101 214 13 101 214 13 101 214 13 101 214 13 101 214 13 101 214 13 101 214 13 101 214 13 101 214 13 101 214 13 101 214 13 101 214 13 101 214 13 101 214 13 101 214 13 101 214 13 101 214 13 101 214 13 101 214 13 101 214 13 101 214 13 101 214 13 101 214 13 101 214 13 101 214 13 101 214 13 101 214 13 101 214 13 101 214 13 101 214 13 101 214 13 101 214 13 101 214 13 101 214 13 101 214 13 101 214 13 101 214 13 101 214 13 101 214 13 101 214 13 101 214 13 101 214 13 101 214 13 101 214 13 101 214 13 101 214 13 101 214 13 101 214 13 101 214 13 101 214 13 101 214 13 101 214 13 101 214 13 101 214 13 101 214 13 101 214 13 101 214 13 101 214 13 101 214 13 101 214 13 101 214 13 101 214 13 101 214 13 101 214 13 101 214 13 101 214 13 101 214 13 101 214 13 101 214 13 101 214 13 101 214 13 101 214 13 101 214 13 101 214 13 101 214 13 101 214 13 101 214 13 101 214 13 101 214 13 101 214 13 101 214 13 101 214 13 101 214 13 101 214 13 101 214 13 101 214 13 101 214 13 101 214 13 101 214 13 101 214 13 101 214 13 101 214 13 101 214 13 101 214 13 101 214 13 101 214 13 101 214 13 101 214 13 101 214 13 101 214 13 101 214 13 101 214 13 101 214 13 101 214 13 101 214 13 101 214 13 101 214 13 101 214 13 101 214 13 101 214 13 101 214 13 101 214 13 101 214 13 101 214 13 101 214 13 101 214 13 101 214 13 101 214 13 101 214 13 101 214 13 101 214 13 101 214 13 101 214 13 101 214 13 101 214 13 101 214 13 101 214 13 101 214 13 101 214 13 101 214 13 101 214 13 101 214 13 101 214 13 101 214 13 101 214 13 101 214 13 101 214 13 101 214 13 101 214 13 101 214 13 101 214 13 101 214 13 101 214 13 101 214 13 101 214 13 101 214 13 101 214 13 101 214 13 101 214 13 101 214 13 101 214 13 101 214 13 101 214 13 101 214 13 101 214 13 101 214 13 101 214 13 101 214 13 101 214 13 101 214 13 101 214 13 101 214 13 101 214 13 101 214 13 101 214 13 101 214 13 101 214 13 101 214 13 101 214 13 101 214 13 101 214 13 101 214 13 101 214 13 101 214 13 101 214 13 101 214 13 101 214 13 101 214 13 101 214 13 101 214 13 101 214 13 101 214 13 101 214 13 101 214 13 101 214 13 101 214 13 101 214 13 101 214 13 101 214 13 101 214
13 101 214 13 101 214 13 101 214 13 101 214 13 101 214 13 101 214 13 101 214 13 101 214 13 101 214 13 101 214 13 101 214 13 101 214 13 101 214 13 101 214 13 101 214 13 101 214 13 101 214 13 101 214 13 101 214 13 101 214 13 101 214 13 101 214 13 101 214 13 101 214 13 101 214 13 101 214 13 101 214 13 101 214 13 101 214 13 101 214 13 101 214 13 101 214 13 101 214 13 101 214 13 101 214 13 101 214 13 101 214 13 101 214 13 101 214 13 101 214 13 101 214 13 101 214 13 101 214 13 101 214 13 101 214 13 101 214 13 101 214 13 101 214 13 101 214 13 101 214 13 101 214 13 101 214 13 101 214 13 101 214 13 101 214 13 101 214 13 101 214 13 101 214 13 101 214 13 101 214 13 101 214 13 101 214 13 101 214 13 101 214 13 101 214 13 101 214 13 101 214 13 101 214 13 101 214 13 101 214 13 101 214 13 101 214 13 101 214 13 101 214 13 101 214 13 101 214 13 101 214 13 101 214 13 101 214 13 101 214 13 101 214 13 101 214 13 101 214 13 101 214 13 101 214 13 101 214 13 101 214 13 101 214 13 101 214 13 101 214 13 101 214 13 101 214 13 101 214 13 101 214 13 101 214 13 101 214 13 101 214 13 101 214 13 101 214 13 101 214 13 101 214 13 101 214 13 101 214 13 101 214 13 101 214 13 101 214 13 101 214 13 101 214 13 101 214 13 101 214 13 101 214 13 101 214 13 101 214 13 101 214 13 101 214 13 101 214 13 101 214 13 101 214 13 101 214 13 101 214 13 101 214 13 101 214 13 101 214 13 101 214 13 101 214 13 101 214 13 101 214 13 101 214 13 101 214 13 101 214 13 101 214 13 101 214 13 101 214 13 101 214 13 101 214 13 101 214 13 101 214 13 101 214 13 101 214 13 101 214 13 101 214 13 101 214 13 101 214 13 101 214 13 101 214 13 101 214 13 101 214 13 101 214 13 101 214 13 101 214 13 101 214 13 101 214 13 101 214 13 101 214 13 101 214 13 101 214 13 101 214 13 101 214 13 101 214 13 101 214 13 101 214 13 101 214 13 101 214 13 101 214 13 101 214 13 101 214 13 101 214 13 101 214 13 101 214 13 101 214 13 101 214 13 101 214 13 101 214 13 101 214 13 101 214 13 101 214 13 101 214 13 101 214 13 101 214 13 101 214 13 101 214 13 101 214 13 101 214 13 101 214 13 101 214 13 101 214 13 101 214 13 101 214 13 101 214 13 101 214 13 101 214 13 101 214 13 101 214 13 101 214 13 101 214 13 101 214 13 101 214 13 101 214 13 101 214 13 101 214 13 101 214 13 101 214 13 101 214 13 101 214 13 101 214 13 101 214 13 101 214 13 101 214 13 101 214 13 101 214 13 101 214 13 101 214 13 101 214 13 101 214 13 101 214 13 101 214 13 101 214 13 101 214 13 101 214 13 101 214 13 101 214 13 101 214 13 101 214 13 101 214 13 101 214 13 101 214 13 101 214 13 101 214 13 101 214 13 101 214 13 101 214 13 101 214 13 101 214 13 101 214 13 101 214 13 101 214 13 101 214 13 101 214 13 101 214 13 101 214 13 101 214 13 101 214 13 101 214 13 101 214 13 101 214 13 101 214 13 101 214 13 101 214 13 101 214 13 101 214 13 101 214 13 101 214 13 101 214 13 101 214 13 101 214 13 101 214
13 101 214 13 101 214 13 101 214 13 101 214 13 101 214 13 101 214 13 101 214 13 101 214 13 101 214 13 101 214 13 101 214 13 101 214 13 101 214 13 101 214 13 101 214 13 101 214 13 101 214 13 101 214 13 101 214 13 101 214 13 101 214 13 101 214 13 101 214 13 101 214 13 101 214 13 101 214 13 101 214 13 101 214 13 101 214 13 101 214 13 101 214 13 101 214 13 101 214 13 101 214 13 101 214 13 101 214 13 101 214 13 101 214 13 101 214 13 101 214 13 101 214 13 101 214 13 101 214 13 101 214 13 101 214 13 101 214 13 101 214 13 101 214 13 101 214 13 101 214 13 101 214 13 101 214 13 101 214 13 101 214 13 101 214 13 101 214 13 101 214 13 101 214 13 101 214 13 101 214 13 101 214 13 101 214 13 101 214 13 101 214 13 101 214 13 101 214 13 101 214 13 101 214 13 101 214 13 101 214 13 101 214 13 101 214 13 101 214 13 101 214 13 101 214 13 101 214 13 101 214 13 101 214 13 101 214 13 101 214 13 101 214 13 101 214 13 101 214 13 101 214 13 101 214 13 101 214 13 101 214 13 101 214 13 101 214 13 101 214 13 101 214 13 101 214 13 101 214 13 101 214 13 101 214 13 101 214 13 101 214 13 101 214 13 101 214 13 101 214 13 101 214 13 101 214 13 101 214 13 101 214 13 101 214 13 101 214 13 101 214 13 101 214 13 101 214 13 101 214 13 101 214 13 101 214 13 101 214 13 101 214 13 101 214 13 101 214 13 101 214 13 101 214 13 101 214 13 101 214 13 101 214 13 101 214 13 101 214 13 101 214 13 101 214 13 101 214 13 101 214 13 101 214 13 101 214 13 101 214 13 101 214 13 101 214 13 101 214 13 101 214 13 101 214 13 101 214 13 101 214 13 101 214 13 101 214 13 101 214 13 101 214 13 101 214 13 101 214 13 101 214 13 101 214 13 101 214 13 101 214 13 101 214 13 101 214 13 101 214 13 101 214 13 101 214 13 101 214 13 101 214 13 101 214 13 101 214 13 101 214 13 101 214 13 101 214 13 101 214 13 101 214 13 101 214 13 101 214 13 101 214 13 101 214 13 101 214 13 101 214 13 101 214 13 101 214 13 101 214 13 101 214 13 101 214 13 101 214 13 101 214 13 101 214 13 101 214 13 101 214 13 101 214 13 101 214 13 101 214 13 101 214 13 101 214 13 101 214 13 101 214 13 101 214 13 101 214 13 101 214 13 101 214 13 101 214 13 101 214 13 101 214 13 101 214 13 101 214 13 101 214 13 101 214 13 101 214 13 101 214 13 101 214 13 101 214 13 101 214 13 101 214 13 101 214 13 101 214 13 101 214 13 101 214 13 101 214 13 101 214 13 101 214 13 101 214 13 101 214 13 101 214 13 101 214 13 101 214 13 101 214 13 101 214 13 101 214 13 101 214 13 101 214 13 101 214 13 101 214 13 101 214 13 101 214 13 101 214 13 101 214 13 101 214 13 101 214 13 101 214 13 101 214 13 101 214 13 101 214 13 101 214 13 101 214 13 101 214 13 101 214 13 101 214 13 101 214 13 101 214 13 101 214 13 101 214 13 101 214 13 101 214 13 101 214 13 101 214 13 101 214 13 101 214 13 101 214 13 101 214 13 101 214 13 101 214 13 101 214 13 101 214 13 101 214 13 101 214 13 101 214 13 101 214 13 101 214
13 101 214 13 101 214 13 101 214 13 101 214 13 101 214 13 101 214 13 101 214 13 101 214 13 101 214 13 101 214 13 101 214 13 101 214 13 101 214 13 101 214 13 101 214 13 101 214 13 101 214 13 101 214 13 101 214 13 101 214 13 101 214 13 101 214 13 101 214 13 101 214 13 101 214 13 101 214 13 101 214 13 101 214 13 101 214 13 101 214 13 101 214 13 101 214 13 101 214 13 101 214 13 101 214 13 101 214 13 101 214 13 101 214 13 101 214 13 101 214 13 101 214 13 101 214 13 101 214 13 101 214 13 101 214 13 101 214 13 101 214 13 101 214 13 101 214 13 101 214 13 101 214 13 101 214 13 101 214 13 101 214 13 101 214 13 101 214 13 101 214 13 101 214 13 101 214 13 101 214 13 101 214 13 101 214 13 101 214 13 101 214 13 101 214 13 101 214 13 101 214 13 101 214 13 101 214 13 101 214 13 101 214 13 101 214 13 101 214 13 101 214 13 101 214 13 101 214 13 101 214 13 101 214 13 101 214 13 101 214 13 101 214 13 101 214 13 101 214 13 101 214 13 101 214 13 101 214 13 101 214 13 101 214 13 101 214 13 101 214 13 101 214 13 101 214 13 101 214 13 101 214 13 101 214 13 101 214 13 101 214 13 101 214 13 101 214 13 101 214 13 101 214 13 101 214 13 101 214 13 101 214 13 101 214 13 101 214 13 101 214 13 101 214 13 101 214 13 101 214 13 101 214 13 101 214 13 101 214 13 101 214 13 101 214 13 101 214 13 101 214 13 101 214 13 101 214 13 101 214 13 101 214 13 101 214 13 101 214 13 101 214 13 101 214 13 101 214 13 101 214 13 101 214 13 101 214 13 101 214 13 101 214 13 101 214 13 101 214 13 101 214 13 101 214 13 101 214 13 101 214 13 101 214 13 101 214 13 101 214 13 101 214 13 101 214 13 101 214 13 101 214 13 101 214 13 101 214 13 101 214 13 101 214 13 101 214 13 101 214 13 101 214 13 101 214 13 101 214 13 101 214 13 101 214 13 101 214 13 101 214 13 101 214 13 101 214 13 101 214 13 101 214 13 101 214 13 101 214 13 101 214 13 101 214 13 101 214 13 101 214 13 101 214 13 101 214 13 101 214 13 101 214 13 101 214 13 101 214 13 101 214 13 101 214 13 101 214 13 101 214 13 101 214 13 101 214 13 101 214 13 101 214 13 101 214 13 101 214 13 101 214 13 101 214 13 101 214 13 101 214 13 101 214 13 101 214 13 101 214 13 101 214 13 101 214 13 101 214 13 101 214 13 101 214 13 101 214 13 101 214 13 101 214 13 101 214 13 101 214 13 101 214 13 101 214 13 101 214 13 101 214 13 101 214 13 101 214 13 101 214 13 101 214 13 101 214 13 101 214 13 101 214 13 101 214 13 101 214 13 101 214 13 101 214 13 101 214 13 101 214 13 101 214 13 101 214 13 101 214 13 101 214 13 101 214 13 101 214 13 101 214 13 101 214 13 101 214 13 101 214 13 101 214 13 101 214 13 101 214 13 101 214 13 101 214 13 101 214 13 101 214 13 101 214 13 101 214 13 101 214 13 101 214 13 101 214 13 101 214 13 101 214 13 101 214 13 101 214 13 101 214 13 101 214 13 101 214 13 101 214 13 101 214 13 101 214 13 101 214 13 101 214 13 101 214 13 101 214 13 101 214 13 101 214 13 101 214
13 101 214 13 101 214 13 101 214 13 101 214 13 101 214 13 101 214 13 101 214 13 101 214 13 101 214 13 101 214 13 101 214 13 101 214 13 101 214 13 101 214 13 101 214 13 101 214 13 101 214 13 101 214 13 101 214 13 101 214 13 101 214 13 101 214 13 101 214 13 101 214 13 101 214 13 101 214 13 101 214 13 101 214 13 101 214 13 101 214 13 101 214 13 101 214 13 101 214 13 101 214 13 101 214 13 101 214 13 101 214 13 101 214 13 101 214 13 101 214 13 101 214 13 101 214 13 101 214 13 101 214 13 101 214 13 101 214 13 101 214 13 101 214 13 101 214 13 101 214 13 101 214 13 101 214 13 101 214 13 101 214 13 101 214 13 101 214 13 101 214 13 101 214 13 101 214 13 101 214 13 101 214 13 101 214 13 101 214 13 101 214 13 101 214 13 101 214 13 101 214 13 101 214 13 101 214 13 101 214 13 101 214 13 101 214 13 101 214 13 101 214 13 101 214 13 101 214 13 101 214 13 101 214 13 101 214 13 101 214 13 101 214 13 101 214 13 101 214 13 101 214 13 101 214 13 101 214 13 101 214 13 101 214 13 101 214 13 101 214 13 101 214 13 101 214 13 101 214 13 101 214 13 101 214 13 101 214 13 101 214 13 101 214 13 101 214 13 101 214 13 101 214 13 101 214 13 101 214 13 101 214 13 101 214 13 101 214 13 101 214 13 101 214 13 101 214 13 101 214 13 101 214 13 101 214 13 101 214 13 101 214 13 101 214 13 101 214 13 101 214 13 101 214 13 101 214 13 101 214 13 101 214 13 101 214 13 101 214 13 101 214 13 101 214 13 101 214 13 101 214 13 101 214 13 101 214 13 101 214 13 101 214 13 101 214 13 101 214 13 101 214 13 101 214 13 101 214 13 101 214 13 101 214 13 101 214 13 101 214 13 101 214 13 101 214 13 101 214 13 101 214 13 101 214 13 101 214 13 101 214 13 101 214 13 101 214 13 101 214 13 101 214 13 101 214 13 101 214 13 101 214 13 101 214 13 101 214 13 101 214 13 101 214 13 101 214 13 101 214 13 101 214 13 101 214 13 101 214 13 101 214 13 101 214 13 101 214 13 101 214 13 101 214 13 101 214 13 101 214 13 101 214 13 101 214 13 101 214 13 101 214 13 101 214 13 101 214 13 101 214 13 101 214 13 101 214 13 101 214 13 101 214 13 101 214 13 101 214 13 101 214 13 101 214 13 101 214 13 101 214 13 101 214 13 101 214 13 101 214 13 101 214 13 101 214 13 101 214 13 101 214 13 101 214 13 101 214 13 101 214 13 101 214 13 101 214 13 101 214 13 101 214 13 101 214 13 101 214 13 101 214 13 101 214 13 101 214 13 101 214 13 101 214 13 101 214 13 101 214 13 101 214 13 101 214 13 101 214 13 101 214 13 101 214 13 101 214 13 101 214 13 101 214 13 101 214 13 101 214 13 101 214 13 101 214 13 101 214 13 101 214 13 101 214 13 101 214 13 101 214 13 101 214 13 101 214 13 101 214 13 101 214 13 101 214 13 101 214 13 101 214 13 101 214 13 101 214 13 101 214 13 101 214 13 101 214 13 101 214 13 101 214 13 101 214 13 101 214 13 101 214 13 101 214 13 101 214 13 101 214 13 101 214 13 101 214 13 101 214 13 101 214 13 101 214 13 101 214 13 101 214 13 101 214 13 101 214
13 101 214 13 101 214 13 101 214 13 101 214 13 101 214 13 101 214 13 101 214 13 101 214 13 101 214 13 101 214 13 101 214 13 101 214 13 101 214 13 101 214 13 101 214 13 101 214 13 101 214 13 101 214 13 101 214 13 101 214 13 101 214 13 101 214 13 101 214 13 101 214 13 101 214 13 101 214 13 101 214 13 101 214 13 101 214 13 101 214 13 101 214 13 101 214 13 101 214 13 101 214 13 101 214 13 101 214 13 101 214 13 101 214 13 101 214 13 101 214 13 101 214 13 101 214 13 101 214 13 101 214 13 101 214 13 101 214 13 101 214 13 101 214 13 101 214 13 101 214 13 101 214 13 101 214 13 101 214 13 101 214 13 101 214 13 101 214 13 101 214 13 101 214 13 101 214 13 101 214 13 101 214 13 101 214 13 101 214 13 101 214 13 101 214 13 101 214 13 101 214 13 101 214 13 101 214 13 101 214 13 101 214 13 101 214 13 101 214 13 101 214 13 101 214 13 101 214 13 101 214 13 101 214 13 101 214 13 101 214 13 101 214 13 101 214 13 101 214 13 101 214 13 101 214 13 101 214 13 101 214 13 101 214 13 101 214 13 101 214 13 101 214 13 101 214 13 101 214 13 101 214 13 101 214 13 101 214 13 101 214 13 101 214 13 101 214 13 101 214 13 101 214 13 101 214 13 101 214 13 101 214 13 101 214 13 101 214 13 101 214 13 101 214 13 101 214 13 101 214 13 101 214 13 101 214 13 101 214 13 101 214 13 101 214 13 101 214 13 101 214 13 101 214 13 101 214 13 101 214 13 101 214 13 101 214 13 101 214 13 101 214 13 101 214 13 101 214 13 101 214 13 101 214 13 101 214 13 101 214 13 101 214 13 101 214 13 101 214 13 101 214 13 101 214 13 101 214 13 101 214 13 101 214 13 101 214 13 101 214 13 101 214 13 101 214 13 101 214 13 101 214 13 101 214 13 101 214 13 101 214 13 101 214 13 101 214 13 101 214 13 101 214 13 101 214 13 101 214 13 101 214 13 101 214 13 101 214 13 101 214 13 101 214 13 101 214 13 101 214 13 101 214 13 101 214 13 101 214 13 101 214 13 101 214 13 101 214 13 101 214 13 101 214 13 101 214 13 101 214 13 101 214 13 101 214 13 101 214 13 101 214 13 101 214 13 101 214 13 101 214 13 101 214 13 101 214 13 101 214 13 101 214 13 101 214 13 101 214 13 101 214 13 101 214 13 101 214 13 101 214 13 101 214 13 101 214 13 101 214 13 101 214 13 101 214 13 101 214 13 101 214 13 101 214 13 101 214 13 101 214 13 101 214 13 101 214 13 101 214 13 101 214 13 101 214 13 101 214 13 101 214 13 101 214 13 101 214 13 101 214 13 101 214 13 101 214 13 101 214 13 101 214 13 101 214 13 101 214 13 101 214 13 101 214 13 101 214 13 101 214 13 101 214 13 101 214 13 101 214 13 101 214 13 101 214 13 101 214 13 101 214 13 101 214 13 101 214 13 101 214 13 101 214 13 101 214 13 101 214 13 101 214 13 101 214 13 101 214 13 101 214 13 101 214 13 101 214 13 101 214 13 101 214 13 101 214 13 101 214 13 101 214 13 101 214 13 101 214 13 101 214 13 101 214 13 101 214 13 101 214 13 101 214 13 101 214 13 101 214 13 101 214 13 101 214 13 101 214 13 101 214 13 101 214 13 101 214
13 101 214 13 101 214 13 101 214 13 101 214 13 101 214 13 101 214 13 101 214 13 101 214 13 101 214 13 101 214 13 101 214 13 101 214 13 101 214 13 101 214 13 101 214 13 101 214 13 101 214 13 101 214 13 101 214 13 101 214 13 101 214 13 101 214 13 101 214 13 101 214 13 101 214 13 101 214 13 101 214 13 101 214 13 101 214 13 101 214 13 101 214 13 101 214 13 101 214 13 101 214 13 101 214 13 101 214 13 101 214 13 101 214 13 101 214 13 101 214 13 101 214 13 101 214 13 101 214 13 101 214 13 101 214 13 101 214 13 101 214 13 101 214 13 101 214 13 101 214 13 101 214 13 101 214 13 101 214 13 101 214 13 101 214 13 101 214 13 101 214 13 101 214 13 101 214 13 101 214 13 101 214 13 101 214 13 101 214 13 101 214 13 101 214 13 101 214 13 101 214 13 101 214 13 101 214 13 101 214 13 101 214 13 101 214 13 101 214 13 101 214 13 101 214 13 101 214 13 101 214 13 101 214 13 101 214 13 101 214 13 101 214 13 101 214 13 101 214 13 101 214 13 101 214 13 101 214 13 101 214 13 101 214 13 101 214 13 101 214 13 101 214 13 101 214 13 101 214 13 101 214 13 101 214 13 101 214 13 101 214 13 101 214 13 101 214 13 101 214 13 101 214 13 101 214 13 101 214 13 101 214 13 101 214 13 101 214 13 101 214 13 101 214 13 101 214 13 101 214 13 101 214 13 101 214 13 101 214 13 101 214 13 101 214 13 101 214 13 101 214 13 101 214 13 101 214 13 101 214 13 101 214 13 101 214 13 101 214 13 101 214 13 101 214 13 101 214 13 101 214 13 101 214 13 101 214 13 101 214 13 101 214 13 101 214 13 101 214 13 101 214 13 101 214 13 101 214 13 101 214 13 101 214 13 101 214 13 101 214 13 101 214 13 101 214 13 101 214 13 101 214 13 101 214 13 101 214 13 101 214 13 101 214 13 101 214 13 101 214 13 101 214 13 101 214 13 101 214 13 101 214 13 101 214 13 101 214 13 101 214 13 101 214 13 101 214 13 101 214 13 101 214 13 101 214 13 101 214 13 101 214 13 101 214 13 101 214 13 101 214 13 101 214 13 101 214 13 101 214 13 101 214 13 101 214 13 101 214 13 101 214 13 101 214 13 101 214 13 101 214 13 101 214 13 101 214 13 101 214 13 101 214 13 101 214 13 101 214 13 101 214 13 101 214 13 101 214 13 101 214 13 101 214 13 101 214 13 101 214 13 101 214 13 101 214 13 101 214 13 101 214 13 101 214 13 101 214 13 101 214 13 101 214 13 101 214 13 101 214 13 101 214 13 101 214 13 101 214 13 101 214 13 101 214 13 101 214 13 101 214 13 101 214 13 101 214 13 101 214 13 101 214 13 101 214 13 101 214 13 101 214 13 101 214 13 101 214 13 101 214 13 101 214 13 101 214 13 101 214 13 101 214 13 101 214 13 101 214 13 101 214 13 101 214 13 101 214 13 101 214 13 101 214 13 101 214 13 101 214 13 101 214 13 101 214 13 101 214 13 101 214 13 101 214 13 101 214 13 101 214 13 101 214 13 101 214 13 101 214 13 101 214 13 101 214 13 101 214 13 101 214 13 101 214 13 101 214 13 101 214 13 101 214 13 101 214 13 101 214 13 101 214 13 101 214 13 101 214 13 101 214 13 101 214 13 101 214
13 101 214 13 101 214 13 101 214 13 101 214 13 101 214 13 101 214 13 101 214 13 101 214 13 101 214 13 101 214 13 101 214 13 101 214 13 101 214 13 101 214 13 101 214 13 101 214 13 101 214 13 101 214 13 101 214 13 101 214 13 101 214 13 101 214 13 101 214 13 101 214 13 101 214 13 101 214 13 101 214 13 101 214 13 101 214 13 101 214 13 101 214 13 101 214 13 101 214 13 101 214 13 101 214 13 101 214 13 101 214 13 101 214 13 101 214 13 101 214 13 101 214 13 101 214 13 101 214 13 101 214 13 101 214 13 101 214 13 101 214 13 101 214 13 101 214 13 101 214 13 101 214 13 101 214 13 101 214 13 101 214 13 101 214 13 101 214 13 101 214 13 101 214 13 101 214 13 101 214 13 101 214 13 101 214 13 101 214 13 101 214 13 101 214 13 101 214 13 101 214 13 101 214 13 101 214 13 101 214 13 101 214 13 101 214 13 101 214 13 101 214 13 101 214 13 101 214 13 101 214 13 101 214 13 101 214 13 101 214 13 101 214 13 101 214 13 101 214 13 101 214 13 101 214 13 101 214 13 101 214 13 101 214 13 101 214 13 101 214 13 101 214 13 101 214 13 101 214 13 101 214 13 101 214 13 101 214 13 101 214 13 101 214 13 101 214 13 101 214 13 101 214 13 101 214 13 101 214 13 101 214 13 101 214 13 101 214 13 101 214 13 101 214 13 101 214 13 101 214 13 101 214 13 101 214 13 101 214 13 101 214 13 101 214 13 101 214 13 101 214 13 101 214 13 101 214 13 101 214 13 101 214 13 101 214 13 101 214 13 101 214 13 101 214 13 101 214 13 101 214 13 101 214 13 101 214 13 101 214 13 101 214 13 101 214 13 101 214 13 101 214 13 101 214 13 101 214 13 101 214 13 101 214 13 101 214 13 101 214 13 101 214 13 101 214 13 101 214 13 101 214 13 101 214 13 101 214 13 101 214 13 101 214 13 101 214 13 101 214 13 101 214 13 101 214 13 101 214 13 101 214 13 101 214 13 101 214 13 101 214 13 101 214 13 101 214 13 101 214 13 101 214 13 101 214 13 101 214 13 101 214 13 101 214 13 101 214 13 101 214 13 101 214 13 101 214 13 101 214 13 101 214 13 101 214 13 101 214 13 101 214 13 101 214 13 101 214 13 101 214 13 101 214 13 101 214 13 101 214 13 101 214 13 101 214 13 101 214 13 101 214 13 101 214 13 101 214 13 101 214 13 101 214 13 101 214 13 101 214 13 101 214 13 101 214 13 101 214 13 101 214 13 101 214 13 101 214 13 101 214 13 101 214 13 101 214 13 101 214 13 101 214 13 101 214 13 101 214 13 101 214 13 101 214 13 101 214 13 101 214 13 101 214 13 101 214 13 101 214 13 101 214 13 101 214 13 101 214 13 101 214 13 101 214 13 101 214 13 101 214 13 101 214 13 101 214 13 101 214 13 101 214 13 101 214 13 101 214 13 101 214 13 101 214 13 101 214 13 101 214 13 101 214 13 101 214 13 101 214 13 101 214 13 101 214 13 101 214 13 101 214 13 101 214 13 101 214 13 101 214 13 101 214 13 101 214 13 101 214 13 101 214 13 101 214 13 101 214 13 101 214 13 101 214 13 101 214 13 101 214 13 101 214 13 101 214 13 101 214 13 101 214 13 101 214 13 101 214 13 101 214 13 101 214 13 101 214
13 101 214 13 101 214 13 101 214 13 101 214 13 101 214 13 101 214 13 101 214 13 101 214 13 101 214 13 101 214 13 101 214 13 101 214 13 101 214 13 101 214 13 101 214 13 101 214 13 101 214 13 101 214 13 101 214 13 101 214 13 101 214 13 101 214 13 101 214 13 101 214 13 101 214 13 101 214 13 101 214 13 101 214 13 101 214 13 101 214 13 101 214 13 101 214 13 101 214 13 101 214 13 101 214 13 101 214 13 101 214 13 101 214 13 101 214 13 101 214 13 101 214 13 101 214 13 101 214 13 101 214 13 101 214 13 101 214 13 101 214 13 101 214 13 101 214 13 101 214 13 101 214 13 101 214 13 101 214 13 101 214 13 101 214 13 101 214 13 101 214 13 101 214 13 101 214 13 101 214 13 101 214 13 101 214 13 101 214 13 101 214 13 101 214 13 101 214 13 101 214 13 101 214 13 101 214 13 101 214 13 101 214 13 101 214 13 101 214 13 101 214 13 101 214 13 101 214 13 101 214 13 101 214 13 101 214 13 101 214 13 101 214 13 101 214 13 101 214 13 101 214 13 101 214 13 101 214 13 101 214 13 101 214 13 101 214 13 101 214 13 101 214 13 101 214 13 101 214 13 101 214 13 101 214 13 101 214 13 101 214 13 101 214 13 101 214 13 101 214 13 101 214 13 101 214 13 101 214 13 101 214 13 101 214 13 101 214 13 101 214 13 101 214 13 101 214 13 101 214 13 101 214 13 101 214 13 101 214 13 101 214 13 101 214 13 101 214 13 101 214 13 101 214 13 101 214 13 101 214 13 101 214 13 101 214 13 101 214 13 101 214 13 101 214 13 101 214 13 101 214 13 101 214 13 101 214 13 101 214 13 101 214 13 101 214 13 101 214 13 101 214 13 101 214 13 101 214 13 101 214 13 101 214 13 101 214 13 101 214 13 101 214 13 101 214 13 101 214 13 101 214 13 101 214 13 101 214 13 101 214 13 101 214 13 101 214 13 101 214 13 101 214 13 101 214 13 101 214 13 101 214 13 101 214 13 101 214 13 101 214 13 101 214 13 101 214 13 101 214 13 101 214 13 101 214 13 101 214 13 101 214 13 101 214 13 101 214 13 101 214 13 101 214 13 101 214 13 101 214 13 101 214 13 101 214 13 101 214 13 101 214 13 101 214 13 101 214 13 101 214 13 101 214 13 101 214 13 101 214 13 101 214 13 101 214 13 101 214 13 101 214 13 101 214 13 101 214 13 101 214 13 101 214 13 101 214 13 101 214 13 101 214 13 101 214 13 101 214 13 101 214 13 101 214 13 101 214 13 101 214 13 101 214 13 101 214 13 101 214 13 101 214 13 101 214 13 101 214 13 101 214 13 101 214 13 101 214 13 101 214 13 101 214 13 101 214 13 101 214 13 101 214 13 101 214 13 101 214 13 101 214 13 101 214 13 101 214 13 101 214 13 101 214 13 101 214 13 101 214 13 101 214 13 101 214 13 101 214 13 101 214 13 101 214 13 101 214 13 101 214 13 101 214 13 101 214 13 101 214 13 101 214 13 101 214 13 101 214 13 101 214 13 101 214 13 101 214 13 101 214 13 101 214 13 101 214 13 101 214 13 101 214 13 101 214 13 101 214 13 101 214 13 101 214 13 101 214 13 101 214 13 101 214 13 101 214 13 101 214 13 101 214 13 101 214 13 101 214 13 101 214 13 101 214 13 101 214
13 101 214 13 101 214 13 101 214 13 101 214 13 101 214 13 101 214 13 101 214 13 101 214 13 101 214 13 101 214 13 101 214 13 101 214 13 101 214 13 101 214 13 101 214 13 101 214 13 101 214 13 101 214 13 101 214 13 101 214 13 101 214 13 101 214 13 101 214 13 101 214 13 101 214 13 101 214 13 101 214 13 101 214 13 101 214 13 101 214 13 101 214 13 101 214 13 101 214 13 101 214 13 101 214 13 101 214 13 101 214 13 101 214 13 101 214 13 101 214 13 101 214 13 101 214 13 101 214 13 101 214 13 101 214 13 101 214 13 101 214 13 101 214 13 101 214 13 101 214 13 101 214 13 101 214 13 101 214 13 101 214 13 101 214 13 101 214 13 101 214 13 101 214 13 101 214 13 101 214 13 101 214 13 101 214 13 101 214 13 101 214 13 101 214 13 101 214 13 101 214 13 101 214 13 101 214 13 101 214 13 101 214 13 101 214 13 101 214 13 101 214 13 101 214 13 101 214 13 101 214 13 101 214 13 101 214 13 101 214 13 101 214 13 101 214 13 101 214 13 101 214 13 101 214 13 101 214 13 101 214 13 101 214 13 101 214 13 101 214 13 101 214 13 101 214 13 101 214 13 101 214 13 101 214 13 101 214 13 101 214 13 101 214 13 101 214 13 101 214 13 101 214 13 101 214 13 101 214 13 101 214 13 101 214 13 101 214 13 101 214 13 101 214 13 101 214 13 101 214 13 101 214 13 101 214 13 101 214 13 101 214 13 101 214 13 101 214 13 101 214 13 101 214 13 101 214 13 101 214 13 101 214 13 101 214 13 101 214 13 101 214 13 101 214 13 101 214 13 101 214 13 101 214 13 101 214 13 101 214 13 101 214 13 101 214 13 101 214 13 101 214 13 101 214 13 101 214 13 101 214 13 101 214 13 101 214 13 101 214 13 101 214 13 101 214 13 101 214 13 101 214 13 101 214 13 101 214 13 101 214 13 101 214 13 101 214 13 101 214 13 101 214 13 101 214 13 101 214 13 101 214 13 101 214 13 101 214 13 101 214 13 101 214 13 101 214 13 101 214 13 101 214 13 101 214 13 101 214 13 101 214 13 101 214 13 101 214 13 101 214 13 101 214 13 101 214 13 101 214 13 101 214 13 101 214 13 101 214 13 101 214 13 101 214 13 101 214 13 101 214 13 101 214 13 101 214 13 101 214 13 101 214 13 101 214 13 101 214 13 101 214 13 101 214 13 101 214 13 101 214 13 101 214 13 101 214 13 101 214 13 101 214 13 101 214 13 101 214 13 101 214 13 101 214 13 101 214 13 101 214 13 101 214 13 101 214 13 101 214 13 101 214 13 101 214 13 101 214 13 101 214 13 101 214 13 101 214 13 101 214 13 101 214 13 101 214 13 101 214 13 101 214 13 101 214 13 101 214 13 101 214 13 101 214 13 101 214 13 101 214 13 101 214 13 101 214 13 101 214 13 101 214 13 101 214 13 101 214 13 101 214 13 101 214 13 101 214 13 101 214 13 101 214 13 101 214 13 101 214 13 101 214 13 101 214 13 101 214 13 101 214 13 101 214 13 101 214 13 101 214 13 101 214 13 101 214 13 101 214 13 101 214 13 101 214 13 101 214 13 101 214 13 101 214 13 101 214 13 101 214 13 101 214 13 101 214 13 101 214 13 101 214 13 101 214 13 101 214 13 101 214 13 101 214 13 101 214
13 101 214 13 101 214 13 101 214 13 101 214 13 101 214 13 101 214 13 101 214 13 101 214 13 101 214 13 101 214 13 101 214 13 101 214 13 101 214 13 101 214 13 101 214 13 101 214 13 101 214 13 101 214 13 101 214 13 101 214 13 101 214 13 101 214 13 101 214 13 101 214 13 101 214 13 101 214 13 101 214 13 101 214 13 101 214 13 101 214 13 101 214 13 101 214 13 101 214 13 101 214 13 101 214 13 101 214 13 101 214 13 101 214 13 101 214 13 101 214 13 101 214 13 101 214 13 101 214 13 101 214 13 101 214 13 101 214 13 101 214 13 101 214 13 101 214 13 101 214 13 101 214 13 101 214 13 101 214 13 101 214 13 101 214 13 101 214 13 101 214 13 101 214 13 101 214 13 101 214 13 101 214 13 101 214 13 101 214 13 101 214 13 101 214 13 101 214 13 101 214 13 101 214 13 101 214 13 101 214 13 101 214 13 101 214 13 101 214 13 101 214 13 101 214 13 101 214 13 101 214 13 101 214 13 101 214 13 101 214 13 101 214 13 101 214 13 101 214 13 101 214 13 101 214 13 101 214 13 101 214 13 101 214 13 101 214 13 101 214 13 101 214 13 101 214 13 101 214 13 101 214 13 101 214 13 101 214 13 101 214 13 101 214 13 101 214 13 101 214 13 101 214 13 101 214 13 101 214 13 101 214 13 101 214 13 101 214 13 101 214 13 101 214 13 101 214 13 101 214 13 101 214 13 101 214 13 101 214 13 101 214 13 101 214 13 101 214 13 101 214 13 101 214 13 101 214 13 101 214 13 101 214 13 101 214 13 101 214 13 101 214 13 101 214 13 101 214 13 101 214 13 101 214 13 101 214 13 101 214 13 101 214 13 101 214 13 101 214 13 101 214 13 101 214 13 101 214 13 101 214 13 101 214 13 101 214 13 101 214 13 101 214 13 101 214 13 101 214 13 101 214 13 101 214 13 101 214 13 101 214 13 101 214 13 101 214 13 101 214 13 101 214 13 101 214 13 101 214 13 101 214 13 101 214 13 101 214 13 101 214 13 101 214 13 101 214 13 101 214 13 101 214 13 101 214 13 101 214 13 101 214 13 101 214 13 101 214 13 101 214 13 101 214 13 101 214 13 101 214 13 101 214 13 101 214 13 101 214 13 101 214 13 101 214 13 101 214 13 101 214 13 101 214 13 101 214 13 101 214 13 101 214 13 101 214 13 101 214 13 101 214 13 101 214 13 101 214 13 101 214 13 101 214 13 101 214 13 101 214 13 101 214 13 101 214 13 101 214 13 101 214 13 101 214 13 101 214 13 101 214 13 101 214 13 101 214 13 101 214 13 101 214 13 101 214 13 101 214 13 101 214 13 101 214 13 101 214 13 101 214 13 101 214 13 101 214 13 101 214 13 101 214 13 101 214 13 101 214 13 101 214 13 101 214 13 101 214 13 101 214 13 101 214 13 101 214 13 101 214 13 101 214 13 101 214 13 101 214 13 101 214 13 101 214 13 101 214 13 101 214 13 101 214 13 101 214 13 101 214 13 101 214 13 101 214 13 101 214 13 101 214 13 101 214 13 101 214 13 101 214 13 101 214 13 101 214 13 101 214 13 101 214 13 101 214 13 101 214 13 101 214 13 101 214 13 101 214 13 101 214 13 101 214 13 101 214 13 101 214 13 101 214 13 101 214 13 101 214 13 101 214 13 101 214 13 101 214
13 101 214 13 101 214 13 101 214 13 101 214 13 101 214 13 101 214 13 101 214 13 101 214 13 101 214 13 101 214 13 101 214 13 101 214 13 101 214 13 101 214 13 101 214 13 101 214 13 101 214 13 101 214 13 101 214 13 101 214 13 101 214 13 101 214 13 101 214 13 101 214 13 101 214 13 101 214 13 101 214 13 101 214 13 101 214 13 101 214 13 101 214 13 101 214 13 101 214 13 101 214 13 101 214 13 101 214 13 101 214 13 101 214 13 101 214 13 101 214 13 101 214 13 101 214 13 101 214 13 101 214 13 101 214 13 101 214 13 101 214 13 101 214 13 101 214 13 101 214 13 101 214 13 101 214 13 101 214 13 101 214 13 101 214 13 101 214 13 101 214 13 101 214 13 101 214 13 101 214 13 101 214 13 101 214 13 101 214 13 101 214 13 101 214 13 101 214 13 101 214 13 101 214 13 101 214 13 101 214 13 101 214 13 101 214 13 101 214 13 101 214 13 101 214 13 101 214 13 101 214 13 101 214 13 101 214 13 101 214 13 101 214 13 101 214 13 101 214 13 101 214 13 101 214 13 101 214 13 101 214 13 101 214 13 101 214 13 101 214 13 101 214 13 101 214 13 101 214 13 101 214 13 101 214 13 101 214 13 101 214 13 101 214 13 101 214 13 101 214 13 101 214 13 101 214 13 101 214 13 101 214 13 101 214 13 101 214 13 101 214 13 101 214 13 101 214 13 101 214 13 101 214 13 101 214 13 101 214 13 101 214 13 101 214 13 101 214 13 101 214 13 101 214 13 101 214 13 101 214 13 101 214 13 101 214 13 101 214 13 101 214 13 101 214 13 101 214 13 101 214 13 101 214 13 101 214 13 101 214 13 101 214 13 101 214 13 101 214 13 101 214 13 101 214 13 101 214 13 101 214 13 101 214 13 101 214 13 101 214 13 101 214 13 101 214 13 101 214 13 101 214 13 101 214 13 101 214 13 101 214 13 101 214 13 101 214 13 101 214 13 101 214 13 101 214 13 101 214 13 101 214 13 101 214 13 101 214 13 101 214 13 101 214 13 101 214 13 101 214 13 101 214 13 101 214 13 101 214 13 101 214 13 101 214 13 101 214 13 101 214 13 101 214 13 101 214 13 101 214 13 101 214 13 101 214 13 101 214 13 101 214 13 101 214 13 101 214 13 101 214 13 101 214 13 101 214 13 101 214 13 101 214 13 101 214 13 101 214 13 101 214 13 101 214 13 101 214 13 101 214 13 101 214 13 101 214 13 101 214 13 101 214 13 101 214 13 101 214 13 101 214 13 101 214 13 101 214 13 101 214 13 101 214 13 101 214 13 101 214 13 101 214 13 101 214 13 101 214 13 101 214 13 101 214 13 101 214 13 101 214 13 101 214 13 101 214 13 101 214 13 101 214 13 101 214 13 101 214 13 101 214 13 101 214 13 101 214 13 101 214 13 101 214 13 101 214 13 101 214 13 101 214 13 101 214 13 101 214 13 101 214 13 101 214 13 101 214 13 101 214 13 101 214 13 101 214 13 101 214 13 101 214 13 101 214 13 101 214 13 101 214 13 101 214 13 101 214 13 101 214 13 101 214 13 101 214 13 101 214 13 101 214 13 101 214 13 101 214 13 101 214 13 101 214 13 101 214 13 101 214 13 101 214 13 101 214 13 101 214 13 101 214 13 101 214 13 101 214 13 101 214 13 101 214 13 101 214
13 101 214 13 101 214 13 101 214 13 101 214 13 101 214 13 101 214 13 101 214 13 101 214 13 101 214 13 101 214 13 101 214 13 101 214 13 101 214 13 101 214 13 101 214 13 101 214 13 101 214 13 101 214 13 101 214 13 101 214 13 101 214 13 101 214 13 101 214 13 101 214 13 101 214 13 101 214 13 101 214 13 101 214 13 101 214 13 101 214 13 101 214 13 101 214 13 101 214 13 101 214 13 101 214 13 101 214 13 101 214 13 101 214 13 101 214 13 101 214 13 101 214 13 101 214 13 101 214 13 101 214 13 101 214 13 101 214 13 101 214 13 101 214 13 101 214 13 101 214 13 101 214 13 101 214 13 101 214 13 101 214 13 101 214 13 101 214 13 101 214 13 101 214 13 101 214 13 101 214 13 101 214 13 101 214 13 101 214 13 101 214 13 101 214 13 101 214 13 101 214 13 101 214 13 101 214 13 101 214 13 101 214 13 101 214 13 101 214 13 101 214 13 101 214 13 101 214 13 101 214 13 101 214 13 101 214 13 101 214 13 101 214 13 101 214 13 101 214 13 101 214 13 101 214 13 101 214 13 101 214 13 101 214 13 101 214 13 101 214 13 101 214 13 101 214 13 101 214 13 101 214 13 101 214 13 101 214 13 101 214 13 101 214 13 101 214 13 101 214 13 101 214 13 101 214 13 101 214 13 101 214 13 101 214 13 101 214 13 101 214 13 101 214 13 101 214 13 101 214 13 101 214 13 101 214 13 101 214 13 101 214 13 101 214 13 101 214 13 101 214 13 101 214 13 101 214 13 101 214 13 101 214 13 101 214 13 101 214 13 101 214 13 101 214 13 101 214 13 101 214 13 101 214 13 101 214 13 101 214 13 101 214 13 101 214 13 101 214 13 101 214 13 101 214 13 101 214 13 101 214 13 101 214 13 101 214 13 101 214 13 101 214 13 101 214 13 101 214 13 101 214 13 101 214 13 101 214 13 101 214 13 101 214 13 101 214 13 101 214 13 101 214 13 101 214 13 101 214 13 101 214 13 101 214 13 101 214 13 101 214 13 101 214 13 101 214 13 101 214 13 101 214 13 101 214 13 101 214 13 101 214 13 101 214 13 101 214 13 101 214 13 101 214 13 101 214 13 101 214 13 101 214 13 101 214 13 101 214 13 101 214 13 101 214 13 101 214 13 101 214 13 101 214 13 101 214 13 101 214 13 101 214 13 101 214 13 101 214 13 101 214 13 101 214 13 101 214 13 101 214 13 101 214 13 101 214 13 101 214 13 101 214 13 101 214 13 101 214 13 101 214 13 101 214 13 101 214 13 101 214 13 101 214 13 101 214 13 101 214 13 101 214 13 101 214 13 101 214 13 101 214 13 101 214 13 101 214 13 101 214 13 101 214 13 101 214 13 101 214 13 101 214 13 101 214 13 101 214 13 101 214 13 101 214 13 101 214 13 101 214 13 101 214 13 101 214 13 101 214 13 101 214 13 101 214 13 101 214 13 101 214 13 101 214 13 101 214 13 101 214 13 101 214 13 101 214 13 101 214 13 101 214 13 101 214 13 101 214 13 101 214 13 101 214 13 101 214 13 101 214 13 101 214 13 101 214 13 101 214 13 101 214 13 101 214 13 101 214 13 101 214 13 101 214 13 101 214 13 101 214 13 101 214 13 101 214 13 101 214 13 101 214 13 101 214 13 101 214 13 101 214 13 101 214 13 101 214
13 101 214 13 101 214 13 101 214 13 101 214 13 101 214 13 101 214 13 101 214 13 101 214 13 101 214 13 101 214 13 101 214 13 101 214 13 101 214 13 101 214 13 101 214 13 101 214 13 101 214 13 101 214 13 101 214 13 101 214 13 101 214 13 101 214 13 101 214 13 101 214 13 101 214 13 101 214 13 101 214 13 101 214 13 101 214 13 101 214 13 101 214 13 101 214 13 101 214 13 101 214 13 101 214 13 101 214 13 101 214 13 101 214 13 101 214 13 101 214 13 101 214 13 101 214 13 101 214 13 101 214 13 101 214 13 101 214 13 101 214 13 101 214 13 101 214 13 101 214 13 101 214 13 101 214 13 101 214 13 101 214 13 101 214 13 101 214 13 101 214 13 101 214 13 101 214 13 101 214 13 101 214 13 101 214 13 101 214 13 101 214 13 101 214 13 101 214 13 101 214 13 101 214 13 101 214 13 101 214 13 101 214 13 101 214 13 101 214 13 101 214 13 101 214 13 101 214 13 101 214 13 101 214 13 101 214 13 101 214 13 101 214 13 101 214 13 101 214 13 101 214 13 101 214 13 101 214 13 101 214 13 101 214 13 101 214 13 101 214 13 101 214 13 101 214 13 101 214 13 101 214 13 101 214 13 101 214 13 101 214 13 101 214 13 101 214 13 101 214 13 101 214 13 101 214 13 101 214 13 101 214 13 101 214 13 101 214 13 101 214 13 101 214 13 101 214 13 101 214 13 101 214 13 101 214 13 101 214 13 101 214 13 101 214 13 101 214 13 101 214 13 101 214 13 101 214 13 101 214 13 101 214 13 101 214 13 101 214 13 101 214 13 101 214 13 101 214 13 101 214 13 101 214 13 101 214 13 101 214 13 101 214 13 101 214 13 101 214 13 101 214 13 101 214 13 101 214 13 101 214 13 101 214 13 101 214 13 101 214 13 101 214 13 101 214 13 101 214 13 101 214 13 101 214 13 101 214 13 101 214 13 101 214 13 101 214 13 101 214 13 101 214 13 101 214 13 101 214 13 101 214 13 101 214 13 101 214 13 101 214 13 101 214 13 101 214 13 101 214 13 101 214 13 101 214 13 101 214 13 101 214 13 101 214 13 101 214 13 101 214 13 101 214 13 101 214 13 101 214 13 101 214 13 101 214 13 101 214 13 101 214 13 101 214 13 101 214 13 101 214 13 101 214 13 101 214 13 101 214 13 101 214 13 101 214 13 101 214 13 101 214 13 101 214 13 101 214 13 101 214 13 101 214 13 101 214 13 101 214 13 101 214 13 101 214 13 101 214 13 101 214 13 101 214 13 101 214 13 101 214 13 101 214 13 101 214 13 101 214 13 101 214 13 101 214 13 101 214 13 101 214 13 101 214 13 101 214 13 101 214 13 101 214 13 101 214 13 101 214 13 101 214 13 101 214 13 101 214 13 101 214 13 101 214 13 101 214 13 101 214 13 101 214 13 101 214 13 101 214 13 101 214 13 101 214 13 101 214 13 101 214 13 101 214 13 101 214 13 101 214 13 101 214 13 101 214 13 101 214 13 101 214 13 101 214 13 101 214 13 101 214 13 101 214 13 101 214 13 101 214 13 101 214 13 101 214 13 101 214 13 101 214 13 101 214 13 101 214 13 101 214 13 101 214 13 101 214 13 101 214 13 101 214 13 101 214 13 101 214 13 101 214 13 101 214 13 101 214 13 101 214 13 101 214 13 101 214
13 101 214 13 101 214 13 101 214 13 101 214 13 101 214 13 101 214 13 101 214 13 101 214 13 101 214 13 101 214 13 101 214 13 101 214 13 101 214 13 101 214 13 101 214 13 101 214 13 101 214 13 101 214 13 101 214 13 101 214 13 101 214 13 101 214 13 101 214 13 101 214 13 101 214 13 101 214 13 101 214 13 101 214 13 101 214 13 101 214 13 101 214 13 101 214 13 101 214 13 101 214 13 101 214 13 101 214 13 101 214 13 101 214 13 101 214 13 101 214 13 101 214 13 101 214 13 101 214 13 101 214 13 101 214 13 101 214 13 101 214 13 101 214 13 101 214 13 101 214 13 101 214 13 101 214 13 101 214 13 101 214 13 101 214 13 101 214 13 101 214 13 101 214 13 101 214 13 101 214 13 101 214 13 101 214 13 101 214 13 101 214 13 101 214 13 101 214 13 101 214 13 101 214 13 101 214 13 101 214 13 101 214 13 101 214 13 101 214 13 101 214 13 101 214 13 101 214 13 101 214 13 101 214 13 101 214 13 101 214 13 101 214 13 101 214 13 101 214 13 101 214 13 101 214 13 101 214 13 101 214 13 101 214 13 101 214 13 101 214 13 101 214 13 101 214 13 101 214 13 101 214 13 101 214 13 101 214 13 101 214 13 101 214 13 101 214 13 101 214 13 101 214 13 101 214 13 101 214 13 101 214 13 101 214 13 101 214 13 101 214 13 101 214 13 101 214 13 101 214 13 101 214 13 101 214 13 101 214 13 101 214 13 101 214 13 101 214 13 101 214 13 101 214 13 101 214 13 101 214 13 101 214 13 101 214 13 101 214 13 101 214 13 101 214 13 101 214 13 101 214 13 101 214 13 101 214 13 101 214 13 101 214 13 101 214 13 101 214 13 101 214 13 101 214 13 101 214 13 101 214 13 101 214 13 101 214 13 101 214 13 101 214 13 101 214 13 101 214 13 101 214 13 101 214 13 101 214 13 101 214 13 101 214 13 101 214 13 101 214 13 101 214 13 101 214 13 101 214 13 101 214 13 101 214 13 101 214 13 101 214 13 101 214 13 101 214 13 101 214 13 101 214 13 101 214 13 101 214 13 101 214 13 101 214 13 101 214 13 101 214 13 101 214 13 101 214 13 101 214 13 101 214 13 101 214 13 101 214 13 101 214 13 101 214 13 101 214 13 101 214 13 101 214 13 101 214 13 101 214 13 101 214 13 101 214 13 101 214 13 101 214 13 101 214 13 101 214 13 101 214 13 101 214 13 101 214 13 101 214 13 101 214 13 101 214 13 101 214 13 101 214 13 101 214 13 101 214 13 101 214 13 101 214 13 101 214 13 101 214 13 101 214 13 101 214 13 101 214 13 101 214 13 101 214 13 101 214 13 101 214 13 101 214 13 101 214 13 101 214 13 101 214 13 101 214 13 101 214 13 101 214 13 101 214 13 101 214 13 101 214 13 101 214 13 101 214 13 101 214 13 101 214 13 101 214 13 101 214 13 101 214 13 101 214 13 101 214 13 101 214 13 101 214 13 101 214 13 101 214 13 101 214 13 101 214 13 101 214 13 101 214 13 101 214 13 101 214 13 101 214 13 101 214 13 101 214 13 101 214 13 101 214 13 101 214 13 101 214 13 101 214 13 101 214 13 101 214 13 101 214 13 101 214 13 101 214 13 101 214 13 101 214 13 101 214 13 101 214 13 101 214 13 101 214 13 101 214
13 101 214 13 101 214 13 101 214 13 101 214 13 101 214 13 101 214 13 101 214 13 101 214 13 101 214 13 101 214 13 101 214 13 101 214 13 101 214 13 101 214 13 101 214 13 101 214 13 101 214 13 101 214 13 101 214 13 101 214 13 101 214 13 101 214 13 101 214 13 101 214 13 101 214 13 101 214 13 101 214 13 101 214 13 101 214 13 101 214 13 101 214 13 101 214 13 101 214 13 101 214 13 101 214 13 101 214 13 101 214 13 101 214 13 101 214 13 101 214 13 101 214 13 101 214 13 101 214 13 101 214 13 101 214 13 101 214 13 101 214 13 101 214 13 101 214 13 101 214 13 101 214 13 101 214 13 101 214 13 101 214 13 101 214 13 101 214 13 101 214 13 101 214 13 101 214 13 101 214 13 101 214 13 101 214 13 101 214 13 101 214 13 101 214 13 101 214 13 101 214 13 101 214 13 101 214 13 101 214 13 101 214 13 101 214 13 101 214 13 101 214 13 101 214 13 101 214 13 101 214 13 101 214 13 101 214 13 101 214 13 101 214 13 101 214 13 101 214 13 101 214 13 101 214 13 101 214 13 101 214 13 101 214 13 101 214 13 101 214 13 101 214 13 101 214 13 101 214 13 101 214 13 101 214 13 101 214 13 101 214 13 101 214 13 101 214 13 101 214 13 101 214 13 101 214 13 101 214 13 101 214 13 101 214 13 101 214 13 101 214 13 101 214 13 101 214 13 101 214 13 101 214 13 101 214 13 101 214 13 101 214 13 101 214 13 101 214 13 101 214 13 101 214 13 101 214 13 101 214 13 101 214 13 101 214 13 101 214 13 101 214 13 101 214 13 101 214 13 101 214 13 101 214 13 101 214 13 101 214 13 101 214 13 101 214 13 101 214 13 101 214 13 101 214 13 101 214 13 101 214 13 101 214 13 101 214 13 101 214 13 101 214 13 101 214 13 101 214 13 101 214 13 101 214 13 101 214 13 101 214 13 101 214 13 101 214 13 101 214 13 101 214 13 101 214 13 101 214 13 101 214 13 101 214 13 101 214 13 101 214 13 101 214 13 101 214 13 101 214 13 101 214 13 101 214 13 101 214 13 101 214 13 101 214 13 101 214 13 101 214 13 101 214 13 101 214 13 101 214 13 101 214 13 101 214 13 101 214 13 101 214 13 101 214 13 101 214 13 101 214 13 101 214 13 101 214 13 101 214 13 101 214 13 101 214 13 101 214 13 101 214 13 101 214 13 101 214 13 101 214 13 101 214 13 101 214 13 101 214 13 101 214 13 101 214 13 101 214 13 101 214 13 101 214 13 101 214 13 101 214 13 101 214 13 101 214 13 101 214 13 101 214 13 101 214 13 101 214 13 101 214 13 101 214 13 101 214 13 101 214 13 101 214 13 101 214 13 101 214 13 101 214 13 101 214 13 101 214 13 101 214 13 101 214 13 101 214 13 101 214 13 101 214 13 101 214 13 101 214 13 101 214 13 101 214 13 101 214 13 101 214 13 101 214 13 101 214 13 101 214 13 101 214 13 101 214 13 101 214 13 101 214 13 101 214 13 101 214 13 101 214 13 101 214 13 101 214 13 101 214 13 101 214 13 101 214 13 101 214 13 101 214 13 101 214 13 101 214 13 101 214 13 101 214 13 101 214 13 101 214 13 101 214 13 101 214 13 101 214 13 101 214 13 101 214 13 101 214 13 101 214 13 101 214 13 101 214
13 101 214 13 101 214 13 101 214 13 101 214 13 101 214 13 101 214 13 101 214 13 101 214 13 101 214 13 101 214 13 101 214 13 101 214 13 101 214 13 101 214 13 101 214 13 101 214 13 101 214 13 101 214 13 101 214 13 101 214 13 101 214 13 101 214 13 101 214 13 101 214 13 101 214 13 101 214 13 101 214 13 101 214 13 101 214 13 101 214 13 101 214 13 101 214 13 101 214 13 101 214 13 101 214 13 101 214 13 101 214 13 101 214 13 101 214 13 101 214 13 101 214 13 101 214 13 101 214 13 101 214 13 101 214 13 101 214 13 101 214 13 101 214 13 101 214 13 101 214 13 101 214 13 101 214 13 101 214 13 101 214 13 101 214 13 101 214 13 101 214 13 101 214 13 101 214 13 101 214 13 101 214 13 101 214 13 101 214 13 101 214 13 101 214 13 101 214 13 101 214 13 101 214 13 101 214 13 101 214 13 101 214 13 101 214 13 101 214 13 101 214 13 101 214 13 101 214 13 101 214 13 101 214 13 101 214 13 101 214 13 101 214 13 101 214 13 101 214 13 101 214 13 101 214 13 101 214 13 101 214 13 101 214 13 101 214 13 101 214 13 101 214 13 101 214 13 101 214 13 101 214 13 101 214 13 101 214 13 101 214 13 101 214 13 101 214 13 101 214 13 101 214 13 101 214 13 101 214 13 101 214 13 101 214 13 101 214 13 101 214 13 101 214 13 101 214 13 101 214 13 101 214 13 101 214 13 101 214 13 101 214 13 101 214 13 101 214 13 101 214 13 101 214 13 101 214 13 101 214 13 101 214 13 101 214 13 101 214 13 101 214 13 101 214 13 101 214 13 101 214 13 101 214 13 101 214 13 101 214 13 101 214 13 101 214 13 101 214 13 101 214 13 101 214 13 101 214 13 101 214 13 101 214 13 101 214 13 101 214 13 101 214 13 101 214 13 101 214 13 101 214 13 101 214 13 101 214 13 101 214 13 101 214 13 101 214 13 101 214 13 101 214 13 101 214 13 101 214 13 101 214 13 101 214 13 101 214 13 101 214 13 101 214 13 101 214 13 101 214 13 101 214 13 101 214 13 101 214 13 101 214 13 101 214 13 101 214 13 101 214 13 101 214 13 101 214 13 101 214 13 101 214 13 101 214 13 101 214 13 101 214 13 101 214 13 101 214 13 101 214 13 101 214 13 101 214 13 101 214 13 101 214 13 101 214 13 101 214 13 101 214 13 101 214 13 101 214 13 101 214 13 101 214 13 101 214 13 101 214 13 101 214 13 101 214 13 101 214 13 101 214 13 101 214 13 101 214 13 101 214 13 101 214 13 101 214 13 101 214 13 101 214 13 101 214 13 101 214 13 101 214 13 101 214 13 101 214 13 101 214 13 101 214 13 101 214 13 101 214 13 101 214 13 101 214 13 101 214 13 101 214 13 101 214 13 101 214 13 101 214 13 101 214 13 101 214 13 101 214 13 101 214 13 101 214 13 101 214 13 101 214 13 101 214 13 101 214 13 101 214 13 101 214 13 101 214 13 101 214 13 101 214 13 101 214 13 101 214 13 101 214 13 101 214 13 101 214 13 101 214 13 101 214 13 101 214 13 101 214 13 101 214 13 101 214 13 101 214 13 101 214 13 101 214 13 101 214 13 101 214 13 101 214 13 101 214 13 101 214 13 101 214 13 101 214 13 101 214 13 101 214 13 101 214 13 101 214
13 101 214 13 101 214 13 101 214 13 101 214 13 101 214 13 101 214 13 101 214 13 101 214 13 101 214 13 101 214 13 101 214 13 101 214 13 101 214 13 101 214 13 101 214 13 101 214 13 101 214 13 101 214 13 101 214 13 101 214 13 101 214 13 101 214 13 101 214 13 101 214 13 101 214 13 101 214 13 101 214 13 101 214 13 101 214 13 101 214 13 101 214 13 101 214 13 101 214 13 101 214 13 101 214 13 101 214 13 101 214 13 101 214 13 101 214 13 101 214 13 101 214 13 101 214 13 101 214 13 101 214 13 101 214 13 101 214 13 101 214 13 101 214 13 101 214 13 101 214 13 101 214 13 101 214 13 101 214 13 101 214 13 101 214 13 101 214 13 101 214 13 101 214 13 101 214 13 101 214 13 101 214 13 101 214 13 101 214 13 101 214 13 101 214 13 101 214 13 101 214 13 101 214 13 101 214 13 101 214 13 101 214 13 101 214 13 101 214 13 101 214 13 101 214 13 101 214 13 101 214 13 101 214 13 101 214 13 101 214 13 101 214 13 101 214 13 101 214 13 101 214 13 101 214 13 101 214 13 101 214 13 101 214 13 101 214 13 101 214 13 101 214 13 101 214 13 101 214 13 101 214 13 101 214 13 101 214 13 101 214 13 101 214 13 101 214 13 101 214 13 101 214 13 101 214 13 101 214 13 101 214 13 101 214 13 101 214 13 101 214 13 101 214 13 101 214 13 101 214 13 101 214 13 101 214 13 101 214 13 101 214 13 101 214 13 101 214 13 101 214 13 101 214 13 101 214 13 101 214 13 101 214 13 101 214 13 101 214 13 101 214 13 101 214 13 101 214 13 101 214 13 101 214 13 101 214 13 101 214 13 101 214 13 101 214 13 101 214 13 101 214 13 101 214 13 101 214 13 101 214 13 101 214 13 101 214 13 101 214 13 101 214 13 101 214 13 101 214 13 101 214 13 101 214 13 101 214 13 101 214 13 101 214 13 101 214 13 101 214 13 101 214 13 101 214 13 101 214 13 101 214 13 101 214 13 101 214 13 101 214 13 101 214 13 101 214 13 101 214 13 101 214 13 101 214 13 101 214 13 101 214 13 101 214 13 101 214 13 101 214 13 101 214 13 101 214 13 101 214 13 101 214 13 101 214 13 101 214 13 101 214 13 101 214 13 101 214 13 101 214 13 101 214 13 101 214 13 101 214 13 101 214 13 101 214 13 101 214 13 101 214 13 101 214 13 101 214 13 101 214 13 101 214 13 101 214 13 101 214 13 101 214 13 101 214 13 101 214 13 101 214 13 101 214 13 101 214 13 101 214 13 101 214 13 101 214 13 101 214 13 101 214 13 101 214 13 101 214 13 101 214 13 101 214 13 101 214 13 101 214 13 101 214 13 101 214 13 101 214 13 101 214 13 101 214 13 101 214 13 101 214 13 101 214 13 101 214 13 101 214 13 101 214 13 101 214 13 101 214 13 101 214 13 101 214 13 101 214 13 101 214 13 101 214 13 101 214 13 101 214 13 101 214 13 101 214 13 101 214 13 101 214 13 101 214 13 101 214 13 101 214 13 101 214 13 101 214 13 101 214 13 101 214 13 101 214 13 101 214 13 101 214 13 101 214 13 101 214 13 101 214 13 101 214 13 101 214 13 101 214 13 101 214 13 101 214 13 101 214 13 101 214 13 101 214 13 101 214 13 101 214 13 101 214 13 101 214
13 101 214 13 101 214 13 101 214 13 101 214 13 101 214 13 101 214 13 101 214 13 101 214 13 101 214 13 101 214 13 101 214 13 101 214 13 101 214 13 101 214 13 101 214 13 101 214 13 101 214 13 101 214 13 101 214 13 101 214 13 101 214 13 101 214 13 101 214 13 101 214 13 101 214 13 101 214 13 101 214 13 101 214 13 101 214 13 101 214 13 101 214 13 101 214 13 101 214 13 101 214 13 101 214 13 101 214 13 101 214 13 101 214 13 101 214 13 101 214 13 101 214 13 101 214 13 101 214 13 101 214 13 101 214 13 101 214 13 101 214 13 101 214 13 101 214 13 101 214 13 101 214 13 101 214 13 101 214 13 101 214 13 101 214 13 101 214 13 101 214 13 101 214 13 101 214 13 101 214 13 101 214 13 101 214 13 101 214 13 101 214 13 101 214 13 101 214 13 101 214 13 101 214 13 101 214 13 101 214 13 101 214 13 101 214 13 101 214 13 101 214 13 101 214 13 101 214 13 101 214 13 101 214 13 101 214 13 101 214 13 101 214 13 101 214 13 101 214 13 101 214 13 101 214 13 101 214 13 101 214 13 101 214 13 101 214 13 101 214 13 101 214 13 101 214 13 101 214 13 101 214 13 101 214 13 101 214 13 101 214 13 101 214 13 101 214 13 101 214 13 101 214 13 101 214 13 101 214 13 101 214 13 101 214 13 101 214 13 101 214 13 101 214 13 101 214 13 101 214 13 101 214 13 101 214 13 101 214 13 101 214 13 101 214 13 101 214 13 101 214 13 101 214 13 101 214 13 101 214 13 101 214 13 101 214 13 101 214 13 101 214 13 101 214 13 101 214 13 101 214 13 101 214 13 101 214 13 101 214 13 101 214 13 101 214 13 101 214 13 101 214 13 101 214 13 101 214 13 101 214 13 101 214 13 101 214 13 101 214 13 101 214 13 101 214 13 101 214 13 101 214 13 101 214 13 101 214 13 101 214 13 101 214 13 101 214 13 101 214 13 101 214 13 101 214 13 101 214 13 101 214 13 101 214 13 101 214 13 101 214 13 101 214 13 101 214 13 101 214 13 101 214 13 101 214 13 101 214 13 101 214 13 101 214 13 101 214 13 101 214 13 101 214 13 101 214 13 101 214 13 101 214 13 101 214 13 101 214 13 101 214 13 101 214 13 101 214 13 101 214 13 101 214 13 101 214 13 101 214 13 101 214 13 101 214 13 101 214 13 101 214 13 101 214 13 101 214 13 101 214 13 101 214 13 101 214 13 101 214 13 101 214 13 101 214 13 101 214 13 101 214 13 101 214 13 101 214 13 101 214 13 101 214 13 101 214 13 101 214 13 101 214 13 101 214 13 101 214 13 101 214 13 101 214 13 101 214 13 101 214 13 101 214 13 101 214 13 101 214 13 101 214 13 101 214 13 101 214 13 101 214 13 101 214 13 101 214 13 101 214 13 101 214 13 101 214 13 101 214 13 101 214 13 101 214 13 101 214 13 101 214 13 101 214 13 101 214 13 101 214 13 101 214 13 101 214 13 101 214 13 101 214 13 101 214 13 101 214 13 101 214 13 101 214 13 101 214 13 101 214 13 101 214 13 101 214 13 101 214 13 101 214 13 101 214 13 101 214 13 101 214 13 101 214 13 101 214 13 101 214 13 101 214 13 101 214 13 101 214 13 101 214 13 101 214 13 101 214 13 101 214 13 101 214 13 101 214
13 101 214 13 101 214 13 101 214 13 101 214 13 101 214 13 101 214 13 101 214 13 101 214 13 101 214 13 101 214 13 101 214 13 101 214 13 101 214 13 101 214 13 101 214 13 101 214 13 101 214 13 101 214 13 101 214 13 101 214 13 101 214 13 101 214 13 101 214 13 101 214 13 101 214 13 101 214 13 101 214 13 101 214 13 101 214 13 101 214 13 101 214 13 101 214 13 101 214 13 101 214 13 101 214 13 101 214 13 101 214 13 101 214 13 101 214 13 101 214 13 101 214 13 101 214 13 101 214 13 101 214 13 101 214 13 101 214 13 101 214 13 101 214 13 101 214 13 101 214 13 101 214 13 101 214 13 101 214 13 101 214 13 101 214 13 101 214 13 101 214 13 101 214 13 101 214 13 101 214 13 101 214 13 101 214 13 101 214 13 101 214 13 101 214 13 101 214 13 101 214 13 101 214 13 101 214 13 101 214 13 101 214 13 101 214 13 101 214 13 101 214 13 101 214 13 101 214 13 101 214 13 101 214 13 101 214 13 101 214 13 101 214 13 101 214 13 101 214 13 101 214 13 101 214 13 101 214 13 101 214 13 101 214 13 101 214 13 101 214 13 101 214 13 101 214 13 101 214 13 101 214 13 101 214 13 101 214 13 101 214 13 101 214 13 101 214 13 101 214 13 101 214 13 101 214 13 101 214 13 101 214 13 101 214 13 101 214 13 101 214 13 101 214 13 101 214 13 101 214 13 101 214 13 101 214 13 101 214 13 101 214 13 101 214 13 101 214 13 101 214 13 101 214 13 101 214 13 101 214 13 101 214 13 101 214 13 101 214 13 101 214 13 101 214 13 101 214 13 101 214 13 101 214 13 101 214 13 101 214 13 101 214 13 101 214 13 101 214 13 101 214 13 101 214 13 101 214 13 101 214 13 101 214 13 101 214 13 101 214 13 101 214 13 101 214 13 101 214 13 101 214 13 101 214 13 101 214 13 101 214 13 101 214 13 101 214 13 101 214 13 101 214 13 101 214 13 101 214 13 101 214 13 101 214 13 101 214 13 101 214 13 101 214 13 101 214 13 101 214 13 101 214 13 101 214 13 101 214 13 101 214 13 101 214 13 101 214 13 101 214 13 101 214 13 101 214 13 101 214 13 101 214 13 101 214 13 101 214 13 101 214 13 101 214 13 101 214 13 101 214 13 101 214 13 101 214 13 101 214 13 101 214 13 101 214 13 101 214 13 101 214 13 101 214 13 101 214 13 101 214 13 101 214 13 101 214 13 101 214 13 101 214 13 101 214 13 101 214 13 101 214 13 101 214 13 101 214 13 101 214 13 101 214 13 101 214 13 101 214 13 101 214 13 101 214 13 101 214 13 101 214 13 101 214 13 101 214 13 101 214 13 101 214 13 101 214 13 101 214 13 101 214 13 101 214 13 101 214 13 101 214 13 101 214 13 101 214 13 101 214 13 101 214 13 101 214 13 101 214 13 101 214 13 101 214 13 101 214 13 101 214 13 101 214 13 101 214 13 101 214 13 101 214 13 101 214 13 101 214 13 101 214 13 101 214 13 101 214 13 101 214 13 101 214 13 101 214 13 101 214 13 101 214 13 101 214 13 101 214 13 101 214 13 101 214 13 101 214 13 101 214 13 101 214 13 101 214 13 101 214 13 101 214 13 101 214 13 101 214 13 101 214 13 101 214 13 101 214 13 101 214 13 101 214 13 101 214
13 101 214 13 101 214 13 101 214 13 101 214 13 101 214 13 101 214 13 101 214 13 101 214 13 101 214 13 101 214 13 101 214 13 101 214 13 101 214 13 101 214 13 101 214 13 101 214 13 101 214 13 101 214 13 101 214 13 101 214 13 101 214 13 101 214 13 101 214 13 101 214 13 101 214 13 101 214 13 101 214 13 101 214 13 101 214 13 101 214 13 101 214 13 101 214 13 101 214 13 101 214 13 101 214 13 101 214 13 101 214 13 101 214 13 101 214 13 101 214 13 101 214 13 101 214 13 101 214 13 101 214 13 101 214 13 101 214 13 101 214 13 101 214 13 101 214 13 101 214 13 101 214 13 101 214 13 101 214 13 101 214 13 101 214 13 101 214 13 101 214 13 101 214 13 101 214 13 101 214 13 101 214 13 101 214 13 101 214 13 101 214 13 101 214 13 101 214 13 101 214 13 101 214 13 101 214 13 101 214 13 101 214 13 101 214 13 101 214 13 101 214 13 101 214 13 101 214 13 101 214 13 101 214 13 101 214 13 101 214 13 101 214 13 101 214 13 101 214 13 101 214 13 101 214 13 101 214 13 101 214 13 101 214 13 101 214 13 101 214 13 101 214 13 101 214 13 101 214 13 101 214 13 101 214 13 101 214 13 101 214 13 101 214 13 101 214 13 101 214 13 101 214 13 101 214 13 101 214 13 101 214 13 101 214 13 101 214 13 101 214 13 101 214 13 101 214 13 101 214 13 101 214 13 101 214 13 101 214 13 101 214 13 101 214 13 101 214 13 101 214 13 101 214 13 101 214 13 101 214 13 101 214 13 101 214 13 101 214 13 101 214 13 101 214 13 101 214 13 101 214 13 101 214 13 101 214 13 101 214 13 101 214 13 101 214 13 101 214 13 101 214 13 101 214 13 101 214 13 101 214 13 101 214 13 101 214 13 101 214 13 101 214 13 101 214 13 101 214 13 101 214 13 101 214 13 101 214 13 101 214 13 101 214 13 101 214 13 101 214 13 101 214 13 101 214 13 101 214 13 101 214 13 101 214 13 101 214 13 101 214 13 101 214 13 101 214 13 101 214 13 101 214 13 101 214 13 101 214 13 101 214 13 101 214 13 101 214 13 101 214 13 101 214 13 101 214 13 101 214 13 101 214 13 101 214 13 101 214 13 101 214 13 101 214 13 101 214 13 101 214 13 101 214 13 101 214 13 101 214 13 101 214 13 101 214 13 101 214 13 101 214 13 101 214 13 101 214 13 101 214 13 101 214 13 101 214 13 101 214 13 101 214 13 101 214 13 101 214 13 101 214 13 101 214 13 101 214 13 101 214 13 101 214 13 101 214 13 101 214 13 101 214 13 101 214 13 101 214 13 101 214 13 101 214 13 101 214 13 101 214 13 101 214 13 101 214 13 101 214 13 101 214 13 101 214 13 101 214 13 101 214 13 101 214 13 101 214 13 101 214 13 101 214 13 101 214 13 101 214 13 101 214 13 101 214 13 101 214 13 101 214 13 101 214 13 101 214 13 101 214 13 101 214 13 101 214 13 101 214 13 101 214 13 101 214 13 101 214 13 101 214 13 101 214 13 101 214 13 101 214 13 101 214 13 101 214 13 101 214 13 101 214 13 101 214 13 101 214 13 101 214 13 101 214 13 101 214 13 101 214 13 101 214 13 101 214 13 101 214 13 101 214 13 101 214 13 101 214 13 101 214 13 101 214 13 101 214
13 101 214 13 101 214 13 101 214 13 101 214 13 101 214 13 101 214 13 101 214 13 101 214 13 101 214 13 101 214 13 101 214 13 101 214 13 101 214 13 101 214 13 101 214 13 101 214 13 101 214 13 101 214 13 101 214 13 101 214 13 101 214 13 101 214 13 101 214 13 101 214 13 101 214 13 101 214 13 101 214 13 101 214 13 101 214 13 101 214 13 101 214 13 101 214 13 101 214 13 101 214 13 101 214 13 101 214 13 101 214 13 101 214 13 101 214 13 101 214 13 101 214 13 101 214 13 101 214 13 101 214 13 101 214 13 101 214 13 101 214 13 101 214 13 101 214 13 101 214 13 101 214 13 101 214 13 101 214 13 101 214 13 101 214 13 101 214 13 101 214 13 101 214 13 101 214 13 101 214 13 101 214 13 101 214 13 101 214 13 101 214 13 101 214 13 101 214 13 101 214 13 101 214 13 101 214 13 101 214 13 101 214 13 101 214 13 101 214 13 101 214 13 101 214 13 101 214 13 101 214 13 101 214 13 101 214 13 101 214 13 101 214 13 101 214 13 101 214 13 101 214 13 101 214 13 101 214 13 101 214 13 101 214 13 101 214 13 101 214 13 101 214 13 101 214 13 101 214 13 101 214 13 101 214 13 101 214 13 101 214 13 101 214 13 101 214 13 101 214 13 101 214 13 101 214 13 101 214 13 101 214 13 101 214 13 101 214 13 101 214 13 101 214 13 101 214 13 101 214 13 101 214 13 101 214 13 101 214 13 101 214 13 101 214 13 101 214 13 101 214 13 101 214 13 101 214 13 101 214 13 101 214 13 101 214 13 101 214 13 101 214 13 101 214 13 101 214 13 101 214 13 101 214 13 101 214 13 101 214 13 101 214 13 101 214 13 101 214 13 101 214 13 101 214 13 101 214 13 101 214 13 101 214 13 101 214 13 101 214 13 101 214 13 101 214 13 101 214 13 101 214 13 101 214 13 101 214 13 101 214 13 101 214 13 101 214 13 101 214 13 101 214 13 101 214 13 101 214 13 101 214 13 101 214 13 101 214 13 101 214 13 101 214 13 101 214 13 101 214 13 101 214 13 101 214 13 101 214 13 101 214 13 101 214 13 101 214 13 101 214 13 101 214 13 101 214 13 101 214 13 101 214 13 101 214 13 101 214 13 101 214 13 101 214 13 101 214 13 101 214 13 101 214 13 101 214 13 101 214 13 101 214 13 101 214 13 101 214 13 101 214 13 101 214 13 101 214 13 101 214 13 101 214 13 101 214 13 101 214 13 101 214 13 101 214 13 101 214 13 101 214 13 101 214 13 101 214 13 101 214 13 101 214 13 101 214 13 101 214 13 101 214 13 101 214 13 101 214 13 101 214 13 101 214 13 101 214 13 101 214 13 101 214 13 101 214 13 101 214 13 101 214 13 101 214 13 101 214 13 101 214 13 101 214 13 101 214 13 101 214 13 101 214 13 101 214 13 101 214 13 101 214 13 101 214 13 101 214 13 101 214 13 101 214 13 101 214 13 101 214 13 101 214 13 101 214 13 101 214 13 101 214 13 101 214 13 101 214 13 101 214 13 101 214 13 101 214 13 101 214 13 101 214 13 101 214 13 101 214 13 101 214 13 101 214 13 101 214 13 101 214 13 101 214 13 101 214 13 101 214 13 101 214 13 101 214 13 101 214 13 101 214 13 101 214 13 101 214 13 101 214 13 101 214 13 101 214
13 101 214 13 101 214 13 101 214 13 101 214 13 101 214 13 101 214 13 101 214 13 101 214 13 101 214 13 101 214 13 101 214 13 101 214 13 101 214 13 101 214 13 101 214 13 101 214 13 101 214 13 101 214 13 101 214 13 101 214 13 101 214 13 101 214 13 101 214 13 101 214 13 101 214 13 101 214 13 101 214 13 101 214 13 101 214 13 101 214 13 101 214 13 101 214 13 101 214 13 101 214 13 101 214 13 101 214 13 101 214 13 101 214 13 101 214 13 101 214 13 101 214 13 101 214 13 101 214 13 101 214 13 101 214 13 101 214 13 101 214 13 101 214 13 101 214 13 101 214 13 101 214 13 101 214 13 101 214 13 101 214 13 101 214 13 101 214 13 101 214 13 101 214 13 101 214 13 101 214 13 101 214 13 101 214 13 101 214 13 101 214 13 101 214 13 101 214 13 101 214 13 101 214 13 101 214 13 101 214 13 101 214 13 101 214 13 101 214 13 101 214 13 101 214 13 101 214 13 101 214 13 101 214 13 101 214 13 101 214 13 101 214 13 101 214 13 101 214 13 101 214 13 101 214 13 101 214 13 101 214 13 101 214 13 101 214 13 101 214 13 101 214 13 101 214 13 101 214 13 101 214 13 101 214 13 101 214 13 101 214 13 101 214 13 101 214 13 101 214 13 101 214 13 101 214 13 101 214 13 101 214 13 101 214 13 101 214 13 101 214 13 101 214 13 101 214 13 101 214 13 101 214 13 101 214 13 101 214 13 101 214 13 101 214 13 101 214 13 101 214 13 101 214 13 101 214 13 101 214 13 101 214 13 101 214 13 101 214 13 101 214 13 101 214 13 101 214 13 101 214 13 101 214 13 101 214 13 101 214 13 101 214 13 101 214 13 101 214 13 101 214 13 101 214 13 101 214 13 101 214 13 101 214 13 101 214 13 101 214 13 101 214 13 101 214 13 101 214 13 101 214 13 101 214 13 101 214 13 101 214 13 101 214 13 101 214 13 101 214 13 101 214 13 101 214 13 101 214 13 101 214 13 101 214 13 101 214 13 101 214 13 101 214 13 101 214 13 101 214 13 101 214 13 101 214 13 101 214 13 101 214 13 101 214 13 101 214 13 101 214 13 101 214 13 101 214 13 101 214 13 101 214 13 101 214 13 101 214 13 101 214 13 101 214 13 101 214 13 101 214 13 101 214 13 101 214 13 101 214 13 101 214 13 101 214 13 101 214 13 101 214 13 101 214 13 101 214 13 101 214 13 101 214 13 101 214 13 101 214 13 101 214 13 101 214 13 101 214 13 101 214 13 101 214 13 101 214 13 101 214 13 101 214 13 101 214 13 101 214 13 101 214 13 101 214 13 101 214 13 101 214 13 101 214 13 101 214 13 101 214 13 101 214 13 101 214 13 101 214 13 101 214 13 101 214 13 101 214 13 101 214 13 101 214 13 101 214 13 101 214 13 101 214 13 101 214 13 101 214 13 101 214 13 101 214 13 101 214 13 101 214 13 101 214 13 101 214 13 101 214 13 101 214 13 101 214 13 101 214 13 101 214 13 101 214 13 101 214 13 101 214 13 101 214 13 101 214 13 101 214 13 101 214 13 101 214 13 101 214 13 101 214 13 101 214 13 101 214 13 101 214 13 101 214 13 101 214 13 101 214 13 101 214 13 101 214 13 101 214 13 101 214 13 101 214 13 101 214 13 101 214 13 101 214 13 101 214
13 101 214 13 101 214 13 101 214 13 101 214 13 101 214 13 101 214 13 101 214 13 101 214 13 101 214 13 101 214 13 101 214 13 101 214 13 101 214 13 101 214 13 101 214 13 101 214 13 101 214 13 101 214 13 101 214 13 101 214 13 101 214 13 101 214 13 101 214 13 101 214 13 101 214 13 101 214 13 101 214 13 101 214 13 101 214 13 101 214 13 101 214 13 101 214 13 101 214 13 101 214 13 101 214 13 101 214 13 101 214 13 101 214 13 101 214 13 101 214 13 101 214 13 101 214 13 101 214 13 101 214 13 101 214 13 101 214 13 101 214 13 101 214 13 101 214 13 101 214 13 101 214 13 101 214 13 101 214 13 101 214 13 101 214 13 101 214 13 101 214 13 101 214 13 101 214 13 101 214 13 101 214 13 101 214 13 101 214 13 101 214 13 101 214 13 101 214 13 101 214 13 101 214 13 101 214 13 101 214 13 101 214 13 101 214 13 101 214 13 101 214 13 101 214 13 101 214 13 101 214 13 101 214 13 101 214 13 101 214 13 101 214 13 101 214 13 101 214 13 101 214 13 101 214 13 101 214 13 101 214 13 101 214 13 101 214 13 101 214 13 101 214 13 101 214 13 101 214 13 101 214 13 101 214 13 101 214 13 101 214 13 101 214 13 101 214 13 101 214 13 101 214 13 101 214 13 101 214 13 101 214 13 101 214 13 101 214 13 101 214 13 101 214 13 101 214 13 101 214 13 101 214 13 101 214 13 101 214 13 101 214 13 101 214 13 101 214 13 101 214 13 101 214 13 101 214 13 101 214 13 101 214 13 101 214 13 101 214 13 101 214 13 101 214 13 101 214 13 101 214 13 101 214 13 101 214 13 101 214 13 101 214 13 101 214 13 101 214 13 101 214 13 101 214 13 101 214 13 101 214 13 101 214 13 101 214 13 101 214 13 101 214 13 101 214 13 101 214 13 101 214 13 101 214 13 101 214 13 101 214 13 101 214 13 101 214 13 101 214 13 101 214 13 101 214 13 101 214 13 101 214 13 101 214 13 101 214 13 101 214 13 101 214 13 101 214 13 101 214 13 101 214 13 101 214 13 101 214 13 101 214 13 101 214 13 101 214 13 101 214 13 101 214 13 101 214 13 101 214 13 101 214 13 101 214 13 101 214 13 101 214 13 101 214 13 101 214 13 101 214 13 101 214 13 101 214 13 101 214 13 101 214 13 101 214 13 101 214 13 101 214 13 101 214 13 101 214 13 101 214 13 101 214 13 101 214 13 101 214 13 101 214 13 101 214 13 101 214 13 101 214 13 101 214 13 101 214 13 101 214 13 101 214 13 101 214 13 101 214 13 101 214 13 101 214 13 101 214 13 101 214 13 101 214 13 101 214 13 101 214 13 101 214 13 101 214 13 101 214 13 101 214 13 101 214 13 101 214 13 101 214 13 101 214 13 101 214 13 101 214 13 101 214 13 101 214 13 101 214 13 101 214 13 101 214 13 101 214 13 101 214 13 101 214 13 101 214 13 101 214 13 101 214 13 101 214 13 101 214 13 101 214 13 101 214 13 101 214 13 101 214 13 101 214 13 101 214 13 101 214 13 101 214 13 101 214 13 101 214 13 101 214 13 101 214 13 101 214 13 101 214 13 101 214 13 101 214 13 101 214 13 101 214 13 101 214 13 101 214 13 101 214 13 101 214 13 101 214 13 101 214 13 101 214 13 101 214
13 101 214 13 101 214 13 101 214 13 101 214 13 101 214 13 101 214 13 101 214 13 101 214 13 101 214 13 101 214 13 101 214 13 101 214 13 101 214 13 101 214 13 101 214 13 101 214 13 101 214 13 101 214 13 101 214 13 101 214 13 101 214 13 101 214 13 101 214 13 101 214 13 101 214 13 101 214 13 101 214 13 101 214 13 101 214 13 101 214 13 101 214 13 101 214 13 101 214 13 101 214 13 101 214 13 101 214 13 101 214 13 101 214 13 101 214 13 101 214 13 101 214 13 101 214 13 101 214 13 101 214 13 101 214 13 101 214 13 101 214 13 101 214 13 101 214 13 101 214 13 101 214 13 101 214 13 101 214 13 101 214 13 101 214 13 101 214 13 101 214 13 101 214 13 101 214 13 101 214 13 101 214 13 101 214 13 101 214 13 101 214 13 101 214 13 101 214 13 101 214 13 101 214 13 101 214 13 101 214 13 101 214 13 101 214 13 101 214 13 101 214 13 101 214 13 101 214 13 101 214 13 101 214 13 101 214 13 101 214 13 101 214 13 101 214 13 101 214 13 101 214 13 101 214 13 101 214 13 101 214 13 101 214 13 101 214 13 101 214 13 101 214 13 101 214 13 101 214 13 101 214 13 101 214 13 101 214 13 101 214 13 101 214 13 101 214 13 101 214 13 101 214 13 101 214 13 101 214 13 101 214 13 101 214 13 101 214 13 101 214 13 101 214 13 101 214 13 101 214 13 101 214 13 101 214 13 101 214 13 101 214 13 101 214 13 101 214 13 101 214 13 101 214 13 101 214 13 101 214 13 101 214 13 101 214 13 101 214 13 101 214 13 101 214 13 101 214 13 101 214 13 101 214 13 101 214 13 101 214 13 101 214 13 101 214 13 101 214 13 101 214 13 101 214 13 101 214 13 101 214 13 101 214 13 101 214 13 101 214 13 101 214 13 101 214 13 101 214 13 101 214 13 101 214 13 101 214 13 101 214 13 101 214 13 101 214 13 101 214 13 101 214 13 101 214 13 101 214 13 101 214 13 101 214 13 101 214 13 101 214 13 101 214 13 101 214 13 101 214 13 101 214 13 101 214 13 101 214 13 101 214 13 101 214 13 101 214 13 101 214 13 101 214 13 101 214 13 101 214 13 101 214 13 101 214 13 101 214 13 101 214 13 101 214 13 101 214 13 101 214 13 101 214 13 101 214 13 101 214 13 101 214 13 101 214 13 101 214 13 101 214 13 101 214 13 101 214 13 101 214 13 101 214 13 101 214 13 101 214 13 101 214 13 101 214 13 101 214 13 101 214 13 101 214 13 101 214 13 101 214 13 101 214 13 101 214 13 101 214 13 101 214 13 101 214 13 101 214 13 101 214 13 101 214 13 101 214 13 101 214 13 101 214 13 101 214 13 101 214 13 101 214 13 101 214 13 101 214 13 101 214 13 101 214 13 101 214 13 101 214 13 101 214 13 101 214 13 101 214 13 101 214 13 101 214 13 101 214 13 101 214 13 101 214 13 101 214 13 101 214 13 101 214 13 101 214 13 101 214 13 101 214 13 101 214 13 101 214 13 101 214 13 101 214 13 101 214 13 101 214 13 101 214 13 101 214 13 101 214 13 101 214 13 101 214 13 101 214 13 101 214 13 101 214 13 101 214 13 101 214 13 101 214 13 101 214 13 101 214 13 101 214 13 101 214 13 101 214 13 101 214 13 101 214 13 101 214
13 101 214 13 101 214 13 101 214 13 101 214 13 101 214 13 101 214 13 101 214 13 101 214 13 101 214 13 101 214 13 101 214 13 101 214 13 101 214 13 101 214 13 101 214 13 101 214 13 101 214 13 101 214 13 101 214 13 101 214 13 101 214 13 101 214 13 101 214 13 101 214 13 101 214 13 101 214 13 101 214 13 101 214 13 101 214 13 101 214 13 101 214 13 101 214 13 101 214 13 101 214 13 101 214 13 101 214 13 101 214 13 101 214 13 101 214 13 101 214 13 101 214 13 101 214 13 101 214 13 101 214 13 101 214 13 101 214 13 101 214 13 101 214 13 101 214 13 101 214 13 101 214 13 101 214 13 101 214 13 101 214 13 101 214 13 101 214 13 101 214 13 101 214 13 101 214 13 101 214 13 101 214 13 101 214 13 101 214 13 101 214 13 101 214 13 101 214 13 101 214 13 101 214 13 101 214 13 101 214 13 101 214 13 101 214 13 101 214 13 101 214 13 101 214 13 101 214 13 101 214 13 101 214 13 101 214 13 101 214 13 101 214 13 101 214 13 101 214 13 101 214 13 101 214 13 101 214 13 101 214 13 101 214 13 101 214 13 101 214 13 101 214 13 101 214 13 101 214 13 101 214 13 101 214 13 101 214 13 101 214 13 101 214 13 101 214 13 101 214 13 101 214 13 101 214 13 101 214 13 101 214 13 101 214 13 101 214 13 101 214 13 101 214 13 101 214 13 101 214 13 101 214 13 101 214 13 101 214 13 101 214 13 101 214 13 101 214 13 101 214 13 101 214 13 101 214 13 101 214 13 101 214 13 101 214 13 101 214 13 101 214 13 101 214 13 101 214 13 101 214 13 101 214 13 101 214 13 101 214 13 101 214 13 101 214 13 101 214 13 101 214 13 101 214 13 101 214 13 101 214 13 101 214 13 101 214 13 101 214 13 101 214 13 101 214 13 101 214 13 101 214 13 101 214 13 101 214 13 101 214 13 101 214 13 101 214 13 101 214 13 101 214 13 101 214 13 101 214 13 101 214 13 101 214 13 101 214 13 101 214 13 101 214 13 101 214 13 101 214 13 101 214 13 101 214 13 101 214 13 101 214 13 101 214 13 101 214 13 101 214 13 101 214 13 101 214 13 101 214 13 101 214 13 101 214 13 101 214 13 101 214 13 101 214 13 101 214 13 101 214 13 101 214 13 101 214 13 101 214 13 101 214 13 101 214 13 101 214 13 101 214 13 101 214 13 101 214 13 101 214 13 101 214 13 101 214 13 101 214 13 101 214 13 101 214 13 101 214 13 101 214 13 101 214 13 101 214 13 101 214 13 101 214 13 101 214 13 101 214 13 101 214 13 101 214 13 101 214 13 101 214 13 101 214 13 101 214 13 101 214 13 101 214 13 101 214 13 101 214 13 101 214 13 101 214 13 101 214 13 101 214 13 101 214 13 101 214 13 101 214 13 101 214 13 101 214 13 101 214 13 101 214 13 101 214 13 101 214 13 101 214 13 101 214 13 101 214 13 101 214 13 101 214 13 101 214 13 101 214 13 101 214 13 101 214 13 101 214 13 101 214 13 101 214 13 101 214 13 101 214 13 101 214 13 101 214 13 101 214 13 101 214 13 101 214 13 101 214 13 101 214 13 101 214 13 101 214 13 101 214 13 101 214 13 101 214 13 101 214 13 101 214 13 101 214 13 101 214 13 101 214 13 101 214 13 101 214
13 101 214 13 101 214 13 101 214 13 101 214 13 101 214 13 101 214 13 101 214 13 101 214 13 101 214 13 101 214 13 101 214 13 101 214 13 101 214 13 101 214 13 101 214 13 101 214 13 101 214 13 101 214 13 101 214 13 101 214 13 101 214 13 101 214 13 101 214 13 101 214 13 101 214 13 101 214 13 101 214 13 101 214 13 101 214 13 101 214 13 101 214 13 101 214 13 101 214 13 101 214 13 101 214 13 101 214 13 101 214 13 101 214 13 101 214 13 101 214 13 101 214 13 101 214 13 101 214 13 101 214 13 101 214 13 101 214 13 101 214 13 101 214 13 101 214 13 101 214 13 101 214 13 101 214 13 101 214 13 101 214 13 101 214 13 101 214 13 101 214 13 101 214 13 101 214 13 101 214 13 101 214 13 101 214 13 101 214 13 101 214 13 101 214 13 101 214 13 101 214 13 101 214 13 101 214 13 101 214 13 101 214 13 101 214 13 101 214 13 101 214 13 101 214 13 101 214 13 101 214 13 101 214 13 101 214 13 101 214 13 101 214 13 101 214 13 101 214 13 101 214 13 101 214 13 101 214 13 101 214 13 101 214 13 101 214 13 101 214 13 101 214 13 101 214 13 101 214 13 101 214 13 101 214 13 101 214 13 101 214 13 101 214 13 101 214 13 101 214 13 101 214 13 101 214 13 101 214 13 101 214 13 101 214 13 101 214 13 101 214 13 101 214 13 101 214 13 101 214 13 101 214 13 101 214 13 101 214 13 101 214 13 101 214 13 101 214 13 101 214 13 101 214 13 101 214 13 101 214 13 101 214 13 101 214 13 101 214 13 101 214 13 101 214 13 101 214 13 101 214 13 101 214 13 101 214 13 101 214 13 101 214 13 101 214 13 101 214 13 101 214 13 101 214 13 101 214 13 101 214 13 101 214 13 101 214 13 101 214 13 101 214 13 101 214 13 101 214 13 101 214 13 101 214 13 101 214 13 101 214 13 101 214 13 101 214 13 101 214 13 101 214 13 101 214 13 101 214 13 101 214 13 101 214 13 101 214 13 101 214 13 101 214 13 101 214 13 101 214 13 101 214 13 101 214 13 101 214 13 101 214 13 101 214 13 101 214 13 101 214 13 101 214 13 101 214 13 101 214 13 101 214 13 101 214 13 101 214 13 101 214 13 101 214 13 101 214 13 101 214 13 101 214 13 101 214 13 101 214 13 101 214 13 101 214 13 101 214 13 101 214 13 101 214 13 101 214 13 101 214 13 101 214 13 101 214 13 101 214 13 101 214 13 101 214 13 101 214 13 101 214 13 101 214 13 101 214 13 101 214 13 101 214 13 101 214 13 101 214 13 101 214 13 101 214 13 101 214 13 101 214 13 101 214 13 101 214 13 101 214 13 101 214 13 101 214 13 101 214 13 101 214 13 101 214 13 101 214 13 101 214 13 101 214 13 101 214 13 101 214 13 101 214 13 101 214 13 101 214 13 101 214 13 101 214 13 101 214 13 101 214 13 101 214 13 101 214 13 101 214 13 101 214 13 101 214 13 101 214 13 101 214 13 101 214 13 101 214 13 101 214 13 101 214 13 101 214 13 101 214 13 101 214 13 101 214 13 101 214 13 101 214 13 101 214 13 101 214 13 101 214 13 101 214 13 101 214 13 101 214 13 101 214 13 101 214 13 101 214 13 101 214 13 101 214 13 101 214 13 101 214 13 101 214 13 101 214
13 101 214 13 101 214 13 101 214 13 101 214 13 101 214 13 101 214 13 101 214 13 101 214 13 101 214 13 101 214 13 101 214 13 101 214 13 101 214 13 101 214 13 101 214 13 101 214 13 101 214 13 101 214 13 101 214 13 101 214 13 101 214 13 101 214 13 101 214 13 101 214 13 101 214 13 101 214 13 101 214 13 101 214 13 101 214 13 101 214 13 101 214 13 101 214 13 101 214 13 101 214 13 101 214 13 101 214 13 101 214 13 101 214 13 101 214 13 101 214 13 101 214 13 101 214 13 101 214 13 101 214 13 101 214 13 101 214 13 101 214 13 101 214 13 101 214 13 101 214 13 101 214 13 101 214 13 101 214 13 101 214 13 101 214 13 101 214 13 101 214 13 101 214 13 101 214 13 101 214 13 101 214 13 101 214 13 101 214 13 101 214 13 101 214 13 101 214 13 101 214 13 101 214 13 101 214 13 101 214 13 101 214 13 101 214 13 101 214 13 101 214 13 101 214 13 101 214 13 101 214 13 101 214 13 101 214 13 101 214 13 101 214 13 101 214 13 101 214 13 101 214 13 101 214 13 101 214 13 101 214 13 101 214 13 101 214 13 101 214 13 101 214 13 101 214 13 101 214 13 101 214 13 101 214 13 101 214 13 101 214 13 101 214 13 101 214 13 101 214 13 101 214 13 101 214 13 101 214 13 101 214 13 101 214 13 101 214 13 101 214 13 101 214 13 101 214 13 101 214 13 101 214 13 101 214 13 101 214 13 101 214 13 101 214 13 101 214 13 101 214 13 101 214 13 101 214 13 101 214 13 101 214 13 101 214 13 101 214 13 101 214 13 101 214 13 101 214 13 101 214 13 101 214 13 101 214 13 101 214 13 101 214 13 101 214 13 101 214 13 101 214 13 101 214 13 101 214 13 101 214 13 101 214 13 101 214 13 101 214 13 101 214 13 101 214 13 101 214 13 101 214 13 101 214 13 101 214 13 101 214 13 101 214 13 101 214 13 101 214 13 101 214 13 101 214 13 101 214 13 101 214 13 101 214 13 101 214 13 101 214 13 101 214 13 101 214 13 101 214 13 101 214 13 101 214 13 101 214 13 101 214 13 101 214 13 101 214 13 101 214 13 101 214 13 101 214 13 101 214 13 101 214 13 101 214 13 101 214 13 101 214 13 101 214 13 101 214 13 101 214 13 101 214 13 101 214 13 101 214 13 101 214 13 101 214 13 101 214 13 101 214 13 101 214 13 101 214 13 101 214 13 101 214 13 101 214 13 101 214 13 101 214 13 101 214 13 101 214 13 101 214 13 101 214 13 101 214 13 101 214 13 101 214 13 101 214 13 101 214 13 101 214 13 101 214 13 101 214 13 101 214 13 101 214 13 101 214 13 101 214 13 101 214 13 101 214 13 101 214 13 101 214 13 101 214 13 101 214 13 101 214 13 101 214 13 101 214 13 101 214 13 101 214 13 101 214 13 101 214 13 101 214 13 101 214 13 101 214 13 101 214 13 101 214 13 101 214 13 101 214 13 101 214 13 101 214 13 101 214 13 101 214 13 101 214 13 101 214 13 101 214 13 101 214 13 101 214 13 101 214 13 101 214 13 101 214 13 101 214 13 101 214 13 101 214 13 101 214 13 101 214 13 101 214 13 101 214 13 101 214 13 101 214 13 101 214 13 101 214 13 101 214 13 101 214 13 101 214 13 101 214 13 101 214 13 101 214
13 101 214 13 101 214 13 101 214 13 101 214 13 101 214 13 101 214 13 101 214 13 101 214 13 101 214 13 101 214 13 101 214 13 101 214 13 101 214 13 101 214 13 101 214 13 101 214 13 101 214 13 101 214 13 101 214 13 101 214 13 101 214 13 101 214 13 101 214 13 101 214 13 101 214 13 101 214 13 101 214 13 101 214 13 101 214 13 101 214 13 101 214 13 101 214 13 101 214 13 101 214 13 101 214 13 101 214 13 101 214 13 101 214 13 101 214 13 101 214 13 101 214 13 101 214 13 101 214 13 101 214 13 101 214 13 101 214 13 101 214 13 101 214 13 101 214 13 101 214 13 101 214 13 101 214 13 101 214 13 101 214 13 101 214 13 101 214 13 101 214 13 101 214 13 101 214 13 101 214 13 101 214 13 101 214 13 101 214 13 101 214 13 101 214 13 101 214 13 101 214 13 101 214 13 101 214 13 101 214 13 101 214 13 101 214 13 101 214 13 101 214 13 101 214 13 101 214 13 101 214 13 101 214 13 101 214 13 101 214 13 101 214 13 101 214 13 101 214 13 101 214 13 101 214 13 101 214 13 101 214 13 101 214 13 101 214 13 101 214 13 101 214 13 101 214 13 101 214 13 101 214 13 101 214 13 101 214 13 101 214 13 101 214 13 101 214 13 101 214 13 101 214 13 101 214 13 101 214 13 101 214 13 101 214 13 101 214 13 101 214 13 101 214 13 101 214 13 101 214 13 101 214 13 101 214 13 101 214 13 101 214 13 101 214 13 101 214 13 101 214 13 101 214 13 101 214 13 101 214 13 101 214 13 101 214 13 101 214 13 101 214 13 101 214 13 101 214 13 101 214 13 101 214 13 101 214 13 101 214 13 101 214 13 101 214 13 101 214 13 101 214 13 101 214 13 101 214 13 101 214 13 101 214 13 101 214 13 101 214 13 101 214 13 101 214 13 101 214 13 101 214 13 101 214 13 101 214 13 101 214 13 101 214 13 101 214 13 101 214 13 101 214 13 101 214 13 101 214 13 101 214 13 101 214 13 101 214 13 101 214 13 101 214 13 101 214 13 101 214 13 101 214 13 101 214 13 101 214 13 101 214 13 101 214 13 101 214 13 101 214 13 101 214 13 101 214 13 101 214 13 101 214 13 101 214 13 101 214 13 101 214 13 101 214 13 101 214 13 101 214 13 101 214 13 101 214 13 101 214 13 101 214 13 101 214 13 101 214 13 101 214 13 101 214 13 101 214 13 101 214 13 101 214 13 101 214 13 101 214 13 101 214 13 101 214 13 101 214 13 101 214 13 101 214 13 101 214 13 101 214 13 101 214 13 101 214 13 101 214 13 101 214 13 101 214 13 101 214 13 101 214 13 101 214 13 101 214 13 101 214 13 101 214 13 101 214 13 101 214 13 101 214 13 101 214 13 101 214 13 101 214 13 101 214 13 101 214 13 101 214 13 101 214 13 101 214 13 101 214 13 101 214 13 101 214 13 101 214 13 101 214 13 101 214 13 101 214 13 101 214 13 101 214 13 101 214 13 101 214 13 101 214 13 101 214 13 101 214 13 101 214 13 101 214 13 101 214 13 101 214 13 101 214 13 101 214 13 101 214 13 101 214 13 101 214 13 101 214 13 101 214 13 101 214 13 101 214 13 101 214 13 101 214 13 101 214 13 101 214 13 101 214 13 101 214 13 101 214 13 101 214 13 101 214 13 101 214
13 101 214 13 101 214 13 101 214 13 101 214 13 101 214 13 101 214 13 101 214 13 101 214 13 101 214 13 101 214 13 101 214 13 101 214 13 101 214 13 101 214 13 101 214 13 101 214 13 101 214 13 101 214 13 101 214 13 101 214 13 101 214 13 101 214 13 101 214 13 101 214 13 101 214 13 101 214 13 101 214 13 101 214 13 101 214 13 101 214 13 101 214 13 101 214 13 101 214 13 101 214 13 101 214 13 101 214 13 101 214 13 101 214 13 101 214 13 101 214 13 101 214 13 101 214 13 101 214 13 101 214 13 101 214 13 101 214 13 101 214 13 101 214 13 101 214 13 101 214 13 101 214 13 101 214 13 101 214 13 101 214 13 101 214 13 101 214 13 101 214 13 101 214 13 101 214 13 101 214 13 101 214 13 101 214 13 101 214 13 101 214 13 101 214 13 101 214 13 101 214 13 101 214 13 101 214 13 101 214 13 101 214 13 101 214 13 101 214 13 101 214 13 101 214 13 101 214 13 101 214 13 101 214 13 101 214 13 101 214 13 101 214 13 101 214 13 101 214 13 101 214 13 101 214 13 101 214 13 101 214 13 101 214 13 101 214 13 101 214 13 101 214 13 101 214 13 101 214 13 101 214 13 101 214 13 101 214 13 101 214 13 101 214 13 101 214 13 101 214 13 101 214 13 101 214 13 101 214 13 101 214 13 101 214 13 101 214 13 101 214 13 101 214 13 101 214 13 101 214 13 101 214 13 101 214 13 101 214 13 101 214 13 101 214 13 101 214 13 101 214 13 101 214 13 101 214 13 101 214 13 101 214 13 101 214 13 101 214 13 101 214 13 101 214 13 101 214 13 101 214 13 101 214 13 101 214 13 101 214 13 101 214 13 101 214 13 101 214 13 101 214 13 101 214 13 101 214 13 101 214 13 101 214 13 101 214 13 101 214 13 101 214 13 101 214 13 101 214 13 101 214 13 101 214 13 101 214 13 101 214 13 101 214 13 101 214 13 101 214 13 101 214 13 101 214 13 101 214 13 101 214 13 101 214 13 101 214 13 101 214 13 101 214 13 101 214 13 101 214 13 101 214 13 101 214 13 101 214 13 101 214 13 101 214 13 101 214 13 101 214 13 101 214 13 101 214 13 101 214 13 101 214 13 101 214 13 101 214 13 101 214 13 101 214 13 101 214 13 101 214 13 101 214 13 101 214 13 101 214 13 101 214 13 101 214 13 101 214 13 101 214 13 101 214 13 101 214 13 101 214 13 101 214 13 101 214 13 101 214 13 101 214 13 101 214 13 101 214 13 101 214 13 101 214 13 101 214 13 101 214 13 101 214 13 101 214 13 101 214 13 101 214 13 101 214 13 101 214 13 101 214 13 101 214 13 101 214 13 101 214 13 101 214 13 101 214 13 101 214 13 101 214 13 101 214 13 101 214 13 101 214 13 101 214 13 101 214 13 101 214 13 101 214 13 101 214 13 101 214 13 101 214 13 101 214 13 101 214 13 101 214 13 101 214 13 101 214 13 101 214 13 101 214 13 101 214 13 101 214 13 101 214 13 101 214 13 101 214 13 101 214 13 101 214 13 101 214 13 101 214 13 101 214 13 101 214 13 101 214 13 101 214 13 101 214 13 101 214 13 101 214 13 101 214 13 101 214 13 101 214 13 101 214 13 101 214 13 101 214 13 101 214 13 101 214 13 101 214 13 101 214 13 101 214 13 101 214
13 101 214 13 101 214 13 101 214 13 101 214 13 101 214 13 101 214 13 101 214 13 101 214 13 101 214 13 101 214 13 101 214 13 101 214 13 101 214 13 101 214 13 101 214 13 101 214 13 101 214 13 101 214 13 101 214 13 101 214 13 101 214 13 101 214 13 101 214 13 101 214 13 101 214 13 101 214 13 101 214 13 101 214 13 101 214 13 101 214 13 101 214 13 101 214 13 101 214 13 101 214 13 101 214 13 101 214 13 101 214 13 101 214 13 101 214 13 101 214 13 101 214 13 101 214 13 101 214 13 101 214 13 101 214 13 101 214 13 101 214 13 101 214 13 101 214 13 101 214 13 101 214 13 101 214 13 101 214 13 101 214 13 101 214 13 101 214 13 101 214 13 101 214 13 101 214 13 101 214 13 101 214 13 101 214 13 101 214 13 101 214 13 101 214 13 101 214 13 101 214 13 101 214 13 101 214 13 101 214 13 101 214 13 101 214 13 101 214 13 101 214 13 101 214 13 101 214 13 101 214 13 101 214 13 101 214 13 101 214 13 101 214 13 101 214 13 101 214 13 101 214 13 101 214 13 101 214 13 101 214 13 101 214 13 101 214 13 101 214 13 101 214 13 101 214 13 101 214 13 101 214 13 101 214 13 101 214 13 101 214 13 101 214 13 101 214 13 101 214 13 101 214 13 101 214 13 101 214 13 101 214 13 101 214 13 101 214 13 101 214 13 101 214 13 101 214 13 101 214 13 101 214 13 101 214 13 101 214 13 101 214 13 101 214 13 101 214 13 101 214 13 101 214 13 101 214 13 101 214 13 101 214 13 101 214 13 101 214 13 101 214 13 101 214 13 101 214 13 101 214 13 101 214 13 101 214 13 101 214 13 101 214 13 101 214 13 101 214 13 101 214 13 101 214 13 101 214 13 101 214 13 101 214 13 101 214 13 101 214 13 101 214 13 101 214 13 101 214 13 101 214 13 101 214 13 101 214 13 101 214 13 101 214 13 101 214 13 101 214 13 101 214 13 101 214 13 101 214 13 101 214 13 101 214 13 101 214 13 101 214 13 101 214 13 101 214 13 101 214 13 101 214 13 101 214 13 101 214 13 101 214 13 101 214 13 101 214 13 101 214 13 101 214 13 101 214 13 101 214 13 101 214 13 101 214 13 101 214 13 101 214 13 101 214 13 101 214 13 101 214 13 101 214 13 101 214 13 101 214 13 101 214 13 101 214 13 101 214 13 101 214 13 101 214 13 101 214 13 101 214 13 101 214 13 101 214 13 101 214 13 101 214 13 101 214 13 101 214 13 101 214 13 101 214 13 101 214 13 101 214 13 101 214 13 101 214 13 101 214 13 101 214 13 101 214 13 101 214 13 101 214 13 101 214 13 101 214 13 101 214 13 101 214 13 101 214 13 101 214 13 101 214 13 101 214 13 101 214 13 101 214 13 101 214 13 101 214 13 101 214 13 101 214 13 101 214 13 101 214 13 101 214 13 101 214 13 101 214 13 101 214 13 101 214 13 101 214 13 101 214 13 101 214 13 101 214 13 101 214 13 101 214 13 101 214 13 101 214 13 101 214 13 101 214 13 101 214 13 101 214 13 101 214 13 101 214 13 101 214 13 101 214 13 101 214 13 101 214 13 101 214 13 101 214 13 101 214 13 101 214 13 101 214 13 101 214 13 101 214 13 101 214 13 101 214 13 101 214 13 101 214 13 101 214 13 101 214
13 101 214 13 101 214 13 101 214 13 101 214 13 101 214 13 101 214 13 101 214 13 101 214 13 101 214 13 101 214 13 101 214 13 101 214 13 101 214 13 101 214 13 101 214 13 101 214 13 101 214 13 101 214 13 101 214 13 101 214 13 101 214 13 101 214 13 101 214 13 101 214 13 101 214 13 101 214 13 101 214 13 101 214 13 101 214 13 101 214 13 101 214 13 101 214 13 101 214 13 101 214 13 101 214 13 101 214 13 101 214 13 101 214 13 101 214 13 101 214 13 101 214 13 101 214 13 101 214 13 101 214 13 101 214 13 101 214 13 101 214 13 101 214 13 101 214 13 101 214 13 101 214 13 101 214 13 101 214 13 101 214 13 101 214 13 101 214 13 101 214 13 101 214 13 101 214 13 101 214 13 101 214 13 101 214 13 101 214 13 101 214 13 101 214 13 101 214 13 101 214 13 101 214 13 101 214 13 101 214 13 101 214 13 101 214 13 101 214 13 101 214 13 101 214 13 101 214 13 101 214 13 101 214 13 101 214 13 101 214 13 101 214 13 101 214 13 101 214 13 101 214 13 101 214 13 101 214 13 101 214 13 101 214 13 101 214 13 101 214 13 101 214 13 101 214 13 101 214 13 101 214 13 101 214 13 101 214 13 101 214 13 101 214 13 101 214 13 101 214 13 101 214 13 101 214 13 101 214 13 101 214 13 101 214 13 101 214 13 101 214 13 101 214 13 101 214 13 101 214 13 101 214 13 101 214 13 101 214 13 101 214 13 101 214 13 101 214 13 101 214 13 101 214 13 101 214 13 101 214 13 101 214 13 101 214 13 101 214 13 101 214 13 101 214 13 101 214 13 101 214 13 101 214 13 101 214 13 101 214 13 101 214 13 101 214 13 101 214 13 101 214 13 101 214 13 101 214 13 101 214 13 101 214 13 101 214 13 101 214 13 101 214 13 101 214 13 101 214 13 101 214 13 101 214 13 101 214 13 101 214 13 101 214 13 101 214 13 101 214 13 101 214 13 101 214 13 101 214 13 101 214 13 101 214 13 101 214 13 101 214 13 101 214 13 101 214 13 101 214 13 101 214 13 101 214 13 101 214 13 101 214 13 101 214 13 101 214 13 101 214 13 101 214 13 101 214 13 101 214 13 101 214 13 101 214 13 101 214 13 101 214 13 101 214 13 101 214 13 101 214 13 101 214 13 101 214 13 101 214 13 101 214 13 101 214 13 101 214 13 101 214 13 101 214 13 101 214 13 101 214 13 101 214 13 101 214 13 101 214 13 101 214 13 101 214 13 101 214 13 101 214 13 101 214 13 101 214 13 101 214 13 101 214 13 101 214 13 101 214 13 101 214 13 101 214 13 101 214 13 101 214 13 101 214 13 101 214 13 101 214 13 101 214 13 101 214 13 101 214 13 101 214 13 101 214 13 101 214 13 101 214 13 101 214 13 101 214 13 101 214 13 101 214 13 101 214 13 101 214 13 101 214 13 101 214 13 101 214 13 101 214 13 101 214 13 101 214 13 101 214 13 101 214 13 101 214 13 101 214 13 101 214 13 101 214 13 101 214 13 101 214 13 101 214 13 101 214 13 101 214 13 101 214 13 101 214 13 101 214 13 101 214 13 101 214 13 101 214 13 101 214 13 101 214 13 101 214 13 101 214 13 101 214 13 101 214 13 101 214 13 101 214 13 101 214 13 101 214 13 101 214 13 101 214 13 101 214
13 101 214 13 101 214 13 101 214 13 101 214 13 101 214 13 101 214 13 101 214 13 101 214 13 101 214 13 101 214 13 101 214 13 101 214 13 101 214 13 101 214 13 101 214 13 101 214 13 101 214 13 101 214 13 101 214 13 101 214 13 101 214 13 101 214 13 101 214 13 101 214 13 101 214 13 101 214 13 101 214 13 101 214 13 101 214 13 101 214 13 101 214 13 101 214 13 101 214 13 101 214 13 101 214 13 101 214 13 101 214 13 101 214 13 101 214 13 101 214 13 101 214 13 101 214 13 101 214 13 101 214 13 101 214 13 101 214 13 101 214 13 101 214 13 101 214 13 101 214 13 101 214 13 101 214 13 101 214 13 101 214 13 101 214 13 101 214 13 101 214 13 101 214 13 101 214 13 101 214 13 101 214 13 101 214 13 101 214 13 101 214 13 101 214 13 101 214 13 101 214 13 101 214 13 101 214 13 101 214 13 101 214 13 101 214 13 101 214 13 101 214 13 101 214 13 101 214 13 101 214 13 101 214 13 101 214 13 101 214 13 101 214 13 101 214 13 101 214 13 101 214 13 101 214 13 101 214 13 101 214 13 101 214 13 101 214 13 101 214 13 101 214 13 101 214 13 101 214 13 101 214 13 101 214 13 101 214 13 101 214 13 101 214 13 101 214 13 101 214 13 101 214 13 101 214 13 101 214 13 101 214 13 101 214 13 101 214 13 101 214 13 101 214 13 101 214 13 101 214 13 101 214 13 101 214 13 101 214 13 101 214 13 101 214 13 101 214 13 101 214 13 101 214 13 101 214 13 101 214 13 101 214 13 101 214 13 101 214 13 101 214 13 101 214 13 101 214 13 101 214 13 101 214 13 101 214 13 101 214 13 101 214 13 101 214 13 101 214 13 101 214 13 101 214 13 101 214 13 101 214 13 101 214 13 101 214 13 101 214 13 101 214 13 101 214 13 101 214 13 101 214 13 101 214 13 101 214 13 101 214 13 101 214 13 101 214 13 101 214 13 101 214 13 101 214 13 101 214 13 101 214 13 101 214 13 101 214 13 101 214 13 101 214 13 101 214 13 101 214 13 101 214 13 101 214 13 101 214 13 101 214 13 101 214 13 101 214 13 101 214 13 101 214 13 101 214 13 101 214 13 101 214 13 101 214 13 101 214 13 101 214 13 101 214 13 101 214 13 101 214 13 101 214 13 101 214 13 101 214 13 101 214 13 101 214 13 101 214 13 101 214 13 101 214 13 101 214 13 101 214 13 101 214 13 101 214 13 101 214 13 101 214 13 101 214 13 101 214 13 101 214 13 101 214 13 101 214 13 101 214 13 101 214 13 101 214 13 101 214 13 101 214 13 101 214 13 101 214 13 101 214 13 101 214 13 101 214 13 101 214 13 101 214 13 101 214 13 101 214 13 101 214 13 101 214 13 101 214 13 101 214 13 101 214 13 101 214 13 101 214 13 101 214 13 101 214 13 101 214 13 101 214 13 101 214 13 101 214 13 101 214 13 101 214 13 101 214 13 101 214 13 101 214 13 101 214 13 101 214 13 101 214 13 101 214 13 101 214 13 101 214 13 101 214 13 101 214 13 101 214 13 101 214 13 101 214 13 101 214 13 101 214 13 101 214 13 101 214 13 101 214 13 101 214 13 101 214 13 101 214 13 101 214 13 101 214 13 101 214 13 101 214 13 101 214 13 101 214 13 101 214 13 101 214 13 101 214
13 101 214 13 101 214 13 101 214 13 101 214 13 101 214 13 101 214 13 101 214 13 101 214 13 101 214 13 101 214 13 101 214 13 101 214 13 101 214 13 101 214 13 101 214 13 101 214 13 101 214 13 101 214 13 101 214 13 101 214 13 101 214 13 101 214 13 101 214 13 101 214 13 101 214 13 101 214 13 101 214 13 101 214 13 101 214 13 101 214 13 101 214 13 101 214 13 101 214 13 101 214 13 101 214 13 101 214 13 101 214 13 101 214 13 101 214 13 101 214 13 101 214 13 101 214 13 101 214 13 101 214 13 101 214 13 101 214 13 101 214 13 101 214 13 101 214 13 101 214 13 101 214 13 101 214 13 101 214 13 101 214 13 101 214 13 101 214 13 101 214 13 101 214 13 101 214 13 101 214 13 101 214 13 101 214 13 101 214 13 101 214 13 101 214 13 101 214 13 101 214 13 101 214 13 101 214 13 101 214 13 101 214 13 101 214 13 101 214 13 101 214 13 101 214 13 101 214 13 101 214 13 101 214 13 101 214 13 101 214 13 101 214 13 101 214 13 101 214 13 101 214 13 101 214 13 101 214 13 101 214 13 101 214 13 101 214 13 101 214 13 101 214 13 101 214 13 101 214 13 101 214 13 101 214 13 101 214 13 101 214 13 101 214 13 101 214 13 101 214 13 101 214 13 101 214 13 101 214 13 101 214 13 101 214 13 101 214 13 101 214 13 101 214 13 101 214 13 101 214 13 101 214 13 101 214 13 101 214 13 101 214 13 101 214 13 101 214 13 101 214 13 101 214 13 101 214 13 101 214 13 101 214 13 101 214 13 101 214 13 101 214 13 101 214 13 101 214 13 101 214 13 101 214 13 101 214 13 101 214 13 101 214 13 101 214 13 101 214 13 101 214 13 101 214 13 101 214 13 101 214 13 101 214 13 101 214 13 101 214 13 101 214 13 101 214 13 101 214 13 101 214 13 101 214 13 101 214 13 101 214 13 101 214 13 101 214 13 101 214 13 101 214 13 101 214 13 101 214 13 101 214 13 101 214 13 101 214 13 101 214 13 101 214 13 101 214 13 101 214 13 101 214 13 101 214 13 101 214 13 101 214 13 101 214 13 101 214 13 101 214 13 101 214 13 101 214 13 101 214 13 101 214 13 101 214 13 101 214 13 101 214 13 101 214 13 101 214 13 101 214 13 101 214 13 101 214 13 101 214 13 101 214 13 101 214 13 101 214 13 101 214 13 101 214 13 101 214 13 101 214 13 101 214 13 101 214 13 101 214 13 101 214 13 101 214 13 101 214 13 101 214 13 101 214 13 101 214 13 101 214 13 101 214 13 101 214 13 101 214 13 101 214 13 101 214 13 101 214 13 101 214 13 101 214 13 101 214 13 101 214 13 101 214 13 101 214 13 101 214 13 101 214 13 101 214 13 101 214 13 101 214 13 101 214 13 101 214 13 101 214 13 101 214 13 101 214 13 101 214 13 101 214 13 101 214 13 101 214 13 101 214 13 101 214 13 101 214 13 101 214 13 101 214 13 101 214 13 101 214 13 101 214 13 101 214 13 101 214 13 101 214 13 101 214 13 101 214 13 101 214 13 101 214 13 101 214 13 101 214 13 101 214 13 101 214 13 101 214 13 101 214 13 101 214 13 101 214 13 101 214 13 101 214 13 101 214 13 101 214 13 101 214 13 101 214 13 101 214 13 101 214 13 101 214 13 101 214
13 101 214 13 101 214 13 101 214 13 101 214 13 101 214 13 101 214 13 101 214 13 101 214 13 101 214 13 101 214 13 101 214 13 101 214 13 101 214 13 101 214 13 101 214 13 101 214 13 101 214 13 101 214 13 101 214 13 101 214 13 101 214 13 101 214 13 101 214 13 101 214 13 101 214 13 101 214 13 101 214 13 101 214 13 101 214 13 101 214 13 101 214 13 101 214 13 101 214 13 101 214 13 101 214 13 101 214 13 101 214 13 101 214 13 101 214 13 101 214 13 101 214 13 101 214 13 101 214 13 101 214 13 101 214 13 101 214 13 101 214 13 101 214 13 101 214 13 101 214 13 101 214 13 101 214 13 101 214 13 101 214 13 101 214 13 101 214 13 101 214 13 101 214 13 101 214 13 101 214 13 101 214 13 101 214 13 101 214 13 101 214 13 101 214 13 101 214 13 101 214 13 101 214 13 101 214 13 101 214 13 101 214 13 101 214 13 101 214 13 101 214 13 101 214 13 101 214 13 101 214 13 101 214 13 101 214 13 101 214 13 101 214 13 101 214 13 101 214 13 101 214 13 101 214 13 101 214 13 101 214 13 101 214 13 101 214 13 101 214 13 101 214 13 101 214 13 101 214 13 101 214 13 101 214 13 101 214 13 101 214 13 101 214 13 101 214 13 101 214 13 101 214 13 101 214 13 101 214 13 101 214 13 101 214 13 101 214 13 101 214 13 101 214 13 101 214 13 101 214 13 101 214 13 101 214 13 101 214 13 101 214 13 101 214 13 101 214 13 101 214 13 101 214 13 101 214 13 101 214 13 101 214 13 101 214 13 101 214 13 101 214 13 101 214 13 101 214 13 101 214 13 101 214 13 101 214 13 101 214 13 101 214 13 101 214 13 101 214 13 101 214 13 101 214 13 101 214 13 101 214 13 101 214 13 101 214 13 101 214 13 101 214 13 101 214 13 101 214 13 101 214 13 101 214 13 101 214 13 101 214 13 101 214 13 101 214 13 101 214 13 101 214 13 101 214 13 101 214 13 101 214 13 101 214 13 101 214 13 101 214 13 101 214 13 101 214 13 101 214 13 101 214 13 101 214 13 101 214 13 101 214 13 101 214 13 101 214 13 101 214 13 101 214 13 101 214 13 101 214 13 101 214 13 101 214 13 101 214 13 101 214 13 101 214 13 101 214 13 101 214 13 101 214 13 101 214 13 101 214 13 101 214 13 101 214 13 101 214 13 101 214 13 101 214 13 101 214 13 101 214 13 101 214 13 101 214 13 101 214 13 101 214 13 101 214 13 101 214 13 101 214 13 101 214 13 101 214 13 101 214 13 101 214 13 101 214 13 101 214 13 101 214 13 101 214 13 101 214 13 101 214 13 101 214 13 101 214 13 101 214 13 101 214 13 101 214 13 101 214 13 101 214 13 101 214 13 101 214 13 101 214 13 101 214 13 101 214 13 101 214 13 101 214 13 101 214 13 101 214 13 101 214 13 101 214 13 101 214 13 101 214 13 101 214 13 101 214 13 101 214 13 101 214 13 101 214 13 101 214 13 101 214 13 101 214 13 101 214 13 101 214 13 101 214 13 101 214 13 101 214 13 101 214 13 101 214 13 101 214 13 101 214 13 101 214 13 101 214 13 101 214 13 101 214 13 101 214 13 101 214 13 101 214 13 101 214 13 101 214 13 101 214 13 101 214 13 101 214 13 101 214 13 101 214 13 101 214
13 101 214 13 101 214 13 101 214 13 101 214 13 101 214 13 101 214 13 101 214 13 101 214 13 101 214 13 101 214 13 101 214 13 101 214 13 101 214 13 101 214 13 101 214 13 101 214 13 101 214 13 101 214 13 101 214 13 101 214 13 101 214 13 101 214 13 101 214 13 101 214 13 101 214 13 101 214 13 101 214 13 101 214 13 101 214 13 101 214 13 101 214 13 101 214 13 101 214 13 101 214 13 101 214 13 101 214 13 101 214 13 101 214 13 101 214 13 101 214 13 101 214 13 101 214 13 101 214 13 101 214 13 101 214 13 101 214 13 101 214 13 101 214 13 101 214 13 101 214 13 101 214 13 101 214 13 101 214 13 101 214 13 101 214 13 101 214 13 101 214 13 101 214 13 101 214 13 101 214 13 101 214 13 101 214 13 101 214 13 101 214 13 101 214 13 101 214 13 101 214 13 101 214 13 101 214 13 101 214 13 101 214 13 101 214 13 101 214 13 101 214 13 101 214 13 101 214 13 101 214 13 101 214 13 101 214 13 101 214 13 101 214 13 101 214 13 101 214 13 101 214 13 101 214 13 101 214 13 101 214 13 101 214 13 101 214 13 101 214 13 101 214 13 101 214 13 101 214 13 101 214 13 101 214 13 101 214 13 101 214 13 101 214 13 101 214 13 101 214 13 101 214 13 101 214 13 101 214 13 101 214 13 101 214 13 101 214 13 101 214 13 101 214 13 101 214 13 101 214 13 101 214 13 101 214 13 101 214 13 101 214 13 101 214 13 101 214 13 101 214 13 101 214 13 101 214 13 101 214 13 101 214 13 101 214 13 101 214 13 101 214 13 101 214 13 101 214 13 101 214 13 101 214 13 101 214 13 101 214 13 101 214 13 101 214 13 101 214 13 101 214 13 101 214 13 101 214 13 101 214 13 101 214 13 101 214 13 101 214 13 101 214 13 101 214 13 101 214 13 101 214 13 101 214 13 101 214 13 101 214 13 101 214 13 101 214 13 101 214 13 101 214 13 101 214 13 101 214 13 101 214 13 101 214 13 101 214 13 101 214 13 101 214 13 101 214 13 101 214 13 101 214 13 101 214 13 101 214 13 101 214 13 101 214 13 101 214 13 101 214 13 101 214 13 101 214 13 101 214 13 101 214 13 101 214 13 101 214 13 101 214 13 101 214 13 101 214 13 101 214 13 101 214 13 101 214 13 101 214 13 101 214 13 101 214 13 101 214 13 101 214 13 101 214 13 101 214 13 101 214 13 101 214 13 101 214 13 101 214 13 101 214 13 101 214 13 101 214 13 101 214 13 101 214 13 101 214 13 101 214 13 101 214 13 101 214 13 101 214 13 101 214 13 101 214 13 101 214 13 101 214 13 101 214 13 101 214 13 101 214 13 101 214 13 101 214 13 101 214 13 101 214 13 101 214 13 101 214 13 101 214 13 101 214 13 101 214 13 101 214 13 101 214 13 101 214 13 101 214 13 101 214 13 101 214 13 101 214 13 101 214 13 101 214 13 101 214 13 101 214 13 101 214 13 101 214 13 101 214 13 101 214 13 101 214 13 101 214 13 101 214 13 101 214 13 101 214 13 101 214 13 101 214 13 101 214 13 101 214 13 101 214 13 101 214 13 101 214 13 101 214 13 101 214 13 101 214 13 101 214 13 101 214 13 101 214 13 101 214 13 101 214 13 101 214 13 101 214 13 101 214 13 101 214 13 101 214
13 101 214 13 101 214 13 101 214 13 101 214 13 101 214 13 101 214 13 101 214 13 101 214 13 101 214 13 101 214 13 101 214 13 101 214 13 101 214 13 101 214 13 101 214 13 101 214 13 101 214 13 101 214 13 101 214 13 101 214 13 101 214 13 101 214 13 101 214 13 101 214 13 101 214 13 101 214 13 101 214 13 101 214 13 101 214 13 101 214 13 101 214 13 101 214 13 101 214 13 101 214 13 101 214 13 101 214 13 101 214 13 101 214 13 101 214 13 101 214 13 101 214 13 101 214 13 101 214 13 101 214 13 101 214 13 101 214 13 101 214 13 101 214 13 101 214 13 101 214 13 101 214 13 101 214 13 101 214 13 101 214 13 101 214 13 101 214 13 101 214 13 101 214 13 101 214 13 101 214 13 101 214 13 101 214 13 101 214 13 101 214 13 101 214 13 101 214 13 101 214 13 101 214 13 101 214 13 101 214 13 101 214 13 101 214 13 101 214 13 101 214 13 101 214 13 101 214 13 101 214 13 101 214 13 101 214 13 101 214 13 101 214 13 101 214 13 101 214 13 101 214 13 101 214 13 101 214 13 101 214 13 101 214 13 101 214 13 101 214 13 101 214 13 101 214 13 101 214 13 101 214 13 101 214 13 101 214 13 101 214 13 101 214 13 101 214 13 101 214 13 101 214 13 101 214 13 101 214 13 101 214 13 101 214 13 101 214 13 101 214 13 101 214 13 101 214 13 101 214 13 101 214 13 101 214 13 101 214 13 101 214 13 101 214 13 101 214 13 101 214 13 101 214 13 101 214 13 101 214 13 101 214 13 101 214 13 101 214 13 101 214 13 101 214 13 101 214 13 101 214 13 101 214 13 101 214 13 101 214 13 101 214 13 101 214 13 101 214 13 101 214 13 101 214 13 101 214 13 101 214 13 101 214 13 101 214 13 101 214 13 101 214 13 101 214 13 101 214 13 101 214 13 101 214 13 101 214 13 101 214 13 101 214 13 101 214 13 101 214 13 101 214 13 101 214 13 101 214 13 101 214 13 101 214 13 101 214 13 101 214 13 101 214 13 101 214 13 101 214 13 101 214 13 101 214 13 101 214 13 101 214 13 101 214 13 101 214 13 101 214 13 101 214 13 101 214 13 101 214 13 101 214 13 101 214 13 101 214 13 101 214 13 101 214 13 101 214 13 101 214 13 101 214 13 101 214 13 101 214 13 101 214 13 101 214 13 101 214 13 101 214 13 101 214 13 101 214 13 101 214 13 101 214 13 101 214 13 101 214 13 101 214 13 101 214 13 101 214 13 101 214 13 101 214 13 101 214 13 101 214 13 101 214 13 101 214 13 101 214 13 101 214 13 101 214 13 101 214 13 101 214 13 101 214 13 101 214 13 101 214 13 101 214 13 101 214 13 101 214 13 101 214 13 101 214 13 101 214 13 101 214 13 101 214 13 101 214 13 101 214 13 101 214 13 101 214 13 101 214 13 101 214 13 101 214 13 101 214 13 101 214 13 101 214 13 101 214 13 101 214 13 101 214 13 101 214 13 101 214 13 101 214 13 101 214 13 101 214 13 101 214 13 101 214 13 101 214 13 101 214 13 101 214 13 101 214 13 101 214 13 101 214 13 101 214 13 101 214 13 101 214 13 101 214 13 101 214 13 101 214 13 101 214 13 101 214 13 101 214 13 101 214 13 101 214 13 101 214 13 101 214 13 101 214 13 101 214
13 101 214 13 101 214 13 101 214 13 101 214 13 101 214 13 101 214 13 101 214 13 101 214 13 101 214 13 101 214 13 101 214 13 101 214 13 101 214 13 101 214 13 101 214 13 101 214 13 101 214 13 101 214 13 101 214 13 101 214 13 101 214 13 101 214 13 101 214 13 101 214 13 101 214 13 101 214 13 101 214 13 101 214 13 101 214 13 101 214 13 101 214 13 101 214 13 101 214 13 101 214 13 101 214 13 101 214 13 101 214 13 101 214 13 101 214 13 101 214 13 101 214 13 101 214 13 101 214 13 101 214 13 101 214 13 101 214 13 101 214 13 101 214 13 101 214 13 101 214 13 101 214 13 101 214 13 101 214 13 101 214 13 101 214 13 101 214 13 101 214 13 101 214 13 101 214 13 101 214 13 101 214 13 101 214 13 101 214 13 101 214 13 101 214 13 101 214 13 101 214 13 101 214 13 101 214 13 101 214 13 101 214 13 101 214 13 101 214 13 101 214 13 101 214 13 101 214 13 101 214 13 101 214 13 101 214 13 101 214 13 101 214 13 101 214 13 101 214 13 101 214 13 101 214 13 101 214 13 101 214 13 101 214 13 101 214 13 101 214 13 101 214 13 101 214 13 101 214 13 101 214 13 101 214 13 101 214 13 101 214 13 101 214 13 101 214 13 101 214 13 101 214 13 101 214 13 101 214 13 101 214 13 101 214 13 101 214 13 101 214 13 101 214 13 101 214 13 101 214 13 101 214 13 101 214 13 101 214 13 101 214 13 101 214 13 101 214 13 101 214 13 101 214 13 101 214 13 101 214 13 101 214 13 101 214 13 101 214 13 101 214 13 101 214 13 101 214 13 101 214 13 101 214 13 101 214 13 101 214 13 101 214 13 101 214 13 101 214 13 101 214 13 101 214 13 101 214 13 101 214 13 101 214 13 101 214 13 101 214 13 101 214 13 101 214 13 101 214 13 101 214 13 101 214 13 101 214 13 101 214 13 101 214 13 101 214 13 101 214 13 101 214 13 101 214 13 101 214 13 101 214 13 101 214 13 101 214 13 101 214 13 101 214 13 101 214 13 101 214 13 101 214 13 101 214 13 101 214 13 101 214 13 101 214 13 101 214 13 101 214 13 101 214 13 101 214 13 101 214 13 101 214 13 101 214 13 101 214 13 101 214 13 101 214 13 101 214 13 101 214 13 101 214 13 101 214 13 101 214 13 101 214 13 101 214 13 101 214 13 101 214 13 101 214 13 101 214 13 101 214 13 101 214 13 101 214 13 101 214 13 101 214 13 101 214 13 101 214 13 101 214 13 101 214 13 101 214 13 101 214 13 101 214 13 101 214 13 101 214 13 101 214 13 101 214 13 101 214 13 101 214 13 101 214 13 101 214 13 101 214 13 101 214 13 101 214 13 101 214 13 101 214 13 101 214 13 101 214 13 101 214 13 101 214 13 101 214 13 101 214 13 101 214 13 101 214 13 101 214 13 101 214 13 101 214 13 101 214 13 101 214 13 101 214 13 101 214 13 101 214 13 101 214 13 101 214 13 101 214 13 101 214 13 101 214 13 101 214 13 101 214 13 101 214 13 101 214 13 101 214 13 101 214 13 101 214 13 101 214 13 101 214 13 101 214 13 101 214 13 101 214 13 101 214 13 101 214 13 101 214 13 101 214 13 101 214 13 101 214 13 101 214 13 101 214 13 101 214 13 101 214 13 101 214 13 101 214
13 101 214 13 101 214 13 101 214 13 101 214 13 101 214 13 101 214 13 101 214 13 101 214 13 101 214 13 101 214 13 101 214 13 101 214 13 101 214 13 101 214 13 101 214 13 101 214 13 101 214 13 101 214 13 101 214 13 101 214 13 101 214 13 101 214 13 101 214 13 101 214 13 101 214 13 101 214 13 101 214 13 101 214 13 101 214 13 101 214 13 101 214 13 101 214 13 101 214 13 101 214 13 101 214 13 101 214 13 101 214 13 101 214 13 101 214 13 101 214 13 101 214 13 101 214 13 101 214 13 101 214 13 101 214 13 101 214 13 101 214 13 101 214 13 101 214 13 101 214 13 101 214 13 101 214 13 101 214 13 101 214 13 101 214 13 101 214 13 101 214 13 101 214 13 101 214 13 101 214 13 101 214 13 101 214 13 101 214 13 101 214 13 101 214 13 101 214 13 101 214 13 101 214 13 101 214 13 101 214 13 101 214 13 101 214 13 101 214 13 101 214 13 101 214 13 101 214 13 101 214 13 101 214 13 101 214 13 101 214 13 101 214 13 101 214 13 101 214 13 101 214 13 101 214 13 101 214 13 101 214 13 101 214 13 101 214 13 101 214 13 101 214 13 101 214 13 101 214 13 101 214 13 101 214 13 101 214 13 101 214 13 101 214 13 101 214 13 101 214 13 101 214 13 101 214 13 101 214 13 101 214 13 101 214 13 101 214 13 101 214 13 101 214 13 101 214 13 101 214 13 101 214 13 101 214 13 101 214 13 101 214 13 101 214 13 101 214 13 101 214 13 101 214 13 101 214 13 101 214 13 101 214 13 101 214 13 101 214 13 101 214 13 101 214 13 101 214 13 101 214 13 101 214 13 101 214 13 101 214 13 101 214 13 101 214 13 101 214 13 101 214 13 101 214 13 101 214 13 101 214 13 101 214 13 101 214 13 101 214 13 101 214 13 101 214 13 101 214 13 101 214 13 101 214 13 101 214 13 101 214 13 101 214 13 101 214 13 101 214 13 101 214 13 101 214 13 101 214 13 101 214 13 101 214 13 101 214 13 101 214 13 101 214 13 101 214 13 101 214 13 101 214 13 101 214 13 101 214 13 101 214 13 101 214 13 101 214 13 101 214 13 101 214 13 101 214 13 101 214 13 101 214 13 101 214 13 101 214 13 101 214 13 101 214 13 101 214 13 101 214 13 101 214 13 101 214 13 101 214 13 101 214 13 101 214 13 101 214 13 101 214 13 101 214 13 101 214 13 101 214 13 101 214 13 101 214 13 101 214 13 101 214 13 101 214 13 101 214 13 101 214 13 101 214 13 101 214 13 101 214 13 101 214 13 101 214 13 101 214 13 101 214 13 101 214 13 101 214 13 101 214 13 101 214 13 101 214 13 101 214 13 101 214 13 101 214 13 101 214 13 101 214 13 101 214 13 101 214 13 101 214 13 101 214 13 101 214 13 101 214 13 101 214 13 101 214 13 101 214 13 101 214 13 101 214 13 101 214 13 101 214 13 101 214 13 101 214 13 101 214 13 101 214 13 101 214 13 101 214 13 101 214 13 101 214 13 101 214 13 101 214 13 101 214 13 101 214 13 101 214 13 101 214 13 101 214 13 101 214 13 101 214 13 101 214 13 101 214 13 101 214 13 101 214 13 101 214 13 101 214 13 101 214 13 101 214 13 101 214 13 101 214 13 101 214 13 101 214 13 101 214 13 101 214 13 101 214
13 101 214 13 101 214 13 101 214 13 101 214 13 101 214 13 101 214 13 101 214 13 101 214 13 101 214 13 101 214 13 101 214 13 101 214 13 101 214 13 101 214 13 101 214 13 101 214 13 101 214 13 101 214 13 101 214 13 101 214 13 101 214 13 101 214 13 101 214 13 101 214 13 101 214 13 101 214 13 101 214 13 101 214 13 101 214 13 101 214 13 101 214 13 101 214 13 101 214 13 101 214 13 101 214 13 101 214 13 101 214 13 101 214 13 101 214 13 101 214 13 101 214 13 101 214 13 101 214 13 101 214 13 101 214 13 101 214 13 101 214 13 101 214 13 101 214 13 101 214 13 101 214 13 101 214 13 101 214 13 101 214 13 101 214 13 101 214 13 101 214 13 101 214 13 101 214 13 101 214 13 101 214 13 101 214 13 101 214 13 101 214 13 101 214 13 101 214 13 101 214 13 101 214 13 101 214 13 101 214 13 101 214 13 101 214 13 101 214 13 101 214 13 101 214 13 101 214 13 101 214 13 101 214 13 101 214 13 101 214 13 101 214 13 101 214 13 101 214 13 101 214 13 101 214 13 101 214 13 101 214 13 101 214 13 101 214 13 101 214 13 101 214 13 101 214 13 101 214 13 101 214 13 101 214 13 101 214 13 101 214 13 101 214 13 101 214 13 101 214 13 101 214 13 101 214 13 101 214 13 101 214 13 101 214 13 101 214 13 101 214 13 101 214 13 101 214 13 101 214 13 101 214 13 101 214 13 101 214 13 101 214 13 101 214 13 101 214 13 101 214 13 101 214 13 101 214 13 101 214 13 101 214 13 101 214 13 101 214 13 101 214 13 101 214 13 101 214 13 101 214 13 101 214 13 101 214 13 101 214 13 101 214 13 101 214 13 101 214 13 101 214 13 101 214 13 101 214 13 101 214 13 101 214 13 101 214 13 101 214 13 101 214 13 101 214 13 101 214 13 101 214 13 101 214 13 101 214 13 101 214 13 101 214 13 101 214 13 101 214 13 101 214 13 101 214 13 101 214 13 101 214 13 101 214 13 101 214 13 101 214 13 101 214 13 101 214 13 101 214 13 101 214 13 101 214 13 101 214 13 101 214 13 101 214 13 101 214 13 101 214 13 101 214 13 101 214 13 101 214 13 101 214 13 101 214 13 101 214 13 101 214 13 101 214 13 101 214 13 101 214 13 101 214 13 101 214 13 101 214 13 101 214 13 101 214 13 101 214 13 101 214 13 101 214 13 101 214 13 101 214 13 101 214 13 101 214 13 101 214 13 101 214 13 101 214 13 101 214 13 101 214 13 101 214 13 101 214 13 101 214 13 101 214 13 101 214 13 101 214 13 101 214 13 101 214 13 101 214 13 101 214 13 101 214 13 101 214 13 101 214 13 101 214 13 101 214 13 101 214 13 101 214 13 101 214 13 101 214 13 101 214 13 101 214 13 101 214 13 101 214 13 101 214 13 101 214 13 101 214 13 101 214 13 101 214 13 101 214 13 101 214 13 101 214 13 101 214 13 101 214 13 101 214 13 101 214 13 101 214 13 101 214 13 101 214 13 101 214 13 101 214 13 101 214 13 101 214 13 101 214 13 101 214 13 101 214 13 101 214 13 101 214 13 101 214 13 101 214 13 101 214 13 101 214 13 101 214 13 101 214 13 101 214 13 101 214 13 101 214 13 101 214 13 101 214 13 101 214 13 101 214 13 101 214 13 101 214
13 101 214 13 101 214 13 101 214 13 101 214 13 101 214 13 101 214 13 101 214 13 101 214 13 101 214 13 101 214 13 101 214 13 101 214 13 101 214 13 101 214 13 101 214 13 101 214 13 101 214 13 101 214 13 101 214 13 101 214 13 101 214 13 101 214 13 101 214 13 101 214 13 101 214 13 101 214 13 101 214 13 101 214 13 101 214 13 101 214 13 101 214 13 101 214 13 101 214 13 101 214 13 101 214 13 101 214 13 101 214 13 101 214 13 101 214 13 101 214 13 101 214 13 101 214 13 101 214 13 101 214 13 101 214 13 101 214 13 101 214 13 101 214 13 101 214 13 101 214 13 101 214 13 101 214 13 101 214 13 101 214 13 101 214 13 101 214 13 101 214 13 101 214 13 101 214 13 101 214 13 101 214 13 101 214 13 101 214 13 101 214 13 101 214 13 101 214 13 101 214 13 101 214 13 101 214 13 101 214 13 101 214 13 101 214 13 101 214 13 101 214 13 101 214 13 101 214 13 101 214 13 101 214 13 101 214 13 101 214 13 101 214 13 101 214 13 101 214 13 101 214 13 101 214 13 101 214 13 101 214 13 101 214 13 101 214 13 101 214 13 101 214 13 101 214 13 101 214 13 101 214 13 101 214 13 101 214 13 101 214 13 101 214 13 101 214 13 101 214 13 101 214 13 101 214 13 101 214 13 101 214 13 101 214 13 101 214 13 101 214 13 101 214 13 101 214 13 101 214 13 101 214 13 101 214 13 101 214 13 101 214 13 101 214 13 101 214 13 101 214 13 101 214 13 101 214 13 101 214 13 101 214 13 101 214 13 101 214 13 101 214 13 101 214 13 101 214 13 101 214 13 101 214 13 101 214 13 101 214 13 101 214 13 101 214 13 101 214 13 101 214 13 101 214 13 101 214 13 101 214 13 101 214 13 101 214 13 101 214 13 101 214 13 101 214 13 101 214 13 101 214 13 101 214 13 101 214 13 101 214 13 101 214 13 101 214 13 101 214 13 101 214 13 101 214 13 101 214 13 101 214 13 101 214 13 101 214 13 101 214 13 101 214 13 101 214 13 101 214 13 101 214 13 101 214 13 101 214 13 101 214 13 101 214 13 101 214 13 101 214 13 101 214 13 101 214 13 101 214 13 101 214 13 101 214 13 101 214 13 101 214 13 101 214 13 101 214 13 101 214 13 101 214 13 101 214 13 101 214 13 101 214 13 101 214 13 101 214 13 101 214 13 101 214 13 101 214 13 101 214 13 101 214 13 101 214 13 101 214 13 101 214 13 101 214 13 101 214 13 101 214 13 101 214 13 101 214 13 101 214 13 101 214 13 101 214 13 101 214 13 101 214 13 101 214 13 101 214 13 101 214 13 101 214 13 101 214 13 101 214 13 101 214 13 101 214 13 101 214 13 101 214 13 101 214 13 101 214 13 101 214 13 101 214 13 101 214 13 101 214 13 101 214 13 101 214 13 101 214 13 101 214 13 101 214 13 101 214 13 101 214 13 101 214 13 101 214 13 101 214 13 101 214 13 101 214 13 101 214 13 101 214 13 101 214 13 101 214 13 101 214 13 101 214 13 101 214 13 101 214 13 101 214 13 101 214 13 101 214 13 101 214 13 101 214 13 101 214 13 101 214 13 101 214 13 101 214 13 101 214 13 101 214 13 101 214 13 101 214 13 101 214 13 101 214 13 101 214 13 101 214 13 101 214 13 101 214
13 101 214 13 101 214 13 101 214 13 101 214 13 101 214 13 101 214 13 101 214 13 101 214 13 101 214 13 101 214 13 101 214 13 101 214 13 101 214 13 101 214 13 101 214 13 101 214 13 101 214 13 101 214 13 101 214 13 101 214 13 101 214 13 101 214 13 101 214 13 101 214 13 101 214 13 101 214 13 101 214 13 101 214 13 101 214 13 101 214 13 101 214 13 101 214 13 101 214 13 101 214 13 101 214 13 101 214 13 101 214 13 101 214 13 101 214 13 101 214 13 101 214 13 101 214 13 101 214 13 101 214 13 101 214 13 101 214 13 101 214 13 101 214 13 101 214 13 101 214 13 101 214 13 101 214 13 101 214 13 101 214 13 101 214 13 101 214 13 101 214 13 101 214 13 101 214 13 101 214 13 101 214 13 101 214 13 101 214 13 101 214 13 101 214 13 101 214 13 101 214 13 101 214 13 101 214 13 101 214 13 101 214 13 101 214 13 101 214 13 101 214 13 101 214 13 101 214 13 101 214 13 101 214 13 101 214 13 101 214 13 101 214 13 101 214 13 101 214 13 101 214 13 101 214 13 101 214 13 101 214 13 101 214 13 101 214 13 101 214 13 101 214 13 101 214 13 101 214 13 101 214 13 101 214 13 101 214 13 101 214 13 101 214 13 101 214 13 101 214 13 101 214 13 101 214 13 101 214 13 101 214 13 101 214 13 101 214 13 101 214 13 101 214 13 101 214 13 101 214 13 101 214 13 101 214 13 101 214 13 101 214 13 101 214 13 101 214 13 101 214 13 101 214 13 101 214 13 101 214 13 101 214 13 101 214 13 101 214 13 101 214 13 101 214 13 101 214 13 101 214 13 101 214 13 101 214 13 101 214 13 101 214 13 101 214 13 101 214 13 101 214 13 101 214 13 101 214 13 101 214 13 101 214 13 101 214 13 101 214 13 101 214 13 101 214 13 101 214 13 101 214 13 101 214 13 101 214 13 101 214 13 101 214 13 101 214 13 101 214 13 101 214 13 101 214 13 101 214 13 101 214 13 101 214 13 101 214 13 101 214 13 101 214 13 101 214 13 101 214 13 101 214 13 101 214 13 101 214 13 101 214 13 101 214 13 101 214 13 101 214 13 101 214 13 101 214 13 101 214 13 101 214 13 101 214 13 101 214 13 101 214 13 101 214 13 101 214 13 101 214 13 101 214 13 101 214 13 101 214 13 101 214 13 101 214 13 101 214 13 101 214 13 101 214 13 101 214 13 101 214 13 101 214 13 101 214 13 101 214 13 101 214 13 101 214 13 101 214 13 101 214 13 101 214 13 101 214 13 101 214 13 101 214 13 101 214 13 101 214 13 101 214 13 101 214 13 101 214 13 101 214 13 101 214 13 101 214 13 101 214 13 101 214 13 101 214 13 101 214 13 101 214 13 101 214 13 101 214 13 101 214 13 101 214 13 101 214 13 101 214 13 101 214 13 101 214 13 101 214 13 101 214 13 101 214 13 101 214 13 101 214 13 101 214 13 101 214 13 101 214 13 101 214 13 101 214 13 101 214 13 101 214 13 101 214 13 101 214 13 101 214 13 101 214 13 101 214 13 101 214 13 101 214 13 101 214 13 101 214 13 101 214 13 101 214 13 101 214 13 101 214 13 101 214 13 101 214 13 101 214 13 101 214 13 101 214 13 101 214 13 101 214 13 101 214 13 101 214 13 101 214 13 101 214 13 101 214
13 101 214 13 101 214 13 101 214 13 101 214 13 101 214 13 101 214 13 101 214 13 101 214 13 101 214 13 101 214 13 101 214 13 101 214 13 101 214 13 101 214 13 101 214 13 101 214 13 101 214 13 101 214 13 101 214 13 101 214 13 101 214 13 101 214 13 101 214 13 101 214 13 101 214 13 101 214 13 101 214 13 101 214 13 101 214 13 101 214 13 101 214 13 101 214 13 101 214 13 101 214 13 101 214 13 101 214 13 101 214 13 101 214 13 101 214 13 101 214 13 101 214 13 101 214 13 101 214 13 101 214 13 101 214 13 101 214 13 101 214 13 101 214 13 101 214 13 101 214 13 101 214 13 101 214 13 101 214 13 101 214 13 101 214 13 101 214 13 101 214 13 101 214 13 101 214 13 101 214 13 101 214 13 101 214 13 101 214 13 101 214 13 101 214 13 101 214 13 101 214 13 101 214 13 101 214 13 101 214 13 101 214 13 101 214 13 101 214 13 101 214 13 101 214 13 101 214 13 101 214 13 101 214 13 101 214 13 101 214 13 101 214 13 101 214 13 101 214 13 101 214 13 101 214 13 101 214 13 101 214 13 101 214 13 101 214 13 101 214 13 101 214 13 101 214 13 101 214 13 101 214 13 101 214 13 101 214 13 101 214 13 101 214 13 101 214 13 101 214 13 101 214 13 101 214 13 101 214 13 101 214 13 101 214 13 101 214 13 101 214 13 101 214 13 101 214 13 101 214 13 101 214 13 101 214 13 101 214 13 101 214 13 101 214 13 101 214 13 101 214 13 101 214 13 101 214 13 101 214 13 101 214 13 101 214 13 101 214 13 101 214 13 101 214 13 101 214 13 101 214 13 101 214 13 101 214 13 101 214 13 101 214 13 101 214 13 101 214 13 101 214 13 101 214 13 101 214 13 101 214 13 101 214 13 101 214 13 101 214 13 101 214 13 101 214 13 101 214 13 101 214 13 101 214 13 101 214 13 101 214 13 101 214 13 101 214 13 101 214 13 101 214 13 101 214 13 101 214 13 101 214 13 101 214 13 101 214 13 101 214 13 101 214 13 101 214 13 101 214 13 101 214 13 101 214 13 101 214 13 101 214 13 101 214 13 101 214 13 101 214 13 101 214 13 101 214 13 101 214 13 101 214 13 101 214 13 101 214 13 101 214 13 101 214 13 101 214 13 101 214 13 101 214 13 101 214 13 101 214 13 101 214 13 101 214 13 101 214 13 101 214 13 101 214 13 101 214 13 101 214 13 101 214 13 101 214 13 101 214 13 101 214 13 101 214 13 101 214 13 101 214 13 101 214 13 101 214 13 101 214 13 101 214 13 101 214 13 101 214 13 101 214 13 101 214 13 101 214 13 101 214 13 101 214 13 101 214 13 101 214 13 101 214 13 101 214 13 101 214 13 101 214 13 101 214 13 101 214 13 101 214 13 101 214 13 101 214 13 101 214 13 101 214 13 101 214 13 101 214 13 101 214 13 101 214 13 101 214 13 101 214 13 101 214 13 101 214 13 101 214 13 101 214 13 101 214 13 101 214 13 101 214 13 101 214 13 101 214 13 101 214 13 101 214 13 101 214 13 101 214 13 101 214 13 101 214 13 101 214 13 101 214 13 101 214 13 101 214 13 101 214 13 101 214 13 101 214 13 101 214 13 101 214 13 101 214 13 101 214 13 101 214 13 101 214 13 101 214 13 101 214 13 101 214 13 101 214
13 101 214 13 101 214 13 101 214 13 101 214 13 101 214 13 101 214 13 101 214 13 101 214 13 101 214 13 101 214 13 101 214 13 101 214 13 101 214 13 101 214 13 101 214 13 101 214 13 101 214 13 101 214 13 101 214 13 101 214 13 101 214 13 101 214 13 101 214 13 101 214 13 101 214 13 101 214 13 101 214 13 101 214 13 101 214 13 101 214 13 101 214 13 101 214 13 101 214 13 101 214 13 101 214 13 101 214 13 101 214 13 101 214 13 101 214 13 101 214 13 101 214 13 101 214 13 101 214 13 101 214 13 101 214 13 101 214 13 101 214 13 101 214 13 101 214 13 101 214 13 101 214 13 101 214 13 101 214 13 101 214 13 101 214 13 101 214 13 101 214 13 101 214 13 101 214 13 101 214 13 101 214 13 101 214 13 101 214 13 101 214 13 101 214 13 101 214 13 101 214 13 101 214 13 101 214 13 101 214 13 101 214 13 101 214 13 101 214 13 101 214 13 101 214 13 101 214 13 101 214 13 101 214 13 101 214 13 101 214 13 101 214 13 101 214 13 101 214 13 101 214 13 101 214 13 101 214 13 101 214 13 101 214 13 101 214 13 101 214 13 101 214 13 101 214 13 101 214 13 101 214 13 101 214 13 101 214 13 101 214 13 101 214 13 101 214 13 101 214 13 101 214 13 101 214 13 101 214 13 101 214 13 101 214 13 101 214 13 101 214 13 101 214 13 101 214 13 101 214 13 101 214 13 101 214 13 101 214 13 101 214 13 101 214 13 101 214 13 101 214 13 101 214 13 101 214 13 101 214 13 101 214 13 101 214 13 101 214 13 101 214 13 101 214 13 101 214 13 101 214 13 101 214 13 101 214 13 101 214 13 101 214 13 101 214 13 101 214 13 101 214 13 101 214 13 101 214 13 101 214 13 101 214 13 101 214 13 101 214 13 101 214 13 101 214 13 101 214 13 101 214 13 101 214 13 101 214 13 101 214 13 101 214 13 101 214 13 101 214 13 101 214 13 101 214 13 101 214 13 101 214 13 101 214 13 101 214 13 101 214 13 101 214 13 101 214 13 101 214 13 101 214 13 101 214 13 101 214 13 101 214 13 101 214 13 101 214 13 101 214 13 101 214 13 101 214 13 101 214 13 101 214 13 101 214 13 101 214 13 101 214 13 101 214 13 101 214 13 101 214 13 101 214 13 101 214 13 101 214 13 101 214 13 101 214 13 101 214 13 101 214 13 101 214 13 101 214 13 101 214 13 101 214 13 101 214 13 101 214 13 101 214 13 101 214 13 101 214 13 101 214 13 101 214 13 101 214 13 101 214 13 101 214 13 101 214 13 101 214 13 101 214 13 101 214 13 101 214 13 101 214 13 101 214 13 101 214 13 101 214 13 101 214 13 101 214 13 101 214 13 101 214 13 101 214 13 101 214 13 101 214 13 101 214 13 101 214 13 101 214 13 101 214 13 101 214 13 101 214 13 101 214 13 101 214 13 101 214 13 101 214 13 101 214 13 101 214 13 101 214 13 101 214 13 101 214 13 101 214 13 101 214 13 101 214 13 101 214 13 101 214 13 101 214 13 101 214 13 101 214 13 101 214 13 101 214 13 101 214 13 101 214 13 101 214 13 101 214 13 101 214 13 101 214 13 101 214 13 101 214 13 101 214 13 101 214 13 101 214 13 101 214 13 101 214 13 101 214 13 101 214 13 101 214 13 101 214
13 101 214 13 101 214 13 101 214 13 101 214 13 101 214 13 101 214 13 101 214 13 101 214 13 101 214 13 101 214 13 101 214 13 101 214 13 101 214 13 101 214 13 101 214 13 101 214 13 101 214 13 101 214 13 101 214 13 101 214 13 101 214 13 101 214 13 101 214 13 101 214 13 101 214 13 101 214 13 101 214 13 101 214 13 101 214 13 101 214 13 101 214 13 101 214 13 101 214 13 101 214 13 101 214 13 101 214 13 101 214 13 101 214 13 101 214 13 101 214 13 101 214 13 101 214 13 101 214 13 101 214 13 101 214 13 101 214 13 101 214 13 101 214 13 101 214 13 101 214 13 101 214 13 101 214 13 101 214 13 101 214 13 101 214 13 101 214 13 101 214 13 101 214 13 101 214 13 101 214 13 101 214 13 101 214 13 101 214 13 101 214 13 101 214 13 101 214 13 101 214 13 101 214 13 101 214 13 101 214 13 101 214 13 101 214 13 101 214 13 101 214 13 101 214 13 101 214 13 101 214 13 101 214 13 101 214 13 101 214 13 101 214 13 101 214 13 101 214 13 101 214 13 101 214 13 101 214 13 101 214 13 101 214 13 101 214 13 101 214 13 101 214 13 101 214 13 101 214 13 101 214 13 101 214 13 101 214 13 101 214 13 101 214 13 101 214 13 101 214 13 101 214 13 101 214 13 101 214 13 101 214 13 101 214 13 101 214 13 101 214 13 101 214 13 101 214 13 101 214 13 101 214 13 101 214 13 101 214 13 101 214 13 101 214 13 101 214 13 101 214 13 101 214 13 101 214 13 101 214 13 101 214 13 101 214 13 101 214 13 101 214 13 101 214 13 101 214 13 101 214 13 101 214 13 101 214 13 101 214 13 101 214 13 101 214 13 101 214 13 101 214 13 101 214 13 101 214 13 101 214 13 101 214 13 101 214 13 101 214 13 101 214 13 101 214 13 101 214 13 101 214 13 101 214 13 101 214 13 101 214 13 101 214 13 101 214 13 101 214 13 101 214 13 101 214 13 101 214 13 101 214 13 101 214 13 101 214 13 101 214 13 101 214 13 101 214 13 101 214 13 101 214 13 101 214 13 101 214 13 101 214 13 101 214 13 101 214 13 101 214 13 101 214 13 101 214 13 101 214 13 101 214 13 101 214 13 101 214 13 101 214 13 101 214 13 101 214 13 101 214 13 101 214 13 101 214 13 101 214 13 101 214 13 101 214 13 101 214 13 101 214 13 101 214 13 101 214 13 101 214 13 101 214 13 101 214 13 101 214 13 101 214 13 101 214 13 101 214 13 101 214 13 101 214 13 101 214 13 101 214 13 101 214 13 101 214 13 101 214 13 101 214 13 101 214 13 101 214 13 101 214 13 101 214 13 101 214 13 101 214 13 101 214 13 101 214 13 101 214 13 101 214 13 101 214 13 101 214 13 101 214 13 101 214 13 101 214 13 101 214 13 101 214 13 101 214 13 101 214 13 101 214 13 101 214 13 101 214 13 101 214 13 101 214 13 101 214 13 101 214 13 101 214 13 101 214 13 101 214 13 101 214 13 101 214 13 101 214 13 101 214 13 101 214 13 101 214 13 101 214 13 101 214 13 101 214 13 101 214 13 101 214 13 101 214 13 101 214 13 101 214 13 101 214 13 101 214 13 101 214 13 101 214 13 101 214 13 101 214 13 101 214 13 101 214 13 101 214 13 101 214 13 101 214 13 101 214
13 101 214 13 101 214 13 101 214 13 101 214 13 101 214 13 101 214 13 101 214 13 101 214 13 101 214 13 101 214 13 101 214 13 101 214 13 101 214 13 101 214 13 101 214 13 101 214 13 101 214 13 101 214 13 101 214 13 101 214 13 101 214 13 101 214 13 101 214 13 101 214 13 101 214 13 101 214 13 101 214 13 101 214 13 101 214 13 101 214 13 101 214 13 101 214 13 101 214 13 101 214 13 101 214 13 101 214 13 101 214 13 101 214 13 101 214 13 101 214 13 101 214 13 101 214 13 101 214 13 101 214 13 101 214 13 101 214 13 101 214 13 101 214 13 101 214 13 101 214 13 101 214 13 101 214 13 101 214 13 101 214 13 101 214 13 101 214 13 101 214 13 101 214 13 101 214 13 101 214 13 101 214 13 101 214 13 101 214 13 101 214 13 101 214 13 101 214 13 101 214 13 101 214 13 101 214 13 101 214 13 101 214 13 101 214 13 101 214 13 101 214 13 101 214 13 101 214 13 101 214 13 101 214 13 101 214 13 101 214 13 101 214 13 101 214 13 101 214 13 101 214 13 101 214 13 101 214 13 101 214 13 101 214 13 101 214 13 101 214 13 101 214 13 101 214 13 101 214 13 101 214 13 101 214 13 101 214 13 101 214 13 101 214 13 101 214 13 101 214 13 101 214 13 101 214 13 101 214 13 101 214 13 101 214 13 101 214 13 101 214 13 101 214 13 101 214 13 101 214 13 101 214 13 101 214 13 101 214 13 101 214 13 101 214 13 101 214 13 101 214 13 101 214 13 101 214 13 101 214 13 101 214 13 101 214 13 101 214 13 101 214 13 101 214 13 101 214 13 101 214 13 101 214 13 101 214 13 101 214 13 101 214 13 101 214 13 101 214 13 101 214 13 101 214 13 101 214 13 101 214 13 101 214 13 101 214 13 101 214 13 101 214 13 101 214 13 101 214 13 101 214 13 101 214 13 101 214 13 101 214 13 101 214 13 101 214 13 101 214 13 101 214 13 101 214 13 101 214 13 101 214 13 101 214 13 101 214 13 101 214 13 101 214 13 101 214 13 101 214 13 101 214 13 101 214 13 101 214 13 101 214 13 101 214 13 101 214 13 101 214 13 101 214 13 101 214 13 101 214 13 101 214 13 101 214 13 101 214 13 101 214 13 101 214 13 101 214 13 101 214 13 101 214 13 101 214 13 101 214 13 101 214 13 101 214 13 101 214 13 101 214 13 101 214 13 101 214 13 101 214 13 101 214 13 101 214 13 101 214 13 101 214 13 101 214 13 101 214 13 101 214 13 101 214 13 101 214 13 101 214 13 101 214 13 101 214 13 101 214 13 101 214 13 101 214 13 101 214 13 101 214 13 101 214 13 101 214 13 101 214 13 101 214 13 101 214 13 101 214 13 101 214 13 101 214 13 101 214 13 101 214 13 101 214 13 101 214 13 101 214 13 101 214 13 101 214 13 101 214 13 101 214 13 101 214 13 101 214 13 101 214 13 101 214 13 101 214 13 101 214 13 101 214 13 101 214 13 101 214 13 101 214 13 101 214 13 101 214 13 101 214 13 101 214 13 101 214 13 101 214 13 101 214 13 101 214 13 101 214 13 101 214 13 101 214 13 101 214 13 101 214 13 101 214 13 101 214 13 101 214 13 101 214 13 101 214 13 101 214 13 101 214 13 101 214 13 101 214 13 101 214 13 101 214 13 101 214
13 101 214 13 101 214 13 101 214 13 101 214 13 101 214 13 101 214 13 101 214 13 101 214 13 101 214 13 101 214 13 101 214 13 101 214 13 101 214 13 101 214 13 101 214 13 101 214 13 101 214 13 101 214 13 101 214 13 101 214 13 101 214 13 101 214 13 101 214 13 101 214 13 101 214 13 101 214 13 101 214 13 101 214 13 101 214 13 101 214 13 101 214 13 101 214 13 101 214 13 101 214 13 101 214 13 101 214 13 101 214 13 101 214 13 101 214 13 101 214 13 101 214 13 101 214 13 101 214 13 101 214 13 101 214 13 101 214 13 101 214 13 101 214 13 101 214 13 101 214 13 101 214 13 101 214 13 101 214 13 101 214 13 101 214 13 101 214 13 101 214 13 101 214 13 101 214 13 101 214 13 101 214 13 101 214 13 101 214 13 101 214 13 101 214 13 101 214 13 101 214 13 101 214 13 101 214 13 101 214 13 101 214 13 101 214 13 101 214 13 101 214 13 101 214 13 101 214 13 101 214 13 101 214 13 101 214 13 101 214 13 101 214 13 101 214 13 101 214 13 101 214 13 101 214 13 101 214 13 101 214 13 101 214 13 101 214 13 101 214 13 101 214 13 101 214 13 101 214 13 101 214 13 101 214 13 101 214 13 101 214 13 101 214 13 101 214 13 101 214 13 101 214 13 101 214 13 101 214 13 101 214 13 101 214 13 101 214 13 101 214 13 101 214 13 101 214 13 101 214 13 101 214 13 101 214 13 101 214 13 101 214 13 101 214 13 101 214 13 101 214 13 101 214 13 101 214 13 101 214 13 101 214 13 101 214 13 101 214 13 101 214 13 101 214 13 101 214 13 101 214 13 101 214 13 101 214 13 101 214 13 101 214 13 101 214 13 101 214 13 101 214 13 101 214 13 101 214 13 101 214 13 101 214 13 101 214 13 101 214 13 101 214 13 101 214 13 101 214 13 101 214 13 101 214 13 101 214 13 101 214 13 101 214 13 101 214 13 101 214 13 101 214 13 101 214 13 101 214 13 101 214 13 101 214 13 101 214 13 101 214 13 101 214 13 101 214 13 101 214 13 101 214 13 101 214 13 101 214 13 101 214 13 101 214 13 101 214 13 101 214 13 101 214 13 101 214 13 101 214 13 101 214 13 101 214 13 101 214 13 101 214 13 101 214 13 101 214 13 101 214 13 101 214 13 101 214 13 101 214 13 101 214 13 101 214 13 101 214 13 101 214 13 101 214 13 101 214 13 101 214 13 101 214 13 101 214 13 101 214 13 101 214 13 101 214 13 101 214 13 101 214 13 101 214 13 101 214 13 101 214 13 101 214 13 101 214 13 101 214 13 101 214 13 101 214 13 101 214 13 101 214 13 101 214 13 101 214 13 101 214 13 101 214 13 101 214 13 101 214 13 101 214 13 101 214 13 101 214 13 101 214 13 101 214 13 101 214 13 101 214 13 101 214 13 101 214 13 101 214 13 101 214 13 101 214 13 101 214 13 101 214 13 101 214 13 101 214 13 101 214 13 101 214 13 101 214 13 101 214 13 101 214 13 101 214 13 101 214 13 101 214 13 101 214 13 101 214 13 101 214 13 101 214 13 101 214 13 101 214 13 101 214 13 101 214 13 101 214 13 101 214 13 101 214 13 101 214 13 101 214 13 101 214 13 101 214 13 101 214 13 101 214 13 101 214 13 101 214 13 101 214 13 101 214 13 101 214
13 101 214 13 101 214 13 101 214 13 101 214 13 101 214 13 101 214 13 101 214 13 101 214 13 101 214 13 101 214 13 101 214 13 101 214 13 101 214 13 101 214 13 101 214 13 101 214 13 101 214 13 101 214 13 101 214 13 101 214 13 101 214 13 101 214 13 101 214 13 101 214 13 101 214 13 101 214 13 101 214 13 101 214 13 101 214 13 101 214 13 101 214 13 101 214 13 101 214 13 101 214 13 101 214 13 101 214 13 101 214 13 101 214 13 101 214 13 101 214 13 101 214 13 101 214 13 101 214 13 101 214 13 101 214 13 101 214 13 101 214 13 101 214 13 101 214 13 101 214 13 101 214 13 101 214 13 101 214 13 101 214 13 101 214 13 101 214 13 101 214 13 101 214 13 101 214 13 101 214 13 101 214 13 101 214 13 101 214 13 101 214 13 101 214 13 101 214 13 101 214 13 101 214 13 101 214 13 101 214 13 101 214 13 101 214 13 101 214 13 101 214 13 101 214 13 101 214 13 101 214 13 101 214 13 101 214 13 101 214 13 101 214 13 101 214 13 101 214 13 101 214 13 101 214 13 101 214 13 101 214 13 101 214 13 101 214 13 101 214 13 101 214 13 101 214 13 101 214 13 101 214 13 101 214 13 101 214 13 101 214 13 101 214 13 101 214 13 101 214 13 101 214 13 101 214 13 101 214 13 101 214 13 101 214 13 101 214 13 101 214 13 101 214 13 101 214 13 101 214 13 101 214 13 101 214 13 101 214 13 101 214 13 101 214 13 101 214 13 101 214 13 101 214 13 101 214 13 101 214 13 101 214 13 101 214 13 101 214 13 101 214 13 101 214 13 101 214 13 101 214 13 101 214 13 101 214 13 101 214 13 101 214 13 101 214 13 101 214 13 101 214 13 101 214 13 101 214 13 101 214 13 101 214 13 101 214 13 101 214 13 101 214 13 101 214 13 101 214 13 101 214 13 101 214 13 101 214 13 101 214 13 101 214 13 101 214 13 101 214 13 101 214 13 101 214 13 101 214 13 101 214 13 101 214 13 101 214 13 101 214 13 101 214 13 101 214 13 101 214 13 101 214 13 101 214 13 101 214 13 101 214 13 101 214 13 101 214 13 101 214 13 101 214 13 101 214 13 101 214 13 101 214 13 101 214 13 101 214 13 101 214 13 101 214 13 101 214 13 101 214 13 101 214 13 101 214 13 101 214 13 101 214 13 101 214 13 101 214 13 101 214 13 101 214 13 101 214 13 101 214 13 101 214 13 101 214 13 101 214 13 101 214 13 101 214 13 101 214 13 101 214 13 101 214 13 101 214 13 101 214 13 101 214 13 101 214 13 101 214 13 101 214 13 101 214 13 101 214 13 101 214 13 101 214 13 101 214 13 101 214 13 101 214 13 101 214 13 101 214 13 101 214 13 101 214 13 101 214 13 101 214 13 101 214 13 101 214 13 101 214 13 101 214 13 101 214 13 101 214 13 101 214 13 101 214 13 101 214 13 101 214 13 101 214 13 101 214 13 101 214 13 101 214 13 101 214 13 101 214 13 101 214 13 101 214 13 101 214 13 101 214 13 101 214 13 101 214 13 101 214 13 101 214 13 101 214 13 101 214 13 101 214 13 101 214 13 101 214 13 101 214 13 101 214 13 101 214 13 101 214 13 101 214 13 101 214 13 101 214 13 101 214 13 101 214 13 101 214 13 101 214 13 101 214 13 101 214
13 101 214 13 101 214 13 101 214 13 101 214 13 101 214 13 101 214 13 101 214 13 101 214 13 101 214 13 101 214 13 101 214 13 101 214 13 101 214 13 101 214 13 101 214 13 101 214 13 101 214 13 101 214 13 101 214 13 101 214 13 101 214 13 101 214 13 101 214 13 101 214 13 101 214 13 101 214 13 101 214 13 101 214 13 101 214 13 101 214 13 101 214 13 101 214 13 101 214 13 101 214 13 101 214 13 101 214 13 101 214 13 101 214 13 101 214 13 101 214 13 101 214 13 101 214 13 101 214 13 101 214 13 101 214 13 101 214 13 101 214 13 101 214 13 101 214 13 101 214 13 101 214 13 101 214 13 101 214 13 101 214 13 101 214 13 101 214 13 101 214 13 101 214 13 101 214 13 101 214 13 101 214 13 101 214 13 101 214 13 101 214 13 101 214 13 101 214 13 101 214 13 101 214 13 101 214 13 101 214 13 101 214 13 101 214 13 101 214 13 101 214 13 101 214 13 101 214 13 101 214 13 101 214 13 101 214 13 101 214 13 101 214 13 101 214 13 101 214 13 101 214 13 101 214 13 101 214 13 101 214 13 101 214 13 101 214 13 101 214 13 101 214 13 101 214 13 101 214 13 101 214 13 101 214 13 101 214 13 101 214 13 101 214 13 101 214 13 101 214 13 101 214 13 101 214 13 101 214 13 101 214 13 101 214 13 101 214 13 101 214 13 101 214 13 101 214 13 101 214 13 101 214 13 101 214 13 101 214 13 101 214 13 101 214 13 101 214 13 101 214 13 101 214 13 101 214 13 101 214 13 101 214 13 101 214 13 101 214 13 101 214 13 101 214 13 101 214 13 101 214 13 101 214 13 101 214 13 101 214 13 101 214 13 101 214 13 101 214 13 101 214 13 101 214 13 101 214 13 101 214 13 101 214 13 101 214 13 101 214 13 101 214 13 101 214 13 101 214 13 101 214 13 101 214 13 101 214 13 101 214 13 101 214 13 101 214 13 101 214 13 101 214 13 101 214 13 101 214 13 101 214 13 101 214 13 101 214 13 101 214 13 101 214 13 101 214 13 101 214 13 101 214 13 101 214 13 101 214 13 101 214 13 101 214 13 101 214 13 101 214 13 101 214 13 101 214 13 101 214 13 101 214 13 101 214 13 101 214 13 101 214 13 101 214 13 101 214 13 101 214 13 101 214 13 101 214 13 101 214 13 101 214 13 101 214 13 101 214 13 101 214 13 101 214 13 101 214 13 101 214 13 101 214 13 101 214 13 101 214 13 101 214 13 101 214 13 101 214 13 101 214 13 101 214 13 101 214 13 101 214 13 101 214 13 101 214 13 101 214 13 101 214 13 101 214 13 101 214 13 101 214 13 101 214 13 101 214 13 101 214 13 101 214 13 101 214 13 101 214 13 101 214 13 101 214 13 101 214 13 101 214 13 101 214 13 101 214 13 101 214 13 101 214 13 101 214 13 101 214 13 101 214 13 101 214 13 101 214 13 101 214 13 101 214 13 101 214 13 101 214 13 101 214 13 101 214 13 101 214 13 101 214 13 101 214 13 101 214 13 101 214 13 101 214 13 101 214 13 101 214 13 101 214 13 101 214 13 101 214 13 101 214 13 101 214 13 101 214 13 101 214 13 101 214 13 101 214 13 101 214 13 101 214 13 101 214 13 101 214 13 101 214 13 101 214 13 101 214 13 101 214 13 101 214 13 101 214
13 101 214 13 101 214 13 101 214 13 101 214 13 101 214 13 101 214 13 101 214 13 101 214 13 101 214 13 101 214 13 101 214 13 101 214 13 101 214 13 101 214 13 101 214 13 101 214 13 101 214 13 101 214 13 101 214 13 101 214 13 101 214 13 101 214 13 101 214 13 101 214 13 101 214 13 101 214 13 101 214 13 101 214 13 101 214 13 101 214 13 101 214 13 101 214 13 101 214 13 101 214 13 101 214 13 101 214 13 101 214 13 101 214 13 101 214 13 101 214 13 101 214 13 101 214 13 101 214 13 101 214 13 101 214 13 101 214 13 101 214 13 101 214 13 101 214 13 101 214 13 101 214 13 101 214 13 101 214 13 101 214 13 101 214 13 101 214 13 101 214 13 101 214 13 101 214 13 101 214 13 101 214 13 101 214 13 101 214 13 101 214 13 101 214 13 101 214 13 101 214 13 101 214 13 101 214 13 101 214 13 101 214 13 101 214 13 101 214 13 101 214 13 101 214 13 101 214 13 101 214 13 101 214 13 101 214 13 101 214 13 101 214 13 101 214 13 101 214 13 101 214 13 101 214 13 101 214 13 101 214 13 101 214 13 101 214 13 101 214 13 101 214 13 101 214 13 101 214 13 101 214 13 101 214 13 101 214 13 101 214 13 101 214 13 101 214 13 101 214 13 101 214 13 101 214 13 101 214 13 101 214 13 101 214 13 101 214 13 101 214 13 101 214 13 101 214 13 101 214 13 101 214 13 101 214 13 101 214 13 101 214 13 101 214 13 101 214 13 101 214 13 101 214 13 101 214 13 101 214 13 101 214 13 101 214 13 101 214 13 101 214 13 101 214 13 101 214 13 101 214 13 101 214 13 101 214 13 101 214 13 101 214 13 101 214 13 101 214 13 101 214 13 101 214 13 101 214 13 101 214 13 101 214 13 101 214 13 101 214 13 101 214 13 101 214 13 101 214 13 101 214 13 101 214 13 101 214 13 101 214 13 101 214 13 101 214 13 101 214 13 101 214 13 101 214 13 101 214 13 101 214 13 101 214 13 101 214 13 101 214 13 101 214 13 101 214 13 101 214 13 101 214 13 101 214 13 101 214 13 101 214 13 101 214 13 101 214 13 101 214 13 101 214 13 101 214 13 101 214 13 101 214 13 101 214 13 101 214 13 101 214 13 101 214 13 101 214 13 101 214 13 101 214 13 101 214 13 101 214 13 101 214 13 101 214 13 101 214 13 101 214 13 101 214 13 101 214 13 101 214 13 101 214 13 101 214 13 101 214 13 101 214 13 101 214 13 101 214 13 101 214 13 101 214 13 101 214 13 101 214 13 101 214 13 101 214 13 101 214 13 101 214 13 101 214 13 101 214 13 101 214 13 101 214 13 101 214 13 101 214 13 101 214 13 101 214 13 101 214 13 101 214 13 101 214 13 101 214 13 101 214 13 101 214 13 101 214 13 101 214 13 101 214 13 101 214 13 101 214 13 101 214 13 101 214 13 101 214 13 101 214 13 101 214 13 101 214 13 101 214 13 101 214 13 101 214 13 101 214 13 101 214 13 101 214 13 101 214 13 101 214 13 101 214 13 101 214 13 101 214 13 101 214 13 101 214 13 101 214 13 101 214 13 101 214 13 101 214 13 101 214 13 101 214 13 101 214 13 101 214 13 101 214 13 101 214 13 101 214 13 101 214 13 101 214 13 101 214 13 101 214 13 101 214 13 101 214
13 101 214 13 101 214 13 101 214 13 101 214 13 101 214 13 101 214 13 101 214 13 101 214 13 101 214 13 101 214 13 101 214 13 101 214 13 101 214 13 101 214 13 101 214 13 101 214 13 101 214 13 101 214 13 101 214 13 101 214 13 101 214 13 101 214 13 101 214 13 101 214 13 101 214 13 101 214 13 101 214 13 101 214 13 101 214 13 101 214 13 101 214 13 101 214 13 101 214 13 101 214 13 101 214 13 101 214 13 101 214 13 101 214 13 101 214 13 101 214 13 101 214 13 101 214 13 101 214 13 101 214 13 101 214 13 101 214 13 101 214 13 101 214 13 101 214 13 101 214 13 101 214 13 101 214 13 101 214 13 101 214 13 101 214 13 101 214 13 101 214 13 101 214 13 101 214 13 101 214 13 101 214 13 101 214 13 101 214 13 101 214 13 101 214 13 101 214 13 101 214 13 101 214 13 101 214 13 101 214 13 101 214 13 101 214 13 101 214 13 101 214 13 101 214 13 101 214 13 101 214 13 101 214 13 101 214 13 101 214 13 101 214 13 101 214 13 101 214 13 101 214 13 101 214 13 101 214 13 101 214 13 101 214 13 101 214 13 101 214 13 101 214 13 101 214 13 101 214 13 101 214 13 101 214 13 101 214 13 101 214 13 101 214 13 101 214 13 101 214 13 101 214 13 101 214 13 101 214 13 101 214 13 101 214 13 101 214 13 101 214 13 101 214 13 101 214 13 101 214 13 101 214 13 101 214 13 101 214 13 101 214 13 101 214 13 101 214 13 101 214 13 101 214 13 101 214 13 101 214 13 101 214 13 101 214 13 101 214 13 101 214 13 101 214 13 101 214 13 101 214 13 101 214 13 101 214 13 101 214 13 101 214 13 101 214 13 101 214 13 101 214 13 101 214 13 101 214 13 101 214 13 101 214 13 101 214 13 101 214 13 101 214 13 101 214 13 101 214 13 101 214 13 101 214 13 101 214 13 101 214 13 101 214 13 101 214 13 101 214 13 101 214 13 101 214 13 101 214 13 101 214 13 101 214 13 101 214 13 101 214 13 101 214 13 101 214 13 101 214 13 101 214 13 101 214 13 101 214 13 101 214 13 101 214 13 101 214 13 101 214 13 101 214 13 101 214 13 101 214 13 101 214 13 101 214 13 101 214 13 101 214 13 101 214 13 101 214 13 101 214 13 101 214 13 101 214 13 101 214 13 101 214 13 101 214 13 101 214 13 101 214 13 101 214 13 101 214 13 101 214 13 101 214 13 101 214 13 101 214 13 101 214 13 101 214 13 101 214 13 101 214 13 101 214 13 101 214 13 101 214 13 101 214 13 101 214 13 101 214 13 101 214 13 101 214 13 101 214 13 101 214 13 101 214 13 101 214 13 101 214 13 101 214 13 101 214 13 101 214 13 101 214 13 101 214 13 101 214 13 101 214 13 101 214 13 101 214 13 101 214 13 101 214 13 101 214 13 101 214 13 101 214 13 101 214 13 101 214 13 101 214 13 101 214 13 101 214 13 101 214 13 101 214 13 101 214 13 101 214 13 101 214 13 101 214 13 101 214 13 101 214 13 101 214 13 101 214 13 101 214 13 101 214 13 101 214 13 101 214 13 101 214 13 101 214 13 101 214 13 101 214 13 101 214 13 101 214 13 101 214 13 101 214 13 101 214 13 101 214 13 101 214 13 101 214 13 101 214 13 101 214 13 101 214 13 101 214
13 101 214 13 101 214 13 101 214 13 101 214 13 101 214 13 101 214 13 101 214 13 101 214 13 101 214 13 101 214 13 101 214 13 101 214 13 101 214 13 101 214 13 101 214 13 101 214 13 101 214 13 101 214 13 101 214 13 101 214 13 101 214 13 101 214 13 101 214 13 101 214 13 101 214 13 101 214 13 101 214 13 101 214 13 101 214 13 101 214 13 101 214 13 101 214 13 101 214 13 101 214 13 101 214 13 101 214 13 101 214 13 101 214 13 101 214 13 101 214 13 101 214 13 101 214 13 101 214 13 101 214 13 101 214 13 101 214 13 101 214 13 101 214 13 101 214 13 101 214 13 101 214 13 101 214 13 101 214 13 101 214 13 101 214 13 101 214 13 101 214 13 101 214 13 101 214 13 101 214 13 101 214 13 101 214 13 101 214 13 101 214 13 101 214 13 101 214 13 101 214 13 101 214 13 101 214 13 101 214 13 101 214 13 101 214 13 101 214 13 101 214 13 101 214 13 101 214 13 101 214 13 101 214 13 101 214 13 101 214 13 101 214 13 101 214 13 101 214 13 101 214 13 101 214 13 101 214 13 101 214 13 101 214 13 101 214 13 101 214 13 101 214 13 101 214 13 101 214 13 101 214 13 101 214 13 101 214 13 101 214 13 101 214 13 101 214 13 101 214 13 101 214 13 101 214 13 101 214 13 101 214 13 101 214 13 101 214 13 101 214 13 101 214 13 101 214 13 101 214 13 101 214 13 101 214 13 101 214 13 101 214 13 101 214 13 101 214 13 101 214 13 101 214 13 101 214 13 101 214 13 101 214 13 101 214 13 101 214 13 101 214 13 101 214 13 101 214 13 101 214 13 101 214 13 101 214 13 101 214 13 101 214 13 101 214 13 101 214 13 101 214 13 101 214 13 101 214 13 101 214 13 101 214 13 101 214 13 101 214 13 101 214 13 101 214 13 101 214 13 101 214 13 101 214 13 101 214 13 101 214 13 101 214 13 101 214 13 101 214 13 101 214 13 101 214 13 101 214 13 101 214 13 101 214 13 101 214 13 101 214 13 101 214 13 101 214 13 101 214 13 101 214 13 101 214 13 101 214 13 101 214 13 101 214 13 101 214 13 101 214 13 101 214 13 101 214 13 101 214 13 101 214 13 101 214 13 101 214 13 101 214 13 101 214 13 101 214 13 101 214 13 101 214 13 101 214 13 101 214 13 101 214 13 101 214 13 101 214 13 101 214 13 101 214 13 101 214 13 101 214 13 101 214 13 101 214 13 101 214 13 101 214 13 101 214 13 101 214 13 101 214 13 101 214 13 101 214 13 101 214 13 101 214 13 101 214 13 101 214 13 101 214 13 101 214 13 101 214 13 101 214 13 101 214 13 101 214 13 101 214 13 101 214 13 101 214 13 101 214 13 101 214 13 101 214 13 101 214 13 101 214 13 101 214 13 101 214 13 101 214 13 101 214 13 101 214 13 101 214 13 101 214 13 101 214 13 101 214 13 101 214 13 101 214 13 101 214 13 101 214 13 101 214 13 101 214 13 101 214 13 101 214 13 101 214 13 101 214 13 101 214 13 101 214 13 101 214 13 101 214 13 101 214 13 101 214 13 101 214 13 101 214 13 101 214 13 101 214 13 101 214 13 101 214 13 101 214 13 101 214 13 101 214 13 101 214 13 101 214 13 101 214 13 101 214 13 101 214 13 101 214 13 101 214 13 101 214
13 101 214 13 101 214 13 101 214 13 101 214 13 101 214 13 101 214 13 101 214 13 101 214 13 101 214 13 101 214 13 101 214 13 101 214 13 101 214 13 101 214 13 101 214 13 101 214 13 101 214 13 101 214 13 101 214 13 101 214 13 101 214 13 101 214 13 101 214 13 101 214 13 101 214 13 101 214 13 101 214 13 101 214 13 101 214 13 101 214 13 101 214 13 101 214 13 101 214 13 101 214 13 101 214 13 101 214 13 101 214 13 101 214 13 101 214 13 101 214 13 101 214 13 101 214 13 101 214 13 101 214 13 101 214 13 101 214 13 101 214 13 101 214 13 101 214 13 101 214 13 101 214 13 101 214 13 101 214 13 101 214 13 101 214 13 101 214 13 101 214 13 101 214 13 101 214 13 101 214 13 101 214 13 101 214 13 101 214 13 101 214 13 101 214 13 101 214 13 101 214 13 101 214 13 101 214 13 101 214 13 101 214 13 101 214 13 101 214 13 101 214 13 101 214 13 101 214 13 101 214 13 101 214 13 101 214 13 101 214 13 101 214 13 101 214 13 101 214 13 101 214 13 101 214 13 101 214 13 101 214 13 101 214 13 101 214 13 101 214 13 101 214 13 101 214 13 101 214 13 101 214 13 101 214 13 101 214 13 101 214 13 101 214 13 101 214 13 101 214 13 101 214 13 101 214 13 101 214 13 101 214 13 101 214 13 101 214 13 101 214 13 101 214 13 101 214 13 101 214 13 101 214 13 101 214 13 101 214 13 101 214 13 101 214 13 101 214 13 101 214 13 101 214 13 101 214 13 101 214 13 101 214 13 101 214 13 101 214 13 101 214 13 101 214 13 101 214 13 101 214 13 101 214 13 101 214 13 101 214 13 101 214 13 101 214 13 101 214 13 101 214 13 101 214 13 101 214 13 101 214 13 101 214 13 101 214 13 101 214 13 101 214 13 101 214 13 101 214 13 101 214 13 101 214 13 101 214 13 101 214 13 101 214 13 101 214 13 101 214 13 101 214 13 101 214 13 101 214 13 101 214 13 101 214 13 101 214 13 101 214 13 101 214 13 101 214 13 101 214 13 101 214 13 101 214 13 101 214 13 101 214 13 101 214 13 101 214 13 101 214 13 101 214 13 101 214 13 101 214 13 101 214 13 101 214 13 101 214 13 101 214 13 101 214 13 101 214 13 101 214 13 101 214 13 101 214 13 101 214 13 101 214 13 101 214 13 101 214 13 101 214 13 101 214 13 101 214 13 101 214 13 101 214 13 101 214 13 101 214 13 101 214 13 101 214 13 101 214 13 101 214 13 101 214 13 101 214 13 101 214 13 101 214 13 101 214 13 101 214 13 101 214 13 101 214 13 101 214 13 101 214 13 101 214 13 101 214 13 101 214 13 101 214 13 101 214 13 101 214 13 101 214 13 101 214 13 101 214 13 101 214 13 101 214 13 101 214 13 101 214 13 101 214 13 101 214 13 101 214 13 101 214 13 101 214 13 101 214 13 101 214 13 101 214 13 101 214 13 101 214 13 101 214 13 101 214 13 101 214 13 101 214 13 101 214 13 101 214 13 101 214 13 101 214 13 101 214 13 101 214 13 101 214 13 101 214 13 101 214 13 101 214 13 101 214 13 101 214 13 101 214 13 101 214 13 101 214 13 101 214 13 101 214 13 101 214 13 101 214 13 101 214 13 101 214 13 101 214 13 101 214 13 101 214 13 101 214
