P3
32 16
255
0 0 255 1 3 254 2 6 253 3 9 252 4 12 251 5 15 250 6 18 249 7 21 248 8 24 247 9 27 246 10 30 245 11 33 244 12 36 243 13 39 242 14 42 241 15 45 240 16 48 239 17 51 238 18 54 237 19 57 236 20 60 235 21 63 234 22 66 233 23 69 232 24 72 231 25 75 230 26 78 229 27 81 228 28 84 227 29 87 226 30 90 225 31 93 224
1 3 254 0 0 255 3 9 252 2 6 253 5 15 250 4 12 251 7 21 248 6 18 249 9 27 246 8 24 247 11 33 244 10 30 245 13 39 242 12 36 243 15 45 240 14 42 241 17 51 238 16 48 239 19 57 236 18 54 237 21 63 234 20 60 235 23 69 232 22 66 233 25 75 230 24 72 231 27 81 228 26 78 229 29 87 226 28 84 227 31 93 224 30 90 225
2 6 253 3 9 252 0 0 255 1 3 254 6 18 249 7 21 248 4 12 251 5 15 250 10 30 245 11 33 244 8 24 247 9 27 246 14 42 241 15 45 240 12 36 243 13 39 242 18 54 237 19 57 236 16 48 239 17 51 238 22 66 233 23 69 232 20 60 235 21 63 234 26 78 229 27 81 228 24 72 231 25 75 230 30 90 225 31 93 224 28 84 227 29 87 226
3 9 252 2 6 253 1 3 254 0 0 255 7 21 248 6 18 249 5 15 250 4 12 251 11 33 244 10 30 245 9 27 246 8 24 247 15 45 240 14 42 241 13 39 242 12 36 243 19 57 236 18 54 237 17 51 238 16 48 239 23 69 232 22 66 233 21 63 234 20 60 235 27 81 228 26 78 229 25 75 230 24 72 231 31 93 224 30 90 225 29 87 226 28 84 227
4 12 251 5 15 250 6 18 249 7 21 248 0 0 255 1 3 254 2 6 253 3 9 252 12 36 243 13 39 242 14 42 241 15 45 240 8 24 247 9 27 246 10 30 245 11 33 244 20 60 235 21 63 234 22 66 233 23 69 232 16 48 239 17 51 238 18 54 237 19 57 236 28 84 227 29 87 226 30 90 225 31 93 224 24 72 231 25 75 230 26 78 229 27 81 228
5 15 250 4 12 251 7 21 248 6 18 249 1 3 254 0 0 255 3 9 252 2 6 253 13 39 242 12 36 243 15 45 240 14 42 241 9 27 246 8 24 247 11 33 244 10 30 245 21 63 234 20 60 235 23 69 232 22 66 233 17 51 238 16 48 239 19 57 236 18 54 237 29 87 226 28 84 227 31 93 224 30 90 225 25 75 230 24 72 231 27 81 228 26 78 229
6 18 249 7 21 248 4 12 251 5 15 250 2 6 253 3 9 252 0 0 255 1 3 254 14 42 241 15 45 240 12 36 243 13 39 242 10 30 245 11 33 244 8 24 247 9 27 246 22 66 233 23 69 232 20 60 235 21 63 234 18 54 237 19 57 236 16 48 239 17 51 238 30 90 225 31 93 224 28 84 227 29 87 226 26 78 229 27 81 228 24 72 231 25 75 230
7 21 248 6 18 249 5 15 250 4 12 251 3 9 252 2 6 253 1 3 254 0 0 255 15 45 240 14 42 241 13 39 242 12 36 243 11 33 244 10 30 245 9 27 246 8 24 247 23 69 232 22 66 233 21 63 234 20 60 235 19 57 236 18 54 237 17 51 238 16 48 239 31 93 224 30 90 225 29 87 226 28 84 227 27 81 228 26 78 229 25 75 230 24 72 231
8 24 247 9 27 246 10 30 245 11 33 244 12 36 243 13 39 242 14 42 241 15 45 240 0 0 255 1 3 254 2 6 253 3 9 252 4 12 251 5 15 250 6 18 249 7 21 248 24 72 231 25 75 230 26 78 229 27 81 228 28 84 227 29 87 226 30 90 225 31 93 224 16 48 239 17 51 238 18 54 237 19 57 236 20 60 235 21 63 234 22 66 233 23 69 232
9 27 246 8 24 247 11 33 244 10 30 245 13 39 242 12 36 243 15 45 240 14 42 241 1 3 254 0 0 255 3 9 252 2 6 253 5 15 250 4 12 251 7 21 248 6 18 249 25 75 230 24 72 231 27 81 228 26 78 229 29 87 226 28 84 227 31 93 224 30 90 225 17 51 238 16 48 239 19 57 236 18 54 237 21 63 234 20 60 235 23 69 232 22 66 233
10 30 245 11 33 244 8 24 247 9 27 246 14 42 241 15 45 240 12 36 243 13 39 242 2 6 253 3 9 252 0 0 255 1 3 254 6 18 249 7 21 248 4 12 251 5 15 250 26 78 229 27 81 228 24 72 231 25 75 230 30 90 225 31 93 224 28 84 227 29 87 226 18 54 237 19 57 236 16 48 239 17 51 238 22 66 233 23 69 232 20 60 235 21 63 234
11 33 244 10 30 245 9 27 246 8 24 247 15 45 240 14 42 241 13 39 242 12 36 243 3 9 252 2 6 253 1 3 254 0 0 255 7 21 248 6 18 249 5 15 250 4 12 251 27 81 228 26 78 229 25 75 230 24 72 231 31 93 224 30 90 225 29 87 226 28 84 227 19 57 236 18 54 237 17 51 238 16 48 239 23 69 232 22 66 233 21 63 234 20 60 235
12 36 243 13 39 242 14 42 241 15 45 240 8 24 247 9 27 246 10 30 245 11 33 244 4 12 251 5 15 250 6 18 249 7 21 248 0 0 255 1 3 254 2 6 253 3 9 252 28 84 227 29 87 226 30 90 225 31 93 224 24 72 231 25 75 230 26 78 229 27 81 228 20 60 235 21 63 234 22 66 233 23 69 232 16 48 239 17 51 238 18 54 237 19 57 236
13 39 242 12 36 243 15 45 240 14 42 241 9 27 246 8 24 247 11 33 244 10 30 245 5 15 250 4 12 251 7 21 248 6 18 249 1 3 254 0 0 255 3 9 252 2 6 253 29 87 226 28 84 227 31 93 224 30 90 225 25 75 230 24 72 231 27 81 228 26 78 229 21 63 234 20 60 235 23 69 232 22 66 233 17 51 238 16 48 239 19 57 236 18 54 237
14 42 241 15 45 240 12 36 243 13 39 242 10 30 245 11 33 244 8 24 247 9 27 246 6 18 249 7 21 248 4 12 251 5 15 250 2 6 253 3 9 252 0 0 255 1 3 254 30 90 225 31 93 224 28 84 227 29 87 226 26 78 229 27 81 228 24 72 231 25 75 230 22 66 233 23 69 232 20 60 235 21 63 234 18 54 237 19 57 236 16 48 239 17 51 238
15 45 240 14 42 241 13 39 242 12 36 243 11 33 244 10 30 245 9 27 246 8 24 247 7 21 248 6 18 249 5 15 250 4 12 251 3 9 252 2 6 253 1 3 254 0 0 255 31 93 224 30 90 225 29 87 226 28 84 227 27 81 228 26 78 229 25 75 230 24 72 231 23 69 232 22 66 233 21 63 234 20 60 235 19 57 236 18 54 237 17 51 238 16 48 239
