P3
32 32
255
128 152 41 176 129 252 18 207 59 194 6 112 47 14 144 19 28 24 50 65 96 164 132 71 9 92 67 215 241 96 41 238 57 79 214 9 255 111 200 64 187 223 217 230 231 200 250 199 20 99 35 118 27 221 59 211 202 162 31 163 246 242 213 126 33 107 203 168 7 195 231 98 186 111 38 229 213 90 59 115 199 200 252 162 176 91 26 58 78 192 42 157 144 31 175 227
187 27 16 17 86 207 91 115 87 99 182 132 172 220 232 225 210 121 113 38 68 186 14 27 159 117 200 188 171 155 255 252 192 249 32 131 86 88 122 113 100 104 35 174 7 164 62 12 76 19 171 10 199 204 187 9 248 237 180 21 86 112 7 191 42 248 96 183 128 141 182 168 108 30 116 18 178 109 88 205 151 225 61 18 226 93 249 26 151 138 25 3 16 44 27 9
132 70 221 244 147 64 50 130 20 89 205 188 231 112 57 99 57 175 110 90 158 39 66 118 109 193 233 75 227 188 216 253 138 38 134 89 179 17 131 248 142 177 79 198 210 148 59 241 134 149 79 169 242 233 169 200 27 250 104 47 50 226 214 90 234 109 146 44 185 105 129 105 4 117 48 25 4 163 179 140 93 153 9 169 245 231 157 212 95 237 173 195 7 42 151 17
63 21 218 67 137 184 158 108 37 166 92 5 110 110 38 21 223 51 9 21 111 153 192 131 219 172 197 247 80 93 30 230 222 68 162 75 135 238 80 200 255 206 235 196 103 225 83 58 152 243 233 159 72 137 218 249 193 203 198 97 206 121 215 170 177 235 167 52 194 99 171 2 48 46 19 31 35 199 98 65 125 125 113 157 67 27 190 66 77 102 78 198 104 166 186 17
168 232 214 164 216 48 183 245 121 225 193 135 118 240 110 122 189 80 189 10 254 26 84 229 113 225 238 247 9 183 124 82 148 136 120 204 163 78 15 32 139 98 246 74 90 23 110 121 231 85 223 250 1 67 44 29 117 233 20 154 12 131 107 124 180 166 25 149 159 152 152 235 94 185 129 191 143 15 81 133 31 37 208 207 31 237 210 157 123 251 14 168 225 116 25 40
10 226 202 32 9 66 50 11 14 179 152 86 16 233 93 28 167 227 150 237 145 93 57 153 182 104 128 57 200 175 82 24 152 86 70 95 231 17 65 96 58 151 156 110 77 211 210 140 123 216 124 112 249 191 126 99 216 155 233 156 113 46 231 41 21 107 109 241 243 47 23 70 157 9 158 61 211 55 166 237 212 182 26 31 171 44 13 173 31 109 141 50 178 253 252 126
173 130 13 227 112 72 65 3 119 219 83 165 148 239 14 254 226 47 49 73 121 120 228 171 31 230 225 208 221 212 33 81 118 190 130 220 38 192 23 225 240 41 181 216 11 147 40 66 232 196 62 235 174 171 68 139 17 222 146 64 148 136 213 162 140 109 74 193 253 155 151 56 148 234 229 117 125 62 120 250 135 55 141 215 45 129 137 191 103 93 126 186 237 216 204 142
134 66 197 198 150 114 59 46 235 56 250 167 223 166 201 13 202 248 107 45 255 112 239 81 85 226 134 139 149 226 208 192 234 80 19 252 88 229 242 68 21 170 248 239 91 91 32 138 28 111 13 11 12 191 90 186 209 77 49 42 1 51 162 27 28 250 184 33 212 176 111 175 206 209 217 185 179 217 132 23 26 97 90 209 49 190 18 247 94 174 168 54 206 101 7 125
242 143 127 129 150 181 146 38 87 80 56 215 43 116 166 87 204 225 152 187 21 169 213 105 170 14 208 138 164 105 24 194 188 6 33 151 96 5 81 190 183 234 35 130 2 34 168 156 190 34 44 76 117 70 30 27 18 72 165 144 22 64 205 38 156 201 90 176 29 116 0 24 38 23 146 223 107 152 193 147 110 253 227 162 24 37 140 224 127 220 216 194 228 140 13 111
110 116 250 40 135 88 45 41 105 161 40 118 185 220 219 142 143 142 99 2 71 254 206 207 128 88 38 63 107 215 224 189 4 101 249 185 2 194 166 225 192 65 231 253 131 151 36 71 103 188 99 25 226 245 166 49 223 84 200 102 63 167 59 225 105 115 209 204 97 223 85 168 234 173 59 52 216 9 153 79 9 12 26 142 148 133 10 190 127 143 170 187 45 153 171 208
230 56 177 157 218 54 111 157 154 99 34 48 65 44 25 176 168 123 250 90 111 8 17 96 12 148 166 200 136 245 231 137 243 201 225 141 163 75 47 134 85 186 86 1 233 168 25 217 89 74 208 194 57 225 7 215 53 42 10 9 11 140 42 213 208 104 232 190 205 247 210 2 13 196 213 51 120 54 226 191 161 77 68 245 180 157 56 194 120 93 49 94 19 60 170 173
74 202 177 83 143 143 154 193 242 134 29 38 222 94 139 215 246 19 60 78 69 212 102 120 55 47 108 224 210 92 134 128 100 196 15 255 185 66 237 31 131 136 73 94 110 254 167 98 124 37 216 114 131 148 179 164 19 164 217 184 137 71 200 199 23 186 221 226 245 3 155 55 226 192 209 151 153 92 72 35 36 7 59 100 229 30 189 169 212 149 161 105 53 51 123 0
231 7 20 178 102 211 169 45 148 233 210 0 201 56 113 7 37 104 157 158 173 251 184 42 3 151 1 91 187 240 106 46 56 132 80 203 172 147 62 99 19 60 206 23 16 233 254 102 118 108 148 150 70 170 207 223 3 10 33 123 220 140 150 130 13 114 111 164 2 14 49 185 215 62 154 16 228 190 168 26 79 209 121 148 185 90 182 57 54 116 189 143 243 25 244 179
131 107 135 143 119 143 132 13 253 42 126 154 23 170 145 124 161 0 45 173 157 62 112 153 81 194 19 206 146 55 38 154 158 248 18 69 187 236 222 5 59 112 54 211 146 171 117 82 48 175 141 127 62 13 241 162 109 23 186 19 210 216 36 38 149 49 253 14 151 194 6 178 108 164 144 85 75 244 244 190 29 2 239 200 57 85 98 251 229 147 42 181 116 52 184 53
158 171 226 201 99 195 59 211 191 190 107 132 18 40 50 133 175 225 176 112 172 62 155 95 227 114 191 37 93 21 84 31 182 112 4 84 112 24 74 188 182 228 27 111 224 41 97 60 145 132 174 22 62 131 21 95 115 6 122 56 112 196 2 16 250 74 37 153 219 97 38 205 250 106 84 188 46 37 63 196 202 179 147 255 56 63 206 187 251 131 224 238 117 84 168 76
44 39 127 164 160 48 105 44 144 233 214 107 197 176 54 163 3 133 220 162 147 194 4 127 239 118 32 201 46 244 161 45 218 71 75 30 142 225 151 175 197 134 239 104 46 118 186 253 77 72 253 214 123 200 73 191 74 224 66 98 102 191 111 189 136 56 102 146 89 178 71 243 143 13 120 150 68 163 243 51 248 213 57 47 243 225 199 144 60 118 187 92 137 32 202 250
49 136 162 85 2 183 80 42 204 211 180 6 106 182 67 179 112 110 49 6 93 167 247 149 253 24 234 212 117 126 35 150 236 247 231 69 197 138 154 178 80 207 160 132 250 95 251 237 108 71 121 76 50 74 87 200 244 90 208 240 146 239 94 14 169 69 97 66 34 98 76 218 45 253 253 109 153 19 189 57 242 63 107 223 68 114 125 96 92 245 136 215 63 31 52 118
164 87 164 47 211 167 28 123 48 8 122 205 148 251 103 111 73 188 75 117 191 98 246 239 4 217 163 123 99 169 189 180 69 190 43 34 89 102 148 161 3 77 162 20 125 114 194 12 230 58 90 186 38 221 102 231 241 19 24 127 162 203 205 232 128 114 213 111 23 11 188 199 56 13 193 186 99 170 204 1 69 167 248 195 40 235 169 14 181 52 174 40 173 66 168 57
59 183 55 156 107 29 160 33 187 144 166 34 56 30 26 102 30 30 90 192 83 6 49 236 151 54 46 168 216 243 216 120 35 178 228 244 212 90 110 3 157 59 167 17 151 5 98 72 107 35 155 14 105 146 106 11 157 105 61 72 85 37 74 9 219 36 255 66 134 147 149 70 162 0 58 63 182 135 142 70 219 76 0 232 13 33 129 201 119 66 226 63 137 195 142 249
79 127 158 69 143 109 7 95 181 236 103 194 222 135 203 109 105 38 34 115 216 30 68 216 204 128 214 198 69 194 164 68 43 214 187 16 72 163 8 40 44 119 209 124 227 20 100 218 183 230 154 8 106 118 231 11 83 10 10 16 81 159 164 158 249 72 12 232 106 195 222 143 184 149 165 35 20 62 142 88 195 184 76 136 177 66 176 80 160 143 61 105 218 119 152 197
6 126 235 88 69 236 31 22 126 122 91 230 142 229 157 60 209 55 150 5 159 194 129 187 247 30 238 169 202 188 94 140 147 4 161 246 215 213 195 32 142 46 103 143 175 163 211 225 198 152 211 239 148 255 184 100 169 197 96 13 153 46 239 211 235 9 54 107 119 143 167 201 127 179 153 66 141 88 218 159 56 21 23 187 164 80 150 126 57 73 54 251 20 216 195 250
81 244 171 65 68 110 28 37 130 252 119 167 86 206 163 185 217 134 182 50 164 223 241 48 215 123 185 144 48 105 152 86 146 71 196 118 114 225 6 79 88 87 213 248 84 243 112 242 127 113 200 155 139 167 164 247 248 63 121 89 188 25 218 46 168 97 53 29 160 24 164 5 177 28 184 38 116 114 82 184 195 94 174 57 126 99 1 107 233 89 63 64 248 59 190 22
70 249 193 217 85 130 10 175 246 75 172 143 32 9 140 139 80 242 252 133 151 38 3 251 60 126 97 29 60 130 55 58 97 29 50 220 27 24 107 103 185 91 10 185 42 72 228 138 168 182 82 17 166 217 172 202 85 174 52 181 176 176 128 140 16 82 37 139 97 6 231 156 197 243 235 20 237 197 228 57 197 48 83 117 97 170 207 216 64 14 21 124 73 187 186 109
84 51 112 42 4 238 21 36 1 70 25 242 21 56 8 170 111 252 151 217 56 180 81 55 65 12 69 171 73 219 249 24 97 0 89 118 143 44 171 220 111 119 105 105 178 49 205 117 124 50 166 166 166 14 209 191 85 108 161 139 75 242 99 74 87 33 241 15 238 223 118 201 167 95 51 131 37 213 167 28 187 119 112 206 58 18 33 91 137 190 144 117 98 66 98 250
191 6 77 13 242 232 66 203 62 135 73 201 48 42 76 127 191 147 140 51 31 168 251 86 134 249 52 66 20 73 68 223 19 50 42 42 153 36 123 139 126 249 136 84 67 36 40 194 109 119 186 193 115 51 13 193 213 120 246 132 142 22 152 4 119 25 115 52 231 42 82 32 212 120 185 224 78 120 221 168 213 70 44 225 115 234 95 41 91 58 222 222 13 3 104 65
154 191 33 61 124 221 86 242 232 107 132 115 167 26 104 143 57 72 40 252 27 207 47 192 25 156 162 197 112 211 215 142 190 113 244 6 65 136 113 141 152 63 177 16 247 86 26 24 253 52 196 118 130 79 250 87 199 167 194 232 43 100 77 72 96 92 232 137 41 198 6 100 243 163 112 127 226 72 96 204 5 83 0 27 166 250 54 95 179 189 34 168 22 103 162 115
88 90 117 210 122 201 186 101 177 52 99 97 170 149 233 23 146 127 142 198 196 26 234 112 50 241 231 246 10 115 19 50 247 9 42 52 11 25 205 47 73 238 248 133 7 192 18 24 151 223 129 73 251 201 78 91 219 129 248 202 40 85 234 193 163 40 221 147 228 225 196 70 84 254 115 162 71 28 246 79 54 26 68 204 136 83 134 164 46 82 94 101 142 159 34 50
175 87 67 234 237 8 159 229 103 148 116 136 209 52 43 133 41 186 111 40 59 27 150 114 211 113 38 178 197 77 205 142 11 45 19 203 129 57 129 42 6 75 23 81 79 147 12 157 130 25 112 219 108 43 244 92 2 1 249 231 26 1 174 229 113 54 227 70 106 7 58 43 39 16 200 251 229 25 206 129 160 171 5 36 219 232 29 153 128 76 183 51 246 211 139 8
255 91 41 47 7 254 26 93 100 130 220 228 159 251 141 187 123 183 127 167 175 66 4 210 106 78 240 38 100 98 43 80 3 9 185 112 221 155 112 204 197 43 132 157 109 217 190 247 245 230 93 21 18 23 92 219 31 10 230 225 136 234 29 30 11 246 184 205 138 247 94 189 45 59 85 129 118 175 213 81 15 156 149 247 128 212 8 253 62 98 242 106 108 124 64 124
118 167 238 251 244 211 87 31 20 206 252 170 157 194 165 185 12 209 121 162 161 220 176 82 3 5 124 42 155 131 64 255 101 4 198 225 249 5 211 250 222 246 111 109 58 102 248 167 246 32 136 41 127 78 60 33 26 63 58 3 68 31 214 175 24 38 76 143 130 216 208 23 96 169 3 135 195 104 132 7 24 143 39 184 147 103 173 210 161 243 231 227 153 94 178 53
125 253 83 20 253 235 7 97 132 90 67 187 226 128 52 249 188 58 250 47 219 45 59 86 220 125 177 219 8 193 230 75 115 37 174 209 229 173 15 235 177 117 113 138 133 2 90 28 210 120 210 181 59 254 115 194 171 63 121 80 120 221 241 252 138 117 158 120 193 85 187 230 174 203 86 210 107 181 211 166 107 103 146 117 200 73 102 80 212 170 152 91 215 62 27 65
225 180 132 126 213 179 186 209 130 36 8 212 75 2 60 225 219 49 208 85 29 231 130 134 217 163 123 44 239 15 141 62 20 141 70 182 155 216 233 28 247 78 115 211 217 100 81 22 189 96 195 25 160 117 21 184 212 99 104 61 162 230 140 107 179 70 88 36 33 170 197 231 40 176 18 89 50 25 91 189 174 51 74 115 81 113 246 48 57 21 179 191 74 132 32 157
