P3
13 7
255
6 12 249 5 10 250 5 10 250 4 8 251 3 6 252 3 6 252 3 6 252 3 6 252 3 6 252 4 8 251 5 10 250 5 10 250 6 12 249
6 12 249 5 10 250 4 8 251 3 6 252 2 4 253 2 4 253 2 4 253 2 4 253 2 4 253 3 6 252 4 8 251 5 10 250 6 12 249
6 12 249 5 10 250 4 8 251 3 6 252 2 4 253 1 2 254 1 2 254 1 2 254 2 4 253 3 6 252 4 8 251 5 10 250 6 12 249
6 12 249 5 10 250 4 8 251 3 6 252 2 4 253 1 2 254 0 0 255 1 2 254 2 4 253 3 6 252 4 8 251 5 10 250 6 12 249
6 12 249 5 10 250 4 8 251 3 6 252 2 4 253 1 2 254 1 2 254 1 2 254 2 4 253 3 6 252 4 8 251 5 10 250 6 12 249
6 12 249 5 10 250 4 8 251 3 6 252 2 4 253 2 4 253 2 4 253 2 4 253 2 4 253 3 6 252 4 8 251 5 10 250 6 12 249
6 12 249 5 10 250 5 10 250 4 8 251 3 6 252 3 6 252 3 6 252 3 6 252 3 6 252 4 8 251 5 10 250 5 10 250 6 12 249
